/* XPM */
static char *result[] = {
/* columns rows colors chars-per-pixel */
"256 256 121 2 ",
"   c #5A4A2C",
".  c #644D2F",
"X  c #644E31",
"o  c #684F31",
"O  c #665232",
"+  c #6B5535",
"@  c #675834",
"#  c #6C5A36",
"$  c #6E5738",
"%  c #6E5C39",
"&  c #705736",
"*  c #715836",
"=  c #705738",
"-  c #725B3A",
";  c #795E3C",
":  c #6F603A",
">  c #72623C",
",  c #7C633E",
"<  c #82693F",
"1  c #856C41",
"2  c #8C6E43",
"3  c #906F44",
"4  c #8D7145",
"5  c #927246",
"6  c #957549",
"7  c #987649",
"8  c #967A4B",
"9  c #9C7C4D",
"0  c #9C7E50",
"q  c #A27E4E",
"w  c #A27F50",
"e  c #9E814E",
"r  c #9E8251",
"t  c #9F8851",
"y  c #A4834E",
"u  c #AA834F",
"i  c #A3894F",
"p  c #A58551",
"a  c #AB8653",
"s  c #A68953",
"d  c #AC8A55",
"f  c #A78A58",
"g  c #AD8D59",
"h  c #B08752",
"j  c #B38B55",
"k  c #B88E57",
"l  c #B48D59",
"z  c #B88F59",
"x  c #A79057",
"c  c #AC9356",
"v  c #AE935A",
"b  c #B29357",
"n  c #BA9057",
"m  c #B39857",
"M  c #B4925B",
"N  c #BB925C",
"B  c #B59A5C",
"V  c #BA9D5E",
"C  c #BCA05F",
"Z  c #B69660",
"A  c #BD9660",
"S  c #B69D60",
"D  c #BA9D61",
"F  c #BDA263",
"G  c #BFA668",
"H  c #C1965E",
"J  c #C3995E",
"K  c #C89B5F",
"L  c #C1A35F",
"P  c #C09761",
"I  c #C39A62",
"U  c #C99E64",
"Y  c #CA9F68",
"T  c #C2A565",
"R  c #CCA265",
"E  c #C4A966",
"W  c #CBAA66",
"Q  c #C2A668",
"!  c #CDA368",
"~  c #C5A969",
"^  c #CBAC6A",
"/  c #D2A466",
"(  c #D4A966",
")  c #DBAA67",
"_  c #D3A669",
"`  c #D5AA6B",
"'  c #DBAC6C",
"]  c #CDB16D",
"[  c #D1B066",
"{  c #D4B46B",
"}  c #DBB26D",
"|  c #D7B86E",
" . c #DBBA6D",
".. c #DEAF70",
"X. c #D3B671",
"o. c #DDB471",
"O. c #DDBD72",
"+. c #E1AE6B",
"@. c #E4B16D",
"#. c #E9B36F",
"$. c #E2BD6F",
"%. c #EEB86F",
"&. c #E4B372",
"*. c #E9B673",
"=. c #E2BB73",
"-. c #ECBA76",
";. c #E5BD79",
":. c #EEBC79",
">. c #F1BA72",
",. c #F1BE7A",
"<. c #E4C275",
"1. c #E9C576",
"2. c #E5C579",
"3. c #EAC379",
"4. c #ECCA7B",
"5. c #F5C27C",
"6. c #FAC57E",
"7. c #F0CE7E",
"8. c #EFCE80",
"9. c #FDC781",
"0. c #F4D283",
/* pixels */
"4 R ) #...&.&.&.' ' ( ( $.O.o.3.' +.) #.#.#.&.&.&.*...#.#.#.,.-.Y _ ' _ #.#.*.&.-.#.' +.+.) ' &.&.' *.#.&.+.*.,.9.9.*.' _ ( ' ( X.! ^ ^ ' W ( ` { o.o.o.{ $.' ( K ` &.o.-.' :.' &.+.' -...' ) ( ) ' ,.' } _ ' ) ) ' @.&.&.*.*.' +.) ) ' } *.+.' ) / ) ) .._ &.-.&.' +.' :.5.:.' $.( ) ( @.*.;._ ' ` ' ) ` } o.o.( ' ( ( ) } $.' ` ! W ` ' 6.,...3.O.O.O.<.<.O.2.4.O.=.( ( ' ' &.:.....' ..&.O.o.2.=.O.{ | <.1.O.4.2.2.O.O.1.1. .O.2.8.<.O.2.O.4.7.4.<.O. .( ( ' ' ' :.;.o.X.o.( W ! } o.3.;.o.' ` ( L ' ` ' o...' +.) #.} *.` _ ",
"5 2 l l z Z Z Z l l d a a M Z Z h j w H k z z z N A j z z z P N w h z w j H I z I z z l k h k z H l N g h z H H ! I Y H p q d p f r p p s p x a g M Z M d M l u d d l d l p h a j a h l l d h u a l l l j j j a a a d l M M l d h b k h N M j h a u a j Z l f l j a j a N A I M n u u u j M P p g d j M l g M l g g j h c b B v s p s p d N z d z M m m B S S S S B B c a l k N P l j l f g M F G Z M c c B V M D F V C C m B m S B S B B m m F G F F F c c c a k z Z v Z f v p s d M g v l l M j d l j g l g d j h a N N Z ! R ",
"2 5 l n Z P A Z d M j a d g Z Z h j j k j H l l N z j j z H Y N a g l l l l P z I H z l k j k z P z H z h h l U _ Y ! U M y s e s 0 r r p y p p l g M M b a b j a s l M j a a p h p l P l l a l a j a z N a l h u u k j g j l l u k l j l l d a j h l h l z l l j d j d M A A l V h u h l N T a M j d d M M l Z g y y s a d M g p r p e a l A a l N B b c B B F v B v g l l N N P A P l M Z Z F F F F B B c F c F F S F B c C m v F F B m B m v F S B B m t x B d d M M Z g d p s d f l A l Z f j u b j l M l j z j l N M N R U ",
"2 5 b j l A A Z l M d b g Z Z M h j j j j z z h N z z h z H P N w l N z j l N z I z z l j z j H l j P j z h z P Y Y U U V d c e s r r r s p s y f Z M M a b j u a s d f a q q q p d l Z l g j a a l a g l j h h j s h M l j l l n h l a M N d p a u j j g l l l l a h l l A I l n h h j d M A p d b d a p g M Z M g s s a d M g p t s y p z l l l N l b B B S S S B B p g a l I P A z l l M B M F S B B B m V x F Z F B C m B m x v F v B m C C G S F B C c i c a p M Z Z g f 9 p d M g Z g g l u a M a l l l d h l k M M A _ U ",
"1 2 j N l l Z l l N d d g Z M Z j j l z k P z l H N h H h H I N w h j j j z H l I H P z l z z N P l l j j j w H A T ! I V N b d p 0 r r p i y y t f l f l d b u d g f p d l a u a a d M n b u h u d N q j d b u h a j M Z z j a b n n M M N N a u j j b z M N d j h j h M A Y N l u s s p Z A p d M j a d d g M M b d a d s b g r p d e w z P z l N z l I Z F F M M l f l g l N Y P l l N l Z A Z S F B N B V g B x B V C m B m S v S B C c F m G B F F c m x c M 9 p f v v g e y s M g M M M d a y j l M Z M l a u j z l Z ' U ",
"2 1 j N l M l M d N b d M g Z D j l j H z N P l N N j z j z P N w w j w j h H h A N z z j z z P I N j l z w l H A A I Z N V J M f 0 0 8 8 e y 9 p p g f p d d d d l l a d l y u u j p d d d h h j a M l l l l a h j l l A l l d h j n l N l M j u s h n l l M N j j b a M M I M N N h u d g A r d M b j M c Z f M a i i x d M d 0 p s d z w j w P z j l l S S S S g g f N l g A A A P a g A N l D D V M V b b M V g B B m C C B B v B v m m B m B S B F v v m c Z a a w M M d 9 p p M f f g d l d y M N N M N l a q j l l Z ' / ",
"3 2 a N l M Z l p d j b g M Z M l k h k z A A A z P z H j j H z w z z h j z P l I z l z h z z H I P l j z j z z A g M M B b V c M p t e 8 4 y 5 0 p p p p s j d d M M d a h u u d b l j d h s y h h j l N l j y j a l M l l j j j u l d N N M N u h j l N M M l N l N l M Z Z M n b j a l l M p s d b a j d M M d p y y j d D v 0 p z h H j H w l l z a d B v M M N w l l z g H P Y P N g P N P M B A x M N M j z N b c m C m C v S B m v B B V B F S B C v x m V M M 9 j l s 9 p p f Z l M l p s u a d Z Z l l a y d l l l _ U ",
"6 6 j k l M l l d d a g M v Z Z a z k k l z l A N h l z k H H z w w z h w w A l P H z H j z z P P P P l z z h z Z p g g M N M d s s g M N d d d f f 0 9 9 8 a a p l N l b s h y j j M M d j k y a b l M M l j y j a j l d M M j j h N l l M j M u j d b l l M N j l l d l A A l M j b a d M M p d d j M d c v M M s y i a M B v w a z w k z H z I a j N j N D p d M P w w l N N P P P P N P P P A Z J d l b N y l j a b m m C B S v S m B B B B F S F C m B c c S m B d a M y 9 p p a g f l d a u h d d l z l l a u a d l l _ / ",
"5 5 l N g M N N d p d i a v M D a l j j h N l A H z H k z z U N w w h j h j H j N j N z z z l P A P J l n h l l g f d g d M V d g f g f A A R B R Q I N d j h i 9 s M g g a d u h d b j d a j s a d l M M j j 9 j y j N M M N j j h b g j M M j a a j l Z l N l j b l l M M I g N j b d M d M p l d d d M v g g M d i a i d B M w H k q H H H z P l l I N N l N l l I l N l l z A N N I w N P w l l R l d l I a l l J z M c B C v G F x m m m B C S S B B C V c F c B v x j a 3 a u a g d a p y u a g a l M N N k u u l l M _ ) ",
"5 5 N N l N g A M d d u d g M Z a N l k a l l N z j k j H H P N w h h h j j H H P z j j h z l N A A H l N j j c g g v v g M N j g f g p M g N M T I Q U J J L j 9 9 g d j j d s d j M b d a a a u d g l b l b u d u M N N M j b h n j j M M d N y 9 p a l l M Z b j l b N Z I M M a d a d l Z 0 p b c d d Z A f c g d j a N U l w w H q H w K w P z j w z N j N l N N l l l N A I A l l z N z N g N A z l l j d z p l l M N V V v F F m x m c m v S S B B V V m F V v B B m b 9 a a d v g M g p y y j a M l b h H u a n M l R U ",
"5 5 l N l l l Z j j a s f l Z Z a l k N l N l l H j H h j P I P w w z q z z P j N P l w w z h z Z z M l n a a g g f M d j M B N l f l p s f M s A A I T V N R b d 0 p p p d b u a j N M l h j a a a l g l d j y u y j M M g d d a b a c l M d d y u a d g Z g l j b l b Z Z Z g b d s j d M D r r d g g g g Z Z M a d l k N U N q k H H w h K k N l P j w j z w l l w l w w l P Y A P P I w I w z l N N l H j a a l a l j J V V F x F C B m c B B F C V m m m C F F F B C c b y a a j g d g b a u a p a d l M a j u h n N l ! R ",
"4 4 j N g M N Z d d a d g v Z D a k k z j N z z z P z h h H H N w h z h w z I l l z z z h z z l Z z j j n d a c f l g g d M B M l f g g p a j a N Z D M M N J n A p 0 0 s a j j j d N M M c d a s d l d N M l y u i d M M M a j j b u j M M j l a y g p l Z g f d a a d g M Z g b s u d g Z Z p p s d d g v Z Z V l j k N H I A w w w q H h H H P w Y z N l w q w g z l N w j z A N A l w H P P d a N a N l N M l d l l N h b B S B B F C m m m v F C C B B m B C F V F C m d y j a d M g j j j u s a a g l j a h y h b l M ' U ",
"6 5 l b l l M M j j d a g M M Z r l z k H N P l w j H h j H H z w w l h k l P H N l P z w w z H N z z w u i i b g g g d d j M M v f g g j a d p M Z Z M g M J b T I g 8 p p a b b d M D A N b h u d N c l M M q u s p d M l d d b u d a g M d d a y d d M f Z d d p s b d M Z M b u d a b M D p s g g s a l A P H H k j k H U H w w H w w z P N P z N z z H w w d l l a l A j l Y N A l A P l P A I P l N M d d N v d d N V J F v S F B C c m m F F F v B m V V B V F F B M y e j a l l M l l a u y u a l N M N h y a d l l ! _ ",
"5 6 l l l l M l a b b d d M Z Z p l l j z N A N H l z h z z H H h h l h h l I j N l z z w k j z A N A p s u s j v g M j d N c d A p g g c l M a l Z M l j d b n I I I 0 9 w y a d g Z Z l M b a j d N M M d M y a a d v g g g d d d d s g d M l d i y d M Z Z d d a e d g g M f M a y u g M Z p s g b n z l Z P P z H J H N U H k w w H w l P P P P l P H z z j l z j j l w l N l A P l l P P l l z l d j b V N g N I I M l L F x G S B C C C B B v F v B m c V F F B F C M h y a l p l l l l a u u y a M N l l k h a l l l R R ",
"5 5 k N M Z M N d b d N M Z g Z p j l h z z N A H z z h z z U z w h z l z j U H l l l z H h H h A Z l p s i a g g g l d c N N p l r l f a d l p A Z l l l a j h B T ! Z 9 9 w a d j g g Z M l j a s M v M d u y a s j M g g d y d d d g M v d b d a y d g Z v g c i y s s g v g M a y s s l A p z j z N N A P P H z z k J P ! N w w H w z z A w P N N w H k H I j a a g l N l N A l A l w P P P z j N l l N A J N A N N J b V R x G F C C c m F v S S B B m c B C F F B V V l u l l l l g M N j k u y a l M a k k u a j l M R R ",
"8 5 j n l l M N d d p d g Z M Z w w z h z z z z j j j z z H P H q a z h z z I z P z l z h H H H z f v p d d s j M g M d b n N d g 0 g d j M l a M D M g b a b u N I Q _ M 8 8 p p g M M M M M j a p l f g b b y i d d c g g a s d j a p v M c x d s y g v l f g M a a d s g M g M b b j b N A d l N k k z M A A A z l k H A U z H w w z w z N w A l l N H H w w l w z N l P z N P A A N P P z w z A l N z d M D M A V N D C B F B v B F C m m C F F F B C m c B B C F B V b a l a h l N M l N b k h a d l j l b n h j j l l ( U ",
"5 5 h N M l M M d M u j g M D M 0 p n k l H N N z l l j j U I H w a k h h z I l A z l j j N l N g f l p c d h d M M M M N N N b Z 0 g w g g N y M M M g b M j y M D Q ^ ( s 5 y w g f Z M g a c d c M d g d v a e s d v l g s y y s i p g v g M q h h u l N l l h H H H H w H k w H H w z P Y w N z N z z z z N N N j w K U Y H w H j k H k P z P N l w w H K w j j q H w H j H P A P N H K H w j l I A w g g Z v M Z M A T C F F F v F m B m C F S B V B B b b V F F C C V b j g l j A P l j l n u a j l l a l l a l l l N ` ( ",
"4 5 b N l N M N d M a b M M D B 9 9 h n a N P N k l k j k H Y z w a l j a z P l P z z h j N l v Z f f s u b b a M d d M M H n n N 0 g a w a l a j g N l a N b q l l A I W J y 8 y f g g v d g a a a M v f l d y y p d v g g d s s s d j g M N M H h k k N N z P H H w w z z H H H w h w j Y I l N N z n z N N N N N P l H K I z w w j w H w z z N N z z H w H H w H z w w w H z z P H H z h K h N l N I P l B F v Z v B I T E F F F B C B c m C F S S S B M n b C F F D V B N a j a h P P Z l d b k a M Z l l l N a h b l l ! R ",
"4 5 l N l M l l s j a a M M Z Z p s a n z l A N z H j j H U U z w w h a a h P a A h j j j k d d g g l s d j M N N M M j j b N j M 0 j f z a l a l g l M l j n y f l M Z A T V 8 6 s f g M d a c d a c g s s c y a a l N g g s d k k j N z N H N H q q H N Z N z H h z j z N k w H q H H j P I w N N N k l N z l a l l l h P Y P w H H H H H H H P j P j j H z z z z k w z k H H l P l z H h H H g d z z M M B T S S B S B C F E F Q F C m m x C V B M M M N H N V S F V C c b a z a g w Z P N j l h d l A z l l n k j M N M _ U ",
"6 4 j M M M Z l a b d a g g Z M r s y l z l l N z z z j h z P H w a h h h h P l N l j h j k M g g s M y d d a M M M N M j n J M A w N d l d j p l g M N b j b s a f A M M I J b 9 0 f p s v s d c s M g g g d y w w l w N N l n h n k u N l l N H H w H N N I z H H z z N P H H K q w w z N I w H H N n z N A A N l w N z z P z w h w w w H H z P H P H j N z z N l H k H w w H A l z z z z H K z N w A c d M T G v B v B B F ~ Z G F F V B m B B M l g N b I l V F V E F B M y l a w N l l A N h l d j N Z l l N k n j l A _ U ",
"5 < a l l l Z l d d a p d l M Z p y y k l k l j z z l j z H I P w w h h j j z h N l k a s s d b g g M s a d h d M M N N b n J j Z p l g j s k u l g g l f j j a l f Z M N M N N g 9 t r f g g d s p d f v v M a k w H H P H z k z j z z Z N z z w H w w N N N P k h H H H H H w H h k h H P U w z N k h j z l z h H w k H H U P j l l z N w P A N l H z z z H z P l z z k w H H N N l l w H H w z l N N d g M V D F Z S V V T ~ v F E F C B c B S S a l P l N N B D D F C B B M l N l l l N N l j j j p g N l l j k M l l Z _ ! ",
"5 5 h l l M M g d d j y M v v N e y y p j l l l z k z j j H U P w w w q j h z a A l l j y p d M M f N d d j l b l j M n l l N j l 0 l l a u k u l M g d a j l y l l Z l l B M M V a 0 r p g g d d g d g l N N a H w H k z H l H z z j z z Z z l H k H k l A z A H H H H H K H w q k k h j P U w l z H j z N P P z H H H z H P z w j j w j l l l P l l P k k z z P l l l H h w H a A z l w H H H a N N N b b D D D D B B B B V Q S F F F C m B m F Z l g N l l z g g T Q F v m g Z a w A w h N g b h j d l g l l b h l N l l _ R ",
"5 2 a l d Z Z l a b a a d M M M 9 p y y j z l h h l j h z z A z q h j q j k z j N l j p i s s M M g l g b j b M N M M N b n J j l 0 l a u y h u j l l j d j j y M l M g M M j b Z D p 0 r f d a b j N A N N H j j w N z l P l w h j g w N N l k z w z P l N A z H H h H w K w H H h h H z P Y k l l N h N z P A H j z k H P Y I w w j j j l A l z l l P j k k H l l z l j w l z N A l z w H H H z A J z M d B I M D B B m B G Q v F F F m m c c v Z j l A l z z l g D F Q B v g A l N l N l l l u k u a l l j d a j d j l d R R ",
"5 2 p l l l Z z a d d g d g M B y s p w h l N l j j k h H k U A w h k q j h A a l z j q a y g g M M M d a j n N N M M n J n J j A p l d h u h q a g N g p d M 9 g M M f d d d j V D Z 8 8 t d h k N N z N N N h z w P N N z H H k j N l z N z j P w z w Z l l P H q H H H K H H H h H q w P H z l h j j z H A Z P l k H H P Y P l j z h w H P l A w z l w H w H l j j l l z w z l z l z H w q H l A I M d d N V M M Z A B V A ! x G F F c m B V v l l U z w l z l v F Z D v M l l l P l a j l z j u b j l M l a y h a j l l U ! ",
"2 5 u a l g M M g d a a g g d M p d i s a j N l z l j h k H H z q a h w h H H q M j d a a d d d l l d d j d j N I M l N l n J j N a l l l a j q d l j M u b n 9 d g M f g d a p b V I Z 8 p h j h j H N z l H h j w H z l N N z H w H k A N z l l h H h l N l w H w H H H K H w H q H q H H I w k k H k l A A z P l H z H H I P l l l j z z P l H H q H q H H H N w w k H h H H N l l N P j H H z P P I l l d l l P g Z A Z A Y f A G F C c B B m M d z I l l h l M Z S B c B d a l Y l w l j j h a a j l z l l u h u b h l ! ( ",
"2 2 u j g l l N p d s a d d g M s g i d a N M N l z k h j z H k q w j q H h K h N p g s a c M M g M d y d j j N A N N N n J J n z g f a z h h q l l l N j b N 9 l l M g d g d y d B M ~ Z w u u h l l I z l l j j j z N N z l z k H h k A N z N z w H z l P z l H H H w w H H h H H q H H H K H j H w w l N Y l P z w k k H I z w z z w z z P l H q H H H w h w P P H w w w H w l N w P j j w H a d I P g Y M M Z A N g g A Y Y M M S F B B m B b l j N l z z l g M V v B g M M l N l l a l 7 l u a h p l M l j a u j h l d U U ",
"< < s j g l l N d j u d d l M M y s d d d N l l j k a h k k I P q w j w h j H h N s a s y c b d g d d y s u j b A I V P N n J l N w N g g h h q j l M d a d J y j l M Z b d b a M M Z P _ N w a h l N l H z k w z j l z z z k k j z h h A N j k z h j H P N l l h H H H H P H z H q q H h H K w z z H w l P P A N z z w j P Y P w l z w h z H j H h q H H h H H P P w H H q h H N P h z j w H H z Y N z z P l P d N A M l N z P N z l V B b c M f j l N l h N N M x B g M M g l g l l l l l w z h u a a l l l j a h d h j l I U ",
"7 5 u j l Z g Z b b d u d g M V 9 i i h s N N A j h j h H k I U q h j w h h H h x s g s d s j M M g j s h h a d A N N N J n K N P w g d z l k w l g M N a a l 9 d B Z M d s a i g M Z I Y U l 9 q a A l k z H j z w j j l l z H H z z z N P z l z h j h l N P l H h w H l H H w H h k w H H K H l z P w l z P A P l z j j z Y I h h h w z h H h H H H h q H w H z l K P H h H w A P z w j k w H l l I N P N P l z l l l N l l Y a N l M v M c l l l l h j a l a b j l a l M a p j P P a l w z N u u p a g l d j h h h b M N ( R ",
"< 7 h n b N l M a b u c u b N Z e d s s s j I N l h k h k j I P a p j u h j H a M s g d y a d l l f l p j h h j N I N N J J J b z g l a a j j q N N N l N M k y d M D M g d d i d g M A J J J u q a l H N z z h z h k h h j z z H h H z z l z l j h j h z H l l z k l z z l P j H w w q w A P z z z l w P I I P H H k H w j P I l l N w h z P l h h z h w H w H H H h H h k H k A P l j H w h j N Y N P z N l l l P l A N N I I d A N z l g j a a a j z z z P z N h a l l d M p j w l l a j a k k h k s l N j j u j l j j M _ ( ",
"< 7 d u M B M N u k d j d b Z M y b d s d d N I N k h k k k Y I a a h u h k z p M x s M a d M g v l j a s j j d N Z N N N J J N Z a N a l j k u M P Z N b n n 9 l Z Z N d M a y s d M A H H K H q p l z l z H w w k h h l j H w H h j H z z N z k j j z N N l l l k H z z N P l K w H H N l P l l j H j w z I P H H w H H z I P w l H h j z P l H H z h q H h H H H H H k h q H P P N j H k k h l l z l l P j Y a l w l Y w j U j N z N z l w l z l a a A z N l l H N l M j a a w l w a l j j N h u k h j d d a u u j j M l R _ ",
"5 7 h k l M Z N p a a c l M M D 9 s s i s d b N H z j N H k U U j a h q h l l r g g i d d d M M M l M a j j l l M Z N l n N K N P l N d h h k p z Z A N l M N 9 l M Z Z g d c p a g z z z z H J H q h l z l H z H H h H P j w w j h h j l z l z H h h H N N l z j w z z z N P j H k w z z A I N z H P j l z P P H j h w l P I P j a z h h z z l z z z j w H w z z H h h h H H h H P z j h k k H H I w A g j l Y g N z l N Y w Y l N P A A a l k P a z p l a j a h h N N a l a l N N z a a d N b n h a b M d h k h h l j l M R R ",
"< 7 h b d l M l a b d a l M M Z y a d d s d M N z z z j H k U U w j h h a a M p g d s d a c g M M M l a h a l z A A N V M J J j Z d M a b h d a N l Z N M N J p M M Z M M b d d g l A A z z k H K j h a g j z w H w H h N z P z k h k h N P l l j k k j z l z N H H z z N P I w H w H P w z I z z w j k z l P U w k H H w z I z w h z j z z z N N z z k w H z z P H H H k q H H H P H h j h h h N z h N A l l Y w P N z N l P N a a l z z P l l l l N z l h j z l z z j l l N 7 a d z j l j j j j h h j j h b d j d a M l l U R ",
"4 5 a j l g M l s d d d g M M M s d s s p p M N z k l l H P I P a a l h z j l p v f g a a d l M Z l l d j h a M N N A I H N K N P f N a l g a a l Z N l l M N y d g P g g g g d d M J A l M N k K U I w g k H h z z j A N H z l K w H l z P I w w H k H P l l l w k w H z z P z H h z z j H P g j z h z l H z A l l z z z z H z w l z l h h H H l z w k k w k H P P l H l z z P P P l H k w H H P z w z l l P l P P z z Y z Y P j N P P j w w P z l z P w j j w l l l H w w z l z j z z d d l l h h j z l l l j j j l b N M _ R ",
"2 4 a b g g M l s j s a g A Z Z s s y d p p g Z N k j k H P I I g a k w j k g f M s g s i a l N Z M M d l b k j Z M z A P N K M A w g a l w h a g z A Z N M J a M g D Z g M a c s N I I N h h n k P I h w a H j j l j l P z z z k j z l P P H H H w k H P P w H H H w H z P P w N h h z z z I z z j z h l z P A l j z z z P I z w g z j z z z P N N H k z H j j l P N A z w z N P P z l H w h H P Y l P l z z Y l I l l P Y P P w l h l P H w z P P l z P l j l l l j z N a z w p j z a h z a h z a j a l l d j l y h h M N R R ",
"4 2 u d l p M M j h c y d g v Z s u d i r p f z z N h h H I Y U w l z l l a l f g s M d d d M B Z N N d j a M j Z A z P N n I l Z w a a h a h a g N l N M N J p b g Z Z g d d d d l P I H j h h H H U Y h w j h H z z z P N z z k w z l z P H z H w z l l N w P H q H h l z Y j N z z H l P I N j j j h h l z P z z z H z H U z q z w z z j N N l l l w k w j z A N l l z j h H P P P N H h j z P P l P l P w _ w z j w N N N P w l l z P N w l z z z P z P w j a l a j l h w l z h z N g h j a k j j j N M M j l d j b l M ! R ",
"4 5 a d g l l N b j a a l g l M e j d d p d l Z z P k h H z I ! z w l h a p g p s s g d b a d g Z M N l n h l j z Z Z N b l K n N f N a j a h a l Z l g l N V p l g M g v c g s g l A P P N N a j H P Y P a a w z j N z P N z z H H j P N N z H H H H w P l l H H H H H P z I z P w z z P A I z j j h h l h N A z z z H H H P N q w z w z j N P N j l j w z w l A P z N z h h N N P N z w H j l l P l P P Y z U N A j l N P P Y j l l P z H l P P l P z P P A z l l z z j k w j j p l w l l l l k a l l N M l j j k s h M V R R ",
"2 4 s k l d M M d b u a g v M Z d b a d d s l l z N l l H I P Y l j l l k y M s g s p g M d M l l g l a l d l l l M N N z l H l l a N d j j j p g z l g g l N q l g D Z g s g s s M A A H k H h h j I I I P h q h z H H N l l P w q K h H k w k H w H h l z w H q q H q K H U j H w h H N N P l k h z w g l N P l l P z z H I P w j H w h z j N H H H q H w H H N N P N k k h A N A P l j l j H P P l l w H H P l N A A P N P P w l N l U w l l P z z l a U g j w z l l H z z w h h j j j A l n u h j N N M N M h b a d j M ` / ",
"4 4 h b g l M Z d d i d l l M Z d x d c f l v A z N z h H P I Y l j h n k a v p v g r a a d d M Z M l l l d n d Z M l N l k n l z f f a a u k q N N N Z l N N w l g Z v M d c a a l N A z H H k k h H H P N z w w h z H N l A l H H H H H h H k w H H H z z P w H H H q H H U z I j z H P I U l z z j w z N N l z w h z z z P H w h z j H w z z H q H H h H w H N z N N l h j z l P l l l j j j N A N P H H w H w l l l N j P P w P N N A l A P j N N l N I P l l I P P z a a j a j b a a N N N d j a N A M l d u j d a l M _ R ",
"2 5 u b M M M A d n y u g g M M u s s d f g Z N z P k z l z P Y A l j k l d v g d s d a s d M M A l M g j h a a N Z H N n b H j l g a p h j j a g l N l f g z a a g M Z v s a a g f N A l N z j H k z z z H P z h w z N N A z z H H H w H H q H q H q H l H H w q h H q q K H h H h z w A P P l z z H w j N l A P z z j H H H z w j w w h k j z w H w H H q H H A N z k k l z z N A l l j j j H A P l z z w w P w P N A l P N Y w l N l l N 9 l l g l N N z z N z h Y l z z l l j j l M l M N N h n b M Z Z N N j a a a g M ! R ",
"2 4 k b g M M M s b s a f v v M s s i d f l M P z H z k H P P Y A l l l j d g s x d g s d a d v g Z l l a h j y l z N N b n k k l d l p a j h a z N Z l l g l j g g M g M a g i a g N P z P N z j l H z k H z z h w l z z P l h q q H H q H H H h h h h k H H H H h q H H q K k H j z N l P P l z z H l w j N N H j j z j H P z j j z q h H H h H H H H q H H w A A z k j j k A N A l l w z w H N N A l U z z P w Y w w Y w Y z l A P z z z g a g l N l Y I P U N l P A a P z l j j l g a N N z b h a j A M N M u s d a d g ! J ",
"2 2 j M M M M M y j d d b b g M s a a d i g N N N z l z H P I Y P l l z n b j g f g p s i a a s g l b k j u u j j l A z z j z z z g g j w h j a Z M N M b d h s g g l f s a c i d a N Z A l H j j z P z z z H l k q j z N N N l H H H H h H H H h h h H w H k w H w k w l N P z z w h H j P P h l z N k j z M z N j h k j J U N j l z u h j l l w H z w H H h H A P l l k h k N N P H j h h j j l N A w Y N w z z P l P w w P l A z w l A l P l d M N d l P j P g P j l N l l l j j l l g l Z Z j d l M Z N M M u u u j j M R R ",
"2 1 a b d M M M i d s u a d g v s s s c p M Z M N N z h H I P Y A z l N H H M M g t s y y c g a g d M a h h s j M l z l l j l j l g j g a h h l l l l M k d j d g g M g g s s d b M N I N l H z k j N z l N H w H j h h N l l z H q h H H q H q k H H h H H H H H H k k N w A l H z k k z H P l N j k j j z N N z z j h j N P N a h k h h j N a w H z h w H k H I P z z z l k P I A k z h h h j l N l l l N z H w l w P l P P P w z P Y P w l j d a v l l P P g N l N l l j l l l j N Z Z l l N M l l l M M N l d u y d d b R R ",
"4 2 a M l M M N s j s d d g v g p s y d p M P A N N z j z H P Y A z j a N M l v g s d y a d b j l f d b u b u d l A N l l j k h f l f a g z l k l l N l j d j j f M Z l M d y s g p g P N l l k k z H k z k H w z j z z N l j z H H H H H H q H H q w k w H w H q h w H l l z l H z w z z l I l z N k h z z z z z j j h z I P N a d k h k j z l H H w k h h h H P A z N h z j P P P N z j j u z l N A N H H z k w N Y w w l Y Y w A A w P j l j g l g l a N g N A l N l l f l p d d l M A Z M g j d l g l g d j d c u b M g ! L ",
"1 4 d M M Z Z B d d y d p x g M p e e s f P Y z z H l z z P P I N l l h N M g f s g d p a a d M M N c h h h u u M N N z n u n k j d a a h w l l N M M j b a u u p g M g M d d p p f g M N z k k k H H l z k H k z H z z l l w l q h H q q H q H H H w H H H H H H q l P w N A j P j z z P N P l z z N k z N N z N z h h j z I l j j h h j k H A H H k k H w z H P N l z j j j z N l z H z k u l P A P N w H w k l l N l l N P N A l l l l g g l l M l N A l w U A w l l N a g a a d M l M M N l b j l Z Z Z M j h h h c d g ( I ",
"1 4 p j M Z Z Z p s y h p g M g s s y p a Z P A P P j l l N H Y N l l z j N M M s s d i d d a M l g l d u d j k d N l l k k k k l l p a a y a d l N M l M l u s 0 d M g M d c a g s g Z l Z z j l l P z H l z w H j H P N z h w H w H h H w H w H H w H A z N A H H H h l P P l z k h z l P Y j N j z h l z l A N h h j k j J z w a l l j k N N z P l h k w z H A A A l l k z N N A z A j n k j l l N H H H H h l N A l l A Y l g N l d l A a a d g M A j N a l l l P l w l d a p d l M g l M g j M d B A M d d s u y d M d T U ",
"1 4 a M g M Z N i d s s g g v M s y e w a l N A z z z h z N N Y N d l z z j M Z v g g d y i c M M l M j h u h b j l N j n u j a l l p f h a h h l Z M l j M n s w f f g d s s a s g Z Z l l z j j l P A z l H w j h j H H z H k h h H H h H H H w k H H l P P A H q H h j P P l H j z H l Y Y w H h z h z A z z H j h j k N H z l a a a h b H l z z j d k h h z I A N l h z z H A z N z N j j k N A N H H w w H l l l A l l j l w N N l w w d g d d g l l M j b P w P l j w g p a a M Z Z Z g d a l M M Z M p d u u s s M g I R ",
"1 < p M v g M Z d d i a g v M v p p p a a l Z N P N l z z H P Y N g z z H z j Z v f d a y y a g M d d a h u y N l M b j n h n b N Z d j l a a l l Z l l a j b a a d g g p d d p e s v v l l l l h k N z z j H h j h N P P N H h h H H k H h h w w z N P N N A z q H H h P z P z H j j w P P P j H z k h j z z P N k h h k N P Z g a h a a g M Z l A l j z l z z A P z z l j l z A N l z n k N j z P z N H H H H l N l l a A P l w j P a l l a w j v Z g I l d d l j l l w f N w y p M v Z Z Z l p p M M M M u b s u d d g M T R ",
"4 2 p g g M l M d d y g g M M g t s w w N z z N H z j z H z N Y N g z j z z l g g M g d y u d d g M d j s u a l l N n k b n n N N l l l h l a l h Z M l j b a a a g v l s s a g d p v v g l a z h h P z H j k h z h N P P P H k h k H z H H H H H z w w A N l N H H h H P P N z z j P w P I P w z H N j z z P A z l h k N a Z g f p a p p g M M f M g d a a f a f M l l a h j g A P N z N k k N A A H z h k h h N f f P z Y z f l j I P a a d w d f g l g N a a N P l l P w a 0 i a d M Z g g p j a g M M M c s y h a d l b T R ",
"1 4 s a g g g M s v y d x M F M p j h h j z l l l l g z H H I I l l j h j l l v g b d c s s d d g M d N u u k a V N N l l b H N M l l z g j j a l A N l j j a u p g g g s a i a s d f v g d b n j h l z A z z q k j l P N P P z k l H l z N N z j H h z A A N N H q H H H K H q k k w w K K N w P P H h z z z z N l j i a b v v g g d a s g M M g g M d d d g v g g f d s y a d v v Z f g d s v g g Z g d s d b s M g M l A l p p g l P z N d p y d v g g l d p l z g g M p p p p p g Z Z Z d f g d d g Z g g d y a y d M g ! D ",
"1 1 a b f M g M s d y i d M A v q h h b j N N M A z z l H P U Y z N z h N l M g s d b h u a d d g d d M b u b a l J N j k h n N A a f f g z a h M Z Z l M h n i a l g M d d i a d g g v g d d n z j l l z z H w h h j z N N P z z k H z z z N g w z j j A N l N H H h H q K H H H H H h H K z l A N z z z H P H M p d s y b Z v p f M p s a M B g v v g a M g M Z v v l y d s c g g g M M g d c g g g f g d d M g M v g j N I a p g d d a w d p p g g g g Z g c d l l f M p d w a f g g Z Z g a y g s g M M g s a i y u c M R R ",
"4 < e c g s M N s d y g v g D Z w h q k a N z l N z l P z P Y Y A l N H k z N g g s s d d y g M g g j N h j M j l Z N d l b n N l f f l w z l j M N A l b l b u p g M d g y s s d s g f s s s d l a z N z z H w h h j l N A z z H h H z N l l l w H j z N A N z h H H H H H H H k w k H H U P w N N z j N N z l c s s a d M M M g d l s a p g M M M g d d d c M v Z g M c y s g f Z g g M d g M Z g g f g i a b x M v v d A g a p g g g N g d a p g v Z d g g j d a a g g p p p e a f f g Z f g s a i d v M g d i u s s s g T R ",
"4 4 y j d f v Z d M d s f M T I j h h h p z j l l z w j H z Y Y N d j j k k N Z v s s u i s s M M g j M b a M j g M N N n n N N N g a j h w w h g N Z M j b u u p d g d s s y y d g g s s g s d h l N l H H H h h h j k N N A z z z H k N N l l h z z z N N A z H h H q H H H k H H w k H U P l P z l z l l g Z M s d j y d Z M f g d p d d g f g g d d y b l M l Z M g a y s a Z M g l d d d d g Z g g d d g M M M Z M l z P d p g f d w d p p d l A Z P N z l z N N l z g l a a d Z g g g Z l d s d c g c g M a s s s s s I W ",
"4 4 c d d b f Z g M a b g M I I z h z w w l l N l j j H H z P Y N w g z z H z N v s s p u i y s M M d l d a b N N M M j N n J M Z g a d u h s a d l M z N M d d p s g d s a y y d c g g p p p s d d l l Z l j j j j l l M l P A z z U z z z l z k h H j z H I A z z z l h P P z l w k w l P Y w l n k l d g l f M c j c l l Z Z g d a u y a a M M g a d a g l Z M M l l j y j d l Z f f d a d d f l Z l g d d l M Z Z g f M b a s g g s l j k h l N Z d A P P k N n N N N l l a j j N N l z z l b d g g x g p s p i s s g f T R ",
"< 4 d M s M v Z s M p d l Z Y I z h h k w a N l l z w z j P P Y N g z z j N H l Z g c a d u i a v g d j a b d M N N M l b n k l l g f l b s u u d l Z l l N b j p M M g d d d i s d v g c s p s p g N l P z j a w j l z z N A z z z H z N h l z k j j z P N l N H z H j l H P N j H H w z P P w j h j j g f Z g g s M a l M Z Z g d b s a s d d d g d d d a d g Z Z d M b y j b l D g l d a j b l Z g g v p c d g g Z M l M M y p v v g l z j h h l l p N l z h k l N z N d l k n b I I A A A l n h N j g M s g d i a a s s I T ",
"4 4 i m v v Z g g M j M z A P A z j w z z j l l l z j j j z P Y l w j j h N I A M v v d i s d d g g l M a d j d M Z V l l n n l l a d s j j u y d g M g d l M d a f M d d a a i p d M g d g s y d s M M I U P j h h z l l P j z l j H N P l z z w k k k z P l l z z z j l l P A H j z j z P P l l j l a g f g g g l d j M N P Z g M b a s a M l d M d u y d d d Z A d b d a a M M Z M j s a j a g Z l Z M l a s g Z v M M b b s r g g N z N j h l N a w a w a l j z N N A l z h z z N I N z P P l k k N M N N j b a e s s s E R ",
"< 4 s x v g Z M g N z j P I A A z h j l j z l l l z l j z z P P N h j w z z A M Z g l b d a d g Z f g d d d b j l M N N b N n b M g d a a a a u a g Z l d l d j d M M d M c d a p p g v c g a i p s s f P z I h j z l l A l z a z z z P N l j k k w h H A l A l z z l z z A N l P z H w A I P j l l l d p g v g l g b b d N A Z d l j j a a l M d a j l s j l M M A n j s a p d M M M V a d l b Z A g A N M j d g g g g d a b s r g M N N N k h j j N l N N w a j N A z N z z a l l N P P N l N k k h N N H l l j k j j g s R T ",
"3 3 a l M Z A N j N k l z I I U z j j j k h N N z j k H z H H U j w w w H w K H Z g g M d d v g M d d s d a a M M M M M M N N n N f l a d a l a a g M l b N u a e l N l g d d a d s s g v g d g s s f p l H P h h z z z z z l l h H H H K H h z k H w P P A P P z z h k z A l N l l j l z Y P w h a a s y d g g g M d d j l Z Z g l l j l k a M l a g z j u b g M Z M l u j s j M M M l d a b N l Z l A j M j g l M Z f d d d d r g M P z N k h z w A l z P P w j j z z A l z w l j k z A A z z k H l l N N l l k u j k N d U ! ",
"6 7 z N N A A P M n k k N N P U k z j j j z z l h j h H H H I Y l j H w w H P j M f g s d M M M M d d g j u d d Z M l l N N V N N g a f d j j a M Z l M d b j b p p M f d g y s a s g p M p d b s g g f Z P J z w H h z A l z z H h q H H H H h w w H Y P z N w z l h k N z z l l z w l z P I j N a i d s g g g M g d j d M M M g d d a j b d j g d j l k k l N l l l z u h h M M N M M j a j N Z A Z D M M M l f Z g g a g d d d f Z N z z k j l l z l l l N w h j l A N z A w j h h N l A j l z z H P l z H k k k k h l N U ` ",
"3 6 l P N N A N N N k j z z N P z k k k h z z z z l h w z j H I l j l j H z l l Z g v s d c j M Z g j a d d d M Z A M g M k N M l f g w p a l d g Z M M M j b h p s M g c h d s p s g f v d p d a g g f l l z z H h H j P P z z h H q H H H h H K w w P P P A l z k j z P P l l k H H w z P U P N y i s d g M g d M j b j j Z g p l j a a h l l l l d l b l l N l M l j u b j j l M l l l a j l A P M Z j d l l l M M d y b i a 0 f z A l l l j l w A z l Y l z l z z A I z z a j j j z N N l l z z P A N N j l n j k h k N / U ",
"3 3 l l z Z P N l j N j N A A I w k j H z z H N z z j w z h z P w w l j w z P w M M M d d c g g v g b s j b d d l Z A l h b N j z f f a d a a g l N M M j d u s p p g f j d d s p d l v g f g d i s g f v N P l k H H H A z P z H H q q q H h h w H w l A P A l k z k k P P N j H w H H z P P P N b d u d g g M l j d j d l l l f d j a h b l l M N d l h l l N M l l l a a a l l M l N M j j d Z A l N d d l l d Z Z l d d s d 0 l N A l z j h P z A A w l l w l a H z P z z j h h l z N l l z j h N z N z l l n k k l l N U U ",
"3 3 l z A N A N l l h z A P I P w z j w l l z N z z l j H k z P j w w k k H H w M f g p i g g g M f l g j d d d Z g N b b b N l l p f d j d d d Z l Z M j d j k e d v p g b y s s d g v x d x d d a M v Z Z P l l l P P P A z z h q H H h H H q H H w H z l N A z k H z H H P z k k w H H H U w b a b s u M g a s d a u b b N M a l l u u n N l N N N l j j N M M N l j u h l j l Z l a l a l j Z A d N d a a d a A M l d b d d 9 d N A H H k H z P l P P N P l A w P Y N N z a h h k z N l a k j j z H A A z k j j k l z z _ / ",
"3 2 l z N A P N h z h a l A I P h j h j l l A N z H j j h z H P h h h h w H H z M M f s s a v g v M g p b d d M l g M M j j V d l f f p a d d p l g Z M d d c d p g M a y d s u d d M g g d a y s y s g g v Z j z j N A Y P z z h H H q H H q H w H q H A N l A H l j z H H A z H H H H w H P l s s u s a b g M M p j u a k N N d l l a u j M N l l l j a a M N Z l l l u a n l l l N l j a a l l M d N d l l l p l M l d a d d 0 g A N z w k w j z z P l w P j P z P P P j z a w k j j N z a h j j k z A N z A z h w z N N / R ",
"3 3 h l l N A A j z h h l l P I w H h z h h l z z H h k k H P H z w w h w j w j M s s s d a l g g M g p d j d d A g M N d a N M g w p d d p l d l g Z l d d b d y p v d b u s y s d Z v s p s s d p v f l g H w l z z A A P P z H q H w h H h h q H H w P P z z z j k j z A N l w k H H K H H w s d a i a j v l l d j l h b N A g g l h a j j l Z N N j k h d M z N g j u u b N l l l l l k u b f l N z l a l z p 0 d M b s d c 0 d P P z H z j z N z N z l w l g j l A I H l w w H z N N z w h h j k z z l j H H h h h l k U R ",
"2 2 a l l z z N a j h j N z z U w j h H z z l z h j j k k j H U w z w w k j H j M x s y y d f v g M g s s l j g Z Z M N b j N d Z r r p d p a p g g g l n u s a p d g g a s d u p a g M g s a y s f Z v g l z z j z z A P P N l H w H H H H H H H q H H z N A z z z j j z A N g H w w H H H H z s s d s d c d M N d j b l n N M l p j l k n V l l Z l j l k j j A N l j h h j l Z l l g a a a j l N N g l j a P w a y M n b u b 9 j P P z l z l j w A z l l j j N w l P H z k j w w z N A A j z j l k N z l k h H h j h j j U / ",
"3 3 q h k H k z h a u u h P z P a h w j j j z z j z w H k H H K a w a u h j z g l s s p e d s M v s g s p a d M D Z d l M a N p M r r p g a p p M Z f g j l b u a g c p j i y d i a g M s p g a y s v v v l l l h z z Z Y P N z l h h l P P z N H w H H H H P z j j z z l A I l z h z H P l A l x d d a d M M f M j a k l N P l l d a u h l l N N N N j k k l j N N l k h k h N V N d a h y h h l A l N k l h l w a j w N g p l 9 f N P A z z j k z P A z l l h h g l Y P N z w H q H H H h w H k H H k N N z z H w H w H H K / ",
"3 7 h j j z A z h h h h h N A z a j h j l z z N z j k h w H H H l a a q h h j p g g s d y s d s v g d d y p M d I N g g M b N c M 9 p p f a a 0 l l Z g d d u y a s M s s u a d s s v M p f s d s p g v v Z N a j l P l P P A z l h k h P N N z K w H w H H z z H h H j l A P l z z z z N N A l c a c i g l Z l M M j l n Z P Z l l h a z k Z A N N M N h l l M l N b k j l j b N N l u j u j j a l a a Y l z l l h a g g l j d p l l Z A z k j j z N I N z k l z N z A z l H w h q h H h H H w k w h k P H N w H h w H h H / K ",
"3 3 j k z l N A h h j h l l N H w j k h h k A N l z j h w H k H h j u u j h k p s g v d a y p g v g p d e y g M D Z M d l d J l M 0 r p d a a y g g M M b d d i s s M d c s s s u i d M g s y s p r f f g Z N j j l z P z A H z z k j l A P l N H w H w k z w l w k z z l l A l z l z j A P I j a g s d d l Z M M M n b j N N Z l l l u j j l Z Z M l n j b n b A M l l k j j a N l M l a h u j l Z 0 w w P l Y w P j z p d d M 0 M M l z N l z z z z P P z z h w P P P H k z q w H q H H H w k k k w H z z H h H H h h z z / K ",
"3 5 j k P N z z h h k h j k z P w h h h j l Z z z z j w h H H H j h j a H h n d s p d g s d s d M g f a i y p d M Z l N j j B l v 0 p r d a y p g g g l M j n d a g M g d d y d d d v M M d i y p p v r f l A j j a P A N N N z z j j z A P N l H k H k H z P H H w N P l P I l z z z z l P P j p d a a d M l g M l M N d A A l g l j y a l l M Z l l M h n N N A l l b j n k N N Z a j j u u j l l a a l w h A z w l l l d j b p l A N j z z k z N A l z H z H z P P P P H H w h q H H k w k k h w j z H z z H k w h H j H ) / ",
"7 3 k z P N A z j h h j z H P P w h h h h k z A N n k h h k H H l a a a a d v f f s g d i s g g v M b i y s s j Z Z l Z j b V g g 0 r p b g d y M f g v M d b d d d v f l d a y M p f f g d a i y p M g a j P k z z P I A P z z k w l l N l A P k w H w P P P N z w H H N N P A N z z l z l P l s d i a p M M g d g d j j V I Z g g a h j j M l z z l j a l N N M N l a j h j l H z l a a j s b N l j l l N P z w l l w N l l M r g A P z z z z z N A N M N z z z z g N z z H h q H H w j l z w w k H h H H h h w H j P H N ' Y ",
"3 3 j N z A A z j h h k z z P U h h h h h k N N N n k k H H H H j e p y i p d s v M g g d a s M g M M d y u d j M Z M v d b N M f 0 r r d a c y g M M l d b n s s s v g f d d y a g M Z g c b y p p v g N P H z z j P Z A l z h H w l l N N l N H j H k A N N z H h h k z A A l N z H z N I P l g s y i d f M M g j a d a M A l g a a a u N M N A Z z l k l N N N A l d h l j M N N N d u h u h A l l f l w w h P P l z l a l M p l N M l z k z z l A A N z j z h N P P z l z j H w H H P j z k h w q H H H H h H w w H j H +._ ",
"5 3 j N P P P z z j h j z H z P k h h H k j N N l k n j a l H P g p i y 9 y s f f g v s i b d M g g M d d u d c M M V J M b V N g 0 r 9 s a i y g l Z M M b j a p M Z g v d d y s c f M v d b a f p f l l l P w z z H P P N N l w h N z N N P N j k z l P N P l h H H w A z P z z z j j l N P l j s a d d d M M M j d a j l Z M p d d a j j l l A N l l a j N M A A I N h a j j N N N j u j k h l l l A l Y z P j l a g l Z N M p l z l z l j h z z P P l N z w h l N P P H z l w H P l j j w k w q H q h k w H H q k P z l _ ' ",
"5 2 h z A z P P z j h l z k H P h j h k k k H N N j b d j d M N d p y i i y v g f s g p a i b g f p x a s i a g M Z N B N b J d v 0 t 9 e s a 8 f f v v d d b y s g M g g s a i p s v M g c g s g l Z l l N z j j k k z A N l l w H j N l l l P l z z w N A N z h w H H P P N j H h h j N P I M b c s s s g g M g b d a d l N N g a j y d l M l l V N N j M l l M N N N b h d N A N N j y j h N l Z N l N w P l l z N d d a l j 9 l Z N N a k j z z A P g z z j l l N z H H z w k w l P z l z l H q H q H H H w H q w z z P _ / ",
"6 5 h l l P A N l N j z k z A P h k h a l l Z l d g d s s s d M g y e e i d f M s f v i s x g g v f d p d s u d M g g c M d V d M 0 r r p e s y a s s v g d d i p g M v d x a u y s g Z g l g g w h H z l j P w w H l N j H l k H q H H z z l z j w z z A N N z H w H H H P P z N j k k H H Y N N a d i s s g M c l b d b b B l a a d u a l j M l Z l l l j j l M Z N l l j j j I A P z a h l N N A Z N j P z g l l P l l a l l 8 l N z N j h a z j P P H w H w h j z l P P H w k h H H P l P z H k H w H w K w q q H q H q ) / ",
"5 5 j j l A P I l l j j N l A P a h k k a M M f g s a s u b M B g y e y i y p g g p d s s d d d f s s p c y s d B g g d j b V a v 0 f r d y s y x M s d g p i d s f g g g a i u y t f g v g M l H w z z z z P z z l z z l j H j w H H q z H N z j h H z N A l l w H h h k H I z z l z j z P P z b g d i u g g g M d a j b N A Z g g j a d b N l M M g l a l l N Z l l j j j j l Z P N z a d h j Z g l N N g N M P l w a l l N f 9 l M P l N j h z l z P H H H H z z z l z P P w w H H z N z j z w w H H z H K H H h h h H H ) K ",
"2 2 h z N A I P z H z z z P N P y k u b e s M v s g e i a d M B x s y a y y y d s s a d y j M v g g s p y s y g M g v s j b N u f 8 r r y y h q d g f f s y u q d g M g d M h h j u d l j N l n H k k H l l l w w H z l l j j j h q H q H k H q j z z z N P N z H H q h A P H z A z k k z A P l N a a y g s v M g d b d k M N M g p l a j d M g Z l M d a d l M Z Z l l j h d N M Z P z l h j b N Z A l Y H N N P z A z w z z l 0 g l z l j h h l j H z H w k w l z N z l z K k w j z H l l z j H H P w P z H w h h H H w H ) K ",
"3 3 a j l A N z z H H h z P P P a j a s s p f Z g d i i s d v N g s s s d b s b g f i d u i d d s s g s s y i p M s M j b n J k l f p p a u k w l N l l h k k h d l N N N N k h l l M l l l j j k w k H N l z j H w H l l z z z H q H H H h H H w h j z l N P N h H H h P A P z P z j z N A I l N k d y s g g g g a d d d j M M l p d d d j l f M l l d y a b l N l Z z j j b M N N A l l n j M l Z N z z N z a w A l z z z g g 0 l N a z j j h j l H k H H k H j l A l P H K w k h z z N P l z H w P w N P z l H q h H H H +./ ",
"3 3 u j j P A A z H H k z z P P a M a d g g s v b d s s y a M V p p p y a d f M g d g e d d x c s v g e d s u n I l k k z z H H N d w w z j k w N N z z l j k j j l N l z z j j z h N N N N N j w H H H H H H q H h w H l N j H H q H h H H w H H h k k H H l P z h z l P Y N N z z l k P P P l n h k y p p v s g y s d c d l g d f d d j M N v M M l l a p p l l g N M b h N M M Z P N a b b N l f A Z l I z d l P w A P l h d w l Z l w H w k w H P P P w H w j w l l A N H w h h l N N H z j H h H H H z H H H w H w H j ' ' ",
"3 3 u a z z N N z z z H k H P z p g c d d M g v d j y u s s M V g y p y y d g v f g s s a i c d v g d j y j j k I M z l j H H k N w j w w h k h N l P z a h H j l N P l z z j h l g N M l z N j H q H w H H h k w H w H N N z w H h H q q H H w j k h h z H z z N l h z N P A l N N k h l A I l l l h u p g g g g g s a b g M M p d s d b d M M M l M d a d g l Z g d d l l j N N g A Z z d a N A l l f g a P g g P l g P l N l 0 d N z H k H w w H z P z z w H h z z g N N U w k h l z N N N z q H h q z H z l H w k H H z Y / ",
"3 3 h k l l Z l z z l z z P P A e d s d g M M M g b i s y d j M b p u s i d d l M g a s a d c g v g l N h h k N N A z z H k J k N w w w h h z w N l A N z j z h j l P l j h h h z j z N z k j H H w 7 H w H h q h H H H l N z h h h k H H H h H w h H q j A P N z z l z l A P l k z k j l Z P j N k n h d d f s d c d y d l Z Z M f p y g M l Z M f b j j a g M M l j d d j a b Z Z M N j a a N Z A a f l N N M l N z a a w a l w l P H k h z k w l z I H z k H h h z l z A N w h w h z l l P l H H K h H H H H H q w H K P / / ",
"3 3 h j l z N z z z j z l H N Z 8 d s d d v Z g d b d a a b A M s s a u s j d g g c s y y s d g f g l z h h h n P N H H H k H H z g l h j w j h z N z N z l H h z z A P k H j w w l z z N z j j H w w H k H H q H q H H N z H j H q h h H q H h H q H H z l l P z k z l P A Y l k k z z z N P a l k k k a N Z g s g d s d d Z g g g s p d l g v M d M d d b g A l g M c j d a l l g M N b j a b l Z A a d d M l N z P N N d a f w j H w H H k z H N P P U H w w h j z z z l P w k k k z P P N N w h H H H H w h H H H w H P K K ",
"3 2 h l N N l N h z j z N z Z Z e c a b g M M v a g s u d d V J d p p d y d d M s M c j d s s d l z h j h w h j H h H H H H H q H w H q q k H h w H H H H H H H z N A l z H z w h H z N z z l h h l a l z l P w h h H H P P z z H k H H H H z H H H w z N A P l H z H z l l Y P z l j z j j H w z j k h h H P N z g g a l M g f s g s s f l v Z Z f d p d M d A Z l M l l d d M M a M N l l h a f l Z g l f g N N l j a g w p a 8 g P A z z N H j z P P A l P z z l z l z h K h l l z A N P l l H q H h N j l l z w z z z H _ _ ",
"5 2 h h z z M l l j j H l Z l v e x d b a g v M l g d y u b N D d e p a y d v M g g g g d s b j N U j k j h h l h H H H H H K H H H w h H q k q H q H H h h H q z z P l z j z k h H H P N z l j l h q z A l z j H w j z l P P w w w z P N P z H k w k P P A P l l k z z l l N N P j z j H H Y j j h j h w z l N N j z j N N Z g p g s d g g g Z M l g d s j M M Z g g g d u j d M g M M b d b a g l A g N a a g M l A l l z d a 8 d P z N P k z j N A P N l N l w l N z z z H q j w A P P P P l q H w H P z j z H z h z z z _ _ ",
"6 3 h h z N l j a a h z z l g Z r s a b g g M Z d d j a a a Z T l 9 y y s d d M g g d d d s s g l P k H H h j z H k H H H H H H H q h q q h q H H H q H H H H q l N N l z H z z k z H P I P z l j z w z N l z z w z H z N N H j w H z w P z P w k w P P N A P l z k k z l A P z P z z H P P U w H H H h k z z l N l h l P N z A l a f p g l g Z Z s s d d M v M Z g M d a y d d l l g M n d a a g g Z l l g l f N z g j z w l l 9 g Z Z N z k j l P P l N l l l w z l l P z H q k w z P A P P N H H H w P H z l z z j z z N / / ",
"5 3 z l A l A l h j h l j N v M r a a b d M l f g g b j a d M A M p y a y u a M s M d d g d M v A l h H h k j k z H H H H h H H H H H q h H H w z k H q H H h H l z A l z j z z k z H P P z z w z j h l P l N w k z z P P P z z q H l l N N P P H H w P w N P l z k H z l N A h l z z z z I I j h k H j H H z H N z H w z z N A l d l a N a Z l Z g s f d g M M g v g d j y s d Z g g M l l b M l Z a g l g a l N I l I j w l d 9 d A A z z k j N l A A l A N l w z l j z z H w w k l A P l z N q h H h P P P z h h H j N H @.K ",
"6 2 h w h l N A a h k k z l M Z p s d b d M l M d j b j n j M D l d a a s a d M p M d p a s M M A N j l w j j H H z P P h H H H k H k k k H w H H j P l H K H q l z P z z N h l l A P A z z z h j j w l H z H k h w w l N l z l H H H H H z z w w H w H P P N A P z H k z I I g h H z h l P Y w l z j k j z A z H l H l j H N N j l j l z l N A T M g g d d v M Z M g d d u y d l f d d d d d b Z g M d l d a d Z P P l M a a d 0 g P A P z z z z N l P z H z j w j H l z N P w k w H H z z l z H H H H H H H P z h z z l l Y _ ",
"6 3 h k l N N z l h j z N M v M r d a M d M M Z d b a u d j A V M p d p u M d M f f g g d s d M A N k j j h k z z H P H H H H H H w H w w H w w h P l l w H H q z P A l l j z h z w N I P z z j j h z l z z h h z z j z P l P N h q H w z H z P H h k H N A P l H z J z l P P j H w H k z I Y N z l z w z z P H N N z k h k N A g d z w z h l N I N M a p t f M v M g M d s d a f f d d d a d l l Z M g d d a g g N P l N N 8 a p l A P l N z j P P P N P z w z z w P j j j z w h H z z A P l z H h H q H k P l H j z N P P _ _ ",
"7 5 h j z z z l j j h k l l B Z 9 s d M M d M g l M a d j d l I M d b u y b d M p g f p d i g M P A z j a h z z N P A z k H H H N l z w H H H w l l P z w H H w k N A A N j w z l h l P P k z h w z l a z z k q w H q z N l l N H q H H k H H H k H w H A A P z k N I z z P I g z w w z j P _ w z j N h h N H z z l z z k l H N l h l z z H H z A P N N l d g g g g b b d y s y l f g g d l a d g Z M g d d a s g N A U a j a M 0 f A A z z l j l P P P P z l j U w j l H j H w w j z N N N z z h H H H k P P z j w z z z P _ ' ",
"5 < h w z P H z j k h l N g M Z p s s d b l v l d d j a N l g D N a p h y a N M d p g a i y p j A z z j h h l N A P z P k H H h l z z w w k H w z j P P H H H q z N P z g z z h l l z N H j H j l j w w z j H w k w w z l w z l H H H w H H w w H w h H P A A l z z J z P I I A H H h H w P Y P l z N h a a z h N j z z j k H N z l l h h z z z A A N n k l s g v d j i c u i d M g f l d d d b l Z B j d d d s g a l j l P p M 0 N A N z k j l j l P P P z z N z w w P H H I w z j z P P l j P H q H q z P H j H H z N P z / _ ",
"q < h H h H K w k k j l k g Z Z p g d a d g g M M d b h j N d D M g a a u d M M d b d u y y s l N z k j h z h P N A l l z z H H z w P w l z k w z P l l l P H q w H H H h H H h z h N A P N N z z w H w z z z h j j a a h h w k q h H H H H q H H w H w K K P l P z z N A N P l H w h H h H U j h H H H H q H k H l j z z w A P l l a j a l N l A A j N l z z l v g M s d a y a v g g d d d j M v v Z g l c J s v N l l p a d M r g Y P N N z l z l P P P P z H z w l P P z P w q H H H H H z z z j N l z l N l h k k H H P Y _ ",
"5 7 q H H q H H j j k k H f Z Z s d j b d g l l N a j j j N M A l a a d u j M M d d d s a s y N P P l l h h z N P Y P P N j H H P l l P l z w H z l N N z N H z H H h q q h h H h h l l l l z l j l z w w j k h z w A N w w j w h q q H H q H H K w h H H H N z z l P l A z P l H H h h h H U j q H h q H H h h w j k k z z z P g z z h l l N N A P j z j w z z M s v p y g s s g M g M d a d v A g l f b d d j g l l I N j d M p g N Z P N H z H z P P P z z w P z w l P N U w H w q H k H z z H l z l A N N l z h h z N A +.Y ",
"< 5 H q H H H H j z l k z g M M g M d j l N M g l j d l l N M A z d y u a a M N p s s u y d p l z N z l j h z N P P P P P z H H N l w w H w H k N l N l l l P w H H H H H h q h z l l l l H j j z z h j j z j w j w j j H z h k H q h h h H q H H w w z H P l z P z P z P P P j k H q h w N P h q H q H h H H H z w z j z j N P j j H j j z P N Z A N P h a z A A l v p e d i d g g d g c y g d Z l g f d M b d g l N A N N d d p a A N N l j z z A P P P P j z z j w N P j H w w H H h w z H z j w P l A A P l j k h z P N ' _ ",
"7 5 q H h H K w z z j z Z l Z f s c b M M M N M M j d l z V l N M d a a y a b N d d s c e d d l z N l z j j z P N P P P z z H z P l P l H w H w P P l z N l z w h H H H h H H h l h j j l z j j z g z q h H H w j j H l N z w q q H H h H H w H H w H H P P P l z z P N N I P l k w H q z N N h q H H h H q q K k H l j H l z P l j z w j z A z P P z z k a z z N l M d a i s a f g g d c a j b l Z g f d d M a M d P A N d c c p Z A A P z j h l l A I I H z z z P Y N P j H k q H w H j H l w K w P w A A l N z w j z H z / / ",
"6 3 H j H z P z k l z j M Z Z g p l M d l j M f d b n u l N M M M l h j u a l B f M g j i i d z N A N N j h z H P P l z w H k H U w H w w h H w l z l A H h H w H H H H H q H q H H w w z P l w h w I z w H H h j h H h w H H w w h H j w z j z H w H H A P A N P z H H A N P l z h k j z H P z q H h q z w h H P l w H j H z P j w N j h l z l N N z k h h d N A M A d d d y s g f M g M s d M Z Z l f g g g s g g l l p l g d 0 Z N A N N z j l j N A Y P l l z l P P P z H w q H w H H h H h H k w w l P N N H k j z l N _ _ ",
"3 3 w z H P l j k l H k Z Z D v p s l d M M M M j d n d h n l M M a d j s a l N l M M M d a a V l N z z j j z z H U z z H w H k H k H H H h H H z j l A h H h q q H H H H H q H k H w w j N H k z l k l w z H k h z j z w w k k h w j z k z H z K w H w N l N N z z H z A P P z H H h j z H I h H w H q H H z H z j w w k H z P z l w j z z z N l z l z h h w l N N N l s i s g g g g s d j M M Z g Z g f d d d v g l N a w g g w f N A l l j h w j l N A P P l l l l l P j z H H w H H k H h H w H H H z l l N j w z N P P ' _ ",
"7 3 z w P N P l z j z j l f M M t a a g N M N M l a u n N l g d N d d u h s N Z g N d M a d f l P N z z j h z l w H K H w H H H z l H H H h H q H z z z h k H w j N z z H w H w w H P w w k k w z z z l H z H w w z j N H k H h w w j z P N z z P z l A N l l l z h z h z A Y z j q N w w U Y w h H H q w H H w H H w H w H j l l l P w z P l A P z l h z j j l l l N k d d a M v g M p s i d M g g g g d s d p d g N l z a g d p g Z N P N g z z l P l N N Z N H z P j H z z h w k l z k H H w H w H w N z h k h w N N P N ....",
"q 3 P w N P I w l l k z Z Z Z M s e s y M M l M M d a a N N l l b d j k h j l Z v M d d a d g l A P H N j k N N H H H K H q H H P w w H h h H H P N H z H h H w w l N z H H w q H H P P w w H H H z N j h H H h H l z P q K h H w H z l A N z z l l l l N A P P H h z H l z P z j j w w j P P l H w H H h H H K w q H q w w l P w H j j z P A N Y z k h h l h l N j l b h s s g f g g g g a s M Z g Z g d p b a f f A A w d a l r g A l z z z z l N N P N A z w j l P j N H z h k w l z z j q H H H w H N H z k H w w z z N _ ' ",
"5 3 z z l A P l j l z z j l Z l p a d y a v l M l a a j k I N N z a h l h l M N l Z v d d d d V P A N P z w w K K P P H H w H H P A z A w H H k H H w P H H H w w H H z P z w H w H q H l w z l l z P z N P P z j H P P j j P w w H h h H H z P l l H j l l l l z k z z z P Y z j w z w N N Y l P N l w H k H P w w H H q h H H l l l l z z N l I l w z h q H H H w h k h h j l M v f g f d d g M M M g g a b y f g M l a a d d f g A l z j z k l l l A N N z z z l N z z N N j H q H H k H w k z H k w N P z l w w h H H k / ' ",
"3 3 h w N P P l P w h k z M Z Z s p a y d l M N l d j j b J M M l f j l l j M V g N M d M d g N l A z P H z k H I P z H z z H H P w N z H w H w H H P H w K H q w P P z H H H w H H H k w l w l l l A l w P P z k j z P z w l H H w H h H H l l l j H P N P N l z l z l N z I l I j w l w l P A z l H H w j H z H H w h h q h w l j z w z H P N I P z z H w q H H h h H j h d g Z v g l d p d d v g M g d a d s f g v A a y d x f g P N z h h j j l N A P z z j j j N A A A P w h H w h w k z k w H z H z P P l H H h H H H _ _ ",
"3 3 j h l l P l z w H h l Z D g i s d y d l M M N l l N N J Z M d l d j l M M Z Z f l d d d d l P A P z H H H w P P P w H H H z P A N l H k H H H P z P k k H q l z P z w z H H H P w k z w w z l z P l l l z j z j z P z H H H k w j H P P l j K w j H P N P H z h l h l g A l P l l w z w w z H H H H z H P z H z w h h w w H l j j j z z I N A N N z H w w k w H H w j a M v Z Z g M g y M b g M M g s d a y f l M l N p d a d l A P z H j j j j g z P N z h j z j z P H P z w H j k H z j w w H H w z H w H w w H w w N ' / ",
"3 7 z h N l A l z l w z g Z D g d d a y d c M M M h l b l R A N g p l j d N l N g M M g d d M l N P l H H w w H P P I P j H H P P w A l w H k w H H P w w k H q w l N l P H w H H P H H Y w N z l N P N N z H z H z H l P w w k k k w j N P N z H H w l P P P w k h z h N P N z z H w l N N z w k w H h P P N P H H w w h h h h w w z j z z P H z j z j H w H H H w q h j p v d g g g M g i d M g M M s g b b y s g v l d l b s f g A N z k z h w j g N N N H h j z l N P H P w w j z H H H H l H w H H H k H H H q H k z z / U ",
"5 3 k h z H P w z j j j j Z Z g s M d a g l Z Z M b N l n I N A M f l j j l l M g M g d a d b j P N l w w w z l l z P z w P K z Y l A w P A H w H H H k k h H q j z P P z H h H z j P N N l w l w P P l N A z w z P N A l z w H H w H H N P z H H w w H K H P H z z H w A j Y P P l w l w g N a H h w j H H P z H H z w k h z z a a A l z l P P A l z j j l H H A z j j j a d g v v f f a s d M g v Z g j a s y f p M g g p d d p l Z P z z z h z z j P A N z z j l N N I P P w w H H H N z z j H q h H H H H w H w H P N N Y U ",
"3 2 h k z P P a j h j j g M A g g d b u l l g Z N j b n b J Z Z l a g a d d M M g M g l x s j j P P P P H z z l P N P P H H H z A Z A A w A H H K H k k k k k q j l z w z w H w H w P Y P l A w w w I N N A P z l w l P P P w H w H H w N N z l H H H w z H l z z w P j l P P A l P l l N g N w H w H j z j N P H H z z h h h z w h l z N A P P P z N w H w w z l z j a a u s g f g g s i d d c g v l f c s b y d v g g d d d x f f Z l H z z h j P l l z z l w j l l z P P z H w H w H P z H H H w H w k H H w w k w w P N _ / ",
"3 2 h h z P U w z h j z Z g Z g s s a p d M l l A l j N N I N A Z a d l j l M M f M g c d d l N H l k k H H H H l P P P w H z z A A A A A z P w H H H H k H k q H l Y w z j H z j w j l P l N l w z N l A w Y w w H l P P j P z w l l l N l z z q h H H j P l l z w z N l l l P l N l w j N A w w w z z j l P P w w P w P z w l a l H w z z A l N l N l k k k j z z N l h u s d g g c s a a d g v Z g f s y d s l f v M d p d i p f Z j z z z h j N l l H z H h j l l P H P z k z w w l l l k h h H H H H H k H k w H H H P _ _ ",
"3 2 w j z P Y j z h j l A Z D v s g a y g l Z l l M M N N J M A l d d l j d N M g M d M y p l M H H w H w w H z w P A w H K H l N l l w w P w P H P K H h k H q j z P P z H w k z w P N A P N w l z w w l l P l w k N P z P z H H w l l A z z H H q H h w H j z k h l l P P P z A z P N l j z d j H w w w l P l P H I z w P l l h w z j l z A l N l z l w H k k z l z b n j p v v d M g g i d c g g Z p d a d p g f g g s y c s f f Z l z H z w w j N P z k j k w l z l P P P h l z z N l l H w q q q h w H k H k k w H P P ' / ",
"5 3 l z N A Y w P h j k z l A v g g d e d M Z g M d j N A Y Z Z l a j l h M M Z g l s d s a j N w w w A w w P z w g N z z I H k z j H w H h H H H z P l l H H q l z A l N l z k P l P N l l j l M v a p d d H l w H H P z N w P H q H k H j l w w H H H l l z w h k H w H H P l l l j l l l P w l j K w w H N P h I l N l P U N a l j j l z P a z j h k k k z l M g g z n h c g M g g g a y y g g f M s d a c p d d f g g y a s f g g l l N z j j l l H z z H h H w H z l l N z w k w P l w H k w k H w z z P z H h k k H P ../ ",
"7 < z w z A U l z a h k P Z D f t a d y a M Z l l g d j l P N l g g d d a l l Z g M d a d M a l P z l N l w w Y z j w l k k P z H w H H H q h q w P P P H w H q w z P N P w z z z w Y Y P l l z l M Z f g a l a w w P w l l N j H w w H z H z l H w w H N N N j w w w H w z P w j z N w I a d a w H H w w P w l U H A l j l w Y a a l j j h P j l z z j w j z z N N z l j k j s g f x g b d s d l g g p p g j y v g f d p s y i p g Z l P A j j j h l l z l z h k k P N z H l l H k j H H z j w H w z H z P w H k k k H H z _ _ ",
"5 3 l w l A N j z j a l A Z Z Z e p j s b M M M d d d j N A M N g g d j a d l Z M v g y l a l w w Y l w l w P w l w a z z k H H P w w H w k H q Y P z P K q H q l z z A A l l z z N a P P l z l N g S v a w P l H w z l l z l l j j z z z l w l w H j w l z z z H q H h H H K K g a Z g M p M w w w P l w l P l j h P z l N l P z w j z z z H h z h H k k h z H N N z h l a g d g s g d g d a d M g l g s d a s p d x s e s y s p g Z g N H j k z z l N z l w h w z P w z z H j j k z P z H H w q w w P A z P P w k H h P P _ _ ",
"5 3 h j z l P l P k h l Z A v Z s s d a a M M M l p j d l N d l w p b a d a g Z f l g p a I P N w N P l w A A l N w l k z l z l I w H w H h K q P P w z H H H q w l N P P l l H N A z P A _ N l g v Z Z M g l p z z w l w w P z j w z z N z z z H h l j l z z j q q H w H k h H l f g v M d N l q j z z l P j H P z l l A w l l w z h w l z H l l g w j j h j H N z N l j h g d f g d s d d c c v g f g j d u i c g d g g i y a r s v g l k k H z N l z l l z j H w P P l l H j w j P P j H K k k w P w l P w z k k k k P P ..' ",
"q 3 h j j A P g N z k z N A f M s p c y d g l Z M a a a w P h w w w j w a a l g g f a f d h l g P w w w l N A a P j N j k h H h P w P w w H H H H H H h H H k q w z P z H H w H z a A l N l w P D M D Z D v N d a l w l w w P P j k H z H H H H w q H h z N z j H q h h q H H q N g x B B B B 9 w w j w g w I w l l N M Z Z Z g d N l h w z P w N l l j w k H z A N z l l w g v g f g s s d a s g g p s c d s y g g g d s c 9 s r s f g j z N n H z z P z z j j w H H z l j P z k w H H k H H w k h h H P P H z H H w H w P ' _ ",
"5 3 H w l l A d z h N N z I v Z g s d e p g l M l d a b l P l a 9 9 a a w a l f g p p a a g z j A Y P N N l g l A P A z k H k h P w N l H w h h H H H H H H H q l l z N z k H H z h a a l P P P M D ~ S S M l 9 N l l a w P w w j h k z H H h q H k h H j z z z H q q H H q H q d z M Z Z F m e w w z j l z P w N z g S D S S f l a g l j j P l z l z z j h h z N l l l k j s p v v f p d d d d g v s s g a b y d s g s s u y y p s g g j j k N z H A P H H j j w k z j P w l l w k w H w k H k q k H w w H H z k w H H Y P ' / ",
"7 3 k w l l P a z j z j A P Z g a s d y r p l g c p y l j N a l 5 w d w a w g l l g f f l l z z l w P w l N N a l l w P z H H j P w l w w k H w H w H q h H H q z P Y z H z j w l l l l l P j l Z S Q S S Z D g N w l l z w z P j j H z H h h H h H h H z z k h q q K h q H H H d M M m S G B v h w H z N N z l l d v S S G Z x d a w H z w N l z z z l z w j g N l l l j w w a g v l g g a c d M v s d u s u u a s g i u i s y p g g s d d j N P z N P H k h j h H H H P z z z H H q H H H l H h h h w w H H H w H w P w P _ Y ",
"6 3 k k l l P h z l l j N A Z f x a d p d d g v l a a a P l l h w w w w l 0 z 9 g d a l a a l j l l N A l w a N P A w l w H H z P w N l q q H w H H H k H H H q w N l N z l H w z l A l l w A l M M D F F S Z v A A j N N w j w z w h H H H H q H q h H H H k H H q k q H q q q d l B V S F m x g w j 6 g N N M P z f v S S Z v g z w w k H l z l z z j j z j z l l j w z k h h g v g g b y a s a g g a d y s d b g a d j d s s s f v g l j h j z P N N N P j j H w H z P z z j w H w H H H j z h q q H H w H w k k k P Y P ' _ ",
"6 3 h q H q H h z h j h k P Z p f s j i j s d g d p d N l R N j w 7 p 9 p l j a g l g g y V l l l A N a z N j a N Y N w a z H H A w A l w l H w P N A z A N H w k z A N l l l j w k H w w P j N Z D Q S Z V B s v D Z D l d w d z M a z P A l g H q H h H H h H z g h h l l N a N b c V F F C s g s b p f l N l A d M M V F S S v x m m g N z d l z z z k H k P N N N j h a g g f g v M a i b j s g d a u h i y s j d d s d y y p g v g g M n k N H N A A P k k l j N N z z k z l h j N l z z h h h H q H h j j j h z H H P ' _ ",
"3 6 H H H H H k H h h h j P A w f p c y b l M v l a a N U I a p l w b y p q d h g a g d y z l z a z A w P U A a z N N N U N H H P l z z l w H j P z N A H I H w h j l z l j z z H z H H j l N z A p D M F S B s v x z P v l a d a N N z Y P z z q H q H q q H H z N l z h z N z M N M M B V B x s s M d p M l a N j V V F E ~ F B B B B B N P d l l l j j z z N l N l h u u e s g f g M b d u d g f g p s s u c s M v M d g d y p f Z g M g l l N K A A A z N z j z N l z z z h z h j N z z z h H q H q h H h H H w h z H P ' _ ",
"6 < K w P z H w z j j j l P A p p s d e a s l g l p j h N j a p w a d d j a a w h f d a y l l l l N l N N l N N N I l l w A N z P w P z H w k w N A A A P H H w k l z l z j w z H w l l z w P P I A A M D V B m F c g l Z M x s g l l A P P N z H q w H q q H H z z z z N P l w z l d N B F V B c s c c v Z I A I P P T G F ^ F B v v m B F N Z l a j j h H l z N j l k k k a s s f g s a d s b M l M p c u s j d l v d d d d i r v v f g M l n l z A P P N z z w H z g l z k w w H l P z l z w k k h q h H H q k h h z N P ' ' ",
"q 3 H H z z H z z k h k H P P p r p g y d d l a a a l P k j U l a a d d a a z w p f f f j N l l w l j g A l l w I N Z a N N N N P w z A H w k H P Z N N N H z h z z N j z z h k H z P l P P I P N l P l I B V c x Z M l M g x s g l Y P P A z H H w h H H q h H N h l l N N A a j z N I T D F B V B B B v F S M l P I D F F ] F x m C m B S M R P j g h h z z z N N h u h h p c s M d s a c s a M v Z d d d u c c M g g c j b i f g Z g v g d N N A l A A z z z k k N N z w H j h j z P z N H h h q h H q H h H k q j j z P ' _ ",
"7 3 H H l z P w k z j j N P I a i s d d d d d p P w H P N h I h f g N P a d a g z a g f z I l j P N A w l A w w I l U N M P z N w q H q h w H w N A N N H H H q j A P j z z z h z z z P I w l N A N N g l N M l M v B N M b c c g w w P P P N N H w H w P w w l l l l h a N P a l l I V Q T B M F C C B V F F S N H M J F F ^ F v B C m F S F v Y l l w j j z k l l j h h u y d f g f a s d s a g v Z l g p d d g M g v d s a i r g v g g B a b z z z A A A z z j H H H z l l j w k H H H l j z q h h H H q H q k k l l N A _ _ ",
"7 3 H j j N P l z j h j N P Y g p a i y c N a a g w z l z H z z l w N l N N j g l w Z l z z w z l w A l l A l P P l l A M l Z Z K 7 H q w H H w N A P N z H H h w z P l z N z z P z P l A l P P z N Y l N P U l l M B l M c b c g a w w A l P l H h q K P P w w j l N z l N N N N N d N I T D V V C E V S F F B V J l V F Q ^ B v v C C F S G v Y P k w w j H z N l j j h h y p v g M d d a u c g M g g d g s j g M M g g y a y p g v Z M M j n k z A A z z z z H w z z N z z w w H j H N H j z h h h H H H H q k w l l N N _ ..",
"5 3 H z N P z w z h z k P P Y N d t d e j j h p a d h N z l I p d N N l P I P w w w l j z l z l A w A w w A l g A N l l V M M a H h h H q H H q A A P P H K k h w N A z l z h z l j N Y I l l w N N P z j g l l N a M N j M b c v v z w j z l N j j j l l N l z P l g N z z N l l N N B T T F M B B C C F G F B B M V l F ~ ~ B m m v S v F G S w N P k w j j k z z l h a h y t g f v d y i y b g Z g p g a s u p M M M d d c s t f Z v g g M N l N P A Z z P k z l z N P h H h w h h H z z h k h k n h q H q H k j l N A P ....",
"q 3 H z P I P z z w l l z U Y l d a d y l P z l j l z a N l P l g a N N l P j P h g l w k P l l w A z w A l w N A P N z V C S M H q q H q q H H N z N N z J k h j j z z z z z j l l N Y A l l j l l P l l l A l l N d j M V V i v S l w z w w l j w j w w l l j j l l N j P Z p I N A B D T Q N m B C F F F F v C x M B C G ~ C x B B m B S F S Z A P P h h j k A w l h y u y p g s g d a y p s M g g g d d d i g v M j c d j s p f Z v M s a N z z A A z z z k j N z N H z z h h j z H H H z h h h n h H H H q H j w l N A _ _ ",
"q 5 H z N P I z z j j w z A Y N l d g y p a l P a j j g Z H z N w z j A l A P l w N l l k h j K w P P l l l l l l I A z B C V S N t M p j l a j N l N A z z j h j l z l z k z H k j z I w l j l f A z w l l J l l N M N N B M c f S M p w j p j j h l a P N l w N w w P w l I l g w I A Z Z B V c m C D ~ E Q D C B m b C E E F x C C B F v F v M h z k j j k l N a w h j w u a f g d g a s y y M v d s d d b s g M v g g d c a r f g v g g d M z A A A A z z j z H P P z z H w H q H H H h z w w w z l z l z l k w h H H P ' Y ",
"6 3 j z N A A g N h h z N P I l d d c y d l N d P z l a M g I N g l P l l A P w Y w l l w k w H Y N P l N A l P N Z N Y V C V B A g B x s a h a H l A z H K H h w l P w H j j w w z l N Y w l a l a l P p l I d a M N B l g M B c B M Z w a w a h h h k w P l l z N N w N l P w N h A N I T B N v c V c Q ~ ~ F C C V B V ~ ~ B v m m m B F F B B M z j k k z j l a l l h h i a f v p d d a s a f M M g d d j s g M g g M d a b t g Z Z g f g M N P A P z z H j H w w P P P H w q H q H H H H h h q H P P P l l H H H h j H ' / ",
"7 5 k h z A g a H z h z z z A j j a s a j A z l N g l A M Z P A w P N I l l A w w A a z w k z H P w l l A l P w z P A Y V F F V Z r m v x a h a z Z A l k j H h w l A w k k H H l w z N U w j g Z l l l l N V N c g N M z l d M V Z v l j w a w z a a h l j w z l N z P z w Y l f I l P l Z D V g M F V F S Q D V B C B I E ~ S m v B m F B G F B c H k j k z z l w h z h a u v M g d s i s y b l Z M g s j j d g M g p g M b b p f f Z v g s d l l N P z z H z k H w z H H P k H w H H k z z H H q l w N N P j k w H H P z Y Y ",
"3 5 k h z N z a z z h z H A I l d b a i j N A l l N z g l D l g l w l P l Y A l I w l z j k l z w P l w N z P P l l l l ! F m V S s M B c c j a z A z l k k h q j l A z h H w w l j z N l l j N g g w w U M N M M Z M B V j M I d M Z M h a w q w l k l l l N f w A P I N w P l l l z I I N ! V c g M B F D D D B m B B N Q Q T B v C C F B F B V c w z h j H z N j j l b j g d g v g d a d s u M M M s d a M d g v M f g d a d 0 f g v M g s d l A A A A z z H k H H k z z H k h w H H z H j z H w l w l l l z w H H w l H ' _ ",
"7 5 H h k z N w h z j h H H I z z j u y N a N N z P P a f Z S f A l N P N l l l l l w z w z H H P w z l N P P N A P N P I Y F F S t v v s x d a j N A l l j k h w l j w H l k k z z l P A I l A Z Z S v Z M M l M M l M B M l l z N N Z a d w h w a w z z a A a w l w l P z z z N z l d Z Z I B N d B g T R Z V V c m B T E ~ F F V m B C F F S V v m V k h H h l P a k j h a s g f f d d a p a Z Z M M d p M c M M M M d a d c 9 s v Z g s s b j l Z Z N N l j z z l l P z P j H w H H K w H h q q H h z N w P z z P l z N ' ' ",
"7 6 H k z H A j j j h z z z P g l h h q I a N l j N l N Z I F v l P f l l l P l l N l w k j w z w l l N A w w P l l l l N I F S F t M v p s C 9 l A z l j j H h l z P l H w w k l z l P l I A l A A F v B Z M c j M M Z M B b I M A g M d l q j w w 9 j l l a l z Y P A I w z P P l Y A l B F M g c V m Z T T P B c m B D Q ~ F B B m C C F S F B c c N z k H z a l a w z a s d g g M d g d l w g g Z M d a a a g g g v M s d d 9 f g Z g s p j l l P N z l l l z H N P H N P j w H H w H H h h h h H h l P z z H w w P P P ' _ ",
"6 3 z H z P P h z h j j k z I j l l z q l a N N l j w z l Z D Z w l N P P A l w A l w w k w H z z w P l w P P w w N l N z I D S F t x v M d c d j N N l k j j k w l P l H z j j z h N A A Y N A v Z G v v m m v M B d d M B c c l T l d g y l p w l q j a l N N A A A A P z l z d I p I B B V m c x m v D N j T B m B B F F Q F v B m B B F G F V B M N j j z l H l l l p h d d f g M d a d g a d M g g g d c l g v d M b u d b 8 g v Z g g g s g l N N z l l h z z N P P H H z w K k H H H q k H q q H l H k H w w l N A A ' ' ",
"; & * * = = ; o & o o & o = - $ + + & o O + + + - $ - $ % % % @ X + $ X ; $ o $ $ $ $ X & o & & = = = = = o = = = = = = - - - % : O : @ @ @ # @ o = - $ & & & o o = & o o o & o = = = = $ ; = - % : : : # : # : @ # % # # @ @ @ + - ; % + # O + + o X X o = = $ $ = = = = = - ; $ $ = - + > > > @ @ # : % ; + : : @ % @ > > > : : # @ # # : > : # % # + & & = + $ - O , + + @ O % # # # . @ O + o % % % $ X + = O + @ + @ @ o +   O @ % @ O O X + $ - = = & o o = o = ; = = = ; o & & * & & < & & o & o & & = & & & o $ = = = l ",
"7 / >.#.#...,.*.#.+.) #._ *.,...) +.+.+.' _ &.*.-._ ` :.;.2.O.{ ~ ! &.*.U ,...&...#._ +.+.+...&.Y ..+.-.......:.*.>.-._ ) 5.1.O.O.T  .[ [ { { ] O.I -.+.+.+.+.+._ ' *.+.+.+.+.) +.........-...,.3.4.2.1.<. .[ <. .O.O.O. .1. .{  . .O.4.o.' ( ' _ ) I R / ..-.....&.&.....&._ :.&.&...6.*.8.2.<. .|  .7.2.2.O.2.1.| <.<.$.2.0.7.O.O. . .2.<.8.2.O.X.| Q +.+.#.-.&.-.&.U ../ ) W ;.o.X.o.' _ } _ _ U o...' ......P &.o.` o.' } =.D ( ^ ;.^ ' { R ( =.*.,.&.+./ +.+.+.&.5.-.-.&.-.) +.*.*.-.#...+.#.+.+.+.*.*.&.*..._ #.#.&..._ ' ",
"7 7 w k H P U w H w H H z P P N l j k h z A w N N N z U N I Z Z s s M N a l A M l w h w w j j N I z z P j N l l l N P U U U B M D s B m i x c x Z M z z k H k k w l N w h k h w z H l A N A N A E F F F B m m m m B C v B m c c m B T F c v p l w h j q w A l l P l l l N l z l l N N A l P Q F v x B B F F F F C V V B B F F m v m B c m C G S B B B p j z z N A P N q l w p p g s p p g d N A l N j l P P l z w z M a g p j M 8 g g Z M s d i p N N N P z j h j j l A N N z P h z z H P P z z H H H z z N A l z w q H j z _ / ",
"7 7 H H z P I l h w H w z z P w h z H h H z l f Y z a N P P Y M c x c x a a a l l N w j H k j P P q w P l w z Y I l d N I N R d M t x m c m B s B v j l h h h u w z N N j z k h j z A w N l N g B D M V m b b B c C B M B B m b B C G F v v s g P H H w w w z l l l z A w P l A A P a P g H I S m B B V G F F v V m B C F F G B x m m m C S S B V B B l k j l A l Z H l a s p s f g g g d d A a N l l l P z w w w w M f c d d b 8 g f g v d g d p M M A z N j a h H j z N l z P h z j H A N z l j H z z A l l z z q h H N l _ ' ",
"7 7 H P P P I z H H w l H z Y l h j z l z P N N A j l A U P P P x m s g g j l p l w z h w k N N z l z N P N w P _ P V N I J ! B B y c i i s C s B f q q h j k k z H P P z z h H l N A l l A A a M A B c n n d b m B B B B B B b b C F ~ v x x v a z N l w w l R w l z A z w l w l P N N N P ! F c B V D G G F B B x m B V G F V t v v c B Z F B B B c g j j l z A l z l k s s d v v d g l I N N l l N l I I N P h H a g a a a b 9 v l M f s p s p l l z k z j h j H l H z k k H h z j z P z l j z z l z z A z z H w H w N N _ _ ",
"7 3 H H H P U j H q h H N l P A g l z j z N N N l w P A w U P g x c c x v S p p w l j l N l N A N w z w l z A A I l P l J R C B F t x s t t x c v Z v l H J H k z P P P z z h h z H N j A N N N d Z j N N N l N M M M B M V m m m T T ] S c v m l l l U q q z P w I N I P w Y P l d N l l Z N T s c B F F F F C B m B B m F F S c m B m B S F v B B B c d j z A z z k l l s u c v g d g a Z g l Z j N l l A N P w z h a s d d b 9 v g Z l l d y a l l A l l z h h z z P N l z H w H H z z N z l h z k k l k N z H w k w l a Y Y ",
"7 3 j z H H I z h H q H z l I N g z j j P l P N l l j P P H I P i B m c v Z F p H w l l w z N z N l P N N N z l I l l N V T F B D s c c x x F F G F I Z N J H k l P P N H z w z z N N j j A A l B j N H a l k N M j N B V N b m c T C ^ F m c v d 0 l z q 9 q l P l w Y w z P w I M p A M P I I v m B B G F F v B m B B F F F B x x m c B F S v S m m m p l N N A P N l h s d b M s f d p z z N j l l a l l l P w l a w j y c N 6 g g z a a a s a l 9 N h j j j h z l N N g z z w H h k z l z l h H k H z l z w H w k H l l _ _ ",
"7 3 k j H H K H H H H H z P I l z j w h P z A N l z l l I P Y z p c c b D F D l P w w w l w w A P w P l g w A l P Z P l b C ~ F F v m B m m F F G Z S M N k H N l z N P P w j j j H l Y l a l k z d d l N j N H N N M l B V V m C L E E B S B m g 0 l U a v 9 8 H w P w N P l z a N g M Z D Q T B c C B F G F C V B B m F F ~ F t c c x m F F S v v B x q k z l M A H j c d a g M g d d a d l N h w l I A l l I a l a 0 j a h V 9 w l z l p l y g N a l h l l j l H l z z z l H w H l a A g h z h k k H A P g j w H w H z l _ _ ",
"3 5 H w h H K q H H q H N P Y N z H h w z l z A z l l l P z I w p c m b F F D M w j P w l z w z P w z w l j d U Z l P P R C ] ~ G m B x m m B Z F F D a H j k k w P l l P H j z z P w l N j a h l l l N a h N b a a M M c N b b m ~ F ~ F C B c m s a I a d b a w P l l w z z P I N M D F G Q F C m V F F S B B B V B B B F G F c c c v m S F v B m m x a l H z N N J b d c d y v s M g g a l N N N 0 N l Y N P N z l j a d u I w p a P l a d y p j Z a l z k a j z z P l z k H w z z j z N h h h H H k N N z l q q w l l l _ _ ",
"3 3 k w H P H P H w H H H H P z j j h w H z H H j w z H H l _ H 0 p M x B V F v c p l l l a N j l j P w w l l P l Y P A ^ T ] B F x B s x m C B G G S S f M N k l P z P z l w l j z N z N I l z l N a N l a l N b M M a b d b i c E ~ ] C C m v m x v M l d d d w w w P l I l w z N g A F G ~ G C B B F F F F B V B m B B E C V m m x m C B G S c m c x w j A A A z A l i a c d M p g g d d l A l l l l l l z A z d l j l w P U 7 w l z a w l y a g N a H H H j h H z P z h l z q j k j z z l h w H H H z H K w H q h H q h ) / ",
"7 3 H H H P N j H H k w H H I l j z H h w k z z H k z j H I H P a p d g M C F v x q h w l z w g l l N j A P P P P U R M ! W { F F t x x i B S v G S S S g g k N l z A A P l z z j l N N a z H U k j j z k a N M M N J V B M N V B C C ~ F C m c m c v M M M x c H P w H w d z l a N A g S G G D B B B B F F F B m m m B B E G V v x x m C B F F S c M c j l z P A N M g d i d b M s g s d d N A P P w l l a N N a z N j A l j N 5 w w z g a N y d l l A h w w w j z z U z z l H h H j z l l l l H w z P l H H H q H h H H H ) ) ",
"7 3 j h l N P j H w w k w P Y z w h z z z l l N H H H w w P H P z w l p B Z G v v q Z j d a z z z l P P P N l P l g I I b E ^ G F x x x s v m x S G F v m M N h l N l A H H H j h l l N A a z w z h a l j a a N d J M a M M m m m W C G ~ F C m m t v g a D B c l j P H a d a M M g Z Z x S Q E m F V V S F F B B c m V V F ~ F v v x B B B F F F V g B a z N N I Z g g g d g c Z s s d d s l l z l j l a l a P N N g g P w z l q z l a g s a p d g z z h k h j w k H P z z j H w j H z N z k h w H H P z N H w k q H H w H ) / ",
"7 3 H w N N Y w H k H H H H I z P j j w z N N l K w H h H z I w l d a l I M D v c g l l P g P z P N P P l P l N l l M N B C W C F x B x x B B x v S F B c c d k N N P l l H j H z N N l z A P P p U h j N k M R p M N j b M b m B ^ E V F B F m m f v Z A D B x l z j w a d v M M M M D F F E F v C V S F G V F V m c B F F E F m m c m V F F F B C f g j l A A P Z g g b d d g M d g g a d N I l I l P j Y h P a P l w z z l Y w w w j a g d s d l H H z h l z k z l P z j j z h H z P N z z l H h w l z N H H H q q H H H / / ",
"7 7 z z N N P l H w k w l N P N j k h k j h P l l z w k H U U H w l a j M N N B S B l l P w l w N A l N N I w U N a N J c C ] B G m v x x m B v S v F B V B B d a z Z M z j l l d d d v s d N n z z N z n a a M a N M M b V c B V W F F F B C m B c v v d S V B M g g x d M v c x c m S Z S F G m B F F G G C F C m V B F F ~ F B x m m F F B F B v B v l a P A A M f f g d g d M g M g d p l P w z P P l z A P l P R B N a j P 2 j l a p s c d j N M N z z l h k z z N z z h H w H l H N z z l h h h H z H w z K w w H H z ' _ ",
"5 7 w P P N P l H k k H l P P N H k H h z j l N z j H H w P K w a a a l l l g N v v M Z P l A P l l z P P I w P z h N V m C ^ F F v v x c m B v S Z F B c c B Z h g M M j a p a g y d M s d s N N N H z N j j K l l N Z M M c b b E Q F F F C B V v m S p B V M c v v v M d B B c c m F F S G F B m F B Q ~ F F B B b B E F ~ F B B B C m G F F B m c x N 0 l A Z Z g g s a a d Z f M g b a I N l w w l l Y a I P z l M Z f l I w a q h s s a g v N N A z z h h j z H I N z k j q k j H P z P N H H H q H H H H H w w H H H _ / ",
"3 3 z z A A Y l H H H w N P P z j j z w l l z l j k k H H H U w 6 a a a N M N l Z Z l l w w P w w P N w z P H P / p h V V m F B v x m v m m C m F S C F B c S B w f v f f d g g g s g v d s s d l z z l z N a l z j q l N j j N V C Q C C F C m V c B S A D F C V B c B c f B B b c m V F F G F m m B F F G F E C C m B F ~ ~ F B m m C v F E C B B c x w a g g g Z g Z g s d b M v M g d d M N z l P z z N A U l A M M N M p l 9 w a p c g d i M D Z I P z j z k k z I N z l H h k h z N N z N k H H q H H H h H q H w l z ../ ",
"3 3 P w z N Y z H w H l z N I l j j H w j l N A k k w w H H K K 6 l l 9 M Z l w Z Z g A l z z w l N N z l P l H ( a I b C V E F S x m v c x F S F S B C V c B A a f M M g f l d a g v v s d y s N z l P d l N z N l a j l l j J b T E V F F F m B B v D M F F F F C B B F v M d m m V B v F G G B B B C F F F C B m B B F ~ ~ E B v v C B F G F B B m i a w p f g g g v d a c d Z M Z v d d d H l A w I A d l P l Y A A N N P z 7 l a d s p g s j A A N H H j z k H z P N N l H h k k j N z N N H H H q w H H k H q H w P H _ Y ",
"3 3 z j l N A A A z k z h H U l j j j k h z N l l l l j H H K K w w h w p g A l M B B d M M p A N P N h U N l N Y P P P m C L F G x x x m c F S F B v B m C m F x a v Z M p M a d d v M p p s y j l I z l j N I N l N z h z h w R F F ~ D T V B B C B V M M F F C B B S S B F S c m C B Z F F F B B C F G G F F B v C m F ~ ~ ~ B B B B S S G G c B B c l a l f g g v d a y x g M Z v M v d d N P z l l N P l P w P P l z A P P q l l l p w p g a M N Z N N N z k P A P z z h H a k z l z N z l h H H H z A Z z H h l l N N ' ' ",
"3 7 h z z A A a z l z z z H P j j j j z H H N z l z H z w H H w 0 w w j l l A v M B M d M B g a w l N g l g l P N P l A V C W C F v v x B m C B F S F F m v B x x f 0 f M f c a c M M N g p d a d l l z l l N N z N U w l g A z A I ~ F D T V m c B B B B M B V F C F v B F B B M B F F F F F B m v F v F G G F v m C B G ~ ] F F v m B B F F G B B B c w a w g g v M d d i y g v f l g d j l l A A P l P l l Y P P U P z N H P q a w g f p t g g M N N z N N z l l z I z k j H q k N N Z l J N h H h H l Z P l j h b N j N ' ' ",
"3 3 z h l N P z z l j z z P Y l j z j z H z l N H w w H H H H H w z j 9 l I g g M M B d Z v v l a w A z w w N l j N P V C C ~ F F x x x c c F v F G F B m C C x v v p f g g d s d Z g v d d a y a U I H z z p N N N N z z w j l N U Q G D E C C B B v S M N c m m C F F F F F m c B v v F F F V v m m F F S G F C v C B F ~ ~ F S S B C C F F F m m m c h N a N f g M b d d g g g Z l M s b l N N Y j I l w l Y l Y w z z l P H w z w l s r e d g N Z N N N l N z H N Y z z z H q z A l l z N N q H H q M M l M l a N N M g ! ' ",
"3 1 k l N N P d l z z w l N Y l j j j z j H z l H k H w w H K q w a a w P Z A l Z A B c F M M v l j z P N z j l N N N V B C F S F x x s x x B v F F F B c c C F x Z v p w p j a p l v M c M a b p z z J j z z I z I P P l l z P N I I F F D V B V V M v N N M c c B B Z F F F C m B v F G G E F m m x x S F F S B m B F F ~ G C x m m B B B F F v C c c f l w d f Z M b d b a d g g g M d d N d w P P N Y z N P N P N P z l P P q w l g s p e y g M N N l N l l H z N I N N j H h z N z A A A g H h h H M M v g g p M x Z v Q ! ",
"4 1 d j l N I d H w H w l N I l l z z w z N A N H w H q k H K H w h h 9 l M Z f J B B m B F v Z j w N z P w l l z N V C V C T C S x x i m m S B S S F C x c C C x S S v e a u s p M M M g M a d p l l I I N I H l N N l N w w l A U U F F F B B B m M M l j b V m v B S x F F B C C V F F F F F v x m v S F F S B B m S F Q ~ F x v m m m F S F B F m c x d j a M Z g Z d g i a f f f M g s N I Y P z Y w w Y P z z w H P w w H a p l M p p d p d l Z N z l j z z H z I M z l k w k H z Z l l l u h s p v v g f s s v d g v I Q ",
"4 1 s g l N I l H H w H l P P l z z z h l l A A H H h H h H K H w a z w j Z Z S M M B m N I S v g z l N I I P z l P I V L C C E F x x x x m m B v B B m m c C C v S v B d h u s a d g l M g d d p d l M A M M a I l l P N z P l l ! I Y B F F c B B c N l j N c m m m F F S F S m B V F F F F F m m m v S F F F B B c m F F ^ F x m m v B F F S v C C c m M a a g v g a a j d s g l f g d a j N z Y w l P N P N P w P Y P H w z l M l M v t g p l a M A N H j l z H N P z k z z h k H A Z M l p h u p s f v f g a p g d v Z R T ",
"8 4 Z d g Z A z w H k w z N Y l h w z H A l P P H H H w k H H H w w w w N N A v M V B B M Z Z v v j w I z w I P I N T C V L E C S x x s c c C v S S C m c m B C v S c B M b a d a d d f g p j d a d M M M Z l d l A A A z P l l l Z N R D B F B b B N d l l M V m m v S S B C B c C V F F G F C m B m C F F G v V c m F F F F G m v c m B F F F x B v c x p d h g v M v a b a g g g f a p y p M A N Y l A P w P P P H P P z H z w a a M g s p i f g f l N N z l l z z N H z j j j a z l M M d d h b i c Z f g f s s g g g Z Q R ",
"4 1 f f g M P j h H w z w P Y j j h z w N P A Y H w w H q H H H w h l j l h A Z Z I M M M F Z B Z A w z P P l w A N A L C C W E F x x x i c C m F F C B m x B C Z D B B c c a a c M l l g d p a a a d M Z M g a w l l Z P P A A R R P Z A l M V c b N J l j N C V B F F S B v B c m C F G F E F x m m v S v F F B c B C F F Q F m B c c v S F F F m C c x x y p M g M l b c a l g M d d s y y d N z P P w l Y N z z w z w H w H 9 A N v g s e p a M l N N N h j z z N A P z z a a a l l M M v g i c y a v Z g f i y g v M f I Q ",
"4 4 c p g l N a H w q h H H K H h h z h z H P P H H H h k z P P a a l l l P I Z V Z M m B V M Z l Z N a A P l h b N m V V E E E B B x i c x v m v F B v B x m F v F B v B t d a l l w l j b d i j g g v M M M d a f g M g Z l N N _ _ Y M M l l g l a j l l M Z B C C F S S F B m m B F F G F F c m B F B S F B B c m v G E G F B B B c B C Q F C C m c c M l w a l g g d u b d M Z l M j a u a w A l A w P P l l P l l H w H z w w g l v d d y p d M l z H a h j h l P N N l j u a d g g v f d x d p f g v M s s y s g v g Q T ",
"1 1 a p f Z N d H h H H h q H H h w h w l z N P H w H k H z U I l h w g l M ! Z B V V c b d M I g Z f g w z l N H H V C C C ^ E V m x x c m C m v F m v B C m F x F F v c x a M l p l l d d d a j l f l l d M d d d g Z Z Z Y N N P P P Z A l h l l l j l A D v B C F F S B F B C V F B F F G F m x c v F B S B C B m V F G E ~ B b m c m V G B B F m c c B w M g g l l M a j d f l f d g d s s N N w P l P l P l w P w H w z P w z a f d b d c a a l g l N z j z w l P l j z w a a d d f g f s d M p p f g M s p p d d M Z ! R ",
"4 1 M p p Z M h H H h q H H h k k j h H l z N A z h H q H H P U j a l d l l A I B B B b B N N M f A a l g w j N z N V V C L E ~ F v t x c m C B F G C m m B B C x B S x m s s d j p l g d d d a a M l Z M l g M l l M Z Z g g I I Y P z a A D P h l a l l J Z A m C C F F v B m B F C V F B F G B m m B F S F v V B m F V G E E V m B m F v G C m v m m s v v p 0 g l g n s M M Z M g d d d d d l z A A I z P l w H z P U P H P a l l f s c s b p l l l l l j h j j l N N z P w u u d d p g s s d c f s M v M g c i b M Z S ! D ",
"4 1 g f f g l d w q h H h H K w h h h w h z A P H z H w k H P I j w l a d l l l B D B c c A a j l N l j l w w Y H l V V C E E ] F B s B c m V m v F F C c B C T v F F C m s l p l l a l d d d u a l l Z Z M M d f d l g g Z g N z Y h l a z Z a j z j P p H N M V C F E G v v B m m v F S S F F m m B m F S S B V m m B B F F E B m m m v F G F B F m m c x S s w l f g d j l c g M M g c a d d Z P P w w Y Y P z l w w w w l l w p g g s d u u u l Z Z z l j j j h z N P z H H a a d d f f d s s a p f g g g g M a s g v M ` ! ",
"4 1 v f s v M d H q q H z j P H k h h q w l N P z H H z H H P Y a w l l l a P I c B c c m Z I g l l w z l z h w l N U T C C E ~ S S t C x b V B v F C V B m C C v F F B B x a w N z z l l j d u a l l g Z l Z l d g g Z Z Z f f l ! I H z l N P z g z Y P A A A C C C G F F v B B B m F F F V C c c B B S S S F L m c C F F G Q S B V B B V F F V B V c c m v v l f l M d p M b g g M s a b j b w I Y A w N w N P w z l z w I w w p h a g p u y h l N P l l j z z j l P P N P z h h d c p s s a s i a y g f f M g c M g v Z ^ Y ",
"4 1 s e d M Z h H H h h z H P w q q k q l l A N j w z h P I P I N a l l l z z I M B B m m x B l l l j g j a j l l l l B L C W E S B r m x c V E F E V B m V C C v F F B c s M l N l l Z V N M u y d M l Z M l d a g g g Z Z l p d A Y z z l P P g j z P P a l Z c C F ] F F B F m m F F F F F E B m m B S F B S F V c B S F ~ ~ F c B C C F S S B m c B v B S v B p d M b j b l Z l l g d d p d A l w A P z N w H l z w w z z z w l l q p a s y j z P A N h z j j N l N N P z z n u d d v g s s s y p s Z v g g d a M g g v Y Q ",
"4 < s i p f P h h h H k j H P w h H H k w P z P H j z w l P P P l I l w l l N N b N c c v B S M g N j g j d q l l A z D C E E Q G F x v s c B Q F Q C B b m C E B Z F C B x a l g j z Z l M l a a g l g M M M j d d M M Z Z g g g Y Y w P j N P l N z z l a A N B V B ~ ~ C v m m m v F F F F C m m B B S F F V C V m B F S G G V m B C F G E F F C m m m v x m M c p d d a l M g v M d c a d M Z P N w A w P l l z w w H H z w 7 l l w g d d u h j P P P l a h j l l A N z z h k h d g g s s e s d s p Z Z d g M d d g M M T I ",
"4 < d s f l z w k k w H H U P H w h w w z w l N z z k H l P Y A l w P l a l H N N B x c m S S Z g N l z l N l l l h z V B T E F S B s B s M B Z F F B B m m C E V F F C V m g g j a l Z N M d j j d g g M d d d d d g M Z Z g s l P Y z N j N P w I g P P l N N c V B G G G F F B B v F F S F B B B B B F F F C B C B B Q F Q F F B m B V E E E C C B m c S B v v v a M d d M N M g g M d p g M Z A A l w z w Y w P H P H w H z w h h p s p a h h l l N P z h j j z N z N z P z l j l g g g a e s s s t v v s d d c g g Z g T R ",
"8 < d y c g M a k h k z k P P l w q j q j j l l g l l z z P I Y w Y w P Y N U P P P z z B F S S v M b j a M a l l z l l D N E I M v s c b c s T M Q B B b c C E F F F F B m m g g g N A Z M j d d d j g M M d d p d g M Z Z g a g M M z l N l l K P H z I z N P B V B Q ^ G F B B C C F F F F F x V m B F F F C B m B C G S F T D c M B v F F F F v m B V C B B v x p d d l l N Z Z M Z c a a d l N P I H I H w N l N l l N z w a h l k h h h q z z z z H h q H w H N z P l P z h h h l l l s s s y s p g v g f g p M M M g ! ! ",
"4 4 d e c M Z d H z l z k I I h a a k h k z N N N j z z z H I I w P P w P Y P P w K N M m F S F B M M p d a w a l I P P W T I ` N v e s s a M N l V N B B m B T B F F Q F x m M l l M P Z l j j a j M d g d d d y d g M v M Z f d d P l I z N A w H l H P N P l B B S F Q F F C x C m V F G F V x x m b F F Z F F m m B Q F F Z M M b I V F G G F C m C C B F B m x v l p d f v Z Z A N j d c a N w H l w I w H w N N A w z z P a w q p u h H H j z P H H H H w w z P N N P N z H j z l M l p s d i g p g g f M d e d M B v T ^ ",
"4 < x i g v N g N z z z P P U l h h h q a l N N N h j z z z I P A w A l w P w w N l M M B F Z F F B N M a l N l z A l z N J V T M B s c x x V ! I D T B N b B T Z F F F F m v m l j M A Z l d j a j l g l g a d a p g f v Z M g b d b l N P A l H w H w Y l N N N B B S F G E F m B C F E E F C m B c B V S B B F V m S Q ! T I g l l N I F Q G F C c B B m B F c v x a p p j d l Z Z D M d d a f f H z H w P H w P N N z P P w j a a j l l k w j z P P K H k w k k z l N N P w k j l z A l p p s e s s Z f v g d y s M M g I T ",
"4 4 d i d g Z a z z z k H z Y H j h h h l l N l z H z z P I P P w w w l P Y Y P z M N N v Z F S S D M d l l l l A z A U M V T W F D f x x f m F Z A M A V M C C v G F E B m m x a Z l Z P l l l a l d g g l l d d d l g g M g d d g d N l g d z K H w H l w l l l M Z F F F F F C c C F F ~ F F c m m B F F S S B B m S D A A I a l M M A F G G F V B B B B C C m M c p l p d M g Z M M b j d b l l w w H z w P N w j N l z Y w a a M p j n H w j z H H I H H k w h z z P z H j j z z l N z a d d e s p g v g M v a s g M g R D ",
"4 4 M p g g M d k l h h z N A N h j h q H h A P z z z z P H U I l w Y l w P P Y l N l A A D F F S M B g d a l z N N j l M B E ] G F x B c i B V Z S v M M d V E v S F G C v B m g N M Z N N M a j j b d d d b u a b l f M M v f d f f a j j l l H H k H A P A z P N N A F F S F C B B F G G S F B m B C F F S S B B c c Z P j I l l l f N Z F G F C B C C C B S V m v d q 9 p M v l Z l g g a M g g g l K P w w l l P w z H z l w a z l z z j z z H H P P P H H w j l A l l P j z z H H N z l l i y s g f g f d d i d g g M Q I ",
", < d p g g Z l A z z h l P Y z j h k q h h l l z z j z H H ! I w N A P I P H w l l l l M M G F S B d p g l N a N A P P V V F ~ G G x m m c m C F F v B c b b F v S S S F m v m Z w Z Z A N M j j a d d d j M a a h a v v M l d p f l l l a j j w H z H A N z l l l P N F F S C B C B S F F E B c m c B S F B B B C c v l A I A a l d l M M F S V C C B F E V F S c v v N M l g g Z g A g l d c g f l a w l P H z P P P l w l w g N w N N P j z z H P P P z H w w j w N N N P w h z H P z N z z j y s d f v M g s s a d v g ! T ",
"< 1 d d g Z P a z z H l l N P N h j h h h h z z N H z j z H Y U l w P w I P N w l l l z l l Z S F c B l g w l l N N N N d B F ^ F C v F m B v G V F B B c c m F x F F S B C c x M p l l M B l h l j g l d d d d j d b d l Z g d p a l l N l l j H w A P N A z z N l Y a Z F S F c C V S F F F F x c C v F F F S m B c B d l l p g l l a g B S F C C B m V F F F D B v s l w p l g D g g l d d j g g f z w H z P l z l z z P z H a w l z P z z z N l P Y H H H H j w z l P z H j h z l P N N z l k u d c Z f M g s d s d g g W I ",
"4 , p p f N P j h j j z N z I N a j H q h k N l l z z h z H U P z w P z w / P l I j l l l N M D S M c a N f w w l N d K b C E E F F t m m c B C V F B m m B m F B S F F F C c m Z Z j A M j j j h a l M l g a s d d d g g v g f s s f a N A l l P w l l l l N N A z N P Z F v B c C C F F V C E x m V B F F F B B v c N P l I l p d N N l M F Z v C C B V F S S V V B g l l M g Z A Z g d d d d l g g z w P P w P Y Y w w P w w l a w l l j j z z N l U H H H H H j w j z P H w z l N A P z z z k k j d Z v v g y i g f s d T V ",
"4 , x i d z A g l l j z A P P P h h H h w l A N l z k h z k U P z w N l A Y ' w N l N N z l P N B M M M w l N a w N N Y b N ~ E Q ~ v m B B B F B F F m c m B F v S B S v C C x S F v Z l g j j j b N N N M a d a a d g g g g g s d d x N l N g z h H z l l l l z a l z l F V V c B F C E F C F c m m V F F F B M l l l N l N P d l l M N D F B B B F V B C m F F S m v g M l M A Z M g d j a d g g a l H w I a P P w P j w z w w A w A l N z z N A N Y A A P H H w j j z l z h z z H H z A N z z k P N Z A M a i p s c d g T ! ",
"4 < d b l l P N N j w h N N P z H w H h z l Z l z l z h H z I N w w l w w P Y A I N P N A w l j M M l b g w N l z A N P b V E E F ~ v F c B B C B F B F m m C F B v B v v m m m v F S Z M l a a j j N V N l j l s d d d d s d a s u a b Z N l l N l z H l P j j I l l l l B V V v m F B E G C T m m B C F E S F V l z h l l l P a j l I N M Z F B B m C B B S S v v v x p p l M Z D M l b b d d l l g w P N I j z I w H l l I w a l w l A w j j z z P A P N P H H h w j j z P w j j H z A A N z z l z N P D N l j i a b g s ! T ",
"4 < h b l N P z H h z h z P A N k k H w l z N N z l z z z N P A w l l Y l l A 0 P j Y z A w l z l l N b l N w l I z z l V V ~ Q F G v m C m V F S B B F C m C ~ S F B C B C v m Z F v M N b j a a N l A M l d j y l l M v g g M d d s c l P N N z z z l l P l I j l l l d g B B m B V F F E m F x c C F F G F S V g z l N P N z z P N l I I N F F B m C F v S F m v B c g p a g g Z M B a a d b l l I l N P P l P P K w H w z l a w w N z P j z z A A I Y P A P H H l w h z H w w j z z P P l j j h z g A A A l l s u a g s T V ",
"5 5 h j A P I z z j k j N I P N h k H w z l N N N l j z z z I N w w l w l N P l l w H I N P l j j j z a w l l j A P N N B B E F S F m F B B B F F F C V B B C F B F v F C m m x F v v x M N n l a l M B N M d l s h g l g d g l d b d M g N l N P k k H P A N z l w h z a d B C c B B F G F F E x x V F G F F v c l N z N P A z l l A N N M A N S F B m F F S F C B c c s w f l g A N N b d a d g v M g N z P w H H l H l l w P a l a l z z z w l Z A P N l N P H H P w H h H k h z N A A H z z j h l l N N P z l h n b M j R R ",
"5 7 k h j N I N H k j k h z N N j w z w k z j N H j j k H z Y P w w Y Y A A A w l l N P P H w z a z h z d z l P P N A l N Z T ^ G F v F B B V S v F S F m C F G B G F F m C m C F S S v l M N u j j N Z N M l b u d b M g g l M b d c M g M z l z j z z P I P N k z N l a a M B B B V B F F F E x c B V G F F B B M j A N A l M p g P M V M Z M Z m m B B G F C V B V c l 7 l M Z Z Z g d b l j f Z N A j l A l H P w w j w j P z w j z z l j w N z l A P H z k H H H w l j w w z z N A P N N H h h j z N l z P z j z z N N _ _ ",
"7 < k k z I I l z z k j l z N z j H k k z P N N z j j j k z P N w w l w w l Y l P A z N z l P j a p k w z g l N z P I N z D F ~ G ~ v B m B B F S S F v F B C F v S G F B C C C S S B v M l b k h M M I Z N j n u n j M M g g g d d M Z g l l l z k k z N P A N z P h P z l l M c m v F F Q F F c B m F G G F v c g a M l N N P l l N Z I V T T F V B B B B S F B B B c g d f l l Z l Z M h b l g g N I A l l l w l P l l l z z w w z P j j z j N P P I z P H k H z H w z w H w h w z P A P l z z k H z P P P z h j z z z N / / ",
"7 q k h l I ! A z l j k z P P l k H k q z N N I P z j k H z P N w l w A l A A l N N z A P P j j l j A l z a N a N l l l P D F Q F F S B B m m F S F v B C C C B B G S F m C C B B F v B N N z h a M M A N N j l u M d g M g M g b a s D Z v Z z z H w z N N N N l z k l j z z V x B V F F G F B x c C F F Q F m M c l l l l N A M M g N Z Z F Z D D B B C F B F F F B s l 0 p l g M Z l B a b d f l l w N l l P l z w w l w P P w q w P j H k w z N A z z z H w h H K j z j z w h w z N P P P z h l P z A A H z z h l k z z _ / ",
"5 < k h z A ! P H z h j k P P z w H H w z P N P P z j j I P P N l w A l P l l N l l z A P z z w k j d w l z l Y N z P l A Z F ^ G F S S m m m F S F F S C C C C v S C F v B C v F S Z c M N n l a l N A M M M b u N d M M f p d b j p M f Z l z z H j H z A N z z k a N P a z J M m S F F F F m t m m S F G F V m g l a N l T Z M M M Z M A B M M M m B C F S F D C B c g A p f l f g g M a d M l g g N l P P j z H H z k w w w P z q z j w z k g z P N H N z h h H H z j w P w j h z k N l A l k h z H A H N H J j k j A A / / ",
"3 3 z l z z P l H H H w l P P l k h H j z A P A l l j j H H Y P w N N l w z P l A A w N P H w l Y w l N w A l I H P z l Z D ~ F F F B C V m B T S F V B B C F C F F B S B B B B F F v v M M l j a j N Z l M d N a j d l Z l g l d M d v Z Z g g j H z l P l z N H z P z a l a z N A Z F D Q ^ B s x m C B F S v c x N a a A I A s d l A M P I Z M M M B B E S F F Z C x s a p l N l g p l g a v l f l a N a l P h l l a h z j a w l j z l l h w H h H z N N z z k H P H H h H w w z P w z z H w k k z N A Z l l P z h j z z _ / ",
"3 3 l j P N I l H H w H w N P l k h H z z z Y N P N j z j H I P w j z j N P P l l l N l U P U z _ z P l l P w P z w A H z P Q ^ F F v B V B V F Z F B B B B C V v G G v m c B B C F F s g M N a j l V N l N N N b N d M l Z M f d d g g f M l j j z w l N A l z j H w k l l z z N N Z F F E E V i c m E B F B F c c j d T M N Z p d Z A U I M D M l b b B T F F F F B m g g a l Z M g g s a a c g Z w N U a w a h l w l A N P j l a N l l z H w h H N z H z j j H z P U w h w q w l z z N z H H k z P P N A A P z z H z P P ' / ",
"3 5 j w l P U z h q w w z Y P l z j h z A A A A P A z H z z U z l w l z l N l P P A z P z w l w l z z I A N l N U l g g z l Q G F F m B m m B T S F F C B C F F B G G C m B x B v F F g N l j l a l M M l l l N a N j M M g g M a b g f f Z M N z H j l l A l P z H h j z H l l w z A Z S G Q V c m B C F F S B c x l a M z A I N p l N A l A I V N b b C F G F S F v m d a l l Z Z g g a y a g f l l A J H N z w H a z h P z l w h l l l z l H l l N l z H z h k w H P / w H q K k P P P N H w z l z A N A N A z w H z N P .._ ",
"6 3 l l A N P j K H k H w P P z z w H h l N A P l A z j z P I P w j z z N A P l l P z w P z H l P w A z z w P l P Y N l j l Q ~ F S x B b V B F Z F V F B C E C c F F F m c m c m Z v g M M j j N N N A l Z M N a N M Z M g d g d d d M f f g g w k z l l l l l k H k K a P N l l j j z p F Q B x B C C F F B F V M N l l I P N l l f z A N l A I N J g C F F E F S B v M d w g M g v l a i a a l l f N l N N a w H z j w h I l w l l a N l z w j l N j z H H H w H H H K H w w H w w N N N H w z z P A Y l N z H z k z l P ..+.",
"7 3 j z h H H H H H q H w P P z j j z h z z P A z z H h H z I H l l N l z z Y z P l l w l z P l P A l l l w z l z Y P P N N D ~ F F v B M b C Q v G F S B C C V S F C F C C m B v S Z p l j z j n N M A g l M N d j d M Z l d g d j a B g v v g h j H H A A z l j H j I z a P z l N j P N D Q F x B B V F F F S B c x z I N l l p p d x l v D A M d N M Z G G G F F V c v g p p M M g d a s i a w g N g d N U N N Y N N z l z a w q H A k H H w l z P l l z H j H H H H H k w k w H H H l w P w j j P N P A N N H k l z l N ' ..",
"6 6 j z H H H w H q h h l P U z l z H h H N A l P z h k z H P N l l P j z z z z z P P z I w z P l w l w l l A l z P A Y z P A Q F S m v c M B F S F F F B C C V v F G F C m m m m S Z a M d l a l M P A l N M j a b g N Z l d l b d b M v M g M H h h j A A N N k z j I A l I l l N a I l N A M c C C F F F S F m c c V l A A B c c c c s v v B d M N d B F G F S C F c v M a A M l g d s a a j l w g g d a p j P w P a h l I P z q z z k h H h j l N z l z z w w H w H H H w w H w k k P z z H j j z z A N z z w H w N N N ....",
"5 3 z z H H H h h q h h l P P l j j z w l H z A z z H k H N Y N w l l z z z K w N Y w P w P w H N l P w l l N g a N N N g l g Q F D t v d g M D I D B F C B E V B G G G C C m m Z S v l M l a a N l A P g d j b a N a M N g g p d j a M g g M g h k k z A I A z z H z _ P z N U z A a z I I Y Z x m F F F F F S V x d l N N N Z c B c c v x v v c x M A v F G ~ F S V c B M a w g M b d u u a b g l a l l d y d h N N z w N j w w l N z z h h k H P H z A P z H w H H k H H H w w H z H P l w H j k H z A N l g H w l l z A _ ' ",
"6 3 j w H H K H H H q H l z P H z z z w z z A A N z w z z N P P j h z j z z q H w z l P P z U P P l w l l N l l g N z N N l M ~ Z N d v l N f Z A D S B C B T T x G F G B B m B S v v a l j a y l N z Z l l N n a b d M M l l M a d s v f M g d a H j z N P N l l k k P P l l z l l l l A B D A c m v F F G G S F m m l H Z D B v M c m B Z S x B x B M B S F G Q F V B B B d a M d d b d u u b M M g g f j a y a H j I l N z z w z H z z H H h z w P P P l j z H k K w H H H w w w w z P H H H j k H z A N z z H H w l A z _ _ ",
"3 5 H q j H P w H h q h H H H l l z l h N A A A N z j k H H H z l w N w z H H w l l Y a l l z N l w N A Z f N w A g P w P I g A B Z N d a A l d A A I M M V F Q v F F F C V m B B B p l l l j a a j l Z l N l N a M l l l g g g b d a M g g g v i N n N N N A z l k h P A P z l d N l N P z P P M B M V B M D Z F B m B M T Q V x c m x B F Q v B v c M B S F S Q C c v c c a a g g g l d d u l M g M d b s d y f l j g z z l w w N P I l z H k l l z P H H k k k w H H w H H w w H w k H z H w K w l l P z H w w H w H H H / / ",
"3 3 H w H z U w h h H h H H H h l z z h a N A N N z j z k H Y z l j j l j z z w l j g N N d l A P l A A M N N Z h N l N Y l N P A d d l g l A M g N I M N B F F S S S S B m B b S t d g M l l a j l l A l l l l a l N Z Z a g d b d b M g v f v s d N N N N z l k j k z N I z P g H H N w l l w M N N P Z T A M B m B B d F Q D c c B m B B E V c B m x v B S G V F M g c d N l l g M p j u d b l l M g j i u y f h I N z N j z 7 A N l z l w H l z l P H H w k H H k H H H k H w w h H j z w l z w P N l H H H q H H H H H +./ ",
"6 5 j j P z H w H q q H h H K H h z z h g A N N P N z z P P / P j l z z w H H H N j j j l P l a P w P a l l l f d l P Z U l l a B N j d d M l M M M N N l M B F S v B C c m c c S M p l N l l a j z N I l M l l a a l g M l p d a u j M f Z M g M g J N I A N l h j l k z z N A N P N j l Y l N d M I I M M Z D B m v m A M F F x c m m F V Q B B B B c v S S Z B B I p b p l l M g d d s y d b g Z j a s u d i w g z j A z P A w l P N N w l z P l j N z l H H H H w H P H z w H w w z l l w j w H P N N N P z h H q H z P ' _ ",
"7 5 z j z H P z q H q h H H H k j z z z N z P P A z l l H I Y A g h z h H w H w P l d a Z l N M l l P z Z Z l f d j P l I z N N M N d d d N M A M M A P N I z I s v M B c m b d c v p a l b j u p j g A M l l j d d l N Z M d j a s b D M M v d d g l N N A Z k h h l k l l l l N P P l w l l w d N d A Z M Z S S m B B V A V F x x B c F F F V B B B B B S B F B g N c s l p l M l M l u s a M g g b s s y d y 0 a Z k l l z A w z P l P l l w z l z P P z w H h H H w P H H k H H z l w z H w w w z l z z H w w H h H P P ..) ",
"3 5 k k P P H w H w w q w P I P j l l w A A P l H z h H k P _ H w l N h z z _ w N l P l M c M A N V b g A N M M Z M p z P Z P z l N d a l l M d j M d M M M V R g M v M c b M b a M w a l l l h h d l Z l N z l u n b M M Z l l d p g M Z v g f p v d N N A N z l a j z h h f w N z I P P N N j a d l l P l Z Z v B B C V N F B b c b s M V T M B c B m C C S F S M M c s N a p g g d l d p y d M l Z s a s d i a f g l z Y l w w z P z H H w H j z N P P P l k H H P l w H w z H H H w q H H h k w H h z H P z w H H z P P ..Y ",
"5 3 k k P l U w h q H H z N I l a j j j N l P A P H z z j P Y P j l N z z H Y w l w P w M M M Z v M V i v B B Z S v l N A l l P l l p d l l N A I l a g N N M J g v M B s a l M p l a l y l k l h a l M M l l b u d l M l M g d d p l M g g v g l g j l P P N z j j k k N z l a l z l l N P N w z g N l Y l l A F c c B F N Q V s i b b N N N B B B B b C V F S M a N b c c j a g M l d y a a y g g f d d d d u g f g N l j w l w l P l H H w k j w l P z H z z w z P P P z H w w H K K H w w h w H H w j H l z H w w P P P ..' ",
"5 7 H H P P H j w H w l N N N N z w w w N N N P N z z k z z U P h g z j z j I w N w N z d v Z D D B V B M B S Z S s l g A N M g a Z a d d d M B d D M M y N M R g M d V p l h l l s a l 9 w j k k l l N j a j j y a p M M g M j a b M Z M M M f g f g N N I N g j j h j l I z p l N z N w Y z j l a j l I N l l V M m m B j D B c s b b M N N M N B m c V C F v B g Z x b M a H M M N g d s a d M M g a g i p p g p f z l l l l w H P z H k H w w l z A H l w H H k P P P j z w z H K K H w w k q H h w w H H w w H w z z A ....",
"7 3 w j H z K w H H w j l N H P j z z z N N A P I z k H z H Y H a h H z z H P z l l 7 P v M M M D B C c B F B F Z Z l w N g d z l a d a d M M I g M M j b j N V a j M k a z a N a f p j l y j u j N M Z l l l l y a a l M g d j u b M Z Z f M g g a g g N A N z h j j j N j P g f w I P N P P j w w j w N l l P N B V b C N N V c x b s b M M d N V b b C F F S B l B c m b d l Z f g d s y b j M M M d p a a 0 g f l N j I l l w w P l z k H w P w N A z H k H k k P U P z H w k w K K H K H h h q H H H H w H H w l w A P _ ' ",
"6 3 j z P P H j z l z k j z N P h j a w H H A l I A N N H z I H h g P j z z I j N a j l a M M M M M D M b F T F V B B N M M a j P z g l l d M R p l M M j M N I a l N P h j a z z a w P a w h h a z z A l j j j u j j l l g g d d d M N Z M l g M d l d N P N z h h h w N z z w c y w N l I N M l a N p d j P N d b B V F N V M x s v a g M N g B J V m v F F S N c m c x M M w M g l d u y a d M Z M f s u d y d s s N l l N l l l P l N l k w H w H H P z j H H z N P N l N w q H H H H H H w w q H h l l l j w k w H H P ' _ ",
"7 6 H w N A z z l z h z H H N z j k l w l z Z N l A z z K z ! P w j H w H z H P H l a j l a l l M I N B B V Q T Q C F c M N N l Z l d l P l N B M M d l j l N N j j N l l z l a w l w a j a l l j z M P l N j d a n j M g d d d c a d M M Z g f g v g M Z P N z H z h j a A z g d c a j N j l D a a M l a l a l N c C B T D N l g d l j l f l l N d l c m F Z F B B m i x c v 0 l d d d a y s b M l N g b u b y s d g l j N N h l z P N A z H w h H z k z H w h z H N z l w z z h H H H H H z H H w h h N l z P j h k k P P ' ' ",
"3 3 H h A P P l j l h j P P P z w k j a z l z N N N z j H z I P l l P w z j P H N l d a a a N a d N M d V N D G E F V B N B D d D l v f B M d N M M j g l H P N N j l N h P a j l h q h w z g l k Z z P l l l b u h d M M a d p a d g l v Z v f g y g j N A A H h z j z g z d w j x c M d N B v d l M d M g A M M b B C C T j a p a j a N I N g N N M c B F Z S F B V m d c v v l M M d a y y a g l Z g s d d a s s g M l N k z w N l z z N l H l l P P z U k H h H P P N j l w H q H h H H H H k H k h l l z z H w H w N P _ ..",
"7 3 k k l l P z l j z j z A I P h j j h k z P A z P z z H P Y N N l H j w N P q J N l p d M M g M g d M V Z D D F F B M A M B N Z M s m d B M V M M v M l j N I N M h l z l z a l z w w N 9 l h h l z D l d k j y b j M Z l d d y a v M v g v g d g d M j P P A j k j l N N z z N d B g M Z F v g c g g M Z v B b B c B C E V M a a p w a l N a M M c c F B D B V V m B V c v v l Z b j s y y a f s v l b s d i d s g l j z k k w l P N P l l w j j H P w z H H H H U H N z j z w q H H H h h H h j z h g l h l k k w k l z ' _ ",
"7 3 H h z H P z H z H z z N P P j h k j l N A P N j H w H H U z j j H w P z U j z l P p m v B Z m v b x B m F Q F T C C B v B B S v x v x x v F v C v B d M a I a l g l z N P H N z h w j w z j a z N A N l n n u l d l g l M d a d M B Z M d s i y s d l M P l h h j h N A P d N b B B S Z G V m c c B S v B B V B B B v F F M a d d a l z Y d V V j b c S S S S M m x c V v v l a g l j h y s M M g g d b d d g s l N j k H j h z N l H H H q k w P P z l l w l z P z l z z j H H w H H H H H k w K H w k j l w H P w A A _ ' ",
"7 3 H w z P N l z k w P H N P N l l k w l l N I P l z z j z Y z w h z h w z U N h p j a c x v v v v m s m m B F W F V B R B F S F S t m c v m C S B x c N I l N l z l N d A N z j w w l j w w j j l M Z l l l N u j d M l g M d p d M M M M M M d i d d g N N l z h h z l N I a d l B B v Z F m c c c V S F F v V V B C F S D M c j l l d z l g N M b B C S F F F V B c v B F F M p l g s b y i f g l g M d d a g g g l j j k H h H N j H q H H H j l P l P H z N N A A P P H w w w H H H H q H H H H H H k h j H w H z l A _ _ ",
"6 3 z z l P N l h z j w N P Y N l z z h j z l l N N P H j j U P z w z w w z P w J j M d B M B B m c x x c V B Q E F L V R D S S F B x c c m m F v S v v j P l P a l a l N P I N z l w w H z w k a k l N M l l N a n d g l g M j d a p v v f v g d i i M Z A A z h k j j N A P N a M V V v S F v m c c C F F F B C B m b B B F V d y b p j l M d M b V V F B G F F C V m c m S F B B p d d h s x f l g g M a c i s s a z k j k k w H H H H H H w w w H H z z z w z N P z N z P j w H z P H H H w q h H H z P z j w w P z A P _ _ ",
"6 3 z j z z P l z h z N N P P l l l z h j N A l N l z z k H P P j j H w j l P z M j N j B V M B S M B b B b F F ~ F T B V B F S C C c c x m x F S F B v a M N N l l z a w N P N H l P l q h h h a l N N N M j N s j l g g l d l d l g g Z g M d s y s j l z k z j j j k l N I J l M M B m F S B c c c B S F F B V C m C F F F B x x d a l B T b M M b b m S F F E B m m v B B S Z Z a a u s u a f f f M M d d a s v d l j j k k q H H H H q H w H w j P j z j j j P l N l j H z H w j H K w h H h h h H H P I H H h w w N w _ _ ",
"5 5 z a N N P l j h l z H I I l l j N d j M Z g g j l b j M D l l l l w b k H d P d h a l M l d J N b d x V D D Q F E C V B M V C F x x c m m F x Z m m l l A U l w N l l l A P A l A w z w w H a a l Z N M N n u k d l g d l d i d b Z M g v g d y s l Z N z l j h h k z N P l N V R C F F F m B c B c c F F m m m B B B E E B s x c i c B F c v B c c B V S F F C B c m B V B Z B x p w a u a d g p d b b h c g g g l j h l k w P I P z l H q H w w P z k H H j H P P H z l z j k k P H H w h j h j l z A N J h w q H H H K ) ",
"5 3 k j A l A l z h h l M A P A l v j d d s Z v g s d b d g Z M w w l w u l K l z z a j j j N w a h b d d M S F E F F C C n M F G C c c c m B F v S x v Z z l M N l A A w A A w l P P P H w w w j a d l l d j n i k j l g d p d a g d M M g g M c y g l z P z k z h h z P A N l l c I V F F F m c c B m B F S B c m B c B C G B c c c c m m F V B m M B B B S v F C C i m B v B S B v p j j d d s f r p s s d s g g l l M j k k w P P P N N H k H w P N l k H w w z j N P z H w k w w l H H H w j j j l l N z z H H h h h h K K ",
"6 3 z l z Z Z M l d a d g f M v s g g s g g v v v g s b b M D v e e a 9 y g P f N h N a z z N l V N N d d V V Z F V C B C B C F G C x c c B m F B F c M v P l M Z l N N A Y P w w P l w H H H w a k g l M N a N y k d M M d d d s j d M M g g g d a f N A l z l h h j j A z l g N N C S F F F B b b B B F S F F B m m C B F F v i x c i v B S v C m B m B B F F V B m c v v v C B B c d p j j d f g d s u a u s y v g N j j l H w I P l z z z h k w P z H w k k P w w P l H K w H w z H w H q H j h H H l A I N h H H q w k K / ",
"2 2 s d g M Z f l d s d g v Z f p s d s s g v g v g g g M M Z v r e s 9 y a v s l a z j h A z N N b V a c N F D T F V B T g B V F C c x x m C C x v x B M M N N A w A l w l A Y Y w Y z k k w H h l l N M j a l u a a d M M d g a d a M v Z f f M i p N N N z k h h h j g A M g l B F M S S F C b c B b F F F F m m m m V F E V i x c i m v F x B B m m B B B B C B B i m C v v c M c d l w l l M g s a y i d s p v M l j k j k w l l H z z j w H w l z P K k H z P w A H H H k k k l H H H h q j h z z z Z N N H q q H H H / K ",
"1 1 d s f g M f M p x d v M Z M p s s y f s Z f v s g p v M I Z r t d p a s M p f N z z l l k a a a N d d b B Z E F C C L m F F F C x c x B B F B F v v m s d I Y l A l N w P w H P z w H w H w h k a M l l l N y j j d l p g a s u a g v M c s c e y M A A l l h z z z z l A a g I F D F F V V c B C v B F F F C m c B V E F F c i c i v B F v B B c i m B v F C B B m m C m B v x c s l j j d M d d g i y y d r g l l j j z H w H j z H h h q H w k w H H H k k j H z P P H w w w w K H H H H h h H j N M z N n h l M j l I I ",
"1 < a d M f g p d i a y f M A v d d g 9 g g g v p d g d j Z D v r 0 r y a c v s g a l z z A l k V b N b b c M M D V C V W N F Q G C x m c x B G S v S v B x x N Y w Z I Y I w w N w H I H w w H l k l N N N M j u j l l g g a d y y s c g g g d d a i M z Z l h z j j z l l Z g d l c F F G F V m c B B S F F B m m m c B G ~ B i c c c c B G v C B B c v C F v V m m c m m x F C c c c l a q a g M s g d y i a d M l z h k k J w H H j H H h H H H H H w H k w H w w P l N H w w H q H H H w H H q k H N I z z j h u a a g ~ ! ",
"4 < g s g g M s g s d a p f Z f v d a y s d M M g s c a d M F M 9 p p e a d M s f l l l l z l w b N n c M M a N H N C V L M V F ~ G x m x m B S B v v B m c x S A l l g l Y A P P Y P w w H w w d j d Z l l n l y y l M N M a d i a d g v g d g d s a M z z l h h j h l z N l f d l c F B F F V c m B C S S F C B c m B V F E V x i c c v v G C C B C B m B F F C B m m B B m B V s b x l h g y d v M d d d y p v v l l j h k J w H H H h w H w H H H H k w H w w h H H P j z j H h H h w H w H k h k j N N n n s u p g v M Q U ",
"4 < s d v v M s g a g d d f Z v g d s d s r g M v g v j M A D g r r t y i b M g g f g l z l k l j N j N z l d l N N B C C B B F G G v m m c m S S S c c c B B S g w l A N w l w w P P w I w w k a a l l d d N k y u g l d d d d a a p g g g d d s y s l N N z j h j l a l Z l g s a v F F F C m x c v m F F S B C m C B B F F F c c m x F F F v F B m x B B v S m C C c m B S B V B x c v a d y p g M g d d i d f M N z N j h H k w k H H H w w H w l z H H H k H q k H P P z z q H H H H H k w h w j j N M g b s d d g f v ! R ",
"4 < d d c g g g a s d b b d g M d d s a c d v M g g v d M B F Z r p y p a d c g g d g N h H N z N N N H g z z P w U z A I M D Z G F v v c B B F v F v m B c F F G v l a z P l a g U h l N j a a a a l g a l l N u u a b j d d y y i a M v g v d c u s k n N z j h k h j j M f s g l l M S F F V x c m m C V v V F x B C F E F B c i c c C F G B G C m m B C C C C x C m c B C B B B B c c l n x a p M v d d i d p v Z l z N k H q H N N z N k l z w H l N P j z h h l A A z z z j j N P I I N N k h k k g g g s j s a d g v W ! ",
"6 1 p p l g p d a s s u g N g g g d y e d d g M l g d M M I I D p s d i g d g l g s p I z l P N d z h P N q N P j z j U I g B S F F m B c B B G B S B v m m B F G v Z f z g l N j z l l a l z h h j j g l l j b y j a M N d d a y a a M d g v d s s s h N N z j w j j k d l g a p p N B D F F B c B m c B F F c F m m m C G ] m i c c i v F G B F B C c B C F F E m m c m B V F S v m c m a M c w p a d a a i s f f A l l N k H q k P P z N k z H z z z z z j k h l j A N H z j z z P A H H N z H h j a g M v p d y s d v M ! ( ",
"4 4 i y l M v f d s j j v N Z v p d j y d g M M g g M g b B I Z f s d d s j g g v M p a A z N j l h h N N A U N z P N z I M S F S Z c c c m m F F B F v B c m S S v S Z g l l l w N H p h l q j u k j l M N a l y a l M Z l d d y s j M M f s g d d a j J N M l h j j k l g s s t s l d B C C V m m B c S F F F C m B C V Q ~ B t x c c F F G v F B C C B B F F C V C c c B B B S m B c x b B B v g p a d y a b p g N A z N H J h z z N l l j j j P P P l z j k l k z Z z z N l j j A P A N P N n b h a g f v p d s u b g A ^ ! ",
"4 < b u l Z M l d d d c M M I Z s g j y a g g g v g b a d A Z I a p a d i d l M g N l a d l z N l P N N a z N I a Y Y P U N Z S G S x v c B m F F F B F B c c B F v Z g N A z ! h N N P z l l h h h j M N N l k u p a M g d d j d u i b g v p s i d d l N N l z h w h k p g s y e y l z F F F B c B c B S F F S C B B C C ~ ~ C i c c c F F G B C m C F C B S Z F m B m m c B V B x m B x M x v D v x d a a d d p Z l z l z j H a H P Z k k j h H N z P P l w j h l z P A z z H j k z A A N N N j a s g v g g d d i j d Z M W R ",
"5 4 d d M M g g d d j d g Z A P j d d y d v M g g f M M f Z I D 0 p d g b d N D v l M g a c N N A N l z A l z N l P z l N a a M D F v v x C B G G G S V B m C C G v S v x M j l N I z A l l z l j l N l l N N b j i u j v a a d a s p g M M g s y s d j A z z H H q h H h h g s y y M j M F F F c m m C F S F B C C m C B F ~ C x c m x F G F F F B B C B B F F S m B B m C B G F m c m m c V B C B c x g a N d p g Z l k l k n w z P P z k l w H H H z H h h w j z l P A l z N z k H N A P z g s i g g v M M d a y a l f g ^ _ ",
"4 < a y l g l g M d d j M A A D g j b a d g l Z g d l M l Z D D d f p d a d b M g Z d l j d M l A I l A j N l I N z p N P N N v B Z m B c B F G G F F B m c B S G S G S c x c c a w j w w g z h h g N N N l M l u j b l d b a a i a d g M g g v a s d b N N z l H h h H H b g c d a N l M B V V m m c B S F Z B C C m C C F ] E c i m m C G G v F F C C F C G F S m B c m m F F F c B i c c m F S C B c s x l y w M A l l a k K h l P P l z k j w P H P H H k H j z k P z A z P j H N N M Z N g a a p d g l M j d i g l Z l ` Y ",
"4 < a j l l Z g l a j g M Z M A M M j a M a Z g g d l b l l A D a p a a a a l g l B g j j d j M l Z z P l d z N N N N N U z l a l D x m m x S G F F F V c c B m F v S S v c v g a l l w N a N a h l N Z I N N k a b N g M d M y a y p v g v g s d a l N l N P k H h H H j M g s g d u j M I C F c B B B G G F B V B m B F S ~ F m c m c m E ~ Z C B C C E F Q E F C m m B B B F F B B m c b m B F B B m x c M a a a N N N h h n w N P P j j h j H j z P H w w H w l z P l l N H j l P P P M M M i d d b g M Z M j a d M M N ! ` ",
"5 5 j l g g N g l g j g a Z Z Z d a d j M f Z l d a M d l g A I p p g a p d g Z g M M M d d g l l P I P P a Y a a A M N H j j j N M s c c c v F S F F F C B m C S Z S F M c B Z Z g z w w N a a a j M A N N b k a j N N M d d a s y p M g g M d p p j g N l P z h h h h k p d s i c d M M M V F c C F F F F F F B B V m V v ~ F x c c m F G ] F F B B B C F ~ Q F V B m B m F B Q F B B m B C B F v m V c b B B l 9 a H N n k n w g H P z z k h w j j H H H z j z l N P A z z z j N I P Z M g g a i a x g f g g c d l M M M ! ` ",
"5 4 b n z l Z N g l l l l l M M g a p d l M M M M g M j B l M Y g a a d a p d M f l g d j a M l g M M N l j N N A I P N N j b j w A l M v B C F S S F m v m B F F S S S B x x v M v g l a a a a j b l N A A l N a j l N Z g j b h u s b g g v M s s j a l l l l j k k j M g v p p p d b j V I F x B C F F F F F C m C m F v F F m x B x F G ] G F F B F C F F G F C B c C B C F C C B B c B C F F S B v x m B B S s p Z J N n J w z P I H h H k h k z z z j j z k H P N l z l j j z N A Z v M d a a d f M v M g j s d M M N ! R ",
"4 4 a l l Z M d l l N M l Z Z l d d a y d l g g l g l d j l M D d w w a j M l M g l l a d a M M M M j M l b j l A A N N K a l l N g w Z c c B ~ S F F C m m c B S v S B v F c C A Z M f l a j l a j l M Z z z N j j M Z N N g j d b u M v g p s p e d b l l Z z l k h j d g M g a d a h N M M F c m C F F G G F m m C C ~ F B S x m m x S F G F B B v B C v F F F C F c B C ~ F F B C B m m F F F F C B c m F B S S g l N N n J h N P P H h w H H h z z z z z j j k I I z l z a j z N M Z Z M M c y a d f g l d j h j M M l ! R ",
"6 5 a N l l Z M d j M N M Z D N s y d a a l Z l M d l a d M l D l w 0 a a d M M g f j a a u a M l l M l l u j j Z l Z N N n l n A M l Z B B v F F G C F m m m F F v S S x m m v P g g g j j w w l d M l Z z l A b d N A A M M d a y i M g g g d s i d l z z l N k k n j d f g g d d s y l I d R x m F B G F G F F m c C G ~ S F x B m m G F G F F F m m B F F G F F C x C C F G F C B B c B F C S m V B m B C B v F c v a N H n a A z P k H H w H z H P H w k z z H P I A N z j j l g v v v Z l b a p g g l N d d k j N N M R R ",
"4 4 j N z Z A l j l j b N A A A y y y j a g M Z j M b d l N f Z g a w a a a M M d M d d s k d j M Z j J u k k b l N l l N k l N N A g f v m F S S F S S m m m B F S B v x B c B I H w h 6 j w a a l l A Z N l l j a M M Z M d j d y p g v s s g d y u l l N N N k k a d g f f s s d i b l N N B c x C F G F G E C B C C F F F S v x m x F F G S F B C m B v F G F C F m c C F G F C C B m B G F F F B m B m F F F F Z c d z n H a l N P H H w k z N N N H w j z j z P I N z N z l N f M Z f g f a d j f Z g M d d d b N M M ! R ",
"5 4 a j M M l g l j j a M N D I l u a y j d g Z g g b a j I g Z g A l d d d b N a M a a a a j g M M l l n a b h M l M j N j j N A I f N c B S F F G S B v m B B S B v B m B x b a M g l z z l w d 0 g l P Z M l j a l g M M l M d j y d M v s d e i y j j l A z h n h j v d g s s d y j I I N M M m F V S G F F C B C F C ~ F B x m m v F F F S B C C C B S F Z F v G B B F ~ F F B B m B C C F F F B B B B C B S F v S x f n N w A A A A j H h z H P l N j j w h g A P N g z l a d M v Z M M d d d u b M M f l b l h M d l _ U ",
"5 < u b l N l l l d n b g N I A a j j u d d M M l l j u y M l M f p a j d j M J d l d y u a l g l A l l N u h l z M N k J u k V A P l g M B F v F G F F m m B C F F F B M m m m l g q l N z w w l j l a a N N g d j g N l M g g j b a b g v s g d u i d d j l N b l u d M Z v M y p i d N N N I M s B B F F F v C m C E G ^ F F x v v v F C G F F x C C B B S S S m C m B F ~ ~ F F F m x B F F F S F v m F B C G F S B m m p N w z A A P N w j j H N N N l j j l N A P A N j l a g s v g v M b b j j M g M l l u a l l l g _ R ",
"5 5 h n M N M l l j a j d Z I N d d b h a d g l d d a b j M d Z a w h j d d M I d M b j h u a l g l l l u h j j N P V N N a a M A P M l v B F S v F F B m m C v F F V F B m m B v N a h N l j g l a 0 w a w N l j b j M Z M l p a d h d g g g g c d s d j g d l l l d i f M v M a i p d l l N I v B m S F G F F B C C C ~ ] S B x m v C F F G v B x C x v F v S F v m x m B F G G F B m m m v F S F F m B m C F v F B F v v m p j z A P N j h j z z j P z l h P w z N A P A z z t p g l v g d a p b j B g l l j j a l N N N ! R ",
"5 7 j n l l N g l j d j l A I T d a j b b l M M d l a b d b d M l w 9 b j a d V b j j u j d l l l l a l k h M N l A N N J a j j Z A l z p N B F F B V B B m m F v F B V V m c B Z l z a a l l w z l a l l l N l j j M Z M M l d d s s c g d p s s y s d M M N N b b d d d v v M d d 9 p g Z z l M B F B F S F C B m C E ~ X.F F x x x m F G G F F m m m C v v S B C B v m B F S F F B B x C v F S S B B C B F F G F F x m B c g w l z P N N z z z H l P l l j w w z l z l N z h p d f v g g v a a d l N N M g b a h d M N l R U ",
"5 5 l M M A N l a h j j a N Z I d j b l g l l g d b u u N N f g f l w l l l M N d j d d h l M j M M j l h h h N N l M H I j a N A Y l l w P l Y Z G Z Z m m m C m F B B B B c c c M M A N N a d l l w g p d M N j d l l Z l M j d b d M v g d s s s p d g M s s a a a g M M M g M a s y d I I I f M B D F S F B B m m F G ] Q F x x m x F G ~ S F m B B B C B F B v B v m v F F F F B m m B F F F S B m C B F F S S S m m c m B 0 l l z z H z z P P l P H q H q h z N z N z l f y g s x M M M a d j d M Z M l l d a u l N N R R ",
"2 5 k n N N Z N a h s h l l A Z a j l l g l M M a a b b N Z l l f a w d l M N V d M d a u j j M l N l k k h u b A N M N N j a j w Z l Z w l Z P Z Q F Z C V C E v S F V V C m B x B N N N a l l l N a N l l j j a l g Z Z M g l d a g M g v d g y a s s g v f p d d s d x g M M b a y d a g l l l N N A S F S S B x m F Q ] F F x m v v C E ~ v F m m B B V S F F B B m m m S G F v F C B m S v F v F B B B B F F F F C m x c m 7 w l z l k z z z z P P H H H H j z N P N N N l p d g g g g d s a s M d l g l l a u s j N N ( ( ",
"5 2 l l N A N N l l u N g l A A d d l n j l M v M a d d b V M Z f p a d a l N A j M M a a k j N N I j b j k l j N P N N N k l N l Z g l I w A P v F F Z B B C E F S F F B B V B v v M N z l l P P l a A d l l l d d g l N M l d d a p M d M g d s i d g v v g s i x y c g f s v b a s d d M N A l V M F M Z V S S c B C ^ ] F m t c x m C F Q B F C B B c C F F C v B m B x Z F F B C C m F C F F B F B B B B S S F C B c B B B p f 9 9 l z a k z P z P H k w H h H z P M N a g a c v d M d g d d a d N N M d j h u y a g l R _ ",
"5 4 h l l A M l h b a l z g Z D d d j b M M N A M d a j n l f M a f l l c M N Z M M M j b u j M M N l k h j N j M N A M l b n N l A l Z N l w l M F S B B m m T F S F F B B V B B B a A U N A j A l w A a a l j a M g g l M M d l b g M M d g d y y p f g v g t a d i d s s g g d c u d g d l M A N M M v V F B V m m V G ] F S s x m x S G G F G B m C B F S F C m C m B B v S F C m C B C B S F S C B B m F F F F V m c B B V f g q h h j a h z z z l H k H k j z z z Z l d d p c l g v g M j b d g N N M M n j j h j l l U _ ",
"5 5 l n M N A N j k h l l Z A P p d a M j M N M M b d j V N d g f w a Z j M M I l N M d j a l l Z z N N u h n b M N I N h j b H l l l N l l l P g D F M B m B F B F F G B m V C B S x l l l l j A l l w f a l j u N M M N Z l l a b a M M M f g u d y d g f g p y s i d s f s d i a y d g l A l a A I P l I Z V B m B m G ] F F x m m x F S G S C B m B F F F S v m B c C B V B F S F F m m B F S F S B B c C F F F F V m B C C f v v r w k l h H j z N l H w k l k z P z l p g e g g g M g d l j b d M M N l M u k l a l M ` R ",
"5 < j k l l l A p j j j N Z A A d a a d l Z Z Z N N d d N I M M l f p I j d M D Z Z l l d a d M Z N M N u a k N P N V N a l N N l Z w A j A l l N A T B m B V F Z F G F C C m B v F v f P a z N P l P w a w l l u b N l M g g l a d d d g M l g i a s d M g s M s s s d g M g f y j y y d g M A a N g N l l B c B c c V F ] F F v v x m B G G S E C m B F F F F F m C m B c S F F v F F B B S F F v S B B x V F G G F B m m C F v Z B c d w z j z P l N l l H w h j l A z l g a y a c M v g g d j k a J M l d j j h h j d l _ ! ",
"5 5 a J M N M N j b a j g l P P p a y a d M l Z M N b a l B g g g 0 s d j M M Z M M j M b a j M Z M l N n j k l N A N N k h k N A Z f a a A a A l l Z C m b C F F F v B m B C m F v M M P w g z w l z l j a a j p j M N Z M M N b s d M s g d b a i d d g g s d j i g d d v f d u s y u g l M P d l N N Z l N B B m B C F ] F F v m c v S S G F G B C m C C F F m v c m B m B F S B m V F B F F F F B B m m F F S F F C m m C C v S B m w a j j N l P z z H z k a z k N M j d g p b d g Z M c d d b u M Z N N a n n j N l N _ ` ",
"5 5 u N l N M N j n d n l l D Q p p a j d f M g v b d b M A f g g r p a d g v A l B M j b h d M A l l N N b n l M I N l l l n b a N l l l A N a a N l D B m V C F F B C B m m C v Z v Z P N P l z l l w l l M j q d l M Z l d d k j d M s g d c d a y i M g f d d d a d p g M a s s y p g l N A z N A N N l l j b c c C E ~ G F B m c m S S G S C V B m V F F F B v C c B B S v F B F C B C v m v F V B m c F F F F F V m B C E Z S F v a P j w z z P P H P w w h N l M N M g d p s d f g g d a s k b J M P N d d n l l M l _ _ ",
"5 5 h n j N l I d z j j M l M P p d y s h a d v g s p b V J v Z g f r a a s M Z M f l d a d M g N M M d j l N V N A P N l l H j h g w j j w j z l z j V m B C F S F G G B C C C V B v v a a N a w A l z w j w A a a l M M g l d y u y N d s d a u s h s b j g f b b h b c l M d d j u d d l M P l N l a P l l j k c c V V ~ F F B m m m F S G v C B V B F F F S F v F x B B V F m S B V B B C F F F B m m B F F F F F B B B C F v S x x x i 9 u j l z l P z w l h N z H l l M M d d g M M g g M d N M N M M l l b n j N M l U _ ",
"7 7 b N b l l M d j j j j M N D s a s u s a f M g e a d j D v M g s p p p d v M g v l d i a l M l l M M a n j N N Z Z N l k H n l l g l j g z z a N a a M B C F v S M S B C C C F V B v a j z z w l N w w l a h a h l M Z l d M s j d N g g p d s u s s M M g d d b p j d g v d p d a j M g Z P p P l j l l j j h l M V C F F G B B x B B S F B C C c B C F Q S F m C c C B C D l v F V B m B C S S C B x m F B F F S S m C C C v F C C x i a u k j N w w P P j z z N N N l v M a b s v M l f l d l d Z M M l d j n j M N M R R ",
"7 7 d N l l l l a h a j N l M N e i a b s d g l M y s d d I M Z f s p y p s g Z v d d d p a p M Z M j N M j n N A A M l h j n n g g p l l l l H l l N N j B C F f g v A M V B T F F F B p l H P z l l N w z j w y d l M l g l l u u d B M M M a b y a d M M g g d d j M M g g d s u d d l l Z A f z B j N a d l a a l M F ^ v F v B v m F F S v B F B C S B F F C m c i B C Z l N D C F B B S B F F C v m m C F S F F S C B C G S S B x c i a y j w l z Y U z w a j z N N g v g c j d g v f d d b n l A Z l N j d l a N Z l _ R ",
"6 5 j n N N M N h b d j M M M A y a y a a g f d d d i s g B B M g s s e s p M M f s s d p a d M M g M b M a N M D P A N k l b n d M p l l w z H l l I N l b V C g g M v a b B V F F S B d l z P l N l w w z g j y l l N l l g l b u u M g N c a u s d M l M g v M j j b N M d d u y y c f l l A U P I M g M B v a c V N B G B F B v B x v F G m m V C C F S F F C C C t c F M l N A m B C v C V F F v m x m F F S F S S C C m F S S G x c s j a z w l w P P z P d a z Z A d g l s M g v M g g g j j l A N Z N N j h u j z l R ( ",
"5 5 u N l N N N l k u b M N Z N y u u d g d v g d d p s f A M P d d N l y s g v g d p d y a d g g g g l s a d M Z P N N N b H n l l p l l a h l d g w l N M V V Z B v B M M N j Z F F v v d w N j P j q z g l l u d M N M b d d j N d M g M l d a s s j l Z M g b b b j M M d M a y u u b l f A j N A a A M l M c b b B F Q S B v m m m F B G F B F C B C B F S S m B c x m M A M Z v M B B C D F G v m m m F B F F F F C C m F B F T m m c u j H w w z l A z w l w N N A f a v y j d g v M d d b d b N Z Z l N l l a l Z z Y U ",
"2 5 l N l A A Q l k j j N B I v e s i u y s g d g d j j z P z P g l z H N j l d s v s g y i g v M g g l d a s j Z A v M l k k n l g w p a a j P d z j H M M N M B Z V D M B B c S F F v p p a l k P l Z N N z z h j l l N d j a a j j M g M j a a a a b M Z Z l l d j M M M l M u s s a a M M l g l A N M B D V B B c B V ~ F D f m m m C S F v v F C F C C F B S m C x x c j Z Z l U V C V F F F F F m m B S B F F S x C F F C F C F B m c x d P w w w P I l l z w N N A N g f y c d M M Z M l d j d M M N l A k n j j l z R _ ",
"2 2 j N N Z l I M l N M l Z I M y u s u d s s g j l H z l P l N l a l l H N z l l g d g a i a M g f g M a d l g l M l j u b k b d l d p a a w z N l N z N N I Z v S B B M b B B B F v B a p a N z z Z l l A z N a z l Z M l j u s h M N g N M d d a a f M g M l M b j d d M M M j j y u j Z V l 0 l A l B Z V B B B m V F ~ S D x B m m v F F x v C m C V V F F B m m x i d M a P I l A C C V F F v S B c v V B F F F m x C F C Z F F B b c x q l j P z z P z l P w z N A l f f y s c f g g l M j b d N M Z N M n u j d l N R U ",
"4 5 a l l A Z N l l b j M N N M e d y s d s M d l z j J z l l l 9 h j j N k K z l z a a e i y s M g d g a d d g l f N b u u j a l l a l a a w N z a l z A N l Y Z F v D m B B B F F v Z P a d l l N N A l l l z p j l N l M N u s a M N M N N d j j d l g g l f j j j M l M N M b a u s d I Z g a l l l B D V V B B c C B ] v B v x v m m F F F F B B c F F S F F x C m b ! M N P N A N V m B D F F m C C m B S v S C F m m F S v v V B C x b h N l P l w z j N l w A a A l g a y p g M g Z f g d l d M M N M j j k d a l l _ R ",
"5 5 h n l Z P P l M n j M I T g y y a s s d l M a j h l H P z N w 0 l j H z I N l l k h a a p f g g p p d d b N M B M N j h n a d g w p g j y a I j d N P z A A Z D B c B M V Z S Z Z w N w w Y N l z P A N l N a l j N A M N j s u b M l M M j a a y j l M A M j d b N g l l M j d j a l Z M f w N N A Z N V B V M V V B W Q B x c c m B C F B S B V c c Q S F F M M M z l N w l a Z l I N B D S C B B B c C F F B B F v C C B S B F v S v v v m d N a z N l l g h A d N M a i p d d g g g M d d N a B Z l Z z l j j l l M _ / ",
"5 3 a l l A N Z a l M M d N I M 9 s s d y d N P z l l h j P z z z a h h z z P I P z z j h j a a v v g p d d s a Z A M j M b k b d g p a a j d a l N l M l N P D g B I N M v B Z S D Z j Y l w w l z l A A A l N u n l H A M N M j h k N l M l N a a a p Z l l l M j a N M M M l n u s d M A P d d N g a I N g N M a L R M M F B x x b b B V F B D B B c c B Q V C B v g A P A l l l d M N H M B S v B v B B m c F F C B c C F m F v F v G x m v d M z z j l P l z 0 z l N N c e p s M M M g l c a j j M Z M l z j a h b N N U / ",
"5 5 j j l A Z N d j l j g Z D Z 9 i i d b k N A z z j k k z z N a a h h j j N I P P H h h j j z g v v d d i a s M M l M l b b l d d a d a a j j M z l M P A P M d A j l M b Z A D D N l P w w j w N l D P I N P a n N l N j N j n u M N Z N l l a u j d d Z l M b j l N A M M l b l h a j M A Z w l I g l A g Z B j N I I M Q V c i i c B F Q F C B B m m B S S B B g A A l z w z g l N l l l A F v B x m B m v v S C B m C F C S S F B F m x B g d Z z N g P l P g P l l M M e s s g Z Z g M d p j g M l Z N j j h h h l N R R ",
"2 5 k b l Z N N l d l d l M D M y s s d k n N N z l j k z l I H w j j h h z N l I N J j h j j j Z g g p d d d g M Z M g n b k k l f f d g a d M M A N a g A A A l d l N g b A a M A l l P I w w d w N Z A N H P u N N M l M M j l l d N Z A l l n j j M g l Z l N j d N z Z M g j s a j l M l M g w z l N P Z l N M V M N I T B x c c x B D ~ S V B m B B F F F v m M l A a l l j N a N M l N g F F B m x B B B F B F F m C G m S S F S C C m m D l d l l N z j w h A l A g g t y p f g l f g d a a l N g l j M j h h j l l ( R ",
"2 5 b N N l Z P d M j j l M Z M p g s u h j N z z j h j k k P P g w z l h z z j z N I N H q k k l N z a d g M g Z Z M M b b n b d d s p d d a d M A A A g A N A P N l z l N w l M l l P P _ l w a 9 z P l Z P N a N z N Z l z N n l l N M N N l j d a j M d g d l a j N N Z M l l a u a l A N l l w A l P z l j N H M N N V F F v m B c x S S B B B m c m B F F S B x M A N P N a N a A g P A A v C m v c B C B S S C F C B C B F B F v C C B B Z S N l l a a w l w P N A N g p s s d g Z g l d d b j N M g l j k j j M l A _ U ",
"5 < u J M N M N j j d M d M Z M e a d k h l Z l l z j h h j z I l h H w k z z l A l z j H k j w N l z l a f d v Z M M v d j N d g s f a i d d a l Z z P P h P N p I z U l l l w g N l l w N P l w g w P N N N N j N l z A l N N k j j J l l N N b u j N A l l l a a u V N Z A l j b j h g N A M z l w j A l z l l M N A V F E B v c C B B v G F V c C m c B F S F v c M l I A A z a N a N N Z A v C m c c c V m F S B C B C F C v F F S B B B B F Z a U z z z l j w l l A M M r s a v v Z g l d a j j b g l l a u h k a l Z / U ",
"6 3 h N l A A M d j y j g v Z g q p k j l l z A z h j j h j H k l h l w h j N l P z N j k H z a l g j z h j p g Z M c l V j b j g p p p a a i d l d z l A l j l z l N z z l A z z A N z z P z H q w w z N A A z j z l Z Z l l N l l l P N l M l k b h l M A M l j a a N N M N M j j j j l Z D l z l j z N j l j N P N N B D E B x v c m C F F S F V m m B V B S B v x a P a z A l A j A a l a N F F C m B c T B F S F C B L E C S v F c B m m B B v p g z N A l I w l N M M g p a d d g Z M l d j j d N g l l l j u a a l N _ U ",
"5 5 N N M A N g j M a d M g M g 9 y k j j l l l z H j h k z J z w w j h j l P j z z H H j H P H N g w w a l l g M M b g a c a d g g d s s g a g l Z g I A P w l l d l A z z z w l l P l P w P w w N w w w f A g h N l Z P M l l j N l A D M l l u h h N l l N z b h d n N N I a M j h b l A A g z Z l l A z A P z d a B N N N g s m c x x F F v V F B B C T F F F M x l l l N l A w j N P A l Z F S F C m m E B G S C E m B C c Z B G m B m m B F S v g l N j g w g N N l M d r c a f s M Z g d c k b M l l a d u h u a M I _ R ",
"2 5 l z l N M l l d b a M M M M 9 p j h j n A P z H k h j k P I a a z h j k H l N N l z h k H U P N h w p h h l f v M g v a d c d f p s a s y a a Z A A P z z w a I a l z g l w j l N l z N H l w j w w a l P z a N I N M N M l j b j N Z N N l a h j N l l l l j a u j N N D a j d l j b N P g l M N j l l l N l l l l d U P z j N M B B B F Z E B B B F F F F F m c Z l l A z I l I l N z I Y F m F B m m E v F S F F B C C m F B G C B m B c F Z Z z a j l P A N P N A l Z w s c g g g Z M g d u d l d l a l j u h l b l ` R ",
"5 5 l N l Z Z p M d a j d M B M y a j j j H l A z j k H j P P A j a z w w H z j N N l l h j z P P P H w q h a l Z f l M M j a d f r f a d a a s g f Z a P H l Y l N l w w j N z l z w w w P w H l l P g p l A z h l N A A N l l N h l j M N l l a l a N P N g a l u u s M j A l j l h l M N U f l b N j l l l P N _ l d l l U P 9 N M M B F F x C B c m F E Q F F S v g P a l j l P P l P w w N Q B B V V c F S G F S F C C ~ m B Z G F B B C B F Z B l w P z h N N Y N l g g w a d d g f s l d b l g N M M j a b n u n N N ' / ",
"7 2 l N N l M l j j a a d g M M y j h h h H N z H H j j j H P N w l H h h z H h l N l k k j k P I P K j a q a z l l g f b c c d f p p f d y a s g M l I N N w H N a l z l l j l j z j z w j w U l j h P l 9 A l h d N N l M N j h h h M l P l l h j a a M P P N j h h j l M Z l l n j j N M A p d l d n M l l l z l d z l N U z d g I M b V Q B V C V B B F Q F B S m l l N A l l A P l P P w P l A V c B C F x Q F F F B C E B F S S B F C B C F v Z l a 9 k k N z Y P N Z Z 0 d s g g Z M f d j a a l g l d j u h u N l g ! _ ",
"5 5 j l Z A M l d b u s M v M M q h h h j z l z z K k k H H Y I g l l h l z H l z j k l k w l P I P K H J h w a l l g f a d d d v s r s s p d s l l N P l P g N a l l w N N j z j w I w l z l w P w g a l w P z n N N V A g l l u l l l l M l a d h j h l Z A z l j n j l N A l M N n a M N I f l d M j j M M d l l z z N I j P z d z a B V E B F B C C B F F G F B v s l l A l l w A A z A Y P l l I B c C E v S S S B c B E v F F F v B B B C G F Z d j z h l P w Y N Z g Z p d s g M Z M M d a b d d l M j l u k a b N l R R ",
"6 5 a N M P A N M b j a g M B A w j j k j N z g z z z k H z P P w j H w z z z j z z h a j j l P U P U P K H h h l l l a i i d i g p f p d y d p g Z M l g P P N a f N l w z j w P z z w N P j l P w z a M N N z j z Z N P N l N u b j k l N l b h j d b l M A M b a a j N l M l j N j j l M P p d d M a M M N M M N d d j l A g s M l l F v G v B B m C D F F F F B M w d g l l l l l N p N P M U p Z T V B Q B F B C V m B L m v F F B C B m F G G C x a z k h H l I l l g Z r g c v Z M l M l a u j j l M j l h h j l g M _ _ ",
"6 5 a j l D Z N M n d d s M N Z w j k k l z N N l z k l H P P P g h H h H j H h A k j j h a h l I z P z k H H k l j l N j y b s g r s r d a d p f f Z Z P N l a a l Z a P l w P z w j w l w l A Y z l N z l N A j j N N Z N j l j k k l M N z l a u u j l A N N l l k j N N N g l a a b l M A e d l b a d g N M M b b a g l I f p p l p M B F v F B C v B F G S S S M d a z N l l A A N l l N l l A M M V V C V Q F V C B B F m B S S B m B B B ~ F B V w l l j j P Y A l g Z p a g d M Z M g c j b p d d M l l b h a l j l ! _ ",
"7 < b l l N N V l j l l g v Z F a z j h l z z l j k l k z P Y P w l z l H z H l z l h j h h k l A z P H z H P I A l l z a i a a v p s t p p f p g f g g Z l l l g l N N l l z l z N I w j w a l l j l w p d N l l j l Z P N j z l h a l l l l u h u u N d A N N k k l l P A Z a l h a j d N I 9 a a n l j l l l d d a d l g Z v g p l l s M F Z S m B B S S Q G F B v f w z N z M l N d l j l A l M M M V C F v G F C C B m C x F F F B m B B C G F B v a l j j j H Y Z Z f g s p f v Z g Z d j d h d j s l N l a l a l z Z _ ! ",
"; + & & % = = - + + O + % # # - o o & & o & $ $ = + + = = - = - o o = o & = - $ = & & o + & & = = = ; = = & - ; , = + # o O @ O O X O X O O O O + O $ $ O + $ O X $ = = = o o = ; o o ; $ - o o $ $ ; $ X . * O O O + = ; = % + + + X + $ $ + O o o . O + % = & # o + $ - ; - $ & O @ + + = ; O # + # * + # % + # @ O X @ # % + O X O O = + > # # : @ @ : : > > > # $ o o X = = - o = - + X % O - # - % : > > # : > : : : # : @ # : : : @ @ : : > : : # o . X & & + ; - % @ + O O O + - - % + + + O O # + + & & + + + + $ ; = a "
};
