/* XPM */
static char *result[] = {
/* columns rows colors chars-per-pixel */
"256 256 127 2 ",
"   c #634D2E",
".  c #644E31",
"X  c #655232",
"o  c #6C5534",
"O  c #675834",
"+  c #6B5A36",
"@  c #6E5738",
"#  c #6E5C39",
"$  c #705736",
"%  c #715937",
"&  c #705738",
"*  c #725B39",
"=  c #785E3C",
"-  c #6F603A",
";  c #73623C",
":  c #7B613E",
">  c #8E562F",
",  c #90572F",
"<  c #8F5630",
"1  c #915730",
"2  c #955A31",
"3  c #9A5C33",
"4  c #836A3F",
"5  c #9F6035",
"6  c #A36236",
"7  c #A86537",
"8  c #A76538",
"9  c #AA6638",
"0  c #AD6839",
"q  c #866C41",
"w  c #8C6E43",
"e  c #906F44",
"r  c #8D7145",
"t  c #8F7248",
"y  c #927246",
"u  c #967847",
"i  c #957549",
"p  c #99764A",
"a  c #967A4B",
"s  c #9C7C4C",
"d  c #9D7F50",
"f  c #A27E4E",
"g  c #A37F50",
"h  c #9E814E",
"j  c #9E8250",
"k  c #9F8851",
"l  c #A4834E",
"z  c #AA834F",
"x  c #A3884F",
"c  c #A58451",
"v  c #AB8653",
"b  c #A68953",
"n  c #AC8A55",
"m  c #AD8D59",
"M  c #B08752",
"N  c #B38B55",
"B  c #B88E57",
"V  c #B48E59",
"C  c #B88F59",
"Z  c #A79056",
"A  c #AD9356",
"S  c #AE935A",
"D  c #B29457",
"F  c #BA9057",
"G  c #B39857",
"H  c #B4925B",
"J  c #BB925C",
"K  c #B59A5C",
"L  c #B99D5E",
"P  c #BCA05F",
"I  c #B69660",
"U  c #BD9660",
"Y  c #B69D60",
"T  c #BA9D61",
"R  c #BCA263",
"E  c #C1965E",
"W  c #C3995F",
"Q  c #C89A5D",
"!  c #C4A05E",
"~  c #CEA05F",
"^  c #C09761",
"/  c #C39A62",
"(  c #C99E64",
")  c #CA9F68",
"_  c #C2A565",
"`  c #CCA266",
"'  c #C5A866",
"]  c #CBAC66",
"[  c #C3A668",
"{  c #CDA469",
"}  c #C5A969",
"|  c #CBAC6A",
" . c #D2A466",
".. c #D8A766",
"X. c #D4A966",
"o. c #DBAA67",
"O. c #D3A669",
"+. c #D8A769",
"@. c #D5A96B",
"#. c #DBAC6C",
"$. c #D1B065",
"%. c #D4B36A",
"&. c #DBB26D",
"*. c #DCBA6E",
"=. c #DEAE70",
"-. c #DDB471",
";. c #DDBD73",
":. c #E1AE6C",
">. c #E4B16D",
",. c #EAB46E",
"<. c #E1BF6F",
"1. c #E3B372",
"2. c #E9B673",
"3. c #E3BB75",
"4. c #EBB976",
"5. c #EFBC79",
"6. c #F1BD7A",
"7. c #E4C274",
"8. c #E9C575",
"9. c #EBC877",
"0. c #E6C579",
"q. c #EAC479",
"w. c #EBCA7C",
"e. c #F4C47D",
"r. c #FCC57F",
"t. c #F0CE7F",
"y. c #FCCB83",
/* pixels */
"w Q ..#.1.1.1.4.+.&.X.X.$.-.;.3.+.>.:.,.:.,.=.2.2.=.>.,.,.,.6.1.) :.:...~ :.,.:.2.1.>.+.:.:.,.>.,.>.:.+.,.,.,.,.6.6.2.+... .~ ] { ) | { @.} %.@.1.3.-.-.o.%.X.~ X.&.=.-.-.O.6.4.2.=.1.4.5.=.#.>.o.#.1.+.#.#.>....... .@.1.1.#.#.,.&.>.#.1.-.:.#.:.~ ....=.1.=.#.2.+.+.,.2.1.4.@.>...X.X.&.4.y.@.-.-.#...O.1.-.-.3.@.X.X.X.3.e.-.| @.-.=.O.4.6.#.0.3.*.3.7.9.7.0.0.;.;.%.+.@.2.:.5.5.1.=.@.1.3.5.0.q.0.@.$.8.3.;.0.y.w.7.7.<.9.;.0.0.w.0.;.7.<.7.t.w.w.0.;.%.-.@.2.4.q.3.3.-.@.[ @.@.3.;.1.3.=.@.#.o.X.@.=.=.1.=.#.#.:.+.&.1.{ / ",
"t y N D J J I I N v n v n S H I N N C C C C J J U C N C E C ( E g N N M g E Q g C E C V g E M E E N E g g M E E ( Q / C g f l l Z j k j m n n c A H H H n b N l v D V N N c N N J g C I C V N N B F V N v V H M N z V N m J J V V B J V U H V v N z B n V I V V H B B n m J ^ N H n v v m H U j V H J v b m I m I J n n b A T K b m b c v N V N V K G A K R K R R Z S b V V V J ^ V U V m n Y R Y Y R S A K L K R R R R P G G P Y Y R K K G K K R R R R R S G n B B U I U S H j b m H I m V m n N n D H H m H V N B n N V V  .` ",
"w w v B V I I J N l l v m c m I M N C B C U ^ J E E C N E E ) J g M C g N C ^ B E g E g E E g E E E E N g E N E Q ^ ^ ^ B l l h c d k c c c n b V I T H N n N b v m K m v N V n V n m I V V V v N N n M C V F v N z D H n V V n B F J H V U V N F v N N V V V N V N C F m V I V W F v N V J / m F H D v v b H S H m n n m V K m b b A v m N C N V J G G L R I R R Y S S g n V U ^ U ) V m I I T R K R K A K R K R Y R Y G P R P K Y P K K G G K R R R R R K A R v V I I I m H b n b H S I m n m v n B v n J m N N N N F H J  .( ",
"w w N F J I V J V n v b b m b I g N N C C C J U C C N M N / ) J g C N g g M E C E g N B g M E M V E E g M g E E ^ E E Q L D b h b d j j b c v c m m V H J D N z c n V m n g n v v n V V V V V N N N V v v H J z F M B N v H V N N H J H V U I V N N F H U I I C N n N N V J J n W n N V H H U m K H F D m m m m V m v m D I U m c b m c v J U n V J n n Y R R R K S K j V c N V ^ U ^ V I J m R R Y R G A K K L R R R Y G P R G K Y Y Y Y G K K R R R R R P S Z n b S S I I S c b v m m m m m n v v H m m V N v N N N F J H ..` ",
"w w n V J H I V N n n M b b m V f M N C V V U U E C N B N E ( J g N E M g B E N C g C g g N V C C V C V g B B E / / E m N J K v b d j j b c c c m m m m I V D v c m n b n J n V n V n V H n H F N N J c v N H N N N V J N N V V B B J J J U J V B v F H V U N I B v N v N I I v U N n V I I ) b H m D v v n m m n S n n N K U S b c m l f E E g M J U v I H Y Y S S H m N g V U J U V I J J U U T Y K H G K / S T T R L K G R R Y Y Y S K P K K R R R R R R G G V d m m S m I c n c m m H m v n v v H H V H H n v v N H V J {  .",
"y w v N V I H J n n N n n m m S f M N E U J V J C C N N N E ( J M g M M B B E M E B C E E N C C C V C V N N g E / ^ H D A n D H m a d a s s c s m m m b n m J B n V m v H n v N V n J m V N B v N V J V V m N v v n V V V m V H F B J J U I N n N v B H V H V N v v N v V V J m U m N N V I U c V N N A m N H b H n A n S H T H b c A l M g E f V N N N m H Y R S m v c V g g V U U ^ V v I V ^ I T L H L V I H T S R K G P R P Y R P K P G K R Y Y R R Y Y Y K R V H v I I m c b v n m m V n m z b H N H V V v N z N J J I `  .",
"e y v N N I I H n n v A n m m I g N N N C U U J C M N C M E ( E g M C M N C / C B N B E E B C E J V C C B g E E / V m b A n n D S j j a u a u a j c m m d c m N v n m n n m N n n n H J n V n N v H H H I J V v N M m V V n m N F H J C / U V N v v B v m V V m v l v v m V U v J m n n V I T m H n n n n n H m m m b n V I H m z M E M E E g g v V v N c S K H K V g V v v m v U V ^ U V J V V T T H m J K K J ^ J T L S G P R Y K R K P Z K P R Y R R Y K Y S T H ( v V H m h c v n m H m v c n z N n J H J V N z N V J U  . .",
"y w N F V H C J M D v N A m H H M g N N N V U J U C N C N N ( C M N B g N V E E E N E g B N C E ^ C C g g B M B ^ m n b x v v c m b m n D m n c b c j j d d c v c n V n m V N V V V V K n N N D v n N H J J V v N v v V I N v v C n V V I I H V v D B H V V H V N z c v n V I m J n v n J I T c m n v v n A S m m b m v S S I m f f M f E f E E U N V E N J K v c V J g g v J J U V V / V J ^ V V J H n m V m v H v n P S G P R Y K Y K K P S P Y Y Y R Y K S S R R T I I J N s c c m m m m n c v b N n J J J N N z v N U I  .` ",
"y i V F V I I J N D v D D H m H c M M C N J C J N M g E N C ^ U v v V C N M / C ^ C C C N N B C ^ J V N z N B H H S H n c x v n m c m m c V J J [ [ [ U D N D n c c H n V m n v v n H J H n v N n H J m J H J v z v n v H n n v D M v m J I V n v l H H V H H n v N z N m N I m H v n n m U T m H n n v b m m m m c b b b D J m B g E M Q M E g V m M J C V V N C J ^ V C g M C E C V U g g ^ C c V ^ v V V / n J N J U V S L P Y Y Y Y K S K K R R R R R K K G I Y R K K T V y v c n b m V n g v c n m N I H N B l n V H ^ @.O.",
"t y v n V C H I n N v N H n S H s N N N B V U C C M B M C E ^ U v V C g B C ( J / J V C B N B N U J J B N N v S H m H K n v b n m j b m n m I V / / ) O.W L W F d s c n n n v n n D H U V V n v N v H H J D H v b M n v n n n n n N F n H J H V c v B V I V J V N n x n m m V n V v c n m I / c n n A l c m S b m b v l n H J V g g M g E E E g V J v N V U V V N C V C g C C U U V C v V V C / v V E E J N V V J n n v m m K L K Y Y K P K K P R R Y Y R K G A R R R Z L K ( c F v H H I J V m v N n V I U J C B l N N V H @.O.",
"y w N N v V V U D H v N H V H K l N M M N C ^ C C N M g N E ^ N g N C N g C / V U J C M N E V V J V B N F N v n H m H V A n N n H c b n b n I m J U I ^ L J ! W b a g m N n l M v m V K H V v l N m b H K H H v M z N N V V V N v x N D H I H V v f V m H V H n x M z n m I I c N b c n m V Y c n m n v b b I m S n n N B E ( V f M E f f M E E J C U N g N N V N v g V g g g C V V J C V g C V V V J J J ^ V H n V v V N W L T Y Y K S P K Z P R Y Y K R G P S R R R Y L L L a C n m m I V V n v B N m U I ^ F N v N F V I @.O.",
"y y v C v H H I V N n D H I V K l v M N N V C U B E E M N C ^ C g g C g N C / J ^ J C C N C C J ^ J N N M b b A H S H S M M D n m c m v c c n n U I K U L J F J ) c d c v D l n c v m V n L N v n n n m V V N v l b D n S n H n v v v n H I H V l l v m H H H m n M N n V H Y m H v b v b I I c m b n c b c m V J V B N B E ) U f E g f E E E g J g U V C J C g v v N N C g B C J v V C g C ^ ^ V v J c V m N H V V V N V v V _ Y S Y K P P K A R R R K K P G S R } } R L H L l J N H V V m I V N n V V J J ^ C B v N J V U @.+.",
"y y N F V m V H H N v N m m I T c N v z V V J J C N B N E E / C g N J M M J ^ J / J C J M C C J J C J v b x F m m S K F n z D M m j m c c c V c T H I J L J W N / I b d c c z v v n n m b v N x N n V m V n N v n v n V n m n n v N c m m H m S v l N D V I m V N x N x J K U m K n A N m A H j b l v x v m N U E B B N J J / J g B E f g V ^ C J J V g M v U J N V C V V M B C J V J J C C C ^ C J ^ V J F H H H n b v V D D T Y Y Y K S K K K R R Y R K G P R R R R R R H V c n n J I H v n V v B n H U J J I F N V V J I =. .",
"y y n N V V m V n V D n H m V T g C M N C V C V N E N N N / ( E g M C V N C ^ J J V M C M B C ^ J V V c x v n H H m V H D n D v m c m b v v H c H H I m n N J D I ) U d d g f l c n m H m b n v v m H m K n m n b v H n m n n H N D n n m H n n n x v H H I H m A N M b H S T m H v n n n K I c b x N B V C I V C E N N B E ( C g f E p B V V C J v C J C v V V N J C V C g N C J V g V C J ^ C ^ C V m H D H H V n D F n v H _ S Y R S G K G K Y R R R G S K G R R } R R T V m J C g V U J V n v n m V I ^ I C F v V V V I @.) ",
"w y v F n m V m n n n H I b m H c N M M C C U C B B B B N ^ ^ U g V V M C C E v ^ J V g M C C J I V b c n x v H I H H H F F F n H c H n h v n c m J I I n D J z V / [ J a d c l z c H m V n l n c n V m n S D b z l H m m b n N n n n m H m m n m x v H I S V n b n A D H m I m H b n b n T U v F N F N V C C C V C N N B / / J g E E g g Q C V ^ g C g V n C J n m V g C J V C ^ V V C V E J ^ U N C v V J L J J ^ D n H n D L Y Y R P K A G K Y R R R P A G S R R R R T J K v J J V U I I J n n N v m I I J J H v N H H V O. .",
"y w B D V H H V V H n H J H m H g M N M M V ^ J E N E N N E ( U v v J V C C ( C ^ ^ C V N M V J ^ b b s v l n m H H H H D D F n m d H n c v N d N m V U J D F z V U { } V a s l l n n m m n v l c b m V m N D n M l n S m m b n n c b m S m x v b n n S m I S m n b n n H S I m H v F F J / ^ c V B N v N V ^ E C C J M B /  .U g E g g g N C V J E N V V v N V V v V V v C N E J V J J V E V g V I v N V V N U N H J J J A G P Z K K K P A S R S Y R Y P G K G Y Y R R L H n V g n V V H H V J v v N n H V J V C N v V V J @. .",
"y w n F H H H V n B V H L H I K c n N N B V J J V C C C E E ( C g v C N J C ^ V ( J F N B V J V m m V j n b D K J J H J F L W N I d V V n c B c V H m V V n J b N I ( { ! b u h c j m m b n v l c n H m n n S l v v m n S m b v D v b b A m m c f f M N B K J V E g ^ g ^ ^ / J E N E g C ^ ) g F B B v N J U ^ U C C E B ^ ( ^ g E g f M E E f E E M g N N J N C M f V g N N J U C N J C ^ V V M V E V f H V K H S n n J A L R A K P G K G K P L Y R K S S m D Y R R L T D J H g V v J H V V N v N n N V V m V v N N D V V { O.",
"w w v n H J H H v H n n H H I I c m C C B J I C U N V N E C ) ^ g v C N C C ) V / J J N N B F b H b n c N l v J J T I K J J J H U c I v v n N g V m H H H n K v n I T I X.! z 4 s s c m v b N b l c H m m b n h c b h m S m n n H A n m V H J N E E M E U C U C E E ^ ^ U / / J N B B N V ^ ( g V C B N N V U J U V E C N C ( E f E E M M f Q E f E E E N M B C V U U g N C N E ^ U C J C C ^ C U C N ^ v V H K Y K H H H D K R K L R R G K G P K Y K Y K G V H R R R K K G H v m g g v V J N n N v c V I V V N n v N v H V ( ( ",
"y y z F m V V U m H n F J I U T c n V F C C ^ C ^ M M N N E ^ ( v v V N V C ^ V U U C N N B D n S m m c n D n V K U / J F J J D U g n V c v n g V V V V N F J l m m U H U _ W s u h c n b b n D b n H m S m D c c c M V m m m V J B J B C H V v g g B B ^ U C U E g V U V ^ ^ V C N N N C ( O.g C B F M C V I J J V C M C E ^ ^ f M E M f M E g g E f g N N v N U N N C C N N C ^ ^ ^ J C C ^ C V V C N N A H L K I K G G G K P Z K I K G Z S P R T m K H v V V K Y R L S A H v C v g g V J C N V v n N V H V B B N N B J ^  .` ",
"t y v F V I H U m H N n K V I I b m n B C C U U C C N N B / ) / g v v v C E ) V J V V B M v b m S n H b v N H V I H U U J J J B U g m n n v n g V H I m H D J l m N _ J T W ! D h u c m b n n v v A H S m n S v v c V g J J F H F F J J U J F V E g g M V I C U E E J U ^ ^ ) J E B N C C J ) g E N E B V J J J J N C N N E ^ U f f E g M E E f E g E E v B B B V V C N E C C E U U C J J N C C V U N U H A A R K R S A G A P P Z R R S G G S K I H V N F m J c K Y L ' K S K n v V s V I m U V N v v n V H V V N v N N m H  .` ",
"w y N V H U V I m H V S V K J I c S n F J ^ U U J C C N C C ) ^ m m V g N C / C ^ J C C b x D m m H n n N H H H T J / J J J E F I b V n z N B f H V V m c n J l v m I I H J / J n u s j b b b l m m I m H m V n g B E V C J C ^ C C C C ^ C V N E M E M U V V V g N N E V ^ J V E E B g C U ^ m C C B B N C U J E N E N N E ( J g g Q M E g E g E g E g f E M J J V V V C C C C ^ ^ U C E M C U V V / J H G L L K T T L D A G _ S P R P K A G P Y R n v E C V C A m K R R S G F m J C g V J V N B B N V V H C J N N B J J J @.@.",
"i w N V J I I V V n V n H I I T c b c V J C ^ V J C C M V U / ^ g V C g N C / C U U C N l b v n H V m m n N V K I T U W D F W v V c J n v z N f N m V m n n v f m V I V K n H W L n a j j b m b x m H V H J F N B B N E J V C C C E V V J I C C g g g Q V V V C C N g E ^ ^ ^ V E g B B C C ( M V E C C V V J ^ C B N B C E / J f E E f E B E V M Q g E M f B F J J ^ V V C C C ^ U ^ I C M C C v J ^ J J D L / T T T L G G H ' Z R R R P A G S S I m N V E g V N v Y I L K A b U g M C g g J C J v V V V H J C N N H J J U { @.",
"i y N V J I I V H n n m H V H I c b c n C J ^ ^ C C B B C J ) ^ g V C g V V ^ J J J J n z v m m S m m m N N n J U V T J G F E F H c V n v v N z V m N m n N V f b H U m H H D J U T c a j c v c v n ( I J J E B N g g V J V C C B E C U ^ V V C E B g V J V V U E E E B ^ ^ E B Q g g B U U ) g M V C B C C V V J C C B N E / J f M E g g E E V E E E M 0 M M M V V J C C V V U U ^ ^ C C C N C C ^ E J K N H L K J L P P G H ' S R R R P G A K m S M N C g M E V c T K L G S m J V g C C m V C B N v F I V J J N N V V J I @.@.",
"i y N C I I U H n V V m H I I I c S n v V U J J J C C C C / ) ) g v E g V V U N V H J n x m n H V m m v n n v H U J N J F E J J J c V n v F N c J V V m n V N s v H U I H N D H L [ U j a h c N N V ^ U J U E N E C J V U J C C B N C C ^ E N C g C V V U J V J E g E g E ^ ^ B Q E E g C E ( M M V N N C J C C V V C B N E ( J g f E g E g Q g E g M M E B M B V V C J N N N J U ^ ( C C B C E C U ^ V n J K F H J K G J K T T S Y K P P G P K H H C E C C V C N S I K R H m V J V J v V V M M B N v H U V H U B D J C V H -.#.",
"a i V J I U I U N V n H H m I I c m b b n V U J V V C V E / / ^ g g C g E B ( g I V V n n n n H H H H l v b m J U I J V B F J H U v m v n v V v V V U H N M F u b m I H m H m v K U _ K a d M N M C J J ^ C ^ V g C E C C C C C B C E C I ^ C C N M N C U V J V g E f E E E E E E E g E f E Q N g C B B V J U V C g E M C C / E g B B B B B Q B Q f g M g g E g J V J ^ g C g ^ J U U ^ V C C / / ^ C ( N I N V I U S K J J U ) b R Y T L K G G L H l F E J V C N K K S I H L m V J U v V v g E V N M m m J V H F B J J J V O.@.",
"y t N J I U I V V m v m H m I I b m b n m J ^ ^ J C C V ^ ^  .^ g V V g g E ( E V n m H x m n H m n n z N v v J ^ U E J B B F C J c V v n N M M J J H J N D F u v m S H b I m n V K / _ J g z z v v C I J V C V E B C V E g V V B C E C C ^ C C C M M M C U J V E g E E Q Q E B Q g E f g E Q E C N N B C J / U C C C M E E ^ ^ g N B g E g Q g E E E E M E g E V J V ^ E C E ^ U U J J C N V C I C ^ U M ^ V I J J m V V U ) ( H T K R K K K A H H n N M C C V S H R K K b K H V ^ v V v J p V M V v V V V V N H V V V H U { { ",
"i i D V C U I I H N n n n V H I b n n v n N U U U C U C ^ ^ ) / V v V g C M E E I b b m n N m c H m n l n M v J / I J E F F E F U g n v v v v v V H J H F F N f c V m m n A n b m H I ( ) N f f M v V V C V B N g E C E E V E g N N C C ^ C C N C z N M v J V V g E E g J / E V Q E g E E E E M E E B g V C ^ U ^ C C C E C ( ^ g B E M E E E E g E E M M E g E U J V g B C C C U ^ U V C N N C V ) C ^ V I V ^ n ( J n V U J ^ V ( J L L L H H v N C C C V J V T S L H H H V n V V V g m V g C V N v n V V N v N v N D H V { @.",
"i i H H U I I V H H v D n m I I b b b n b V U U C U C N C ^ O./ g C C g C C ^ v S m H b v D n A V H N z b N N V I U J V J E J N V c n c v v N g N m m H N D D u v m I H m H v c c H I ( ) ( v s v N C U ^ E N N B g V C ^ Q g E C C C V ^ / C V E v C C V V V J E g g E J ^ C E Q g E g g E E f g N E g V ^ J J C V M M E J ^ U g E g g g E E g Q g f E M f E E V U U U E g E E U ^ U U C M N V J M ) C ^ N J V V v V V U V J ^ g V ^ J A H H H V C m v V C V V J W V V V n m n v U ^ N V g E V M N V n J I J V B N N n m I O.@.",
"i i n H H U I J H N b D N N I I c A m n b H I U U ^ C C C ^ ) ) g M N g M E C m m m S n v D N m H V V c v z N H U J W L F F Q F J v v c v z B v v V V V N H F s c m H m m m m n m m I ^ Q ( Q g g M V J J J C N g E g Q E E E g N B C C V U U V B M M B C V V J C B E g g / ) V E M E E g ^ / g C V E g C J U U C C B g N E E ^ B B E g N B Q g Q g E f g E E g C E Q M g g Q E U C V C E 0 g g J ^ V ^ C V v V c / v V J ^ ) ^ v U J J U U m n I v C V C V ^ ^ U N C C J V n v V g V J V v c B N M V N U I U C N N V V I V { @.",
"u u N J V I U I m n M b n n H I c m n n b H / I U C C C E ^ ) ) V M N g C C ^ g S m H m b n n m H m H c v z z n U U ^ J F J J F J m V v N z v v C N V m N F F h n m H m m n n x v K / ^ ( Q Q E g g J V J J E N f E E E B E C E C B J J V C C J E M M N C N V C E g C ^ ^ / ) V E E M M B C ( V V M B N J C J U J E B M N E ^ J g M B g E B Q E E E E E g B E B E E g E E g E E C J N V M M E f C ^ C V v ( N ^ g C v g J g V ^ n U U J ^ C v n / ^ N V J J J V C U J V N H c v g v g V U C v N N z V H V I V J V v N J V J @.{ ",
"a y V J I V I I V n n b n m H H c b n n b m I U U J V C E C ( / V v N g v V J c m b A n l v n V H m V n v N N n N H J ^ N F F D U v H v z z n v C N I n N H J f n m H m m H n A n H ^ U C E W E E g M V J ^ E g g f E g C V M C B M C C U J V C B B B B C C V v E g C J g U / V Q g g E C E ^ E E g N B C ^ J ^ J J J C V C ^ C g E E g g E E g g E g E g E C J C J g E E g g E E E B B M M E E V ) v C v v V  .v C U V J U m ^ n U V J U v V V ^ V U C V V M m C N ^ / g N n N ^ V J N V V V B M v v V U V N V M v v V m I { @.",
"a y m H V I I V n v n n b m H S j b b m m A m U C V N C E C ^ / g v C v N n H c n b m n n v n m V H V N N V N C I V H J F N J F J c V N z v N v V V U V b F J u n v L m b m v n m I ( U C C C E Q N v v V g J M E E M E V E V V B B C N U C V C B M N B C U J N g E V C ^ U ) V Q g E g C V ) g N V C N C ^ J J E J M E J C / C g g M M g E E E Q E E g V V C ^ J C E E E g E g J J N B B M f E J U ^ U U N V ^ v U C V V v C V v N V J ^ J J V V C ^ ^ U V V J V V V U C C V g J n J C U V n B N N n V I H N V V v m V V m { { ",
"t t N H m V H H n N M v n m S H j n v b m m H U C C N B ^ E ^ ^ g V C g N N N g m m b b n n n K V m V v N N B n U J ^ J J N F N I v m g V g v v C I V V N v F s v N H m m m b b b H U ^ U ^ C E E E E g M C E N N V C ^ J U v J Q g V E E ^ C V E g g C V V C V E g Q g V U / J U M M B N C ( U g J C C C ^ ^ U U ^ J J E C ^ ^ g g C N g E Q E ^ E C g E B C C J V J E g N E g Q B N N M E g g ^ ^ C ) V V E C E ^ g J ^ v ^ U g J ^ ^ J g g / V J ^ U g ^ v m V J V J v m E C ^ C U ^ V V J V N v B V I C V J V n v H H H O.( ",
"u y n V I m V H v A v l c b I H j b m n b b I I U C C N J J ( / g m N M E N m g m c m n v n n H V m J c N B N N H H J E F N J n V g m m C M M v V J V V H n D u l A I H m v n n n N I ( U J N B B E ( V g g B B B C V ^ U C C V E g V V ^ ^ E V E E B ^ ^ C ^ V E g g E V U / V ^ C M N B ^ ^ C v J V M V / ^ U V V V C C N ^ / g g N N g C E ^ J ^ ^ C N B E C ^ J J J g N g E E Q V B M E E E J ^ V ) V E C ( v ^ J J J V N ^ g C V g ) ^ g V V J J ^ / J J V V J J J / V ^ g g ^ V V V V V V N v N V J V V v N N F N J K O.{ ",
"r y n J J V H H b b v n m m m H d b n n b b m m C N C B W C ( ) g v V g N n K b m m c m D D v V I V V n v N N N V V J J F N E M V g V v C M M v H V U V F N N l v m H H m H m n m H U ( C C V N g Q ) ^ C g C g N M C U ^ J C M B E E g V ^ V C E g g E V J ^ C E M E f V J ) N C C C N M J ^ U v J J v N J J ^ E V g E E E ^ E g g g N g E ^ V U ^ V C N C V ^ U ^ C C B g E Q ^ / E N E g E E U / V ^ E V g ( g J V v J C N V g U V ^ C V V C V V C ) J J v V V J M v C V V J ^ C I ^ C g V N B n F H J I V n N z v H I I @.{ ",
"t r n V H V V I v M c v n m V V c c b n n m I U C N N B W E ( ) V V C g V v m b m n v c l v v K H n V v z N H V I V H J F B W n U d m v n N N v V V J J F D F l l n I m m m n A V V I U ^ J M M g E / / ^ V B N E g V U U J J C E g E V J V C C E E C J J J ^ E E E g E N V ^ V C M N N V U ^ N v C C M M U J V C E N N V C ^ C g N M g V g ^ J U ^ ^ V E ^ C C J E E E B g g E J ^ E C N B g g U / J ^ ^ C g E g C v M V E C ^ g V g J V C V ) / V ^ ^ ) / ^ J m V ^ V V U g V U N ^ v N V V v N v V J V H V V N v v n H H @.{ ",
"t r b F V H V V x D z n b I H H j n n n c Z H U U V C C C C / ) V v N B 1 1 1 3 3 3 3 5 v n v U I m N c N N C V J H V B D F F D J g n c N v N v m N V m V V F l v m H S n m m b H V I J E B B M M M E Q ( N g g N B E E ^ C J C g f Q E E C C C g f E M g ^ J C M M M B M E ^ v E B N N C U ^ M V V M M J J U J V V E g E E E E g B B g M B J U ^ ^ C E N B E C ^ C C C E g M V J J J ^ g V E E ^ ^ g ) g E E E g v J v V N V N g g ^ V ^ g g v U V U ^ m ( J J g V J C / V / V N B H V v J H N v z V V J H m N N v n V V I { O.",
"t 4 M H n K V H v v l N m V I K c b A n c m m U C V C N B E ^ ) V N C C > < 1 1 2 3 3 5 3 3 2 3 2 3 3 3 2 3 C J H H J F N B B B V n n v v N M N V V V N V n D n v m m b m b b c m v V U J B N M M E E E / / E g g B g C ^ J C C E E E E E E V E E E E E ^ V ^ ^ E E B M B N E N N N g N V U ) v M V M M J V U J E g E g E M E E g N B M N N ^ C ^ ^ E E B N E C ^ E J C N N N C ^ U V J E g g C U U V ^ B E g E C M v V V M C ^ p J V V J g J C v V I U U / ( g J ^ J / V g g g N V N n c V V n z v n B V H V v n N N n V I { ) ",
"y r M D V m H D N b x v b S I S c b v m c m V V V C C N C E ^ ) U v J V 1 > 1 , 1 2 3 3 3 3 3 3 3 3 3 3 3 3 3 3 3 3 3 3 3 3 3 F C n v n N N N v U I V V n n N v b m H m H n c b b n C C C C M M N N C ^ ^ ^ ( B g V E C C C C g E E E f E E E E E f M E V ^ E E M E E E E J Q N E g N N V ^ ( V J V N v V J V J V E B B E E Q B g N N g B E B E V J E V V N V C J ^ N E M g N V U / V J E g E B V U V V E B B E V E ^ J M N N ^ g V V g V C p C g m V V J J U V ^ V ) g V U V V N N v V n N V N z v D V J V J n N n N V m V { ` ",
"r 4 N n S V V J x N b v n m H H c c x x b b J C C C E N C U ^ { U M M C 3 1 > > < 1 1 3 3 3 3 3 3 3 3 3 3 3 3 3 3 3 3 3 3 3 3 3 3 3 n c v N N v J J I J N V B v c m m m m n x v n V C / J N N N g g J C C E Q E E g g C ^ C E B f f E E E Q g E M E E g C E E g E f E 0 B J ( v E M C g C U ^ J v M N M M v J J C g N B g E E E N N g B g E E E J J C E E V V V E E B N M B V C V / ^ V C B g E V ^ U V C B N C V / C v ^ g U C g E E C J J g g m V I g ^ U ^ ^ V V ) J g J U g V M V N c m N N N z H H H I H V n N V m V K ` ` ",
"r y v F D K m J v A b N n D H H j c l x l n V J V U V B C C ^ O.V V m V 3 3 3 3 2 1 1 2 3 3 3 3 3 3 3 3 3 3 3 3 3 3 3 3 3 3 3 3 3 3 m g V M v M N I I V H N B D b n V m n n b x D n H J E C N M E g C C E ^ / C E g g M E g B C E M E f E M M E E f E g Q E C E B N C C J J / v B M g M E B ^ B C M N g E N U C C M N N B C ( J v N C M C M C I U V ^ ^ C g E E U U J C M M C J J ^ I J N C B C ^ ^ U g ^ E V C V ^ J ^ v g C v C V g g C g ^ g n n H g m ^ g C V / V J U V V c N N J V V N V V n v V N V V I N n M N H H H ` ` ",
"t y v D n H m H v A z b n N m T b c l x l H V V C C N N C E ^ ) U V J M 3 3 3 3 3 3 3 3 2 3 3 3 3 3 3 3 3 3 3 3 3 3 3 3 3 3 3 3 3 3 g m V V v V V V U J H n F N n m I m S H v l c n H J E E N N B M C N J J ^ E E E E g g E B N g E E E E E B M B E M E E E E g E B N N J J / J E M E g E M E N B B N M N B C V C M N M B J / I V V V N C V ^ J U U g V g E g E J J C C N N M U U ^ C C J C B V ^ U ^ g J C E E V N v J C U ^ C g V E ^ E g N N N m H N v J U V V V U V V V J v N v J I I K V m c n V V m I V V F F n H H H { ( ",
"t r n D V I m H n M b l b S m H b h b b g m J m V V N M M N C ( C V C C 3 3 3 3 3 3 3 3 3 3 3 6 6 3 3 3 3 3 3 3 3 3 3 3 3 3 3 3 3 3 g V V V N N V I K C F V n N n m I V K V D v b b H I / C C B E g E C J C C C E E E V E g E B E E E E E V B N B B B g g E B E N B E M J J U C C g B E V J ( M B B E g M C / C J C B B B C ) J N V V N C V V V V V V C E g E C U V N N N M N C ^ ^ J C C N C F U U V V B B g E U C ^ v g V U ^ g C g g J v M g v n H N g U N U J U U U V V V n n n V J H J B H v N V I I V V m A N D J H I @.] ",
"r u n F m H S J b n M b n n m H n c x l v V U V C C B M V V ^ ( C V V C 3 3 3 3 3 3 3 3 3 3 3 5 7 9 5 3 3 3 3 3 3 3 3 3 3 3 3 3 3 3 c n v V N C V U U J H H n N m m m I H H n v m b V J ^ E C B g E M M J C E N E E ( E g E g E M g E f J C N N M g E E E E E g B N C V J J ^ J E B M M C J ( M B M B M M C C V C N C B C E / H n N C N N C J V V U V C g E g E J J V N N N M N V J U J F B C U V ^ U V g E g E V V U C v N C v V V E V C v N z v V I J ^ v v U g g V J ^ c V c n v m V V H H H v v m m H I N m n n n J V H @.` ",
"t r c D m m m T v m x b m H H m v x x v n J C J C C V N N N J ^ J V M J 3 3 3 3 3 3 3 3 2 2 3 3 6 6 7 6 5 5 3 3 3 3 3 3 3 3 3 3 3 3 g V N N N I V I U U H N N D c H I I m H n c n m m m / U C B g V C V C J ^ V N Q ^ / E E g E E E E J ^ V ^ C E B g E V U U C E N B B J U ^ C E M B B N V / g N N B M V C C V C v N B B E ( J V V V g N N C V V V B B E E E g C ^ C M M V M V ^ V V V N v F C J J C C E E E E V U C C C C ^ C v C M v V V v c n m H U J H N J g U ^ J V g V g v v n H m H V m N v H H I m m m n v H m H I { / ",
"r t n H m H H H b N b M b m I S b m l l c J J U C C N M N V V ^ V V V C 3 3 3 3 3 3 3 3 2 2 2 3 3 3 6 3 3 3 3 3 3 3 3 3 3 3 3 3 3 3 c v n v v N H I I C H F N n n m m I m I m n c b m S H J J C B C V v V V J M E E E E E Q g g g g g C J C C C g E E g U J ^ U E B C B V ^ / J E E g g V E / M C N B M V V V U J N N C C J ^ ^ V V U g B N V V I V B N B g E Q U U M N N M M v U ^ V V N B V F J U J N B g g B V J U N J N c V g U N V v v v v c m m V V N H N V U ) J J I U g N c n V H m m m D v H V I V n b D n N V m I } { ",
"t y V H V H V I b n b m n H S V b b v v M V J V C V M M V C C ( V V V C 2 3 5 3 3 2 3 3 3 1 1 2 2 2 3 3 3 2 1 3 3 3 3 2 3 3 3 3 3 3 v N V n N V N I U J F H D v n H m m m m n m c b m b n V C C E N C V C C U g N V C E E B E f E g E V U V C V E g g J g ^ V V M E N C C J ^ C E M B N V ^ V v C N B B C C C V J C N B C E ( I n v N g N N m V N V v z M M E g U I C C N N M V J ^ U V B N J J J / E M E M E E V I C V V C ) v g g J c V F v c v b m H J v n c V V U V g I U m D n n S m m m V n N n m H m H n v D m V H V ` ` ",
"t r n H m I m H A n v n b m S Z c c N M V ^ U I V B N B M E ^ ^ V g V g 3 3 3 5 3 3 3 3 3 3 1 < 1 > , , 3 3 3 3 3 3 3 3 3 3 3 3 3 3 c m v g N V V U I I H H J n g I I m m m m v b v Z m m m V v B N J C J E ^ g C C C C C C Q g g E V V V C C V g E ^ C V V V J C B B N J C E B E M B g M U J g N N B B C J U C J C B J H V H S c b n v b m m m m b v l M g N M S V N V M N v V C U ^ J B N N J J ^ E B M M g g m V m ^ C ( U n N M ^ J c c v x b m b m v V b b V U V V I g m g v n H H I V b m v c D H H H m n c n b S I H { _ ",
"u r A H m I m H c m v x n H K c g v v B N J U C C C M N M E J ^ V v N v 3 3 3 3 3 3 3 3 3 3 3 3 3 3 3 3 3 3 3 3 3 3 3 3 3 3 3 3 3 3 c v n c M v V J I J H F H v c m I S H H A n n c m b b m v B B N E M J V J g C E ^ ^ E ^ C C f g Q g E E V E N g E E V V J J E M B N B ^ V V E M M M E M M g M V B M C C J ^ J V V H v H I S d b b b n b m m b m n x c l m H H S m V v v b m m S m S m b n A m I m m A b l z n m m V n C N m d N N C V C c l x n b m H c v c J V U m H n n h c m m I m m v m A b n S m S m b b v v m H I | _ ",
"q r n D m S m H c b x h m S I H M g v N N E J J V C M N M C E E N N M M 3 1 3 3 3 2 3 3 3 3 3 3 3 3 3 3 3 3 3 3 3 3 3 3 3 3 3 3 3 3 n n N n V v V I n H H H J n b b V H H n x n b m m b b A v z B N J C V J J g N N J ^ / E E C E M E E E g V C g E g E J J V V E M N N E E J M E M M E B E V v M M B N N V J U K m b n b m I H c b c n v n H H n n m c n v V K S H H m A n n b m I b m V b n m m V I m n n b D b m m A n v J c b m n v n g b v l n m b m b b c b V m m H m n s c k m m m m I b v n c S m m m n b v l b Z H [ ( ",
"r r v H n S S H c m x n b S I K B M E g v J J U C C C B B E ^ ^ V N N M 3 2 2 3 3 3 3 3 3 3 3 3 3 3 3 3 3 3 3 3 3 3 3 3 3 2 3 3 3 3 g b v n N N V U I m H J J n c m m m n n v v b b m b n b v l v v C J J C E N B N E C ^ J C E g M E E Q E N N E E Q E ^ C C C E g E N V J C v M M 0 E B E N z N M N M N m V m H b v v D H H H b m c n n n H I V b v n n n H H I I V m n n A m S I H m m b V n m I m m n z x N m m b S n J c c c b H m V n v v c n m m n b N c c g n I m b m c b c m m m m m m v x N m m m b m v b z S m m ( / ",
"r r x H m S m H c m x v c V I I M E M M v N J U V C N B C C ^ ( N v N N 3 3 3 3 3 3 3 3 3 3 3 3 3 3 3 3 3 3 3 3 3 2 3 3 3 3 3 3 2 3 c c c v v n n V I I n H F N b m H m n b D v v m b b b b b x V V J V U C J V N N E ^ J C C N E E g E E N E N E g g E J ^ C V C B B N V J V C E M M M B E B M C C N M V V b m S n A b D n J H b n n c n v m V K n m v n x H L m m I m D n D v I V H m m v n m m I I m D x z n v A m m n C V v s n I m g g b c v V H H H V F M C U J I U J C V N m I m m m v v l x m A S n b c b x l n m m ' { ",
"4 r x N K m H m x n l l n H I U V g B E g V U J C C M N C C E ^ V g M V 3 3 3 3 3 3 3 3 3 3 3 3 3 3 3 3 3 3 3 3 3 3 3 3 3 3 3 3 3 2 b n v v v N n I I I n V D N v m H J n b v l n n S m m b n l n V U V U U C M V V V ^ ^ ^ C V g E E g J V J C g E E M E E C N B N C B C J J C E f M f V ^ V V B B J B v m b m m m m b n m H V n n v l v b n H m H n n n v n I m S n v v v n n V S V b n n H n m m m V H b n b c m S m n x v x d c I m B g N M B V C v V V C B C V C ^ ^ V V v v M C ^ ^ ^ V C v v b m m m b c l x b b m S { [ ",
"q r b A m m S S h v x l n V ^ ^ B B g E C V V U ^ C M B C E ^ ( V V v C 3 3 3 3 3 3 3 3 3 3 3 3 3 3 3 3 3 3 3 3 3 3 3 3 3 3 3 3 2 5 v v v v n N g I U V n n n n c m H m H n x l b n b S m b m x c v H J V J U M C C V J J J J C E N M E V V J C M E f E E E B B B B g B C ^ C V E f f E V ^ C V N N N N m m m m V m n n N V I I H H D l v N H V m V n n D v V H H m n c n n n n m m I m n v n n m I m V N c b n b b n H n n v s c b m S C B E N B n V g V V V N C V J U ^ C V M v v V V ^ / J ^ N F C F K b m c h l b c b b { } ",
"r r b m c H m m x l z v N V U C g B E g V V V J C C C M B / ( ) U M M v 3 3 3 3 3 3 3 3 3 3 3 3 3 8 6 3 2 3 3 3 3 3 3 3 3 3 3 5 5 2 c v v b n v V U / I V V J v c m I H n n v l n m n S m n b c b c m I U V U v M V C J U C C M B g C ^ V V C V E E E E E E E N C B B N J V V V Q E g E N ^ / g M C N c m j I S V m n n H V J I n m F n v n n V m n n n v v V J H V n D l N n H J H m H D n v n H J m H n N v n b m m n v n D l d b V C E N N N N N v g v c M C N N C ^ ^ V C N N V J C V U C C F F N J C J v N l l c n m n / / ",
"q r k A m Z m H v N g v N J ( ^ N E g B g J J V U ^ V B N C /  .V C N N 3 3 3 3 3 3 3 3 3 3 3 2 3 3 6 7 3 3 3 3 3 3 3 3 3 3 3 3 3 5 v c v l N N n I U I V V I N c m H m D n n l b n m m A m b c n c m m U U E v E M J J J E C C E g J V ^ U C V M M f E g E B B B g g V V J V V g E E g C ^ ^ g N M n b m m m m K A n v F H I U m V H n v N H H n N H c F l n H V m N n N b n N H H m n F v v n m I I I n n v n c N n b A v D l c b m ^ C N B B B B V n g V g C N C U V U C C M M M C U C J C V v B N H V U V V N N v H S m [ _ ",
"w y v N V C I C B F M M M C ^ / M B B N M C U U E J N B C ^ ) ) J g V M 3 3 3 3 3 3 2 3 3 3 3 2 2 3 3 3 3 3 3 3 3 3 3 3 2 2 3 3 3 2 n n V g v n V H I V n V D N n n I m n n N v c b n H H m n b j Z m m V V C v N E C ^ J J J C M M E B C E C g N B V E V J V ^ E E g E C ^ V v C C N M V ^ J J C N b v m m S H m n n V n H I V m m N v v N H J V H V N N l v D V V v m N n N D H H H n v n n v n H H H N N n v m m n v m n N n g n J U J 3 3 g C C V V g V V C N N J J J C ^ M N g E J E C J ^ B N J C J J C v B N B N J V O.O.",
"w y N N U U C J N N N M N N / / g B M B B N V ^ ^ E M N V ^ / O.U C V M 3 3 3 3 3 3 3 3 3 3 3 2 1 2 3 3 3 3 3 3 3 3 3 3 2 2 2 2 3 3 c m n v v c m V J m V n N A c m I m V c m n b b b m m H b n c m m m V C ^ v B g J ^ ^ C E g E g M B C C ^ M g g B C J V ^ C N g f E M E v C J C B N C ^ ^ v V n v c n H H H H m c n n F J I v m V v B H V H I J V N N M D N m V V n N N N J H J J n N H N N 3 3 3 3 3 3 3 3 3 3 3 3 3 3 3 3 5 2 3 3 3 3 3 N V E C V g ^ g g g C J J U J V V N N E J J V C J B g C J J U V C N M M C E ^ { O.",
"i i B C ^ J C C v N M M N C J ^ M E g E N N C V J E N N C E ^ ) U v V M 3 3 3 3 3 3 3 3 3 3 3 3 3 2 3 3 3 3 3 3 3 3 3 3 3 3 3 3 3 3 c n c v m m m I H H S n N N c m I V S c c x n b m S m m V n b b m m H I ^ v E N E E ^ C E g N B B B J V C V E g E C ^ g C C Q f E g N E E g B B N N C ^ ^ V H b m b m H I V H n v v V H U I V n H v F V U V I J V B N N N V V m n N v v N V V 3 3 3 3 3 3 3 3 3 3 3 5 2 3 3 3 3 3 5 3 3 3 3 3 5 3 3 3 3 3 M V N C C V ^ g V N N J U U C V g B N V J ^ C C C N N C C C J V C M B B J J ^ @.+.",
"p y C J J ^ / C N N M z N J C J g M B E N C U J C C C C V J ) ) V V M N 3 2 3 3 3 3 3 3 3 3 3 3 3 2 3 3 6 3 3 3 3 3 3 3 3 3 3 3 3 3 n g n v M V V I J H H H N D b m I v n v c l v b m m m b m m b c S m H V U N N N B C ^ J E E B g N N C J J V Q g V C ^ ^ E ^ E f E E N E C N N E g N C / ^ g N v l x v m I I V D n v N V U V n n N c N N J I U U V V N v n n U J n v v v B H I 3 3 3 3 3 3 3 3 3 3 2 5 2 3 3 3 3 1 3 3 3 3 3 2 3 3 3 3 3 3 N B E E ^ V V V g C M J U J C E C g C J J ^ ^ V V E g V C J J N M N M N B J U O.@.",
"y i N E U ^ ^ ^ M B M M N C J J g M N M V C C J V C V C C V ) O.V V M N 3 3 3 3 3 3 3 3 3 3 3 3 3 3 3 3 6 3 3 3 3 3 3 3 3 3 3 3 3 3 n n l c v m V H I V H H F v b m H m m m l b c c m V b n n V m b m H I m U V C C J J J J J C B g B E E E Q f E g E E ^ ^ ^ C M M M M E E B N E E g M B E / V n c v l x v H H H n B n n F U I n n v l v V H I U J H V F N v V J J N n v N v J H 3 3 3 3 3 3 3 3 3 3 3 3 3 3 3 3 3 3 3 3 3 3 3 3 3 3 3 3 3 2 E E C C ^ / J C V V g J U J V V V N V C U C C B M M M E g U J N M N N V M C I O.#.",
"y i N B ^ ^ U E C B B M v J J ^ g g B E g C J V V J g V M V ^ O.J v v M 3 3 3 3 3 3 3 3 3 3 3 3 2 3 3 3 5 6 3 3 3 3 3 3 2 3 3 3 3 3 c c v x v n V H I H n m D v v H H m N n l l v b S S b b m n b m S m m m / V M V J U J J V C B N g Q B E E E g E E g g V E C M E E E E M E E B E B E N B / C n b x M v H I V V N n B V H ^ H V N v v v N V J I U J V F N B V H H N V z N n B J 3 3 3 3 3 3 3 3 3 3 3 3 3 3 3 3 3 3 3 3 3 3 3 3 3 3 3 3 2 3 C C E ^ ^ ^ v ^ V ^ g J ^ J V E g M M C U E N B E B g M E ^ J V N M M C N U C O.O.",
"p e B B C ( / C C C B N C C J U g N M E C J J V C E N B V V ^ O.J m M N 3 3 3 3 3 3 3 3 3 3 3 3 3 3 3 3 5 5 5 3 2 5 3 3 3 3 3 3 2 3 b c v c c c m n I I N n n c n m K m D D z l c b I m m m b n m m m m m m J C E C ^ ^ ^ C ^ C B N C C B E E E M E M E N V B E E f E E f Q Q E B E B g B E ^ g m v b b v n H I H n N D V B J K n V m M v N V H H J J N N v B J U C V N v N N H V 3 3 3 3 3 2 3 3 3 3 3 3 3 3 3 3 3 3 3 3 3 3 3 3 3 3 3 3 3 5 g g J V / J J g J C g g V J J C g M C C ^ U N M M E M E g U E C M v M N C V V O.#.",
"i e N C U ^ ^ C B B N v C C ( ^ N N g M C C C C E E g B ^ C ^ ) ^ v N N 3 3 3 3 3 3 3 3 3 3 3 2 2 3 3 3 2 3 5 5 3 2 3 3 3 2 3 3 3 3 c c c n c v V m m V n H v c c m H n v n M b c m m S b c j m b Z I m m V C N C N ^ J ^ ^ E C C B C C N E E E E g E M V N B M M E E M Q g E g g E B B C E ^ V b b D b A m S H n n n N v H J U V V v v M N N H H V N N B B N H J U V N B N v N V 3 3 3 3 3 3 3 3 3 3 3 3 3 3 3 3 3 3 3 3 3 3 3 3 3 3 2 1 2 6 g ^ V J J ^ C C g C g V V C J J M M N C J E C E f E g E Q ^ U C C N N M V V V ) O.",
"e e N B C C ^ U C B M M C V ^ ( M N M N M J C J ^ C g N E E E ) V V M g 3 3 3 3 3 3 3 3 3 3 3 2 2 1 1 1 2 3 3 3 3 3 3 3 3 3 3 3 3 3 m d g n n c m H m m b V M x l m A m n b x n l b m S m b d n b b m m m m N V C V E U J U J C C M J V C J J J E f E E E g E g N N N N ^ C ^ N E g g B C ^ ^ C b x v n n m m m V n n N N V H H n H N v v N H V V V N n N N V J J J J V N N N H V 3 3 3 3 3 3 3 3 3 3 3 3 3 3 3 3 3 3 3 3 3 3 3 3 3 3 3 1 2 2 N B C ^ ^ ^ M C N N g ^ J J J ^ g g E E N E E C g C N B N ^ J J C C g g E E M ( ( ",
"y e N M C I ^ C C E B M C C J ^ v v M M V V J J U J E C E ( / ( J N V M 3 3 3 3 3 3 3 3 3 3 3 2 2 3 3 3 2 2 3 3 3 3 3 3 3 3 3 3 3 3 g d v v n c n m V m m n D z v m m n N b l v n v H m m m b c b b S m m m V v V C C ^ ^ J V J V C U V V ^ J J Q M g Q E E E g N N C C C J ^ V g E B B C ^ / C b v x x c I V m H N D F n V U J m F v v c N V C V V n F N N H J J V H V N N V F U 3 3 3 6 3 3 3 3 3 3 3 3 3 3 3 3 3 3 3 3 3 3 3 3 3 3 3 2 1 2 M B C ^ ^ E B N N C C J U V V E g N E B E C E E V g E N C ^ U J J B B E g B B )  .",
"p e N C V U ^ J N V C N E E J U M M N M M V V U J V V E C ^ ( / U V V v 3 3 3 3 3 3 3 3 3 3 3 3 3 3 3 3 3 3 2 3 3 3 3 2 3 3 3 3 3 3 g m c l n g n m m b c m n b v m H m N n b b n n H H H H n v m b m m S S V V C V C C ^ J V C C C E C U V J J E M E E E E g g N g N N V U U N E E E g V V ) g b n n v n H V H m n n J B H / I N V N B N N H H J J n N N v V U I U n N v B V J U 3 2 3 5 6 3 3 3 3 3 3 3 3 3 3 3 3 3 2 3 3 3 3 3 3 3 3 1 1 2 E J C ^ / E B E g M J J U ^ C J g B g V ^ ^ V ^ C B E V C U U E C B E E B C C +. .",
"e e M C V J U C C C B M C J ^ C v B B M M m U V C J g C C ^ ^ ) V N V V 3 3 3 3 3 3 3 3 3 3 3 3 3 3 3 3 3 3 2 2 3 3 3 3 3 3 3 3 3 3 d g v s l d m m V m v n n l m m H b v b D x x m A S m H A b m c S m m m V J C C C I U J J J N M C C ^ ^ V J E g E g E E E E E B N N V U U V E g g V V J / ^ m n n v n m I V N V n N B J U J m V V N F C J U I I F N N v H J ^ J J B v M n J U 3 3 3 3 6 3 3 3 3 2 3 3 3 3 3 3 3 3 3 3 3 3 3 3 3 3 3 2 1 1 N V J / ) E E E N N C J C C C E N g g V ^ ^ J V C g g C V U J C C E g N E C E ) +.",
"e e N C V U U J V C C N C ^ / ) v M N B M C J V C C C C C E ^ / V m V V 3 3 3 3 3 3 3 3 3 3 3 3 3 3 3 3 3 3 3 2 3 3 3 3 2 3 3 3 3 2 s c c c v x n m A m N n n x n m S m m c v n b m m m n m m n m n H m U J E g N N V C U J J C C E V V U U J C B g E E J J C V B B M N C J ^ M g f E M V V ^ g b n v b m m J I K H J n D J ( I V V V n H B V J V V J C F N V H U U U J N V N J / 3 2 3 3 5 5 3 3 3 3 3 3 3 3 3 3 3 3 3 3 3 3 3 3 3 3 3 3 2 , B M V V U U ^ E N C g g V J C C g B g Q E J ^ E g E g Q E E E ^ C E g N J V J O.O.",
"e e B J V J U V M C B B C C ^ ^ v M z B M C V J C V N V N ^ ( ) H n v V 3 3 3 2 3 3 3 3 3 3 3 3 2 3 3 3 3 3 3 3 3 3 3 3 3 3 3 3 3 3 s j b s l s m m n c v D n v m m I m m b v b n b m S S m S n b m S S V C B N C N C U J V J J B g V V V U V ^ E g E g ^ ^ J V E M E N V C U V E E E g J V ^ V b m n x n m H H H n B v V J U I b n V n F N J H U J V J F v H U / I J J C v V J ^ 3 2 2 3 5 6 3 3 3 3 3 3 3 3 3 3 3 3 3 3 3 3 3 3 3 3 3 3 3 3 M V C J ^ J / / g N J J V J J E g g B B E V C E V E g g f B E ^ E B N N C J C +.O.",
"p e N M J J U J C C N C C J ^ ^ N C N B B C M J J J v N V J ^ / m c c v 3 3 3 3 3 3 3 3 3 3 3 3 3 3 3 3 3 3 3 3 3 3 3 3 3 3 3 3 3 3 s a z l n x m m n b x v b c n m H S b b c v n c S m m m A n c m I V J U B g B B C U V J V U C g ^ C V U C C C E V J V ^ ^ ^ Q M E g N J E M E 0 M E J ^ / g n n n n b V V I H H n n C U U I n n V N F H I V H V H N V B V U / J n H V N V J U 2 2 3 3 3 3 3 3 3 3 3 3 3 3 3 3 3 3 3 3 3 3 3 3 3 3 3 3 3 3 E M g J J V U ^ C C N J C E E E g g g V U V C C V g f E E C C J C B M C J J V +.+.",
"p e J V J J U v C B N N C ^ ^ ^ v V B N C C J V H J m v m m I I m b n v 3 3 5 3 3 3 3 3 3 3 3 3 3 3 3 3 3 3 3 3 3 3 3 3 3 3 3 3 3 3 h h c l b l n b m A n n l l b S I m m n v x b m I m S S H A m n I V J J E N C M C C U U V V E B J J ^ V C C N g E J ^ ^ V J B M E Q B C E B B E M f C J ^ V n b x n m H H K V H n n n H / H n m N m V V V I V V J V N V J U U U J V N N V V J 2 2 3 3 3 3 3 3 3 3 3 3 3 2 3 3 3 3 3 3 3 3 3 3 3 3 3 3 3 3 M V C U ^ V V J V B C J C E E E B V g V ^ V J C V E f M E C J ^ J E M M ^ J ^ #.+.",
"p e J N V ^ ^ V V V N g N C ^ ^ v V V F N J H I m n b x D S J T m k c Z 3 3 5 3 3 3 3 3 3 3 3 3 3 3 3 3 3 3 3 3 3 3 3 3 3 2 3 3 3 3 j j x x N h D b b m m b N l b b m S m n n c m m m S m m m m V v J J J V E g C V V J J J C C B N E B J J V J g V N E U ^ U J B M E B B U C N N B M B B E J V H n x n x n H H V m n n z n I U n m V n V N I J H V V V v n V I I U I C N N V J I 3 2 2 3 3 3 3 3 3 3 3 3 3 3 3 3 3 3 3 3 3 3 3 3 3 3 3 3 3 3 N V V U V C J C C N E J C ^ E ^ C B B E E V V ^ C B V V V J J ^ J N M M E E ^ =.+.",
"p e C N J ^ ^ ^ C V N C E U ^ ) c F F F m m m I m m c b v H T T m c c c 3 3 3 7 3 3 3 3 3 3 3 3 3 3 3 3 3 3 3 3 3 3 3 3 3 3 3 3 3 3 j j h s v x n m m b b v D x b b m m m n n g b S m m m m N m J C J ^ J V E V V C J U ^ E C g N N B C J J J J V N g C U U U V E M B B C C E M N N N B E C ^ v N n x n x n m m H V V n v H H V m m V n m v V J I V V V V n N I I V V V N n J H U 2 3 3 3 3 3 3 3 3 3 3 3 3 3 3 3 3 3 3 3 3 3 3 3 3 3 3 3 3 3 M C C U U v C E C B N J J ^ E E g N g E N V V C C C C g V ^ ^ C ^ E M g N C E #.O.",
"p e C N J ^ ^ ^ E E B g E C ^ ( v N v N b b S m H m b v b S I T m m b n 3 2 3 e 3 3 3 3 3 3 3 3 3 3 3 3 3 3 3 3 3 3 3 3 3 3 3 3 2 3 s j l l M l b m b b c b v v m m H V n m n N c H U I J V V V C E ^ U ^ J ^ C N C ^ V J ^ C V N B N C C V U C N N E E U ^ ^ J N N E M C J J M C B B B N E / v B n x n j m m b A A v F n F H m g m v c V v m m V H m n H B N H I V H N F N N V U 2 2 2 3 3 3 3 3 3 3 3 2 3 3 3 3 3 3 3 3 3 3 3 3 3 3 3 3 3 3 N C C ^ J C C C M ^ v J ^ ^ E / g Q g C C V C C C N g J V J ^ ^ ^ E M M B V V #.) ",
"p e N C V U J J E E g E C C ^ / v V n v d b m m m H b x m S U / m n n m 3 1 3 3 3 3 3 3 3 3 3 3 3 3 3 3 3 3 3 3 3 3 3 3 3 3 3 3 3 2 c c z z M z N J ^ J C N B B V V U C H F M M C C ^ ^ I V N M g V J J V V C g N N V J C J C C B g N C J C U C C M C C / ^ ^ J E M B E V V J C N B g B N E / V V V v v b b m m b m m c D H K m c m J c n m V m m N H n N H V H I V V m F V n H ^ 3 1 3 2 3 3 3 3 3 2 3 3 3 3 3 3 3 3 3 3 3 3 3 3 3 3 3 3 3 3 M C J ^ ^ ^ V E C J V U J ^ E ( C E g V ^ J C C M E g V V J V J J B M N N V J #.O.",
"i e C C ^ U J V g E E f E E B E g N b b c b m I m S n b n S I T I c m m 3 2 2 3 3 3 3 3 3 3 3 3 3 3 3 3 3 3 3 3 3 3 3 3 3 3 3 3 3 3 v g g v M z v J U C C C M z N J I V M V N M C V ^ ^ C C ^ C B V E V E g E g B g E E V J J E E g E g Q E J J C M C C ^ ^ U J E E N E E C C g C N N N V U ( V J C M n m m S m b n n x c m I H b c D x v n H c m n m n n V V V I J V v m v N V U 3 1 2 2 3 3 3 3 3 3 3 3 3 3 3 3 3 3 3 3 3 3 3 3 3 3 3 3 3 5 g V V C V J V C E M C ^ J U V ^ V E g M E E N C E B g Q E V ^ J J E B g C V J =.O.",
"e i N E E ^ J J g g g E g E B E g c x v b k Z S H m n v V H T U I m n b 3 1 2 2 3 3 3 3 3 3 3 3 3 3 3 3 3 3 3 3 3 3 3 3 3 3 3 3 3 3 N v v v M f V V U J C C B B V C U C V V N C J J J J U V C C E g C C E B E B N B N E C V V g E g E E M E J N N C C C U ^ U J N g N C J C J C E C N B C U ^ n J C M v b m m m m n n v n v K H n c c v v H n m n m n n n V I I H T J n v v N n I 3 3 3 3 3 3 3 3 3 3 3 3 3 3 3 3 3 3 2 3 3 3 3 3 3 3 3 3 3 5 E V C V J J C C g C V U V V U / g g E M E N N V C E g E g V ^ ^ J N g E C ^ ^ O.=.",
"p i C ^ ^ J U ^ Q g g f E E g E h l b z c c m m m m n b V K I U m g n n 3 3 3 3 3 3 3 3 3 3 3 3 3 3 3 3 3 3 3 3 3 2 3 3 3 3 3 3 3 3 v v M g M M v U J C C C C g v V V V C V M N C J ^ U U C V N E C g ^ ^ E B g E C C ^ ^ V V V M g E g B N C C N M C C U U U J E g N N ^ J ^ v N g M N C U ( n V C N M n m Z m A n b x n b m m b b b n b H n H m m v b v H I V V m H D N v n H I 3 3 3 3 3 3 3 3 3 3 3 3 3 3 3 3 3 3 3 3 3 3 3 3 2 3 3 3 3 5 g E g ^ V C C N E M v ^ V V V J g E E g E C M V V g E E g J J B B E g V J U J ) +.",
"p i C C U ^ J C M E E E E E Q E h b x n c m b H n b m v v I U [ I c c v 3 3 3 3 3 3 3 3 3 3 3 3 2 3 3 3 3 3 3 3 3 3 3 3 3 3 3 3 3 3 v N M v M g v V U C C C E M M V C V M V N U M V C U U C N N g V g V J C E N g g C ^ ^ J M C E M E E C E C C C B C J ^ U ^ ^ E E E V ^ ^ / C C N C N C U ( N V F N N M N m m m m l v n n m m c b v l v n m m H n m m v v J H I I V n D v n V I 3 3 3 3 3 3 3 3 3 3 3 3 3 3 3 3 3 3 3 3 3 3 3 3 3 3 3 3 3 5 g V V ^ U C V N C C M C V J V U g E f E E E C M V E g E N C C B E E M V U ^ U O.O.",
"i e V C U ^ ^ C N C N N C J T J s A v n c m S m m c m x v n L T H c c n 3 3 3 3 3 3 3 3 3 3 3 3 3 3 3 3 3 3 3 3 3 3 3 3 3 3 3 3 3 3 v z M M M M v N C C M E B M N C U V V V N E N g ^ J J C V E N V C C J V E g N B B E ^ C C C B B E ^ ^ ^ g E g ^ g U U ^ ^ ^ E E E g V ^ ) V J g g E B E ^ V B N B M E B C C V V g g v m H S n b S b n n I m m m n V c n m H I V m m n n v H H 3 3 3 3 3 3 3 3 3 3 3 3 3 3 3 3 3 3 3 3 3 3 3 3 3 3 3 2 3 3 z V g ^ ^ V g C g C V J V C V C M C V C ^ V J C V E E E f J U J J C N C J ( ^ O. .",
"p i M C C U ^ J v B M M V J H K u x z x c n n m b n v v c H I U I d b n 3 3 3 3 3 3 3 3 3 3 3 3 3 3 3 3 3 3 3 3 3 3 3 2 3 3 3 3 3 3 v z M M E M N V V V M B E f N C U V M C C N E E g ^ ^ C g V E g g ^ ^ J E g g B g N V C g J B g V E g ^ Q g E g J U U U ^ ^ E g E E V V J C ^ ^ B B E N / g N B E g B N V E ^ V C M v N H m c c n b c n m m I m m m v m H S I J N V n v v H H 3 3 3 3 3 3 3 3 3 3 3 2 3 3 3 3 3 3 3 3 3 3 3 3 3 3 3 3 3 3 N V V ^ E C V ^ v g V J J J N C N N V ^ ^ ^ ^ C g g g M E U J V C C M C C U ^ =. .",
"p y B C C U U C M N N N N J I J l x l b c m m v n m v H v V H U J c c n 3 3 3 2 3 3 3 3 3 3 3 3 3 3 3 3 3 3 3 3 3 3 3 3 3 3 3 3 3 3 M M M M E 0 N V C C B E E M M V U v N V g B E E E C C C E C V ^ V J ^ J ^ V E N E N V C M C g g E g ^ ^ E C g E V U U U I J Q E E f J J J v E g E E C E / g E B N N B B E C C C C B N M C U n N m c m n m I m m I m n n H H I I H m N v x H K 3 3 3 3 3 3 3 3 3 3 3 3 3 3 3 3 3 3 3 3 3 3 3 3 3 3 3 3 3 3 N E C J U ^ ^ V C g C ^ V V C C g g E C ^ C J C C E g g E U J V C V C C U U U =.O.",
"y p C V ^ I ^ J M N N N V N I K h l l l b m H n m n c N n m U T H g b m 3 3 3 3 3 3 3 3 3 3 3 3 2 3 2 3 3 3 3 3 3 3 3 3 3 3 3 3 3 3 M g z M M f C V B N B B E M V J J C N B B B g ( N E J E C N V V U J ^ J C V M g N C C C V M E E C C g E E g E g g V U ^ J V E M Q E J ^ ^ V E V B N V ^ ) E E g E N g E N E U N N B N C V U N V C v v V m V S m m b n b V I m I K n n n z n n 3 2 3 3 3 3 3 3 3 3 3 3 3 3 3 3 3 3 3 3 3 3 3 3 3 3 3 3 3 3 M g V U U C C C g g M U v J C E g E g J V U C E C E M M g C ^ U C V C C C U U =.+.",
"t y C C U U ^ U V C B B C V H T l b l z b D m H m n n N H H L ^ J g c c 3 3 3 3 3 3 3 3 3 3 3 3 3 2 3 , 3 3 3 3 3 3 3 3 3 3 3 3 3 3 v M g g Q E C J U C B B E M J J J V C v B N J V V J ^ ^ V g M C v V E E N B M f f E N E N N g B E g g ^ ^ E E g E E J ^ ^ J E f E g Q Q ^ V E B E N C J ) g C M E B v J J I C C C B M C U C V m C M N C ^ J / H m V b b n T I I I n b b v H m 3 3 3 3 3 3 3 3 3 3 3 3 3 3 3 3 3 3 3 2 3 3 3 3 3 3 3 3 3 3 M M C V U C E g N V V C V C C C g g E E B C V J C f M N C J ^ C C E N N J / U =.O.",
"p y C ^ ^ / ( C N N B M V m m I l b l b z l m H v n v v n N I / I c n N 3 3 3 3 3 3 3 3 3 3 3 3 3 3 3 3 3 3 3 3 3 3 3 3 3 3 3 3 3 3 M v E g M g V V J U N M N z V C J J V V N E V V U U J ^ E B N V V g C C E B Q g M g M N B B M g E E E ^ g ^ g E g E ^ U U J E E Q g E Q ^ V C N B B C C / V C C B N V V J J C C M N N B V N V g M N N g v C U J H m c b m m S H H m N v v D N 3 3 3 3 3 3 3 3 2 3 3 3 3 3 3 3 3 3 2 3 3 3 3 3 3 3 3 3 3 3 M C V J J E E g N g V ^ V U C U M B g E E ^ V C ^ 0 E B M U / I ^ C E g V I U ) O.",
"i y V C ^ ( ( C V B B M C m V I l b l M n n D n H D V n n H I / I v n N 3 3 3 3 3 3 3 3 3 3 3 3 3 3 3 3 3 3 3 3 3 3 3 3 3 3 3 3 3 3 N v E g B g V V V U M B B M N C J V J V V g V g V J ^ E E g E C C g C V N g g E f M g C N B M M M M E g B E B B E B J ^ J J E E Q E g ^ E C C g C N C ^ ^ g N N C N N U J J C C C N N C C C v M C g N N M V I U H C V c m m m m A A b n n n V 3 3 3 3 2 3 3 3 3 3 3 3 3 3 3 3 3 3 3 3 3 3 3 3 3 3 3 3 3 3 M C V J J E E V g J g C V E C E E g N g E C J C C B M B M V C C V M N C J J U #.) ",
"w e J M J ^ ( E C B B N V m m K l v z D n n H H m N H N n V H / J n n N 3 3 3 3 3 3 3 3 3 3 5 3 3 3 3 3 3 3 3 3 3 3 3 3 3 2 3 3 3 2 N v g B E g V v V V E E B M M V ^ V V V g B g E C V C C E B C J g f U C C N M g f g N g E g M f E E E Q g g E g E g U ^ / V M g E g Q E ( C E N E g C ^ ^ V N N N N g N J V J C N N M B C V m V C M N N E V J I F V V V V Z S m H n z z v A m 3 3 3 3 3 3 3 3 3 3 3 3 3 3 3 3 3 3 3 3 3 3 3 3 3 3 3 3 3 3 M C v V J E C J M C g g V C E Q g E M B B V V C V M M B N C U J V N g V J C U O.O.",
"i e C N V ^ ( U C B F B C H V I v n n N m v m V m n N F n F n U H n n N 3 3 3 3 3 3 3 3 3 3 3 2 3 3 3 3 3 3 3 3 3 3 3 3 3 3 3 3 3 3 N g v v C v C J V V v N E f f E E E E M M M E V C ^ V J C g V V U g C U C C C N M g N g g E g E B B E / V M E E g E B C V ^ g E E V J ^ ^ V E N E g E E E M C J B M M N J N E g E E V C ^ V V C E N M V V V V J C C N N J V H m m b c v l n m 3 3 3 3 3 3 3 3 3 3 3 3 3 3 3 3 3 3 3 3 3 3 3 3 3 3 3 3 3 3 z N N C J J C N N V g g C V J ) g B B E C C C E C E g V m V J ^ C E N N J ^ U O.O.",
"p y C V J U / J C J J B F H I H b A n D V m I H H V n H J H I T V n m n 8 5 3 8 6 3 5 5 3 3 3 3 3 3 3 3 3 3 3 3 3 3 3 3 3 3 3 3 3 3 N N M M N g V V J J C N Q g E g E g g M M M E g C g C V C E M J C g N C N N N g C N N g N g 0 M B N C J C C g B E M E E J J E E g V V ^ U v E N B C E E ^ V N C J N N N V V E E g g g C C J g g C C C V J C J J V C N C V ^ I m m m x l x n H 3 3 3 3 3 3 3 3 3 3 3 3 3 3 3 3 3 3 3 3 3 3 3 3 3 3 3 2 3 , B N C N U U E M C V v g V V J / C N V E C V C V C B N g C V J C J N M M V ^ ^ +.) ",
"y y C C J I ^ V C B J B V m K K x c m v n V I V H V N N J J V U I n V V 3 8 5 5 3 3 3 3 3 2 3 3 3 3 3 3 3 3 3 3 3 3 3 3 3 3 3 3 5 5 V g M M N g N J J C V C E g f E E E E f M M g g E C ^ g C C C V C M M J C N B g C g B M N N E M E B V ^ J C g E B E C U J J B g C V V U ^ V C N N C ^ / / V M M F N C V N N g E E g g E J J C V M M C N ^ V V U V V V V N J ^ I S n x n x v m 3 3 3 3 3 3 3 3 3 3 3 3 3 3 3 3 3 3 3 3 3 3 3 3 3 3 3 2 1 , B C C U I C C C N g N N C J E ^ C B N E ^ ^ ^ V V N g C J J V V V C N N C J U +.) ",
"y w M V V U / J C J B J H H I H b D N n n n V I V n n N H J m V V v n H 3 3 3 3 3 6 3 3 3 3 3 3 3 3 3 3 3 3 3 3 3 3 3 3 3 3 3 3 3 5 V g M g M M N V U J N C C g g M E E M E M M E E E E E V C B V v J g g ^ C N M B ^ M E E g g M E M B C J ^ C B g B g C V V J E B C V V V / v C M N N E ^ ) v B B B v J B V C g E Q g E g J J V M B N N E C V U V V V N M V V I J m n v n n D I 3 3 3 3 3 5 3 3 3 3 3 3 3 3 3 3 2 3 3 3 3 3 3 2 3 3 3 3 3 3 B N N U U U C C N N g E V C J ^ N C N E E U ^ ^ C E E g m J V C V N N C C J U +.#.",
"e e C V J J U V J J B C I S I U c m v N v H H H V D N v N U K V V n m V 3 3 3 3 3 3 3 3 3 3 3 3 3 3 3 3 3 3 3 3 3 3 3 3 3 3 2 3 3 3 F z B M M f V I ^ U B E E g E g Q E E f M M g E g g E C V N N g ^ J v C B N B M Q N M E N g g N N N V I U V B g E B U U V V E B E g V C ^ V C V M C E / ) C J C B B J V J C E E E 0 B g E C V v C g N N ^ C J C C B M M C U U V V m n c n m m 3 3 3 3 3 3 6 6 6 3 3 3 3 3 3 3 3 3 3 3 3 3 3 3 3 3 3 3 3 3 B N N U U J U E N C g J V C U J V E g E E E E E E g E f g V V V M B g N N v V ) +.",
"i e C g J V ^ V C V C B V I Y S b m n v c H V I V F N v N F V V m b v N 3 3 2 2 3 2 3 3 3 3 3 3 3 3 3 3 3 3 3 3 3 3 3 3 3 3 2 3 3 2 B M E B E M N V C C N B M f M E E g E f f M E g g g g E E g N V N V v C C C E M N N g g C N N N C C J J C ^ B B B E U ^ V C g B g E V C J g C C C C V J / C C C B B J C V J E g B B N N C C g v C N M N ^ C C N C B N C C J U V V v b x n m H 3 3 2 3 3 3 3 5 7 7 6 3 3 3 3 3 3 3 3 3 3 3 3 3 3 3 3 3 3 3 B C V V J C V C N C V V U U V ^ g B E E E E E E g g E E E V C V V B N C N J J ) ) ",
"y e C C U U U V C N C C V I I I b A D v n V H I K V H N V V m m V v c N 2 2 1 2 , , , 3 2 3 3 3 3 3 3 3 3 3 3 3 3 3 5 3 3 3 3 2 1 2 E M B M M M C C J C M B E 0 E M E g E E E g M B E f N g E g N C N V C C C M C N C C E C N N M N C U U V U C E g V J J U V J E M E g C C ^ V g g V g g V ^ V C V J B B E J C B M B M B C J J C g C g V N J V J V g N g C V V I J F z n x b S I 3 3 2 2 2 3 3 3 6 6 7 6 3 3 3 3 3 3 3 2 3 3 3 3 3 3 3 3 3 3 N N C J U V V V M N V V g C C C g E g E E E E M E Q f E f E C N M N M N U v U =.+.",
"y e C g U J U V J V N V m m m V b b v v m V m H V N V V F V V m V n n B 2 2 1 , 2 3 3 3 3 3 3 3 3 3 3 3 3 3 3 3 3 5 5 5 3 3 3 3 3 3 E M M M E f C C J B B E E f M E E E g E E g g E E E g g E E N C C N v U E g N C J C f ^ E C B g V N V U C ^ E E g V J U J ^ E M E E J C ^ C g C g J g J ) g C B B B N J E Q M M E B C V C V C C C B V V V V ^ V N N g N g U U J J N n l m m S 3 3 3 2 < 2 3 3 3 6 6 7 3 3 3 3 3 3 3 3 3 3 3 3 3 3 3 3 3 3 B M C J U M V M N B g V V V V E C E g C E B E E M E M E E E E E E B g C J J J O.+.",
"y e M g U J ^ V U U E E g N J V b b n l N S m H J m N C F F H m v v v m 1 3 3 3 3 3 3 3 3 3 3 3 3 3 3 3 3 3 3 3 3 3 5 5 5 3 3 3 3 3 C N N M B M B C J C V C E g C C ^ J V C N M M B f E g g C V g N E V V J U g C C ( C M g J V g E B E C ^ J V V g E C J / U J E f Q f E E E g g C g V g C ( v V V M C C E ^ ^ V g C C C C C J g C C C N N C V C J V g B B g E E E ^ V M v V m I 2 3 3 3 1 1 2 3 3 3 3 6 3 3 3 3 3 3 , 3 3 3 3 3 3 3 3 3 3 3 E C v U / C N N N g E B g E B C N E B E ^ ^ ^ ^ E g E E g J V J J g E E E E E ~ ~ ",
"i e E M V ^ ^ g ^ g g E E N I H m n n z H N m V V m v N J J V H n c v v 3 3 3 3 3 3 3 3 3 3 3 3 3 3 3 3 3 3 2 2 3 3 3 3 5 3 3 3 3 3 J V B M M f N N V V C N E f g V E C V M B N E g E B C g v V N N U C g C N M M N C ^ J V g U B B B N V J ^ V C C g C U J J V Q f E M E f E E ^ v v V g V ) g M C N V V J / ) ^ C M C C N C J M N N N N N C C J v C N g B B E ^ V ^ g C g N c I 3 3 3 3 3 1 < , 2 3 3 3 3 3 3 3 3 3 3 3 3 3 3 3 3 3 3 3 3 3 M M C U ^ ^ N B B g g E E N g N B g C g ^ V ^ ^ g E g B E ^ C J V E g g E g E +.) ",
"e e N g V ^ ^ V ^ V g E U m m m m n v l N H H m n N N N V W m V v c n N 3 3 3 3 3 3 3 3 2 3 3 3 3 3 3 3 3 3 2 , 2 2 3 3 3 3 3 3 3 3 C V C N M M N N C V E M E f M V J C C M C g N V g C J g v J M M J J C J C M M N C ^ C U ^ E C g E g ^ U ^ C E g C g J J J V E E M E E M g M J v V f v g g V B g N g C V ^ ^ ^ C M M V J V V N C N N B B B C E g C M g E V C J ^ J V F c m m S 3 3 3 3 3 3 < , , , 3 3 3 3 3 3 3 3 3 3 3 3 3 3 3 3 3 3 3 3 N V V J ^ E B g B E g E g v V C C g E V J ^ ^ V C E E E g ^ ^ J V E g E Q E C  . .",
"e e E N V V U V ^ V E g I m I b b n v x b v H H H n B N V ^ N H v c c B 3 3 3 3 3 3 3 3 3 3 3 3 3 3 3 3 3 3 3 2 > 1 2 3 3 3 3 3 3 3 V N C B M M C C C V B M E g M C E C C M M N N C E V ^ g ^ J g V C J E U U M M N N C U V N C B C 3 3 3 3 3 2 3 3 5 7 3 3 J C E f M M E Q g E V U v J J C g v B N B B V C J ^ / E g C M C V J g N E N g E B C J C M C B g V V V V J V J v m m I 3 3 3 3 3 3 3 3 , , , , 3 2 3 3 3 3 3 3 3 3 3 3 3 3 3 2 3 3 N N V C C E E N N g E Q E V C J M V C V J V ^ ^ C g g E E J ^ ^ J g E E g V E  .( ",
"i e B g E J ^ m E B B C I V I m b c v l n v m m H B N D F W V J V g c N 3 3 3 3 3 3 3 3 3 3 3 3 3 3 3 3 3 3 3 3 2 > 1 2 3 3 3 3 3 3 V V N M B M M V J F B M E f E B E C E M f E B g ^ V J g g J 3 5 3 3 3 3 3 3 3 3 3 3 3 3 3 3 3 3 3 3 3 3 3 3 3 3 3 3 3 3 V C E g C M M g ^ N U g v v M N V p E N g g B E J ^ ^ ) J g C J J J N C E N g C J V J V V g N C C C J V C N J N b m I 2 3 3 3 3 3 3 3 3 3 3 3 3 3 3 3 3 3 3 3 3 3 3 3 3 3 3 2 2 3 B N g E J E C N N g g V ^ V V J C V C E ^ J J C C E g E B E E J J g E B E V ^ ( ) ",
"e e E g C ^ ^ V J V N C C I U m b v n x n m m m n N v F F W N U N b v v 3 3 3 3 3 3 2 3 3 3 3 3 3 3 3 3 3 3 3 3 3 3 2 2 3 3 3 3 3 3 V V N N M M N V V C E M E f M E E E E E M f C g U ^ ^ V J g 3 3 3 3 3 3 3 3 3 3 3 3 3 3 3 2 3 3 3 3 3 3 3 3 3 3 3 3 3 3 V N E N E C E Q E N M ^ V V m N C d g g E N g N ^ C C ^ V J J C J J g B N E N M ^ V C V C V g B N N I V J V C B b b m 3 3 3 3 3 3 3 3 3 3 3 3 3 3 3 3 3 3 3 3 3 3 3 3 3 3 3 3 3 3 N B N C E N E N N E N V g C V V V V C C ^ ^ J C J g E Q g E E V C E g g E V ^ ) ) ",
"e e N M V J ^ V J C B N V m I S b n v c n N V V H n B N F W L H V c n v 3 3 3 3 3 3 3 3 3 3 3 3 3 3 3 2 3 3 3 3 3 3 3 3 3 2 3 3 3 3 U n C C C M C J E C F E E 0 E Q E E E E E f B g g M ^ V J J 3 3 3 3 3 3 3 3 3 3 3 3 3 3 3 3 3 3 2 3 3 3 3 3 3 3 2 3 3 3 C C B N C C C C M M v J U M v C C g N g E g N g E E V g J g / V V V g B E M E g E V V V C C E E E E J V V H F B m m S 3 3 3 3 3 3 3 3 3 3 3 3 3 3 3 3 3 3 3 3 3 3 3 3 3 3 3 3 3 2 N V J J ^ N B B M E g E V E g J V C C V U ^ U C J E M E E J ^ C C E g g E V C  .Q ",
"w e N N C U U V J J V J J S S m h n n l n V H H H H N N v W H V m c N v 3 3 3 3 3 3 3 3 3 3 3 3 3 3 3 7 3 3 3 3 3 3 3 3 3 3 3 3 3 3 J N g C B g C I J C B B Q z g E Q E E M E g E M N J V J v g 3 3 3 3 3 3 3 3 2 3 3 3 3 3 3 3 3 3 3 3 3 3 3 3 3 3 3 3 3 3 N C E N C J C ^ E C V C E ( g V C v N E g N N B / g ^ V ) g V U U V g g E g B E E J J V J V B g E E U U V V N N m b I 3 2 3 3 3 3 3 3 3 3 3 3 3 3 3 3 3 3 3 3 3 3 3 3 3 2 3 3 3 3 N g C J ^ E E N M g E V ^ E V E g g V V J U V C V E f M E ^ J C V E E E E g E +.+.",
"e e N g V U / V J J B B E H K K b b n l v V I J H n F B J ^ V V H b v v 3 3 3 3 3 3 3 3 3 3 3 2 3 3 3 6 7 3 3 3 3 3 3 3 3 3 3 3 3 3 C C M M E M C U V J J N / M C V U U ^ V g E M V ^ C U J N V 3 3 3 3 3 3 3 3 3 3 3 3 3 3 3 3 3 3 3 3 3 3 3 3 3 3 3 3 3 3 g V B B E M ^ ^ ^ g C J J J E v C g J M ^ B g C U U V J V J g / ^ V M v N N N N J g V V V C N C J J J ^ J V B B m c m 3 3 2 3 3 3 3 3 3 3 3 3 2 3 3 3 3 3 3 3 3 3 3 3 3 3 3 3 3 3 g g C C J U J B E E g Q E ^ J C N g E C C J U C g E C J C ^ U ^ C g E M E E E ..Q ",
"e e C M J J ^ v F J J C J V I I b n n l b n V I H n n v C / I I n v v v 3 3 3 3 3 3 3 3 3 3 3 3 3 2 3 3 3 6 5 3 3 3 3 3 3 3 3 3 3 3 V N M g M g C U J V U N E g J J / J J V E E N f ^ ^ V ^ v V 3 3 3 3 3 3 3 3 3 3 3 3 3 3 3 3 3 3 3 3 3 3 3 3 3 3 3 3 3 3 E g N g B N C E C g V v U g I N C c V C C N V N g V ( J V V V V g J g v V C N N E v V v M V C M V U U I J M B B H n b 3 3 3 3 3 3 3 3 3 3 3 3 3 3 3 3 3 3 3 3 3 3 3 3 3 3 3 3 3 2 E M C C J V C g B g E g E J ^ V V B g E E J C J V g g g V V U J ^ E M E E g Q o.~ ",
"e e g V V U ) v V N N N U I H m m n A l v m m I H N N N V ( J n n n v z 3 3 3 3 3 3 3 3 3 3 3 3 2 2 2 2 3 3 5 3 5 3 3 3 3 3 3 3 3 3 N N M M N g C U ^ C E M E g V J U J ^ C V g C C g U ^ V C V 2 3 3 3 3 3 3 3 3 3 3 3 3 3 3 3 3 3 3 3 3 3 3 3 3 3 3 3 3 3 E V B M g B / ^ ( E m v I U H m U c g g U g g V ^ E V v J v J ^ V U n g M N N B C V U V C M C C J U V U U M J C m m Z 3 3 3 3 3 3 3 3 3 3 3 3 3 3 3 3 3 3 3 3 3 3 3 3 3 3 3 3 3 2 M N C J U J C M g g C E B J J E B N g V C C V C C E g V g J J V V E M E E C C :. .",
"e e V g J V / g V V J N V I m S b n N v v S H H K N n B n J J J c c N l 3 3 3 3 3 3 3 3 3 3 3 3 3 2 2 2 2 2 3 3 3 3 5 3 3 3 3 3 3 3 C N M M N M / C J U E B E g V U U V ^ J C g C C v C V ( C V 3 3 3 3 3 3 3 3 3 3 3 3 2 3 3 3 3 2 3 3 3 3 3 3 3 3 3 3 3 3 C ^ E B M N U V V J U c m I I V C H g v J U M J g J C V V V U J g g g M z M N M N C V V C v C N J U J C U V V V v m S 3 3 3 3 3 3 3 3 3 3 3 3 3 3 3 3 3 3 3 3 3 3 3 3 3 3 3 3 5 3 g C ^ V C U N N N E C N B C C E g g C C C C C C B E g ^ g V J J C M E E M ^ E +.+.",
"y e C M C J / m C N J C J H m m c b m c m m m I H H N V g ^ N N g f C v 3 3 3 3 3 3 3 3 3 3 3 3 3 3 3 2 2 2 2 2 3 3 5 5 3 3 3 3 3 3 V V V M N g V J C E E C B g C ^ ) V N E E g N C C g C g g U 3 3 3 3 2 3 3 3 3 3 3 3 3 3 3 3 3 3 3 3 3 3 3 3 3 3 3 3 3 3 E E B g N C V V ) g C m A K Y K I j g g g V n v U V V n n N m Y m c v V N g V C V V U g E V N N C J U V J C C J n b m 3 3 3 3 3 3 3 3 3 3 3 3 3 3 3 3 3 3 3 3 3 3 3 3 3 3 3 3 3 3 g N C ^ U C C M M B B E V C C ^ C B E E V V C B g B E E g J C C C g V C C C J O.O.",
"y e C C C U U V C V N C U ( I m c b n c n n m m V J H F ^ ^ v g g p c c 3 3 3 3 3 3 3 3 3 3 3 3 3 3 3 3 3 3 3 2 2 3 3 3 3 3 3 3 3 3 V V M N E M U J V C B C E g g ^ / ^ E N B N N C V ^ C ^ E C 3 3 3 3 3 3 3 3 3 3 3 3 3 3 3 3 3 3 3 3 3 3 3 3 3 3 3 3 3 3 V V B M C M J g / g v V S K R Y I b J g J v C V N g U N v S I I S m V g C g N g g V V m C C N C C J U U v V M C b n m 3 3 2 3 3 3 3 3 3 2 3 3 3 3 3 3 3 3 3 3 3 3 3 3 3 3 3 3 3 3 E C U U C U C M N E g E C J C C E E g E J V E C N g g M E J C J C E N C E ^ J =.+.",
"w e M C I ^ U V C M N n V / U S b m n c N m V I K H n H U U V N p g M g 3 3 3 3 3 3 3 3 2 3 3 3 3 3 2 3 3 3 2 3 3 3 2 3 3 3 3 3 3 3 U V v M V M C C C E M E M z V v / ^ C C N M M V C J V ^ v M 3 3 3 3 3 3 3 3 3 3 3 3 3 3 3 3 3 3 3 3 3 3 3 3 3 3 3 3 3 3 C V B E ( E V V ^ C n A H R R R K Z v g J V ^ U V g ^ v m S K Y S S c g g E g E V V J C V M N E C U J V J V g C n m m 3 3 3 3 3 3 3 3 3 3 3 3 3 3 3 3 3 3 3 3 3 3 3 3 3 3 3 3 5 3 E C C C U C M M M g Q E E V V V C B g E C V J V V E f E f C J g E g g V E C ^ +.) ",
"e e C V V C ( V C V V V J U I m b n n c b V m m V V N V ^ U V V g g s v 3 3 3 3 3 3 3 3 3 3 3 3 3 3 3 3 3 3 2 3 3 3 3 2 3 3 2 3 3 3 U V V M C M C J C M B E E g v V C C C N V M J M U J ^ V ^ V 3 3 3 3 3 3 3 3 3 3 3 3 3 3 3 3 3 3 3 3 3 3 3 3 3 3 3 3 3 2 V E N N E B J v C V m n K H R R K k H v g i V C J N J C b S K Y Y Z c M f g B g C V U J v M N C C ^ ^ U v v C C n n m 3 3 3 3 3 3 3 3 3 3 3 3 3 3 3 3 3 3 3 3 3 3 3 3 3 3 3 3 3 5 f C C C I C C v v E g g Q J V V g B B B B g J g C f f f E E E E E E E g V ^ C O.) ",
"p e g B E E / C C C N B C  .I m c m n v n b S H m n V U V O.^ v g g v l 3 3 3 3 3 3 3 3 3 3 3 3 3 3 3 3 3 3 3 3 3 3 3 3 3 3 3 3 3 3 U V V M C g C U C C C J B g M C I U U C N N C V C V g ) C / 3 2 3 3 3 3 3 3 3 3 3 3 3 3 3 3 3 3 3 3 3 2 3 3 3 3 3 3 3 3 V g V V V V J J U v J N S L R R S b b S H g c n E N M g F A G R ' L S A A x n F v c V V V V N J C U ( E B N N N m H V 5 3 3 3 3 3 3 3 3 2 3 3 3 3 3 3 3 3 3 3 3 3 3 3 3 3 3 3 3 3 M F E J J U C C M g V C V C E Q M N N C ^ C E C N E f Q f V U V J C g B C E U ) ) ",
"e e E g C ^ ^ C E C C C C ^ U m c c n c m m m S H m V U ( ( n c g v H b 3 3 3 3 3 3 3 3 3 3 3 3 3 3 3 3 3 3 3 3 3 3 3 3 3 3 3 3 3 3 J J M V E g U U U V E / B g M C V J U M M N C V ^ ^ C C ^ C 3 3 3 3 2 3 3 3 3 3 3 3 3 3 3 3 3 3 3 3 3 3 3 3 3 3 3 3 3 3 C V V U g J V ^ J V J J H N L ' K A m b H m g V V v J g L P _ R R K G A G A S F N v V v V M V C U J U J J N N N x S S 3 3 5 3 3 3 3 3 3 3 3 3 3 3 3 3 2 3 3 3 3 3 3 3 3 3 3 3 3 3 N N F U U C U C M N V ^ V M C C g g N V ^ C J C N M M E M V V V J C C N C C C  ...",
"e y E E V J J V E N N N N ^ U b c b m c n m m H V n N U V U V v g c b m 3 3 3 3 3 3 3 3 3 3 3 3 3 3 3 3 3 2 3 3 3 3 3 3 3 2 3 3 3 3 U J N B Q g C V J V C E C M v N C V E C N C J V J V / V V ^ 3 3 3 3 3 3 2 5 3 3 3 3 3 3 3 3 3 3 3 3 3 3 3 3 3 3 3 3 3 3 V C V C J J U ( / V W J v L H R P A A A G Z H S U K ( W J P } R } K K A G A L P n V V V v M C N U U U U J N N B v H m 3 3 3 3 5 3 3 3 3 3 3 3 3 3 3 3 3 3 3 3 3 3 3 3 2 3 3 3 2 2 N V C V J C C N N E g J C V J E N B B g ^ V C C V M M f E C U C C C C C C ^ C +.+.",
"p y N N J J U V C N N B C ^ ) n k b b s b V m n n N n ^ V V ) J f v n n 3 3 3 3 3 3 3 3 3 3 3 3 3 3 3 3 3 3 3 3 3 3 3 3 3 3 3 3 3 3 V V B N Q g U V J V C C N M N N J v C C N N C C ^ J ^ J ) ^ 3 3 3 3 3 3 3 2 3 3 3 3 3 3 3 3 3 3 3 2 3 3 3 3 3 3 3 3 3 3 V V J g g v V J ^ V F H H / T L R S A G P S T Y T H C / W _ ' } R R A A G Z Z G m H U g N g M M C U U V E N N N b b m 3 3 3 3 3 6 3 5 7 3 3 3 3 3 3 3 3 3 3 3 3 3 3 3 3 3 3 3 5 3 N N C V U C C C M B E ^ J V C N B g B V V C V M C M M B 0 V U C C N C B E U ^ O.#.",
"i i ^ C ^ ^ ^ V C C C C V U ) V c b v b b m v v U g C ^ / N ( N c n m J 3 3 3 3 2 3 2 3 3 3 3 3 3 3 3 3 3 3 3 3 3 3 3 3 3 3 3 3 3 3 J v M M C M ^ J C V B B B M V V ^ g M V C M g C J J ^ V V J 3 3 3 3 3 3 3 3 3 3 3 3 5 3 3 3 3 3 3 3 3 3 3 3 2 3 3 3 3 3 V V v V g g g U U v J N U H T _ _ G G K ' P P P R K J J F _ R R _ P A A G G S S R Z U V g g g M N J C V V V N B c m m 2 2 3 3 3 3 3 3 3 5 6 6 5 3 5 3 3 3 3 3 3 3 3 3 3 3 3 3 2 5 M M J C U C C N N g E B C N N B N M g E E V C V M M M B N C J U C V E M J ^ E +.O.",
"i i E C U / ^ J E N N B C U / v h b n c n U V v V g v N / ^ J J n s v C 3 3 3 3 3 3 3 3 3 3 3 3 3 3 3 3 3 3 3 3 3 3 3 3 3 3 3 3 5 8 V C M M C V C C J V M E B M C C / V V V C C C J ^ C J V ^ U 3 3 3 3 3 2 3 3 3 3 3 2 3 3 5 5 6 3 3 3 3 3 3 3 5 3 3 3 3 3 g g V ^ C ^ V J U J J V n L T [ T H K A R L R K Y S R J F ! P ' ' L A Z K G K S R S U J E f M M N V U C C V F B n H m 2 2 2 2 3 2 3 3 3 3 5 3 5 5 3 3 3 2 3 3 3 3 3 2 5 3 3 3 5 2 M N V U C J N C C E E V E E B B g E g B M V C C M B M F N J J V V M M C C U ^ =.#.",
"i e ^ V U ^ / V ^ N M C C ^ ^ V b h v c n g N n v V g V V V ` v v v v M 3 3 3 3 3 3 3 3 3 3 3 3 3 3 3 3 3 3 3 3 3 3 3 3 3 3 3 3 6 8 N V C N C M W C E B N B B f g V J v C N N N J v J U ) J J v 3 3 3 3 3 3 3 3 3 3 3 2 3 3 3 5 3 5 5 3 3 3 3 3 5 2 2 3 3 3 g ^ / J J C J J V J m C H L _ _ ] K G S P P R R K S K K W J R ' } P Z G P G L S Y Y g U / B M M N C J C U N N B m b S 3 3 3 2 2 2 2 3 3 3 3 5 3 3 3 3 3 3 3 3 3 3 3 2 3 3 3 5 2 3 v M J C I C V N N M ^ C C B B E f g M g E v ^ E N M z M N C J V V C M V J U U #.O.",
"p e U J V ) / V C C C M N ^ U C m c m v V V v n V V M N J v ^ J V v v B 3 3 3 3 3 3 3 3 3 3 3 3 3 3 3 3 3 3 3 3 3 3 3 3 3 2 2 3 3 3 C g g C M M J C C B M E B M N g J N C N N N J V J J J v v V 3 3 3 3 3 3 3 3 3 3 3 3 2 2 3 2 3 3 5 3 3 3 3 3 2 3 3 2 2 2 E g g V V J V J U N U F V L / } _ L G P P L R R R K K K L _ R R ' K A A G S P P Y S I C E E B M N C U v ^ V V B m m I 3 3 3 3 3 2 1 2 2 , 3 3 3 3 3 3 3 3 3 3 3 3 3 5 2 3 2 5 2 3 z N C J J C V V M M ^ C J B E E E M M M B V V M C B M B N V V C C E g V v J ^ #.O.",
"p e ^ C J U U V ^ V C C B E J V N x v b H v J ^ v V n v V V V J v N n C 3 3 3 3 3 3 3 3 3 3 3 3 3 3 3 3 3 3 3 3 3 3 3 3 3 , 2 3 3 5 m g B B B v V V V C B E M M M M ^ V E B B g Q E N E g V m V 3 3 3 3 3 3 3 3 3 3 3 5 2 2 2 2 3 3 3 3 3 3 3 3 3 3 3 2 3 3 g g V V V ^ g V ) U J v V J I _ T / H K P P Y R R T K K L L ' ' ' P S A G P P K R S S V C E N N N J J v g J C J V V m 3 3 3 3 3 3 2 2 2 3 , 2 3 2 3 3 3 3 3 3 2 3 3 3 3 3 3 3 3 3 v g V ^ V B B E M V C J ^ U J ^ V M E M N E N V C E N V v J C C V N M N V U ^ =.O.",
"e e C V U ^ / g J C g N C E E g N b n x V V / N J C V c H v ^ F v v C v 3 3 3 3 3 3 3 3 3 3 3 3 3 3 3 3 3 3 3 3 3 3 3 3 3 , , 2 3 5 S m b c B v E F V V N E E f N g C v M E B g g E E g J V U g 3 3 3 2 3 3 3 2 3 3 3 2 3 2 2 2 3 3 3 3 3 3 3 3 3 5 3 3 3 3 V E g V ) g / J U V ^ V V H U _ T J G A K L R R [ _ P H P L / ' R P K G G G K R R Y I V C E E E J U V v V V C v m m K 3 3 3 3 3 3 3 3 , , 3 2 2 3 3 3 3 3 3 3 3 3 3 3 3 3 3 3 3 3 v C J J J E B E g M C V U U J ) g M N B C C M C C g N C V J V V C N M C V N / #.#.",
"e p C M J U ^ V B N E N E ^ / g v v n v N U ^ C C N ^ C n K ^ V v ^ V ^ 3 3 3 3 3 3 3 3 3 3 3 3 3 3 3 3 3 3 3 3 3 3 3 3 3 3 > 1 2 3 S Z Z v N v J V N V M Q E z v g V V E B E E M V N N V v V C 3 3 3 3 3 3 3 3 3 3 3 3 3 2 5 3 3 3 3 3 3 3 3 5 5 3 3 3 3 3 g C V g V / J V ) U v ^ V J b J U L S n T L R T T R P A G R T | ' R K S K G R R Y Y K K C C E C J U V V V m C V m m H 3 3 3 3 3 3 3 3 3 2 , 3 3 3 3 3 3 3 3 3 3 3 3 3 3 3 3 3 3 3 c V C C J C V E N N M C ^ E N ( B B B B N J M v C E N ^ C V C C J C M N C V U #.#.",
"p e C C V J / V E B N B N / ) V B n l b V ( ^ C V ^ ^ V V L n v g N N C 3 3 3 3 3 3 3 3 3 3 3 3 3 3 3 3 3 3 3 3 3 3 2 3 3 3 2 > 1 2 S S b A B N J C V V M B E g M V J g g E g M N C C C V J g I 3 3 3 3 3 3 3 3 3 3 3 3 3 3 3 3 3 2 3 3 3 3 3 3 3 3 3 3 3 3 E g g V V / J g V V U n H ^ J H _ U v D K I R Y L _ R K L L J R } P K G G A P R R K L S g B B E C V U m V V n n b m m 3 3 3 3 3 3 3 3 3 3 3 3 3 3 3 3 3 3 3 3 3 3 3 3 3 3 3 3 3 3 c V V C E C C E g N C C J E E ( g g B B E U V E g N N ^ V J V C C C M M C V U #.) ",
"p y N g E C ^ v C B g E M E ( C V V N s / C ^ ^ U U J v v S R n N v V / 3 3 3 3 3 3 3 3 3 3 3 3 3 3 3 3 3 3 3 3 3 3 3 3 3 3 3 3 1 2 b b b A n N J U C V V N Q M V J ^ v J C N g C C V J V ^ C V 3 2 2 3 3 3 3 3 3 3 3 3 2 5 3 3 3 3 3 3 3 3 3 3 3 5 3 3 3 3 E g g g g ^ ^ U V V ^ J N V T J J T L b L H Y _ H L P P G P _ R } K S S G A K Y R Y K S S n N N N N V U n V v g N m H 3 3 3 3 3 3 3 3 3 3 3 3 3 3 3 3 3 3 3 3 3 3 3 3 3 3 3 3 3 2 c N V J J C C N B g C J J C C E V g Q E E E V N B g M Q N U J V M N M g M U V ) O.",
"p e N N C C / M E g E g B E ( M N n N l ( V U U C ^ V U I K T m N V v v 3 3 3 3 3 3 3 3 3 3 3 3 3 3 3 3 3 3 3 3 3 3 3 2 3 3 3 3 3 3 n v b x S s V C / J N N B B V J / V C J B N N C J J J ^ U V 2 5 3 3 3 3 3 3 2 3 3 3 5 2 3 3 3 3 2 3 3 2 3 3 3 3 3 3 3 3 V V J ) V g / g J U ^ V ) J H K L K n A G S J / I U G S S P R _ } L A K G A Y K R S K K S F N M C C g C g g V v c m n 3 3 3 3 3 3 3 3 3 3 3 3 3 3 3 3 3 3 3 3 3 3 3 3 3 3 3 3 3 3 c v J V U E C N N N C J J E V E V g E M E E E B E E g E B C C N g N g B C V V O.O.",
"p y B B E C ^ M B B g B B E ^ C n N C c H m V J U U v V J K I S g N V U 3 3 3 3 3 3 3 3 3 3 3 3 3 3 3 3 3 3 3 3 3 3 3 3 3 3 3 3 3 3 m A n A A b C C ^ J B N B M M J ^ J V V g B M C ^ U J / V J 5 3 7 3 3 5 2 3 3 2 3 3 2 2 3 3 2 3 3 3 3 2 2 3 3 3 3 3 3 3 E N C J J V ^ V g U v ( g ^ T T R P A A G S S T n T P A S K R } } K K A K G Y Y Y S K K S F B M C N J C V n g c c m M 3 3 3 3 3 3 5 3 5 6 3 3 3 3 3 3 3 3 3 3 3 3 3 3 5 8 3 3 3 3 b g V J J C E E M g E C J C C g E g g g C C ^ B g E B N B C E Q g N g N C C C O.O.",
"@ . o o & @ = . o o $ $ o & = @ o o $ . o & & & = = & @ = # # + . @ @ @ 3 3 3 3 3 3 3 3 3 3 3 3 3 3 3 3 3 3 5 3 3 3 3 3 3 3 3 3 3 3 O O O   + O o & * * $ o $ . o & & & & . & o & & * & . & o & 2 3 5 7 5 2 3 3 3 5 5 2 2 5 5 2 3 3 2 3 3 2 3 3 3 3 3 3 3 3 & o @ @ @ @ . @ & 4 . @ @ @ o ; ; # O O + O # = o - O - + ; ; ; ; # O O + O - - - # + + + O & o o X @ & o = o X . X o 3 3 3 3 3 3 3 3 6 6 6 3 3 3 3 2 3 3 3 3 3 3 3 3 3 5 6 6 3 3 . @ @ & & $ $ . $ o . & & & $ o $ . & & @ @ @ $ o . & o & & & $ $ o $ . o o @ @ g ",
"e ~ :.:.2.>.5.+.:.:...:.=.2.6.=.=.>.,...#.) 6.1.6.=.2.4.q.q.;.%.] ( >.=.6 6 3 3 3 3 3 3 3 3 3 3 3 3 3 3 3 5 3 3 3 3 3 3 3 3 3 3 3 3 %.$.$.] *.' -./ 4.2.:.:.:.:.+.=.=.1.,.:.o.:.+.2.5.5.=.5.=.1., 3 3 5 6 3 3 3 2 3 3 3 3 3 3 3 3 3 3 3 3 3 3 3 3 3 3 3 3 3 4.=.#.=.2.:.#.#.#.2.=.2.2.2.1.y.0.0.$.*.<.*.;.;.;.0.;.7.%.9.7.w.w.7.*.%.7.<.*.9.y.;.;.;.%.%.:.,.:.2...#.#.) =... .{ -.3 3 3 2 3 2 3 3 3 5 6 5 3 3 3 3 3 3 3 3 3 3 2 3 3 3 5 5 3 2 ! X.<.:.>.1.:.#.:.o...:.4.>.>.>.,.....o.o.,.:.o.:.:.:.o.,.1.2.2.+.+.+.o.:.,.:.+. .",
"i e B N N C ^ v E g g B g ^ ^ V N V M N C I m U V ( U U J R J K k m C N 3 6 6 5 5 3 3 3 3 3 3 3 3 3 3 3 3 3 3 3 3 3 3 3 3 3 3 3 3 3 G Z Z A H k K H J V F B M N g V C M M E g M V C ^ ^ C ^ U / 2 2 3 3 5 5 3 3 3 3 3 3 3 3 3 3 3 3 3 3 3 1 3 3 3 3 3 3 3 3 C N ^ E g C C E ^ g M ^ ^ C n / ' R A S S S Y Y R R K K G P P K R K Z A P A P P R R Y S S Z N C N E C v J g v v v S H 5 3 5 3 3 3 3 3 3 3 5 5 3 3 3 3 3 3 3 3 3 3 2 2 3 3 3 3 3 3 l z D J J C C B M M M M E C V C C f g E E E E E g E E g E ^ ^ ^ E E g E g E B +. .",
"y y C C N J ^ v M f g E C ^ ^ V C V N v V C V V ( I J C E J / I b b n c 3 5 5 6 3 3 3 3 3 3 3 3 3 3 3 3 3 3 1 3 3 3 3 3 3 3 3 3 3 3 D A Z A P Z S S v V B N N N g E B N E g g g g C U m J V U V 3 , 2 3 3 5 5 3 3 3 3 3 3 3 3 3 3 3 3 3 3 3 1 3 3 3 3 3 3 3 C V V C g E g ^ ^ g V ^ n ^ c J U I Z G G S K Y R R K G A K R R R K Z G K A P Y R R R S S S N B V C ^ N N V z v b n m 3 3 3 3 3 3 3 2 3 3 5 5 3 3 3 3 3 3 3 2 5 2 2 2 3 2 3 3 3 3 l v m V m C C M M N N N E B E N E f E g E g E E E g E Q E C C V E N g E E V ^ +. .",
"y e C N C C U M E f N g V C ^ C V M C v M U U U C v C E ) J ( ^ Z Z V M 3 3 5 5 5 5 3 3 3 3 3 3 3 3 3 3 3 3 3 3 3 3 3 3 3 3 3 3 3 3 A x Z x S Z S Z s p v B F B M C Q E E E B N M C J J V ^ J m 3 2 , 3 3 3 5 6 3 3 3 3 3 3 3 3 3 3 3 3 3 3 1 3 3 3 3 3 3 3 J { g C / ^ E g ^ V g U N V J V T T G A Z P Y R K S H A K K K R R R Z Z K K P K R R R S G A M C V F C C n N N x x m H 3 3 3 5 3 3 3 2 3 3 3 3 3 3 3 3 3 3 3 3 2 2 5 3 2 2 3 3 3 3 l c N V N c N N B E M M ( N C B E f E E g E g g E E E M E ^ g V E B g E M ^ J #.+.",
"y y B B V C ^ M E E f E C J ^ V V N V g C C C U U g ^ V V ^ J I Z b G b 3 3 3 5 3 3 3 3 3 3 3 3 1 3 1 1 3 3 3 3 3 2 3 3 3 3 3 3 3 3 A x x b G b S K m m E J E E C V ^ J E C g B g C J g V C V ^ 3 3 2 1 2 3 3 3 3 5 3 3 3 3 3 3 3 3 3 3 3 3 3 3 3 3 3 3 3 3 U / C E C ( C g ^ ^ v v V V V N n L G G G S R R R K G A G P P R } P Z A G K R R R Y ' P G S n F V J C C v N v b b N H 2 3 3 3 3 3 2 3 2 2 3 3 3 2 3 3 3 3 3 3 5 2 2 1 2 2 3 3 3 3 x l v V V v N N N B C M ( C N C E g E E E V V V V E E E E E g g E B N E V ^ U ) =.",
"y y Q B C C U V E g E f E ^ ^ V V M B N C ^ J J J V n C C J ^ ^ x A A x 3 3 3 3 3 5 3 3 3 3 3 3 3 3 3 3 3 3 3 3 3 3 3 3 3 3 3 3 3 3 A G G D G R R R I U E E F F V V J J J C B B N C J C m V J V 3 3 3 3 , 3 3 3 3 3 3 3 3 3 3 3 3 3 3 3 3 3 3 3 3 3 3 3 3 3 v J E E g / g V ^ g J U g V T H J V A A A K K R Y K G S G P K R R P Z S G S R R R Y R G G A c N N V V V C N n b l A H 1 2 3 3 3 3 3 3 2 2 2 2 3 3 3 2 3 3 3 5 2 3 2 3 3 3 2 3 5 3 l v N s N v N M z B V N U C V N C g E g Q V C V V f E Q Q E Q V V B g C V C J O.O.",
"y w E E J J Q N E B M E V ^ / V C g N N U / U U C ^ V V ^ ^ ) ^ m A G b 3 3 3 3 5 3 3 3 3 3 3 3 3 3 3 3 3 3 3 3 3 3 3 3 3 3 3 3 2 5 K S K K K Y T K I H F J E N v J C V E E B E N ^ V ^ V J V V 3 3 3 3 3 2 3 3 3 3 3 3 3 3 3 3 3 3 3 3 3 3 3 3 3 3 3 3 3 3 a l C g ^ g E ^ E C c ^ N H T T L L L A G S R R Y P K A S P R R R R Z S Z Y R R R R R S G A c B V V J J F H x v x n I 1 2 2 3 3 3 3 2 2 3 3 3 3 3 3 5 2 3 3 5 3 3 3 3 3 3 3 3 3 3 h c F n N N M N M M B V ^ N C B E g E C ^ C C C V E E Q E E ^ C g g g V J C C ) ) ",
"y 2 E N F C W M B 0 E M C J ) C E N N N C ^ ^ C ^ C V g V C ^ g n A A Z 3 3 5 3 5 5 3 3 3 3 3 3 3 3 3 3 3 3 3 3 3 3 3 3 3 3 3 3 5 2 K G A K R Y R Y S m B F E B V V J v N C B g N J g g V V V V 3 3 3 3 3 1 3 3 3 3 3 3 3 3 3 3 3 3 3 3 3 3 3 3 3 3 3 3 3 2 n v C ^ V g g C ^ E V U H K R R _ L G G G K R K K R G A A P P R R Y Z S Z S R Y R R R R G A v B J F C U V N l x b N H 2 1 2 2 2 2 3 3 3 3 3 3 3 3 3 2 5 3 3 2 3 3 3 3 3 3 3 3 2 5 v v n V f V M N z M C C ^ M N M B g C g U J V J V f E E E E C E N E g C C J E :.+.",
"i y E C E C ^ V Q g E E E E / ^ N C E g Q E ^ J B E N g E N +.C l m H A 2 3 3 6 6 6 5 3 3 3 3 3 3 3 3 3 3 3 3 3 3 3 3 3 3 3 3 3 2 3 A A A G P K R R Y K m I Q B V C V J V C g B M V N C v ^ V U 3 3 3 3 3 2 3 3 3 5 3 3 3 3 3 3 3 3 3 3 3 2 3 3 3 3 3 2 5 2 Z m g V C g V ^ U v V V J I Y Y R R G G S R K R Y P K S G G R R R P S A Z G P R R R K L K A g N C J V I C N l l n A m 3 2 1 1 2 2 3 3 3 3 3 3 3 3 3 3 3 3 2 2 3 3 3 3 3 3 2 5 , 1 x n H C g V N M M M B N J C C C B g M N B U U J J E C ^ ( ( C V N E f E E g E ....",
"y y C C E C ( C g E E g E E / C v M E g B E J J E E B B E E C / N n J V 2 2 3 3 8 8 8 6 6 8 3 3 3 3 3 3 3 3 3 3 3 3 3 3 3 3 3 3 2 5 Z Z A K Y K R R Y Z S V J B V J U ^ ^ ^ E C B E C U v N V ) 3 3 3 3 3 3 2 3 3 3 3 3 3 3 3 3 2 3 3 3 3 3 3 3 2 5 5 3 5 3 S A V ^ C ^ g n N V V V I I Y Y _ L A A P P R R R K P G S G R R R K A Z Z Z S R R R L K K A N N C V U C C m z l x n A 3 3 3 3 3 3 3 3 3 3 3 3 3 3 3 3 3 2 2 3 3 3 3 3 3 3 3 3 2 , v n V V V C B B N M N V E C C N C g N B C V V J J E C E ^ U ^ C N E f f E E E +.~ ",
"p e C E U U ^ J E g g E E Q Q C C g J N V ^ ^ V E g E M N ) E g n b m g 2 3 3 6 6 8 8 8 6 9 9 5 3 3 3 3 3 3 3 3 3 3 3 3 3 3 3 3 3 5 Z b Z S K Z R R Y R K / J V g ^ J V B E B g C C U ^ ^ g N v 3 3 3 3 3 3 3 3 3 3 3 3 3 3 3 3 3 3 3 3 3 3 3 3 5 2 3 6 9 5 S G C v ^ ^ N N b V V J J J Y R R R A K S P R R R K G G K S R } R K S G A A S Y R R S K A b N N U C H V H n b l v c m 3 3 3 3 3 3 2 3 3 3 3 3 3 3 3 3 3 3 3 3 3 3 3 3 3 3 3 3 5 > x c H N V C C B M M N C J V N C B g V C C J J J J B E C ^ U U ^ C M f E M C C :. .",
"p e C C C U ^ V Q M E f g E Q C V V C V g J U V B E M M N g ( C v g V v 2 2 3 3 5 6 6 8 7 9 0 9 3 3 3 3 3 3 3 3 3 3 3 3 3 3 3 3 2 3 Z b S K R S R Y R S S K H J V V U U E B E E C C I N U C ^ C 3 3 3 3 3 3 3 3 3 5 3 3 3 3 3 3 3 3 3 3 3 3 3 3 2 2 3 5 7 9 S A m v m V b m H S S A H H K R P R S G S Y R R R K S G P G K R R R S A G A P K R R K P H m V C J V I m b n x n b S H 3 3 3 3 3 3 3 3 3 3 3 3 2 3 3 3 3 3 3 3 3 3 3 3 3 3 3 2 3 2 b v H N C v C B M M C C / E C N B f M N C V J C J N E C ^ U C U C E f E f J C +. .",
"i p E C U U ^ V E B g E C C ^ C B g E g ^ J ^ C N N g M N N E C g v v N 2 2 2 3 3 5 3 5 5 8 9 0 3 3 3 3 3 3 3 3 5 5 6 6 6 6 3 3 5 2 A k Z G K K R Y Y S A S L m n V U I C J V V n m n m S b J N 3 3 3 3 3 3 3 3 3 5 5 3 3 3 3 3 3 3 3 3 3 3 3 3 1 2 2 5 5 6 L A m V Z S m S H K H G S P R K R K A A K K R R R P G S P G R R R R S A A G K R R L K P S Z n V C J V N b b b n n A H 3 3 3 3 3 3 3 3 3 3 3 2 3 3 3 3 3 3 3 3 2 3 3 2 3 3 3 3 3 2 l v H V F B M N M M B E ^ C C B B M M M V C I J V N E E B U C V C E g C E J J O.+.",
"i y C C U U ^ N E g E g C ^ ^ M B g N N C E ^ J E E E M E E ^ g g c g n 2 2 2 2 3 3 3 3 5 5 6 6 5 3 3 3 3 3 3 3 3 3 3 6 6 7 6 3 2 5 Z x x G Y S R R Y Y S S L H v V U I C v b v n b v H m m n J 3 3 3 3 2 3 3 3 3 5 3 5 3 3 3 3 3 3 3 3 3 3 3 3 2 2 2 5 5 5 S A b S S S I n K K A K P R R K R K G A P K R R R R S G A G P R } ' G S A K R R R R Z S G A V v C J m m b n v n n n n 3 3 3 3 3 3 3 3 3 3 3 3 3 3 3 3 3 3 3 3 3 3 3 3 3 3 3 3 3 3 l x N H V C C N N M C C / C C B B g N M N J C V V B E E B U ^ C E E g g g V C O.O.",
"y y V C J U ^ V g B N N V J ^ C N B C V J J ^ ^ E g g E B C ( N p f v v 2 1 2 2 2 2 3 3 3 3 3 6 6 3 3 3 3 3 3 3 5 3 3 5 6 7 9 7 5 2 G Z Z A K S R Y R K P S K S g b I m S H c v n m H m n A b n 3 3 3 3 3 3 3 3 3 5 3 5 5 3 3 3 3 3 3 3 3 3 2 3 2 2 2 2 2 5 K K S S A K K S K K A G L K R K K K Z A K K R R R P R A G G R R } R G S A S K R R R S K Z Z g V n m I m b m c v n n S 3 3 3 3 3 3 3 3 3 2 3 3 3 3 3 3 3 3 3 3 3 3 3 3 3 3 3 3 3 3 l c N H V C J N M z N V / V V C N M B M E V V V M N E E N C U C C E 9 V C V U O.O.",
"i y N C J ^ ^ V E E g g V ^ ^ C E g C g J J V U E M E g B E E E p M c f 2 2 1 1 2 2 1 2 2 2 3 3 6 3 3 2 3 3 3 3 3 3 3 5 3 6 7 7 8 2 Z Z Z S S S Y S K K G G H I n m S S m V m m b m S S m H n c 3 3 3 3 , 3 3 3 3 3 3 5 3 6 3 3 3 3 3 3 3 3 3 3 2 , 2 2 2 2 K K S K A K I Y H n A K G R Y R R K G A G K R R R P P P G S P R R R S A G G S R R R G G G A g g b m m m b b b l n A K 3 3 3 3 3 3 3 3 3 3 3 3 3 3 3 3 3 3 3 3 3 3 3 3 3 3 3 3 3 2 l b m N V C B M N M N C E J V C E z B N F J V V M N C C N U C C B B g V g U V O.O.",
"p t C C C ^ ^ V C N M B E E E V C g B g E B V ^ J V V g B E E ( g g M g 1 1 1 1 1 1 1 1 1 1 3 3 3 6 6 6 2 3 3 2 3 3 2 2 3 3 3 6 6 2 Z Z A G G S R K K S G R S K Z m m I I m m n v S m H S H n l 3 3 3 3 2 , 2 2 3 2 3 3 3 3 6 3 3 3 3 3 3 3 2 5 2 , > , 2 2 L G G S K Y K Y R K Z A K P Y P P K A G K P R R R R R Y G K P R R P Z A A G P R R R S K S A g n V m m S n N v h n m V 3 3 3 3 3 3 3 3 3 3 3 3 3 3 3 3 3 3 3 3 3 3 3 3 3 3 3 3 3 3 s c V V N V F N M B E J J C C B E M N C C J V N v M E E C U J C I C N N N J H  .+.",
"e e N C U U ^ V C N M N N E U V C B B N N E U J J V C E N E E g g v v N 3 3 1 > > > 1 1 1 1 1 2 3 3 3 3 3 3 3 3 3 1 1 3 1 3 3 3 5 5 G x A Z G K R R K K S G P K S Z c I m b v m m m m m H n n b 3 3 3 3 3 3 , , , , , , , 3 3 3 3 3 3 3 3 3 2 5 2 5 2 , 2 2 P K K S Z Y R Z K G A K K P Y Y R G Z A K S R R R R R Y P Y P R R P A A A P P K R P G K Z G g v g m m m S D x l b n H 3 3 3 3 3 3 3 3 3 3 3 2 3 3 3 2 3 3 3 3 3 3 3 3 3 3 3 3 3 3 l n V F m V J B M M E J E J E N B M V V C C C N c M B C C U V C C N N F n V H { ( ",
"y i C C U U ^ N E C C N C J / V E g N E B E ^ J E g g E B B ) E g C V g 3 3 3 3 3 1 > < 1 1 1 2 2 3 3 3 3 3 3 2 3 1 1 1 1 1 1 3 2 5 Z b G G K S S Y K K K S K K S I b Y I m m b m m I m v b b x 3 3 3 3 3 3 3 3 3 3 3 3 , 2 3 3 3 3 3 3 3 3 3 3 2 5 5 2 2 2 L L P P S K K Y G P A G K Y P Y R G Z A P S R R Y R R P A K R } R R A S Z S K R R R Z P Z Z V J v V H m H n v x x c m 6 3 3 3 3 3 3 3 3 3 3 3 3 3 3 3 3 3 3 3 3 3 3 3 3 3 3 3 3 3 l v m J V C C V N B E ^ ^ J E B E v N M U J C F N N V B V I I V m v c n n m m { ` ",
"w q N C C U ) V N g M N C C / J B N E g C C / / Q E E g E C ( g f g N v 3 3 3 3 3 3 3 3 3 3 3 3 2 2 3 3 3 3 3 2 1 1 1 3 1 1 1 1 2 2 A Z Z Z G S Y R P K K G K K I I I Z m m H n n V m S N b M z 3 3 3 3 3 3 3 3 3 3 3 3 3 3 3 3 3 3 3 3 3 3 5 2 2 , 5 5 3 3 J G A P K Y Y S S P K G G P Y R R R A A A G R R R Y P K G K R %.R R A Z G P S R R R A P G Z g v v V H H n A v l v n m 6 8 6 3 3 3 3 3 3 3 3 3 3 3 3 3 3 3 3 3 3 3 3 3 3 3 3 3 3 3 l m N I I J V V B M C ^ ) C C B E M B V V U V n v v N N c b m Z m v x v m H H _ U ",
"w q m V J H ^ V E N N N V J U V C V C B V J U ^ E N B g E E Q B g g g g 3 3 3 3 3 3 3 2 3 3 3 3 2 2 2 3 3 5 3 3 3 3 3 3 3 3 3 3 2 5 Z A A A P Z R R K K G A K K S S K I c V n m V m m m m m v b 3 3 3 3 2 3 3 3 3 3 3 3 3 3 3 3 3 3 3 3 3 3 2 3 5 2 2 5 2 2 H K G G P S K K S S P A P P R R R R G K G S R R Y R P P P K R R | R G A A G R R } R G P Z Z Z x n V H H m m v x n n m 5 6 6 6 3 3 3 3 3 3 3 3 3 3 3 3 3 3 3 3 3 3 3 3 3 3 3 3 3 3 v m V V V C C v N M V C ^ J C V C g B B V m V v l l v v b b m b m l x n n m m { T ",
"4 q n b I C ^ n E N E C C C / V V C N g V U U ^ E E B E g E E B g M C v 3 3 3 3 3 3 3 3 3 3 3 3 3 1 2 2 3 3 3 3 3 3 3 3 3 3 3 3 5 2 Z Z G D K K R R R K G A K K Z Y S S n V D F V K m I V b v b 3 3 3 3 3 3 3 3 3 3 3 3 3 3 3 3 3 3 3 3 3 3 3 3 2 5 5 , 2 5 J P P G R P Y R R K A G G P R R R R G G K K R R Y R K K K G R R } R K S G G R R R R G P P Z D v n c S I V H v l n D m 3 3 6 8 8 3 3 3 3 3 3 3 3 3 3 3 3 3 3 2 3 3 3 3 3 3 3 3 3 3 x n H J J U C M N N N U ^ U C J C M M E N V D c b x v b b b m m Z v x b S H S } ' ",
"q q m j V U J N C B C C V U ^ V V C E g V V J U C E E E Q E E E s f g g 3 3 3 3 3 3 3 3 3 3 3 3 2 2 2 3 3 3 3 6 3 3 3 3 3 3 3 3 2 2 A Z G G L S R R R G G G P P S Y K S H m H n N K J V H V n z 3 3 3 3 3 3 3 3 3 3 3 3 3 3 3 3 3 3 3 3 3 3 3 3 5 5 2 5 5 5 S G K G P K R R R P G G P P R R R R S K P P R R R Y P K G P R } } R S S G K K R } R P G S Z A l N N S H m V v x b m m 3 3 6 8 9 5 3 3 3 3 3 3 3 3 3 3 3 3 3 3 3 3 3 3 3 3 3 3 3 3 v c H J U C V V B B C C U C U N B v v M J V n c b x v b b Z b m m A l c m S I { ` ",
"q q m c m I U N E g C C J V ^ J C g B g V C U J C g N g E E E E v g C v 3 3 3 3 3 3 3 3 3 3 3 3 3 2 2 2 2 5 6 6 3 3 3 3 3 3 3 3 2 5 Z A G K P K Y R R P G K S P S Y S K S b N n n m N H V m n N 3 3 3 3 3 3 3 3 3 3 3 3 2 3 3 3 3 3 3 2 3 5 3 3 2 2 5 2 2 2 K K S K K R Y R R S G P G R R R R R S G K R R Y R Y P P K P } R | R K S G P R R R R K K A A A A g v J H n H c v v m I 2 3 3 3 8 9 3 3 3 3 2 5 2 3 3 3 3 3 3 3 3 3 3 3 3 3 3 3 3 3 l n n J J C N M M N V I C C V M M z v v N S v b l l l x b m m b c n v c m m m ` } ",
"t : c m m H J N E C g E E C E V N g M M E B U J E E E g E E / E V v n v 3 3 3 3 3 3 3 3 3 3 3 3 3 3 2 2 3 3 6 8 3 3 3 3 3 3 3 3 5 2 b Z G S R Y Y R R K G K P P Y Y Y S S Z v n m V p I N N N z 3 3 3 3 3 3 3 3 3 2 3 3 3 3 3 2 3 3 3 3 3 3 3 3 3 3 3 3 3 3 H H G P R R Y Y R S K Y K P R R R R S G K P R R R R K K G K R R } R K S S K R R R R P P G A m K n v b I H V x v n n S 2 2 2 3 3 8 9 3 2 3 3 3 3 5 2 2 3 3 3 3 3 3 3 3 3 3 3 2 5 5 v v v S J C N M v N B U U N V C g z M N n m c b c c x b j m m b c x x b b S m [ ` ",
"r q v b n m I N C V E B E E E V N M M g N N J J g E g E N E ) / V N g N 3 3 3 3 3 3 3 3 3 5 3 3 3 2 2 2 2 3 3 6 3 3 3 3 3 3 3 3 2 5 Z S Z S P R Y R R S S K P R S R Y Z S Z n v v g N V N b b l 3 3 3 3 3 3 3 3 3 3 3 3 3 3 3 3 3 3 3 3 3 3 3 3 3 3 3 3 3 3 H A Z S K R R R R K G G P Y R R R R K G Y R R Y R R P K K K Y R R } R P G G R R R R K G G Z Z m c H V V n n v l n A V < < 1 2 3 3 8 9 5 3 3 2 3 2 5 3 3 3 3 3 3 3 3 3 3 3 2 3 3 2 A H H V H E N N v v v C C M N C M z M v A H m c x x v b j b S b c v x v m b S _ { ",
"r 4 S n m m I n C N N N V ^ ^ V g B E M B N C J E g B g B C ) ) v g V v 3 3 3 3 3 3 3 3 5 3 3 5 5 3 3 2 2 3 3 6 6 3 3 3 3 3 3 3 5 2 k K A S P K Y R R P A G A R Z R R K S A m n v c v N v n b z 3 3 3 3 3 3 3 3 3 2 3 3 3 3 3 3 3 3 3 3 3 3 3 3 3 3 3 3 3 3 J K Z G S R Y Y R P K G Y R R R R R K G Y R R R R Y P G G K R R R R K S G K R R R R S K S P b S Z m c H V n x v n n I 2 < < 1 2 2 3 6 9 3 3 3 3 2 5 3 3 3 3 3 3 3 3 3 3 3 3 5 2 2 F V ^ J N C v v M M M C C N M N f z b n m S b n c l D c c S m n b n h v n m m } O.",
"u q m m m m V m C N C N g ^ ^ C M M M g N E ^ E E E E g E C ^ / V v U n 3 3 3 3 3 3 2 3 3 3 5 3 3 3 2 2 2 2 3 5 5 3 3 3 3 3 3 3 2 5 k G G G P R S R R Y P P P P Z R K K P Z n N N V c K N D N b 3 3 3 3 3 3 3 3 3 3 3 3 3 3 3 3 2 3 3 3 3 3 3 3 3 3 3 3 2 3 F H G G G R R Y P P K K Y P R R | R Z G Y R R R Y Y P K G S R R R | R K K P K R R R P K G G G S S b g I V m l c v n b 3 3 3 2 1 2 3 5 6 6 3 3 3 3 2 3 3 3 3 3 3 3 3 3 3 3 3 2 2 5 n N I / V C B M M M g C C E C E f v v N n S m m b x v n j S m m b v x b A m m [ @.",
"t r Z Z m H U N E E E E E E ^ V g M B B V C J E M B B B C E ^ ) V g J V 3 3 3 3 3 3 2 3 3 3 3 3 3 3 2 1 1 2 2 3 5 3 3 2 3 3 3 3 2 2 Z K A A S R Y R G P P K G ' Y R Y K H K c n V U C I v H N N 3 3 3 3 3 3 3 3 3 3 3 3 3 3 3 3 3 3 3 3 3 3 3 3 3 3 3 3 3 3 ^ U G G Y R Y Y Y K Y P P R R R R } K K P K R K Y Y Y Y S K R R R R R S Z G K R R R K G S S S Z K S n V m B v M b N m 3 3 3 3 1 1 3 5 3 5 5 2 3 5 5 6 8 8 3 3 3 3 3 3 3 3 3 2 3 3 v N I ^ J J C M v N C J ^ C C E g M z H V S b A b v c c l m m m n v h b m m H [ @.",
"r r G b m b I m E g g E C ^ / V N g g M C C J ^ E g M g V ^ ^ ^ m g V J 3 3 3 3 3 3 3 3 3 3 3 3 3 3 3 2 1 1 1 3 3 3 3 3 3 3 3 3 5 2 k K H A G R Y K K S G G P R Y R R R H S H N C n v V n n V v 3 3 3 3 3 3 3 3 3 7 0 3 3 3 3 3 3 3 3 3 3 3 3 3 3 3 3 3 3 3 V J G K R Y R Y Y S S K P R R } R R Z K Y K R R K Y G K K K R R R | P P G A K R Y R P P P G G A R K H c H H D v N A V 3 3 3 3 3 1 2 3 3 3 3 3 3 2 3 3 5 6 8 3 2 3 3 3 3 3 3 3 3 3 F B ^ J E J C B B N C C ^ ( E E N z v H H S m n n x D b c S m b m m c c b V m { _ ",
"r q H n V H E g E f g g g E / ^ g E g g C V C C E M E g V J ^ ^ g ^ V V 3 3 3 3 3 2 2 2 3 3 3 3 3 3 3 3 3 1 < 1 3 3 3 3 3 3 3 3 3 3 Z S m A L R K R P S A G G R S R R P S A v m n g v J V N N M 3 3 3 2 3 3 3 3 3 6 7 7 3 3 3 3 2 3 3 3 3 3 3 3 3 3 3 3 3 3 ^ I K P K R R K R K K G R R R R R R Z Z K K Y R R P K K K K R R R | R S P A K R Y R K G P A S Z K K K S n H n n D n H 3 3 3 3 3 2 2 2 2 2 3 2 2 1 2 2 2 3 3 3 3 3 3 3 3 3 3 3 3 3 H J W ^ ^ C N M N N N E U E E E M N v m m H S n b b v b b m H D n v l v b n m [ / ",
"q q n m n M E g E M B B E V ^ g N N E g C V E B M E M E V / ^ / V g ^ V 3 3 3 3 3 3 3 2 3 2 2 3 3 3 3 3 3 3 3 3 3 3 3 3 3 3 3 3 3 3 b T n L K Y S R P P S G S P S Y R P G A m V n g V V C N g M 3 3 3 3 3 3 3 3 3 3 3 6 3 3 3 3 3 3 3 3 3 3 3 3 3 3 3 3 3 3 U H S L R R R K K R Y K P R R R R R K G K G Y Y K P K G K Y Y R R R K P G S P R R R K G P G P S Y K S S B H n n n V m 3 3 3 3 3 2 1 1 3 3 5 3 3 3 < 1 2 2 3 3 3 3 3 3 3 3 3 3 3 2 B J J / / / C M g g N C U C N E B C N V V m m m b v x b j S m m A n l c m m n _ } ",
"r q n x m m K v E g E f E E J v v v C v M N U V C N C C C E ^ ^ V V g U 3 3 3 5 3 5 3 3 3 3 3 3 3 3 3 3 3 3 3 3 3 3 2 3 3 3 3 3 3 3 b m n H H L H T K P G D G R K R R R P Z A A F n m V V n n v 3 3 3 3 3 2 2 2 2 2 3 5 5 2 5 2 3 3 3 3 3 5 2 5 3 3 3 3 3 3 J J G K P R R Y Y S G K K R R R R R G G A K K K I Y G K K G K Y R T H H n G L T K R L L K P G K K L K S c m n v v H H 2 3 2 3 3 2 3 3 3 3 3 3 3 3 3 3 2 3 3 3 3 3 3 3 3 3 3 3 3 2 C J E ^ ^ E E B g N B J J J J C V B g E C V n n m n h m s m Z m m m c x n n m T / ",
"q q n b b m I N E M M E E E ^ M N N N z N V C V V V M U / E ^ ^ g V V g 3 3 3 3 5 3 3 3 3 3 3 3 3 3 3 3 3 3 3 2 3 3 3 3 3 3 3 3 3 3 h S b S L J m U H H K A G T H R R R P G G n V N V J V v v v 3 3 3 3 3 3 1 1 1 2 2 2 2 2 2 5 3 3 3 3 3 3 2 2 3 3 3 3 3 3 / V R K R R R Y Y K G K K Y Y R R R P A G K R Y K K K G A P R T I H S K H n L R Y Y K L G G K P Y L K S Z H v v c m H 5 3 3 3 3 3 3 3 3 3 3 3 3 3 3 3 3 3 3 3 3 3 3 3 3 3 3 3 3 5 C C E ^ ^ B B N N g B J C ^ J ^ M N C N C I m b m v c m b b m b m c x v A b b U _ ",
"r : b b c m H v E M E M 0 E Q v v M B M N C U V C M M C ^ ^ ) / g C J V 3 3 3 5 3 5 3 3 3 3 3 3 3 3 3 3 3 3 3 3 3 3 3 3 3 3 3 3 3 3 b S b A G T H K U J K D G L Z R R R R A S S V v H U J n v z 3 3 3 3 3 3 3 2 , > , 2 2 5 5 3 3 2 3 3 5 2 3 5 3 3 3 3 3 3 J U ^ L P R Y R L P G K P K S R R R G A A G L R K K S G G S K H L ^ V n F L L K R L S P G K K Y K R K K S n n v n H H 3 3 5 3 3 3 3 3 3 3 3 3 3 3 3 3 3 3 3 3 3 3 3 3 3 3 3 3 3 3 C C J ^ ( E E N g g B E C J ^ ^ M B C V V J V v b v l b b S m b c v h v b S m _ ( ",
"r q x A b m H v g E g E E Q ( M v M B B C C E J U M v C C ^ ) O.g g g V 3 3 3 3 5 3 5 3 3 3 3 3 3 3 3 3 3 3 3 3 3 3 3 3 3 3 3 3 3 3 b K A A K T K H H V F K L _ S I Y Y R G G K V J I U J H F n 3 3 3 2 3 3 3 3 2 5 3 3 5 2 2 3 3 5 5 2 2 2 5 2 3 3 3 3 3 3 V J V J K R R R K K K P P R R R P R A G G G Y K K K P G P S J U H / v V N H H T Y Y S L Z A K K R R T S S c V v N H H 3 3 2 3 3 3 3 3 3 3 3 3 3 2 3 3 3 3 3 3 3 3 3 2 3 3 3 3 3 3 C E J E / E C Q g g B g B C U J C C C C J U V V m n h S m H S m n v x n n m n ` _ ",
"r q v h m S I N B N N g C J / V N M N M C C C V C C N N E C ) ) g g V C 2 3 3 5 3 5 3 3 3 3 3 3 2 3 3 3 3 3 3 3 3 3 3 3 3 3 3 3 5 2 k K G A A R S R K K G b G R K R R R R Z G K U C I U D F J n 3 3 3 3 3 3 3 3 3 3 3 3 3 3 3 3 3 3 3 3 5 3 3 3 3 3 3 3 3 3 V ^ J / I J R R R L G G R R R R R R G Z G G K K S S P A K G n J v ^ V J I n V T R L G P G G K K R R K S K n c p n V I 3 3 3 3 3 3 3 3 3 3 3 3 3 3 3 3 3 3 3 3 3 3 3 3 3 3 3 3 3 3 M M C U / J E / B g g V V C U U M E E C ^ ^ V E E n h v b S H n n x s x m c m T ` ",
"q 4 n h b m U N N B N N J ^ ( U V C M v C C U U N v N N C C ( ) C g g C 1 3 3 3 3 5 6 3 3 3 3 3 3 3 3 3 3 3 3 3 2 3 3 3 3 3 3 3 2 5 b A A A G R Y Y H K D G P P Z R R R R S G Z K g J I H V H N 3 3 3 3 2 3 3 3 3 3 3 3 3 3 3 3 3 3 3 3 2 3 3 3 2 3 3 3 3 3 J v H V V V Y T H G P A P R R R R R Z Z A G K K P S G S K G N L / V c b N N m U R R P G S A S P K Y K K K m V H v m S 3 3 3 3 3 3 3 3 2 3 3 3 3 3 3 3 3 3 3 3 3 3 3 3 3 3 3 3 3 3 N M E ^ U ^ C E E V V g V J U U v g V C ^ E E V g N b m H S H S n D l x n m S { L ",
"r 4 n c m n ^ N B g N C U ^ / U V V C C J C / C E M M M N E / ) V V C g 2 3 3 3 5 6 6 8 3 3 3 3 3 3 3 3 3 3 3 5 5 3 3 3 3 3 3 3 2 5 Z K S G S P K K K K P G K P S R R R R S A K H n H m n H F N 3 3 3 3 3 3 3 3 3 3 3 3 3 3 3 3 3 3 3 3 3 3 3 3 3 3 3 3 3 3 U C C J E v T R T L K G S R R R R ' Z G Z P R R K K G S A L V V J n v J v v H U Y R Z R A G Z S R K K S H b m g n V I 2 3 3 3 3 3 3 3 3 3 3 3 3 3 3 3 3 3 3 3 3 3 3 3 3 3 3 3 3 3 M g V J U C C E B V g J V C ^ J g C M ^ J C C ^ C B z D A I S m m v b x c b m _ W ",
"r 4 m c V n J V E g N M U ^ / V N N N M J ^ U ^ U C B B C J ^ ^ V V J g 1 1 3 3 3 6 6 8 9 3 3 3 3 3 3 5 5 3 5 3 5 3 3 3 3 3 3 3 2 2 A K K A K L K Y K K P K P } S R R R P G G K I Y C H H H F v 3 3 3 3 3 3 3 3 3 3 3 3 3 3 3 3 5 3 3 3 3 3 3 3 3 3 3 3 3 3 C E ^ C C U [ T R L G R P R R R ' R Z G G K R R K S S P A J J V ^ n g V J J H L R L K K P G A S Y Y K S S m N v n m I 3 3 3 3 3 3 3 3 3 3 3 3 3 3 3 3 3 3 3 3 3 3 3 2 3 3 3 3 3 3 C M V C ^ C C B E E g C V V ^ / C E v C ^ J C E C N M F H I m Z m b l c c b m _ ` ",
"q q Z x N V U n C C M M J / ) U v V C M C ^ U U U N C N C E E ( g C V g 3 2 2 3 5 3 3 5 6 6 7 7 6 5 5 5 3 3 3 5 3 3 3 3 3 3 3 3 5 2 A K A G G R K R K K K P P R R R R R K K K K I Y I I H H C F 3 3 3 3 3 3 2 3 3 3 3 3 3 3 2 3 2 2 3 5 3 3 3 3 3 3 3 3 3 3 V V U g C U K I R L S P P K R Y R R Z G G P L R Y K m V V V n F C J c N N m H U _ H K K P P G G K R R S K G m H A n V 3 3 3 3 3 3 3 3 3 3 3 3 3 3 3 3 3 2 3 3 3 3 3 3 3 3 3 3 3 3 N C C J ^ J J B B E g N C J V ^ V E g E ^ ^ V J V E N C U I V m m b z x z x S ] ` ",
"r q A N V J U V C C M C V U ) J J C C M M V U U U N C M N E N U V V ^ g < < < 3 3 3 3 3 3 3 3 3 3 5 5 3 3 3 3 3 3 3 3 3 3 3 3 3 5 5 S K S G S R K K R S K K P P R R R R Y P G G Y Y K H H V J V 3 3 6 0 7 3 3 3 3 2 3 3 3 3 3 3 2 5 3 2 3 3 3 3 3 3 3 3 3 3 I V ^ J V C J K P R S P S R R R P R k K G R P R Y K I N C N V V M / v c n V v n K K G S S K A P Y S K K S S c c v H m 3 3 3 3 3 3 3 3 3 3 3 3 3 3 3 3 3 3 3 3 3 3 3 3 3 3 3 2 3 5 g C C J / J J B N B g g M C C ^ V C B g J J V ^ C C V ^ U I ^ V M N l n b b m { L ",
"y 4 D B C C J v C C N V J U / V J U C M V J U J C V C N N N ^ C g V C ^ 1 < < 2 2 1 2 2 3 2 3 3 3 3 3 3 3 3 3 1 3 3 3 3 3 3 3 2 2 5 G K A G S R Y R K K Z P R R Y R P R G P S K Y Y R m J H N N 3 3 3 6 7 0 3 3 3 3 3 3 3 3 3 3 3 2 3 3 3 3 3 3 2 3 3 3 3 3 N ( v C J I V H H Y G P P K R R K R k G G P R R R K H J J N J ( J J v U J F V J F R P K G G Z R K R K S S A m f v H H 3 3 3 3 3 3 3 3 3 3 3 3 3 3 3 3 3 3 3 3 3 3 3 3 3 3 3 3 3 3 g J C ^ ^ ^ V J E E N V g ^ g ^ C B E C ^ ^ V C V N C V C U C U N N M M M b m _ W ",
"i y E B U U U V C N C M V / ^ V V J C V C v V V N N C C C U E U g g V V 3 < < < < < > > > < 1 1 < 2 1 < 2 1 1 3 3 3 3 3 3 3 3 2 1 1 S P G G S R Y R Y K G K Y R K R R R K K K K Y I K I J H n F 3 2 3 3 3 6 7 3 3 3 3 3 3 3 3 3 3 3 5 2 3 3 3 3 3 3 3 3 3 3 C V N g V I N N K R G G K R R R R R A G G K K R Y K K H U C C C J U N M V V V v V T S G K G A K Y R P P S A m c c n V 3 3 3 3 3 3 3 3 3 3 3 3 3 3 3 3 3 3 3 3 3 3 2 3 3 3 3 3 3 6 M g V ^ / ^ ^ C V E V C V C g E g g C V J J ^ E E B B C J U C C C F z A D n H @.@.",
"u y W B E J ( N V M N C N J U V V V N N C C I J N M M M E E E C g g ^ ^ 3 3 3 2 3 3 3 3 3 3 3 3 2 2 < 2 3 3 3 3 3 3 3 3 3 3 3 3 5 2 S P G G G R S R K K A A P R Y Y R R P G S K Y R Y R / L V N 3 2 2 3 3 5 6 3 3 3 3 3 3 3 3 3 3 3 3 3 3 2 3 3 3 3 3 3 2 3 J U C N U V N v V _ G S K K R R ' R Z K K P R R K S S H V F C C V V g n V N n n H G L K G G A S R R K K K A I p V c m 3 3 3 3 2 3 2 3 3 3 3 3 3 3 3 3 3 3 3 3 3 3 3 3 3 3 3 3 3 3 E V V C U E E E E B E J V V C ^ V E N E C J J ^ g N N E C ^ ^ C ^ C M B N V V =.O.",
"u y C C E ^ ^ V C V M N C C U J V C B g C C C J V M M B C / / ^ g C C g 3 3 3 3 3 3 3 3 3 3 3 3 3 3 3 3 3 3 3 3 3 3 3 3 3 3 3 3 2 5 S K P K P R S R S K A K P R Z Y R R P S G S K Y S Y I J J B 3 3 2 3 3 3 3 3 3 3 3 3 3 3 3 3 3 3 3 3 3 3 3 3 3 3 3 3 3 3 V F C U N ^ N C I / G G P Y K } R P S G P P R R R K A H N n V J C ^ N N V m H L H S K R G G P K R Y R K P Z V V v v I 3 3 3 3 3 3 2 3 3 3 3 3 3 3 3 3 3 3 3 3 3 3 3 3 3 3 3 3 3 2 E E V J J E E C E B E / v V C ^ V E B C J ^ V V ^ B N C N ^ C C C E M B V J H +.@.",
"p i B J J U ( V C M M M C U ( J N E N N V C U J C v N M C ^ ( U V g C E 3 2 2 3 3 3 3 3 3 3 3 3 3 3 3 3 3 3 3 3 3 3 3 3 3 3 3 3 5 3 K S A P S R Y Y K S G A K Y S R R Y K G S K S R I S K N F N 3 3 3 3 3 3 5 6 3 3 3 3 3 3 3 3 3 3 3 3 3 3 3 3 3 3 3 3 3 3 V V C C V J C C V L S P R K R R R P Z G L K R R R K A H n V m C C L H J H n H H U H K L A G S K R K K K S K m g V V H 3 3 2 3 3 3 3 3 3 3 3 3 3 3 3 3 3 3 3 3 3 3 3 3 3 3 3 3 3 3 M ^ J J J J J E N B E / C g V J g N g Q E U U V C B N C U U ^ C E E M C ^ J ^ @.O.",
"p y B C ^ J ^ N C B N N C ^ ^ I N N E g C C J U C N M M C ^ ( C g C g V 3 3 3 3 3 3 3 3 3 3 3 3 3 3 3 3 3 3 3 3 3 3 3 3 3 3 3 3 2 3 K K G G G R Y K K S G K P P Z Y Y Y K P G R Y R Y I V H N z 3 3 3 3 3 3 5 9 5 3 3 3 3 3 3 3 3 3 3 3 3 3 3 3 3 3 3 3 3 3 N V N N V ^ I N C H K K G R R R R P b K K Y R R R L A S V N N m ` U m V D H n J K L H K P G P R Y R R L S S V V d m H 3 3 3 3 3 3 3 3 3 3 3 3 3 3 3 3 3 3 3 3 3 3 3 3 3 3 3 3 3 5 M J J U ^ C E N C E B ^ E V V U g E N E E ^ V V V N C C C U ^ E E E M V J ^ ^ #.+.",
"f e V V ^ ^ ^ V g f E g V ^ ^ V B C C g C J V C J V M C C E ^ E V V C V 3 3 3 3 3 5 2 3 3 3 3 3 3 3 3 3 3 3 3 3 3 3 3 3 3 3 3 3 2 5 P R D L L R K K P A Z G P L K S R Y K G A Y K R Y I I V V v 3 3 3 3 3 5 6 8 9 9 3 3 3 3 3 3 3 3 3 3 3 3 3 2 3 3 3 3 3 3 C N M C E C N V M J V I L T R T R S b P K P P R Y L K b N V c S U U b n m J H J _ J J J K G L _ R R Y Y P S A N d c m 3 3 3 3 3 3 3 3 3 3 3 3 3 3 3 3 3 3 3 3 3 3 3 3 3 3 3 3 3 3 E M N E ^ J J C E C J E / g E Q g g E J ^ ^ E g E N N N C V U V V ^ g N J ^ J =.O.",
"p e C C C ^ / E Q E g C V ^ ^ V C C B N V ^ J J C V M C E E / J g C E g 3 2 3 2 3 2 3 3 3 3 3 3 3 3 3 3 3 3 3 3 3 3 2 3 3 3 3 3 2 2 K G K G K R K P K G G b L P Y R Y R A K K P Y R K Z I J N N 3 3 5 3 3 3 3 3 6 9 0 0 0 6 3 3 3 3 3 2 3 3 3 2 3 3 3 3 3 3 C V N C g N U C J J N N m K I R R L k Z G P R R Y K K D N V / V C I m F V V / ^ H K K H H A L R R Y Y K G S V n N g m 3 3 3 3 3 3 3 3 3 3 3 3 3 3 3 3 3 3 3 3 3 3 3 3 3 3 3 3 3 7 B B N U C J E g C N J E ^ Q g E g N g V J ^ / ^ ^ B N C C U U U U E C N C E J =.) ",
"p i C V ^ J / E Q B g V V ^ ) V N E N g C J ^ U ^ C C C C ( ) J g C E g 3 3 3 5 3 3 3 3 3 3 3 3 3 6 5 3 3 5 3 3 3 3 3 3 3 3 3 3 5 2 S K G G L R K Y K P K A K K Y R Y R K A K Y R Y K S U F N v 3 3 3 3 3 3 2 3 3 3 6 6 H H H V n A b n m m m m M M M C ^ J U C C C M N V J g ^ v C J U K R R K Z G Z G Y R R K K S V v m n N ( H v J N V n V ( J ( L G K P R R K S K A v n N V m 3 3 2 3 3 3 3 3 3 3 3 3 3 3 3 3 3 3 3 3 3 3 3 3 2 3 3 3 3 7 M v V ^ U J E N N g C E C E g E g g E V C ^ ^ C g C N C V V U ^ J E E E N ^ V ) #.",
"i p C J ^ ^ / g E B E g J ^ ^ U N M E M V V V J ^ M V M C J ) ^ V C E N 3 3 3 3 3 3 3 3 2 3 3 3 3 3 5 3 3 3 3 3 3 3 3 3 3 3 3 3 2 5 L A A A K T I K K P K G K K K R R R K G P P R R Y Z H L F N v H V H J H V J v H n V H S V b v H m m m I m V C N V V J J U C N B N / M C C V V v J C m K K L Z G G P R Y R P G A D N n J U J N n V J J U V V J ^ / H K R Y R Y K S Z S V v N H 3 3 3 3 3 3 2 3 3 3 3 3 3 3 3 3 3 3 3 3 3 3 3 3 3 3 3 3 3 5 g V M J ^ E C B N N C E E Q g g E E g ^ g ^ C ^ C C N C C U J J C C g N C U C =.+.",
"p e g C E ^ ^ V g E g g C J J U N N M g B E J J J C B B E E ( J V J J V 3 3 3 3 3 3 3 3 3 3 2 3 3 3 3 3 3 3 3 2 3 3 3 3 3 3 3 3 5 2 S P A H G _ K R R K L K K K Z Y Y R R S A Y R R U n J J N D B N J J m V H F v B H H V J H n n n n H m S b m C M N C U ^ U C M E B E J m g C N V V C J T R K Z G S K Y R R R K A A N C n V V c l b b V I T I H n H H R R R R R P P G m S b g H 2 3 3 3 3 3 3 3 3 1 3 3 3 3 3 3 3 3 3 3 3 3 3 3 3 3 2 3 3 5 M M v J U ^ J C C B N E J E g g f g E E E V U U V C E C C J J V J C E V J ^ U ) O.",
"p p C C E E ^ V g E E Q C ) ^ V N C E M N N V J C N C N N E ) J g V V M 3 3 3 3 3 3 3 3 3 3 2 2 3 3 3 3 3 3 3 3 3 3 3 3 3 3 3 3 2 5 S A D n A K Z R P S G G L G K R Y R P P P S I Y Y m U J V B C J V J V N V H v N H H H m H v N D H H m m m b V B V C J / J U B B g ( M C ^ M V ^ N ^ N J ^ H A G S P R R R R K Z A W J V U T H m A A H K Y I H K H N Y I Y R P S K S K H v N I 3 3 3 3 3 3 3 3 3 3 3 3 3 3 3 2 3 3 3 3 3 3 2 3 3 3 2 3 3 3 B C g V J V ^ J C B B ^ C Q E E g g g g E V J g ^ B N C M V V V J C g C ^ ^ ^ =.=.",
"p e E C g Q Q E E f g E C ^ / J N C C g N C C U E V C N C ^ ( J v C C V 3 3 3 3 3 3 3 3 3 3 3 2 3 3 3 3 3 3 3 3 3 3 3 3 3 3 3 3 5 2 Z D N D n L H Y R S G G G T S R Y R K P P K R Y S H T J n v n V V J V I N N v n n H I J m v n n A J I m n m M C C C U U ^ C E E g ) J E J / V U v E U J ) K Z A Z R R R R S L m A V J V V T S A A S K R R I K S H U R K Y Y R K G G H K C d V 3 3 3 3 3 3 3 3 3 3 3 3 3 3 3 3 3 3 3 3 3 3 3 3 1 1 3 3 3 3 M J M V U V C C C E C E V M E E g g E g E ^ J C V M N C B J V J V C N V V U ^ =.) ",
"i e E C E B Q f E E E g V / ) V C C C M N N J V C C M N E ^ ) J C g E M 3 3 3 3 3 3 3 3 3 3 3 3 2 3 3 3 3 3 3 3 3 3 3 2 3 3 3 2 2 3 c N N H v n J / K P G K L G Z Y Y R P K K P R Y H c V J F v m N V U m J H H v n H H I H V b n v S H S b c b v M C C J ^ ^ V E M N V C V ^ J N C v J U L / I G G Z Y R R K I G H A v J H T T Z Z Z Z K Y R Y S A S J K R R R R P S S S H N N H 3 3 3 3 3 3 3 3 3 3 3 3 3 3 3 3 3 3 3 3 3 3 3 3 2 3 3 3 3 5 g N M V J V g C v C M ^ C E E E f g g B E J J J V M B E N U V C V E B V V V J =.+.",
"p w E g E E / V C C C B M ^ ( J V N B N C C U V C v E E E E / E V v V C 3 3 3 2 3 3 3 3 3 3 3 3 2 3 3 3 3 3 3 3 3 3 3 3 3 3 3 3 3 3 F v c L V v J H ^ L V L L _ S R K R H K K _ Y Y b V n V V N v B m H V N V N v n m I I H H n v v m H H S c j l N N V J J U V B B M B M V V C v J C V ^ J ^ ^ n K D L T T U L L D D A V U R R A A x A S R R R S A Z K T R Y Y Y P K Z K H n V H 3 3 3 3 3 3 3 3 3 3 3 3 3 3 3 3 3 3 3 3 3 3 3 1 2 2 2 2 3 5 M M V g C E g E g N N J J ^ J E f M N B V J J C C E g ^ J J J V V C N E g E E +.+.",
"i e N E B ^ / C J C N C C ^ U V C N B N v J J U C V g B N E / E v v C V 3 3 3 3 3 3 3 3 3 3 3 3 2 3 3 3 3 3 3 3 3 3 3 3 3 3 3 3 2 5 H H N V V J c J J H C L L } Y R R R K L K _ R S J n V J V n n B n J V V N N l N m V V m V n b A n N m S b l l c N V U J C ^ B B M E J V m J m J ^ ^ g C ^ g H H J J I T _ H K S A A v R R R A A A A S R } S P S G A Y R Y Y Y S L S K m V J H 2 3 3 3 2 3 3 3 3 3 3 3 3 3 3 3 3 3 3 3 3 3 3 1 2 2 3 2 3 3 M E C C V B E B B B C J ^ ^ J E g g g N C V J C V B V J J ^ C C V E g E E E B ) O.",
"i e B g V ^ ^ C C C B N C ^ U J V g C N V C U ^ ^ g N B E ^ ) E V J C N 3 3 3 3 3 3 3 3 3 3 3 3 3 2 3 3 3 3 3 3 3 3 2 3 3 3 3 3 3 2 H N n B N H V H L H V F J T Y R Y } P P L L R I m J J C N m N V N V I C V F v N V V V H n n z A v H b S b c l v N V J I J C E E E B V J J U g C g J V / C J n ^ E F V H Y H K A A H U L _ R G A Z Z S Y R K K L A K Y R R R T K ^ m H c n H S 3 3 3 3 3 3 3 3 3 3 3 3 3 3 3 3 3 3 3 3 3 3 3 2 2 2 3 2 2 2 M N N g J C C N E N C E J ^ E E N N g g C U U V V N g C C J U V V E B g g V V =.O.",
"p e g N J / / J E M E B C ^ ^ U V C E g M V J J J V C B N E / C g M C N 3 3 2 3 3 3 3 3 3 3 3 3 3 3 3 3 3 3 3 3 3 3 3 3 3 3 3 3 5 3 n V n V H F v V J J L / J _ b I K R P H R I Y I m g V V C N N V V I V I V C z N H H H H V n l v D H m b m c l l c V H ^ ^ C M E E E J V J V ^ J C J V V ^ V V / J L K J _ T K G Z G S H _ T A A A A S S R K L K A G R R R R R S J H H V v V I 3 3 3 3 3 3 3 3 3 3 3 3 3 3 3 3 3 3 3 3 3 3 2 2 2 2 2 3 2 2 g B g V C C C N B B C ^ ^ ^ E N C E ^ C g V V g C B Q C V U V J M g B E E V J #.+.",
"e e C g V ^ ^ V E C B C C C E E C C E g J J C V E C B N C E ) V v m C N 3 3 3 3 3 3 3 3 3 3 3 3 3 3 2 3 3 3 3 3 3 3 3 3 3 3 3 2 3 3 v n H H N v m J n J V U / ( S I S R S I H J V J V N V V V V N C N C H J V H v n H H H V n n v l n A m m n b c l c V V V U J M E B E C g v V C J C V J ^ / C v V ^ J ^ V I U P G G K L F T H D A D Z D J L m S P K L K P R R T J J A K H v V V 3 3 3 3 3 3 3 3 3 3 3 3 3 3 3 3 3 3 3 3 3 3 2 2 2 2 2 2 2 5 g B B V C ^ g E C g J J ^ / C V g B E C V M C B M g E E g ^ J V V N N g ^ J V O.) ",
"e e E E V V ^ V V V N C J ^ E E V g g g M ^ C V C B N B E E ) C v v M V 3 3 3 3 3 3 2 3 3 3 3 3 3 3 3 3 3 3 3 3 3 3 3 3 3 3 3 3 3 3 n N F V U U J V m J H K / _ m I I } I m I I V I v I m V N B N J N I H J V F v F N H H N b v b x v H m b m m b b l v m V J J E M B B E C J n V C J ^ V U J V V V ^ V ) U I I _ G G A K J _ L A A A n F L J H K S K K P K R R R H U A K n m v I 3 3 3 3 3 3 3 3 3 3 3 3 3 3 3 3 3 3 3 3 3 3 1 2 2 2 2 2 2 2 C E N C ^ ^ C C C C V U U ) C C V N E E E C B N M E g E E C C C C B B E C ^ ^ +./ ",
"e e C g V V U g V V M C C J Q N f E E f g E C ^ C C N B E E ) E v n M M 3 3 3 3 3 3 3 3 5 5 5 5 3 3 3 3 3 3 3 3 3 3 3 3 3 3 3 3 3 3 n m A v H L V I m K n J J { H I m T V U n V J b g U g c V V V J N I V V V F v F V H H n b n z l v H m m v n m c g V V g V J E M B E E ^ J V J V g / V ) ^ U V g V J U V V V H A K G K v _ ' A A D v F N K V K L K D P K R R Y V T A G J V V I 3 3 3 2 3 3 3 3 3 3 3 3 3 3 3 3 3 3 3 3 3 3 2 2 2 2 2 2 2 2 M C C ^ ^ E V E B C E J V ^ V E g C C C U ) V g g M g B B E V E g N g B C ^ ^ +.) ",
"i e ^ g V U ^ U J V C C C ^ Q E f E E g V v J J ^ C E g B E / E v N C v 3 3 3 3 3 3 3 3 3 3 5 3 3 3 3 3 3 3 3 3 3 2 3 3 3 3 3 3 3 3 c n V J n H b n V n H m V T m U I V m ^ m / n m v N V c B N C C V I V H D J v V n V D n M x M M n H m A A n H n v V V ^ m U B E B E ^ M J m V C / / g ^ V U v n V m U V / U F H G G S L J K A A D l n D v b H H H K L R R R R H H S A S H V H 3 3 3 3 3 3 3 3 3 3 3 3 3 3 2 3 3 3 3 3 3 3 3 3 2 3 2 2 1 1 M C g J / C V C N C E ^ J ^ C C B N C J U ^ J E E g E g N E E E B E E V V ^ C ) +.",
"e e g E V J J V ^ V C E N E ^ C N N M M B C V U U V C C N / ( ^ N v C N 3 3 3 3 3 3 3 3 3 3 3 3 3 3 3 3 3 3 3 3 3 3 3 3 3 3 3 3 3 3 m V H V F U b H n V V V m U v H ^ U m J J J U V g ^ V g v V V C J U V V V H v C F V V V V n n n n G H S m n m m n v m J V J E C C C ^ J J m H n c ^ v ( ^ K J v I n v J ^ U V L G P R U ^ K Z n H V H J H c I J L H R K R R I K S G S K S v V 3 3 3 3 3 3 3 3 3 3 3 3 3 3 3 3 3 3 3 3 3 3 2 3 3 3 3 3 3 3 M E E E E U J C N N E ^ U V V J g E g E B E E C C g g B B J J V ^ g E g E E C ) ~ ",
"p e g B V J U m C C B C E C / v N M M M C C V J J V N C B ^ ) E V N J M 3 3 3 3 3 2 2 3 3 3 3 3 3 3 3 3 3 3 3 3 3 3 3 3 3 3 3 3 3 3 m N U J W L V H m H V V N V V V J U J J V V g U V V ^ g m C C C V U U C N J v F J H H S n D v n n H V K b m N n n A n J V V C g V E U U J J H S V V H N V T v n V H V n C C J K G L T / _ ^ b m m c N V H m n N H G K Y Y Y K P P S A I I m m 3 3 3 3 3 3 3 3 3 3 3 3 3 3 3 3 3 3 3 3 3 2 3 3 3 3 3 3 3 3 g M M C E E U C N N U ^ U V V E M g N E E C C E C E g g N V ^ V g E g E E E E +. .",
"i e E g J V J V C C C V C J ^ J V g N M N C U C C C N N C ^ ) V V C C v 3 3 3 3 3 3 3 3 3 3 3 3 3 3 3 3 3 3 3 3 3 3 3 3 3 3 3 3 3 3 S Z H H J L H U N K v ( C C V v V V V / g J V V V g V / U V J V V U H I V C v v D H H n n V N n n S H I m m m v n A V J V N C g V V ^ ^ V V H A K V V I I S H J V m V n T I L K A L K T H V N V N v J L U V J H K K Y Y T U H K P A A S I S V 3 6 6 3 3 3 3 3 3 3 3 3 3 3 3 3 3 3 3 3 1 3 3 3 3 3 3 3 3 3 E M V E E ^ C E C C E C ^ V V C M B N E ^ C E E E B B N C V g C V g g E E ^ ^  . .",
"i 5 g E V V J V V g C E C C ^ J C M N M N C C U N N B N C ^ ) V v V C v 3 5 3 3 3 3 3 3 2 2 2 3 3 3 3 3 3 3 3 3 3 2 3 3 3 3 3 3 3 3 b S A K H R H K m H m V V V V J V v V V v V V V g V U g V V n V V U V J J J v N V n I H H V n n n H I H H b n n A N V V V J E N V V J U V V ( H S H C I K Z S m m S S m S I S H K K R R _ J n J N N M V J n H H S Y R R [ Y Y K P A G Z S S N 3 5 3 3 6 3 3 3 3 2 3 3 3 3 3 3 3 3 3 3 3 3 3 3 3 3 3 3 3 3 g N V U ^ C E C C N E E J V V J M B g V C ^ ^ V C E E E g V g V C E B B g C / +.~ ",
"p e M N C C U N g E g E J ^ C g N C N v M V C I C N N N N ^  .J g V N N 3 5 3 3 3 5 3 3 3 2 2 3 3 3 3 3 3 3 3 3 3 3 3 3 3 3 2 3 2 5 k G A S K R Y Y K S v H v E g V V V V V J J / U V V J g M N V V H I J V C ^ N N J V V H V v m n v H H m S b n l n A V J V V E N g E U U C g L J L K H I Y S S A A A K S K K G A L L Y R [ S m V J V ^ F ( V / H H G R R R } R K L A K S Y S V 3 3 3 3 3 3 3 3 3 3 3 3 3 3 3 3 3 3 3 3 3 3 1 3 2 3 3 3 3 6 M N v U ^ U V C C C C J V V V J C E N E C C ^ ^ V E Q E E M g m v B B N V J ^ +.) ",
"y e M M U V U V E E g B ^ ^ ^ ^ M v C M v V C J J M N C B C ( C J M M v 3 3 3 5 3 5 3 3 3 3 3 3 3 3 3 3 3 3 3 3 3 3 3 3 3 3 3 3 5 1 Z S A S K R Y R S A n J C V g V V V g V J V g V g V J g M N M N m V m V N U v V V H I H V v v F n A H m m n A n v H V U V V B N B N V U ^ N V V L Y K K K K Z m G K K R K Y L A G K R R Y H H V n H ^ J T H J H G K R R R R R R P K G K K Y H 2 3 2 2 3 3 3 3 3 3 3 3 3 3 3 3 3 3 3 3 3 3 3 3 3 3 3 3 3 5 g N V V ^ U V C C C ^ J V C V C g g E B E J ^ E C B Q Q ( / C M M g B g V V J +.=.",
"e e N M C U ^ N E E N C J J ^ J C V N M C J V C C M M N N E Q C g V V M 2 3 3 3 5 3 3 3 3 3 3 3 3 3 3 3 3 3 3 3 3 3 3 3 2 3 3 3 5 5 Z K G P R R K R Y S v V N ^ V V V V V U ^ V V J g C J V g N M N m J m J V V v B m m m H I m m n n H I m m b n v x A V U F N C B N B V U V V n V K Y Y P P S A A A K Y R K R P S K L } R R Y m m H c m ^ U S J H L A Y R R R R L P A K K K K I 2 2 2 2 3 3 3 3 3 3 3 5 8 9 8 6 3 3 5 3 3 3 3 3 3 3 3 3 3 3 M C v J / J C V N E E J V J J J g g E ^ V J V J ^ B E Q / ) E C V g E V C C V +.+.",
"p e M N v ^ ^ V E g V V J J ^ V v M B N C C H V C v V C N E ( E g m C M 1 3 3 3 3 3 3 3 3 3 3 3 3 3 3 3 3 3 3 3 3 3 3 3 3 3 3 3 1 5 Z S S G R R K R R S v C U U V J J V g V ^ V V V ^ ) g g g B N N N J v m v U c n V J I H V n n n n H I H m c b x n F J U U V C C B B U C I n n n K R L R R L G A A S Y K ' L L A A K R R R R k b n m H U _ T T N L L Y R } } ' P P K S Y K R I 3 3 3 3 3 3 3 3 3 2 3 3 5 6 6 5 5 3 3 3 3 2 3 3 3 3 3 3 3 5 g C M V / U J J E C ^ J J C C E C V g J V J U V J E g B E / ^ C C M g g V ^ ^ ) =.",
"p p C V V U / J E g N N B H / J N N v N N J U V H n x D n S ( I g n V N 2 1 2 3 3 3 3 5 3 3 2 3 3 3 3 3 3 3 3 3 3 3 3 3 3 3 3 3 5 5 Z A Z S R } Y R K S V n J U V g V J U g ^ V V g ^ g E g g B M N N V m N n F v N V V H V V m N n A H H I H n A c c H V U U V C C M E E B C M N H L L T T K S G Z K A L Y Y K P G G S R R R R Z b A A G K } Y R K K K R Y R R R K R G K S R R K 3 3 3 3 3 3 3 3 3 2 2 3 3 3 3 3 3 2 2 3 2 3 3 5 2 3 3 3 3 3 E J V V ^ E J C C E E E C C C C C g N E E V V V C C B C C J ^ J E E M f E E E ..+.",
"p i C V J I / V E E F N N N I H m v x l x m I S H b v n n m U m v g V v 2 2 2 2 3 3 3 3 3 3 3 3 3 3 3 3 3 3 3 3 3 3 3 3 3 3 3 3 2 5 Z A A G R R R R K A m V J V U g V V g V ^ V V ^ ^ ) ( g V g v V V J m N v F b F V H I H V n n n n H S H S b n b j V V J C C C N g B N E J M V A H T R R R P A A G S K R R K S P G R P R R R A A Z Z K K R I Y K K K K R R } L K L P G G S R L 3 3 2 3 3 3 3 3 3 , 2 2 3 3 3 2 2 2 1 2 3 3 3 3 3 3 3 3 3 3 B C V V U C E C N N E C J E g C C E N J E ^ J V C B N ^ ^ ^ ^ C V B E E g M B +. .",
"y y C V V U I V N N B v n m K m c c l x v b S I H m b n n S I S d b b c 3 2 2 2 2 3 5 3 3 3 3 3 3 3 3 3 5 5 3 3 3 3 3 3 3 3 3 2 2 2 A K A K R R K Y L A A V J V J J g / U V ^ V g ^ U ^ ^ ^ C V v V V I n v N V z N J H I m V b c N m V S I m b m b c V V V U V V E g B V J V n F J G T R R R K D A G H S R R K G A S P K R R R Z A A b Y R R K R S P G K R R R R K R G G G K R L 3 3 3 3 3 3 3 3 3 2 2 3 2 3 2 , 2 3 3 3 3 3 3 2 3 3 3 3 3 3 B V V J V v ^ C E C C J U E V g E g V C C ^ J E M M N E U ^ ^ C C g E E E C U )  .",
"t y m b m m S m g g v v b S H V b n c l b m S m H A n m N H H I d j b s 3 2 2 1 2 3 3 5 3 3 3 3 3 3 2 3 5 6 6 3 3 3 3 3 3 3 3 3 5 2 b A A G K R K R K L H n V J g g U ^ U I J ) ) g ^ ^ C C g C N N N I N C H v M n H K H V H n v D V H I m m m n l n V U V C V N g M B V U V n n H Y L R R R K G D G G R Y Y K P Z A K R R | R A A G Z Y Y R K R K G K Y R R R R K P G S P R R R 3 3 3 3 3 3 3 3 3 2 2 2 2 1 2 3 3 3 3 3 3 3 3 5 3 3 3 3 3 3 g C V J J C J M E C v V U E E C B C V C J ^ J C C M N C V U / E / M E E E U C ) ( ",
"w q m b m m I b A b b c b H I H n m n x c m I S n b v n v H K m d j b h 3 3 3 2 2 2 3 3 3 3 3 3 3 3 2 2 3 5 6 6 3 3 3 3 3 3 3 2 2 3 A Z S A Y R Y R K S G A A J ) J U g ^ V V g ^ ^ g g ) g g E M N N V N V m N f v V H H V I N v m A H m m A m n x n D ^ C C C E g N N V ^ V n b I H R R R R P S G K K Y Y K K S G G P R } } R S G K S K Y R K R P K P Y R R R R P P G G P R R R 3 3 3 3 3 3 3 3 3 3 3 2 2 3 3 3 3 3 3 3 3 3 3 3 3 3 3 3 3 5 g C V C ^ C C C C C C V ^ J J V g g B E E E E V V B N C C U ^ U C N v V I I V / _ ",
"q q c c m m m b n n v x m m S m b c x l b b m S m m n A n N T H d d b h 3 3 3 3 2 2 3 3 3 3 3 3 3 3 3 1 2 3 3 6 6 3 3 3 3 3 3 3 3 3 x A Z S K R K R K Z S A A V ) g V ^ ^ U g g ^ g U ^ U J g ^ N V N J n V n N c m v I I V V m v v n L H m S v n x v V C I U C B N N N v V m v n V K L R R R G S A G K R K K K P S P K R R R R Z K S Z Y R R K Y S S P R Y R R R K P A K K S R R 3 3 3 3 3 3 5 3 3 3 2 3 3 3 3 3 3 3 3 3 3 3 3 3 2 3 3 3 3 5 B E N J C V V V C M V C U J V E C E g g E J E V V C B E V U C U ^ B N n c V I { } ",
"r 4 c c K I m m n c n c m m S I b c v c b b m m m n b D H K H I j j j s 3 3 3 3 3 2 3 3 3 3 3 3 3 3 3 < 2 3 3 5 6 8 5 3 3 3 3 3 3 3 Z Z Z Z R R K R Y S G Z G Z U V m V U / U ^ / ) ^ g g / V g v V V V n V B B z n m V I H m m v n m S S H S n n x v n C U C N N M N C J V V m b H Y R R R ' P G A G K R R R K P G G R R R R R Z S S K R R R Y R K K K R R R R R K R G P R R R _ 3 3 3 5 3 5 3 5 3 3 3 3 2 3 3 3 3 3 3 3 3 3 3 3 3 3 3 3 3 3 N E V J ^ C C N N M C J U U V ^ g g g E E J C C V N N ^ C ^ J J J n c b n m H [ ^ ",
"t q c c m S S c m v n v m m m b b b v v m m m b m n b c n H I I j c c h 3 3 3 3 3 2 3 3 3 3 3 3 3 3 3 3 2 3 3 3 5 6 5 3 3 2 3 3 3 2 A Z x Z Z Y Y K Y K S Z P K V g g U J g I g V ^ ^ V ) g g C N v v m n V v N v N V H H V H N n n m I b m m D n b n J C J U N B B N V n V H m c H I Y R R R R A G S S R R R R K G P R R R R R Z S K Z R R R S K K K K K S R Y R K R K G K R R T 3 5 6 3 3 3 5 3 5 3 3 3 3 3 3 3 3 3 3 3 3 3 3 3 3 3 3 3 3 3 g C C V C M E N N M V V C V V J V E g M E J J C V N N ^ V U I H S D n n m I H } ` ",
"r r l v S m m l c c b b n L T K V c n l n A S n m c v x n H K H c c j c 3 3 3 3 3 3 3 3 3 3 3 3 2 3 3 3 1 3 3 3 5 5 5 3 3 3 1 3 3 3 Z A x A D R L R S L S S P K I S m v I ( m V U ) V J C v f N N B J V n m v N z N m m H K V n V n V J m S m S n n n H J J E N B N M E J n H b c I U I R R T I A A G G R Y K R S A P P R R R } Z A P Z K Y R S R K G S P ' R K K Y P P P P K R Y 3 3 3 3 3 3 3 5 3 5 3 3 3 3 3 3 3 3 3 3 3 3 3 3 3 3 3 3 3 3 v C C J V M V C g M M V J N V N M N v N N J J V M C M E / I S I I H m A m m K { _ ",
"q q D v V S H c l v l v n m U I H n n l v n m H H b n b D H I I b v c c 3 3 3 3 3 3 3 3 3 3 3 3 3 3 3 2 1 3 1 3 5 3 3 3 3 3 3 1 3 3 A Z x A A K K R K P K G P R Y S I n J V V C V C V J v B v z v v N F N V v V l n n N m V m n D n m K H S m n A n n J J J J V N M M N J I I m c v J T R } R L x Z G G Y K K K S A G P R R R R Z S G A Y Y R K K K S A S R R R R K R K K P R R R 4 3 3 3 3 3 3 3 3 3 3 3 3 3 3 3 3 3 3 3 3 3 3 3 3 3 3 3 3 3 N C C E J J M N M N g J U C C C M N M V N V J J v C B N m I S m b H n N n m H ` / ",
"r q D b H V H b l l z l n m I I V n H l n n S m n v N b n H L T c k b v 3 3 3 3 3 5 5 3 3 3 3 3 3 3 3 3 1 1 3 3 3 3 3 3 3 , 3 3 3 3 x Z A G Z G Z Y K K G G P R R I S m V n m n N V ^ c J V f z z v B H V B V N v F V H H V m m n N n H S I S m b A v V L C J V N B B E V H I S c m J V R } R P A A G K S R Y S S G S P P R } R b Z Z G Y R R K K K S P K R R R R S P K K P R R P 2 2 2 3 3 3 3 3 3 5 3 3 3 3 3 3 3 2 3 3 3 3 3 3 3 3 3 3 3 3 M N N C E C J M V M C V J V V C N M N C E V C H V N V v b S I m m c b D m n H { / ",
"r 4 v v m m H v x l z z n m H H m c N c m V m H H l x b l N J I n j v c 3 3 3 3 3 3 5 6 3 3 3 3 3 3 3 3 3 1 1 3 3 3 3 3 3 3 3 3 3 3 Z A x G G G Y K K S Z S K R R Y I m I U V ( v J U ^ ^ F M M N z V H H H V V N V V V I V m v n n b m m S m V n n n H C U J V N B M B V I S S m m I ^ R R ' R Z G G G R R R P G A Z K K R } R Z A Z S Y R R S R K G S R R R } P Y G G G P Y R P 3 , 2 2 2 3 2 3 3 3 3 3 3 3 3 3 3 3 3 3 3 3 3 3 3 3 3 3 3 3 M M N V C J M M M N C J U V N N B M g V ^ I V J V v b b c m I H n n v n H m n ' ` ",
"y 4 v n m m H n v l l l m m I H n n n n n m H m A N b l c V I / s c n n 3 3 3 3 3 3 6 6 3 3 3 3 3 3 3 3 3 1 3 1 3 3 3 1 3 3 3 3 3 3 Z G A A Z K R R R S Z A K Y } Y Y I S H V m V U U J g C V g M v J J V V m J N N n K H m H n v m c m m S m V n b n V J U J C B E g E N C S m m H V V J R R R G A A A R S K R P S G K S R R R k Z Z A G P R R R K R S S R R R R P Y Z Z K Y R R 3 2 2 2 2 3 3 3 3 3 3 3 3 3 3 3 3 3 3 2 3 2 3 3 3 3 3 3 3 3 v g E E E C N M M N C C E C N M B M M C E J V J V c b b m m m m n D b n n H m _ O.",
"u r N N N V K V D F l l n V I / n N D N H V H m n v v v n n H K g g c c 3 3 3 3 3 3 3 3 3 3 3 3 3 3 3 3 3 3 2 1 , 1 3 3 3 3 3 3 3 3 Z A A K S K Y S R G G A P R R Y Y Y S A H H g c V v g v M M N V H V ^ J H J B H H J H V H n v n v m S m S S b v v N V J V V N N N B V N I m b n E H K I R R A Z G A R Y K K P G P G S R R R A Z A G G P R K S G P P P P Y Y Y Y Y G G R Y R R 3 3 2 2 2 3 3 3 3 3 3 3 3 3 3 3 3 3 3 3 3 3 3 3 3 3 3 3 3 3 N N C g E C N N N N N C U E C N M M M C E U C V n n m m S m S V m v v l m m V ` ` ",
"t w n N m V V m n H v v v N H I b n n n V I H H N v n n v S I J c b c n 3 3 3 2 3 3 3 3 2 3 3 3 3 3 3 3 1 2 1 3 3 3 3 3 3 3 3 3 3 3 D Z A Z A L S K R K G P K R R Y Y Y K A S H V N m g E M g M z N V I H V H J N V I U H V H H n v b m I m b m b b n V J V V v B B B E V m H m b D n v J / R ] S G A S R K K P G A P G P Y R P b x A A P K } K K K K P R K R R P P P A K K R R R 3 3 1 2 3 3 3 3 3 3 3 3 3 3 3 3 3 3 3 3 3 3 3 3 3 3 3 3 3 3 M N C C E C N N N M C U C C J C M v N C U I H A m n c S H I m m m v n l v m m _ ( ",
"t r B n H H J v N n N V m m I I m m N V H H H H D n b v n v V L p i g n 3 3 2 1 2 3 3 3 3 3 3 3 3 3 3 3 3 3 3 3 3 3 3 3 3 3 3 3 3 3 D Z G Z K P S Y K S G G K R R Y S R H A S S I g J g g ^ g N v V J I J V n F n V J I V I V V A n m H m I m m n v v J V J V N N N N B m m m m c c z H L J L P G G Z K R Y K K G K P G R P R R Z Z Z A P R | Z K K G S K Y R R K K K Z G K R R P 2 3 2 2 2 2 3 3 3 2 3 3 3 3 3 3 3 3 3 3 3 3 3 3 3 3 3 3 3 3 N C C J J C C C C C C E U J C E B N C C / H m m m m x n J I m V m M n N n N n  .( ",
"r r B N V V U m V n B N J V m V n v n v H H H V m H v N B n n J g f l z 3 3 3 2 1 2 2 3 3 3 3 3 3 2 5 2 3 2 3 3 3 3 3 3 3 3 3 3 3 3 m S H G K P K K S Y P G S R R R Y Y Y K Z S S H S N v v g M N B V H U J V C V V J I I V H m v N n K S m I b b c b n V V n N M N M F m m I S b N x V V L J R G G A K R R S P G G G P Y Y | R G Z G Z Y R R R Y Y P K G K R R K A K A G G R R R 2 2 5 2 1 2 2 3 3 3 3 3 3 3 3 3 3 3 3 3 3 3 3 3 3 3 3 3 3 3 3 B C C U C N N C N E ^ ^ C ^ E C N C C I I K V m n n N K S m H n n N N N M S `  .",
"r r F v N V I m N n N n H H I V m N n n n V H V n m D n D N n I c i p z M x V H V I V N 2 3 3 3 3 5 2 2 3 3 3 3 3 3 3 3 3 3 3 3 3 3 v S A K P P Y Y A K P K P R R Y Y R S Y S K K I H b n c V n N N H V U C V m V n J I I I V H n D V K m S m m c v v V J J C V v N N V H I H m b n c N C U H P A G G P K Y R K K K G P R R R R Z Z G G Y R | R K S K K G P R R P K K A G K R R R 5 2 2 5 2 5 2 3 3 3 3 3 3 3 3 3 3 3 3 3 3 3 3 3 3 3 3 3 3 3 3 C E U C U C N C N C ^ U U C C N N C J H I V S m n n m I I J H N z n M D D N { ( ",
"r w F n J H U C N N n N E J I I b D N v V H H J n v n D D H n J v p f v l z m H m I V V H V V U K J N F b 3 5 2 3 3 3 3 3 3 3 3 2 3 V I A A K R R R P S P P R R R R R R S K Y m J N V C v v v M V m J J I C V N m v V T U V m H n n m I m I H m n l v n U C J C N N v V S S I m c l x l J J H ( b G A P Y R K K Y G G P R R R R S Z S K Y R | Y R Y K G Y K Y R Y S G G A S Y R R 2 2 5 2 2 2 5 3 2 3 3 3 3 3 3 3 3 3 3 3 3 3 3 3 3 3 3 3 3 3 3 J ^ U U C C C C C C C ^ C C ^ C M V I m I m m m H D V J I U H H n M z b V H ` W ",
"w r N v V U I I J n F n J I ^ I v b n v N V I V H v v B F J c H v c g v z c V I m V m n V H H J J H D F M M M N C U C ^ J B V 3 3 3 c n A K K R K R K S K G K R R R R R S K S K U C v V s g g g v N H V U U I N N v m V H K m m n m n H S m H m b b n V J C V J M N m V m m I m b b l l n B W K A A A P R R R K P G G R R } R R A Z G S R R R R K P G G P R R Y P S P G K K K R R 2 5 2 2 5 5 2 3 3 3 3 3 3 3 3 3 3 3 2 3 3 3 5 3 3 3 3 3 3 1 1 C C U C V C C C E N C ^ U C C V N V m S I I m m n V H I I I H V n N M A N H ` ` ",
"r 4 M v v H I V H N n H J W T ) V V n v n H I I H N v n D L H S v N z M x v H T n J m m N B V J H J V H M M N n V I V ^ W n N N U I g N Z G Y R Y R R R K K P R R R Y K P P G S m C v V N N g g c g V V V V V n n n V I V H m V n n H H m H H b A l A n J J J V E N M V m m S H b M l v V J N H A A A K R R R P K P G P R %.R R G Z K G P R R R Y K P K K R R R P K K A S K Y R R 2 2 2 5 2 5 5 3 3 3 3 3 3 3 5 5 6 6 5 5 3 3 3 3 3 3 3 2 1 1 3 C E ^ ^ U N C C U C V J I V U C c H S m I S m m n n H K I H V n v n N N H V O.` ",
"y 4 M M S J V m n v z n H U U U n V N N n L I H H D N D N E n m m p f v z v n J n I m N N V V I I J N C z M N J U J H F ( F H F C U v v Z A Z R K Y Y R G P K P R R K R G S G P J I g J V v v g N n V m g V V V N v V H I m V V n n H K H S I m F l n H I J N J C B N n S S I m b b l c N V J ^ H G G L R R R R K K G G R | R R Z A K Z R R R R P K G G K S R R R R P S G R R R L 5 5 5 1 5 2 2 3 3 3 3 3 3 2 2 3 5 3 3 G A v J g B ^ C C C C M C C U C J V N N N C J J C N N C v n m S I m n n c n m J H J m V D v v N n V { O.",
"y 4 M N n I U J n v v N n U U / V n N n B H H I H N n F F K F m n c l c x N H J n V N N n H H J J J B V z N B J U U L F J N N V I U M c b G S Y R Y Y R K P R R R R Y R P P A S Y U N N ^ g g U N v p g m V V V v D n V I m m m n n H H b m I b m D v n J H H V n N D H S I H N l l c l v n V F Z G K K R R R P P P G P R R R R S A G Z Y R R R R R P K Y R R R Y R P A G K R R R K P S A P R R J K T G L K L R L R R L S Z G c M C ^ / C C C N C E C ^ V V V g N M C U C N M v c b m m I S n c v v v m m H H F F v F H J J `  .",
"y e M B n N C J F V z n n H I / m V V v N m H m V n V n J W V H n f p v l n H U m H V D n N V H U J n V N v N V I U J J W v B V J ^ n H h N Z Y Y R K Y K P R R Y Y K R K P P G U ^ ^ N C U V g V v v V m g V V N v B H V m V m v n m m m m c Z b x n A J V V m V v D N S H H A b l c v b V C v Z A Y R R R R R P P K Y R R Y Y Z G K K Y R R Y Y P K P S R R R R S P P P R R R R K P G A S K R T T R G L G L L Y K K R K G A N g C E C U ^ C B E J U I J N N C M v V U U C V v c b b S I V A l b v V H J H S n F F N J U J { ` ",
"u 4 v N V V V H n n v N m N U I n n N v V H V I H n n B L U m I m M g v c N m U m I N V V H D J H J V N N N N n U / U J E B n N V U V V g ^ g T I R R T K K P R K K S R K G K R K m U ) H J n N M v d g v v n z c v V V H V m n n m m N m m b j n b b m I m m m n b b H H K H H n M x z n F / J f H H R Y R R R Y Y L ' ' ' L L k A G S R R R R R Y R Y Y P Y P R Y Y G P P R R R R R S G P R R R R K K G K K K Y Y S P G S G P p C U U C C N N J V ^ / E B E B M M V J J V V v l c m S I S m v v v n H m J m n N m V J ^ J O.O.",
"u y z N V V V V N B v B V C I ^ b H F N m m I m V N H D F J m V n b g v v N m J m H m v n F J U ^ H H F v N F F K / L W F F N H V U g I V ^ V U I T T Y A K G R Y R K Y K S S S Y I U ) ^ N C V n v V v v n F v f v m I K m H V n n V K S S c c v b d m S I S m A c x b b I H m b n l l b A J J g n A ! R R R R Y Y G ' ' ' R K Z A G A R Y R Y R Y Y P Y R Y R Y Y Y G K P R R R R P G A S K R R R K P P G R Y Y K R K L Z K P p g U U V C C N J V J ^ / B B B M M C V V V m v l b n H H S n n N x v H V J V N N v n V J K ( ` ",
"p y v N m J J J v n v N C I I I b n H n N V H H b H F n H ^ m m c d c v v V J H H H H n v N J U U J V V v z F J ^ U J / N N C ^ U U g V V ^ V ^ T R Y Y K G S R K Y Y Y S P P K Y T U I I J V ( / v v C c v H N l v m V V m m V V c n H m H n b n b k b m m m m n b c m m S H H n b z b n n F J v J H H I I R R R K K P } } R K k Z A S Y R R S P S K P R R R R P Y Y K R R R R R R P P P K R R R R K S K P S R R R K S G A S P m v v g V g N C C V C J E C B g M N C U V m V A s b m S I H m n N D n J I I V V V v N N V V ` ` ",
"y e N N N V J J v v N N N U U I n N V F V I H m m m N H D ( m V n c V n v n I I m J V v N N H J J U V F v N N J U U ^ ^ N B N E ^ ^ m I V U V V U R R T K G P P S R K S K G A R Y I V ) ( J ( M J m s V v g N v z v m m V V V m D v m I m H v m v l c m S m b m m v v b I S S H N z b A n F N H N V n H S K R R R R K P ' } R R Z K K A R R R K Y K K G R R Y Y R P K G R R R | R K P P A G K R R R P S G G P S R Y K G G A G P k I g C C C M N C V V J ^ E E E N M C ^ N N n n s n b m V m m m v N A J H I V N N B n B n H  .( ",
"4 i M N N m V C v v N N J V / U c m m V D V H V V n n H F L K V m v c n n n S m m I V m n V H V / L J F N V V J I U I H H N F J V U m V V g V U J T T L K K G L S R K K S K A R K Y Z m J / J J J g E f c g V N v N v H V m m v H v n H m m m b n h b n m m Z b b n n m m S m H D n v v V H ( F v m / J V U K Y R L G P ' %.Y R Z A K A Y R R Y Y Y G Z K P Y R Y Y P Z Y R R R R P K R P G S R Y Y K K G P P P R R K K S G G R Z Z Y c g J N M g E C J C B C B N N J J C n n n x c m n T m n D N D N U H U I V v N B C N N { ) ",
"e y M B N V I J v B n N V I U T c V V F H J H H V H n N H U I H H v c V v n J K Z V v V n N V V J I J F v v V F C C J F B v J L U U g U V m V V V ^ R T G A K P K S K Y G A K S R Y Z m ^ J ^ J ^ V V f v f N N v B N K I V m n B n S n m m m n b l c n m S S m b b v b m I m m b N v v m H I ^ c v V V m K H Y P P P P ' | R R A Z A K R R | Y R K K G K K Y R R P P G K K R R R R S A S P R R Y K K K A G S P S Y K G G G K R m Y I S n v N M J ^ C ^ E B g B N C C ^ J N b n x n n m H m n m v N n T H I V V F N N H H V  .` ",
"y u N F F V F J N z v M N V I / c V v H m H H H S H n D V U I H m b m F v n H I H V m N N D V I I U H V N v F L U I H n N v B H V U V V V V v J n U U R D G K L K Y K K S A K K Y R I m J m ^ J g C C M V d J N v v n m H m H n n v N H n m n D l x x b m b S m v n n n m H I V n D v N n V V U v M V V v V V S S P G K R } Y K K Z S K R Y R Y P Y Y G P K P Y Y K Y G Y R R R R R K G G S R P R K K K A G K K K P K S G A G R Z S K K n N E g J J J ^ E E g E M N C J J N v b x n m m H m n N v v D H V I N V v F v n V H ( ( ",
"4 4 z E F H H H v N D v m V J I c n n V V m H m N H N n m T m m m c A n v V V H H m n n v N H J U I J C N v F J ^ ^ V B B v B C g U m V V ^ J v g ^ N T G D G P K K Y P K G G K I Y S m ^ C ^ J E g g V N n N N c V N V H H V m A v v m m n m n v l b v m m n m n n b m m I S H A n n H V H H U V V J C N V J V S G P R R } Y R S Z Z Z R Y R Y P Y P G K K R R P Y Y G K R R R R R K G A G R R R R K K P S P K R R R S G A G L S S Y S V E C V C g U ^ ( Q g g M N V V H H n m h n n m m m m b n D N J H H N b b N N B V J  .Q ",
"y 4 N F n J V W v B N v N H V I j n v n D V K H m V H v D H m m k j c b v n H K m H n n n n K H I U N N D v N N ( ^ J V V B F H V U m V m g v J g C V L P K G R K Y Y Y G K G L K R S S g V U V g ^ V V g J C N f n B H J H N V N D M n n A n n b z b x A n V b b n x n H m S m m n n N H J H V N v v B B N V n H S D L P } R K A A K G R R R Y P K G P R Y Y R R K R K A L R R Y Y L K A G R R Y K P Z G K R R Y R R G S G G P Z Y S S S Z k H C g E V E E g g B C N C n m v n x m n S H m m v v n n J N K V N z M N D N V `  .",
"4 f v F H L J J z D v N B L V ^ c n m n n H I H m n n b N L b m b c c c x b m S H m V n n v m U I H S v v N N H I U V C B F F V V I m V J v J C N V V N F G A G Z Z Z K K H G R R _ K L v n J J M E V g g ^ C C v N n I I V H V z M b n n H n n z N n z S H b m b n b n m m I V m H N n V I U F c J N V c V ^ V n n H L ' ' R K K A Z K Y R R R K S A S K Y R Y R K Y Z L Y R K J R K K K G K R R R P A G G P R R R K K G G P K Z Y Y Y K S n N E C ^ g g V E g N V C ^ V v b H l n m H J m H n v v n m m H N n N N v N H V `  .",
"5 y n F V K J J M N M v V I H I c V n N m m H I J S n v n J K S b j c j c m m m m n m m c V n H J V N D v N v H C U V C N B J C V U g V V N U C V g V V v A K K n S Z I H G G L R } Y K n V E E v v J C g U J V v N m H I V m m v N l n c m n N l l b x m m m H n n z D m m m V n F n n m H K J g v H n V n m J N v N L R | R Y S A G S Y R R R R P A G K Y Y R P Y Y G L L R V J L K G G S R L R R K K A P P P R K L K G G P R S S R S S Z m V g C g C ^ ^ g g g n C C V n c V x n m m H m m m v n v J c V V v z M M n V J  .( ",
"w t N J V J J U N N b b n J J K d c n N b m m H I A n D n K H m m b c d c c n S m A n m n n m H I H m n n F v N I I V V n B B H V V m V g C C E C C J F N G G G n H H H H H T L Y R R Y J V C U V J J g V J V V V n V V J V V N n n z n c S n n l l M n n m m V n N x v m I m m m H n n V J I U C n J H m H H H D D V m K R R R S K A Z K P R R R P A S K K R R P Y Y G K T I N V ` P K G L K Y R R R S G G R S R R K K G A G P Z Y Y Z A m V v N V E g E N C E N v C ^ H m c m l b m H K H n N M n v I n V N v z M M F n H .. .",
"w w n F V U U ^ n J v v n U I V h H v D m n m m H m c A m J J J V m N z l h c H c b m n c m H H S I V m v A n H U I F V N N F J V m n V V M N C N n g N V H D J H K Y S K H D V I R Y Y I I v V v V n g V J V V n B H J J H N v n N v D b v m n b l z b m H b m D v b b v D H m n N v D N H I C V V N c K m V H D A G A R R R T S K P G Y R Y R P Y G K K K R R Y K K A G K m J I J H R D P T _ R K K K G S P P R R L P P G S R Z Y R G S S c v E g g E C E g p C g J J J v c m c v m S H m n H n A M F m n V N M M v V V I O.+.",
"w w B V V ^ J U N V v B m I U m s n l n c m m m m H c N N ^ U U V v C C N N N n b k n n c c S S V m H V v n N F H J H H N v B H J n m m V v N ^ N J M V N J L H S Y H K K J K R R R R T v v V V N J V J n V V V n N V H U H D N M N v n v m n v N z l M m m v m v D N N n V V m n n b F K U I V N n V V m K K S A A A H R _ T T Z Z G G Y Y R R Y K P K S K Y R Y K K K K K V V N V ^ G G P R R R R K P G A S R T Y K K A G P G Z K K S S A m c C V C g C / ^ C M s C C J U m b n b A H U m n m n N n F V n N v M v N N V H O. .",
"y r N F V C J U N n v N N H V n s x b v c m m m n F N N N ^ V ^ V V C C B J E J V b m c c c m H H H m n n n V V J I N V F n N n m m v m V v M J / M U V N I ( V I R R K H G H S R R R R n g v V V V J I V V V U N B H J U H D N n N v H n H N V v n c m m V m n v n b D n V n n H v l n n H H V g V U J H H K P G A A D Y } R R S K S A R K R R P K P K K K Y K Y G K G S H K m U I V ^ G T _ R R Y R G G P S P K P R G G K R K Z K K Z K G A s V g J E V V J J ^ g ^ C J V I b x n b m U V n n b D D W F V N N N M v B H U @.O.",
"y y V J V I J K N N z v n I K n u c v m b m I I ^ C C B V V N V g V v N B C E J n N n n c h c m S H H n n N n H T J H D N F D F V n m V V M g V J m N C N N J ^ K R Y T K A K K Y [ Y T U v V m M N n I J N V C N H J U ^ J D M N B F J m V n v n v v V m V V V n v z N H m m m n v v n n ^ V V N V V V L Y L G H G G K R } R R S G K S K Y R P P P G P K K S R Y G K Z A ' H V ^ V J J L T L R R R G P S G R K R R R P G P R Y S K K S H G A v E V C C g C g C M d V m V V m g x v m m S I b n M N D J L D n n N N N V H U #.+.",
"y i B F V I U J N N z n b B H n s h l b b b V U J V N N B J C J g g N N M U ^ ^ C C N M n v n n m I m m n A N K H I H H N N F H V c m v n V B c ^ N v V J V ^ I T T J H K H I I Y T U m ^ g g ^ V V C ^ I U C J c C C I ^ U J M v D F H H H V F v N l D m m V I N N v V H V H n v v z D N I U n v C I U V H U L H D K K L _ ' L Z K S P P R R S R K S G R R S K K K K m V V ^ g J v U V I / I R R R R R P P P G R Y R R P P P P Y Y Y S S G A K G F V n V U V ^ V N J n H V H x j c m m S m V v b N D / I C N C N v N N V H @.@.",
"y w H J V V I J n N b v M D K n s l h l x F V U U V N N N C V C C M N N N C E ^ U C M M g C V V m S m m n m D V I V H V n n D J m n m m V m n N N V V m m v U I S T U _ K A K I T Y I V / V V g v V n U V I C C N C V I U V U H v v N J V V V n N n v H H V m V N N D F V V H V n v z v v V I N m V V M J U n L H v L T J L R T S S Z G K R R S R R P K R R P R S S H n C C ^ V U n m V V U J T R R R K S P G S Y R K R K P P P Y S Y A Z G A K H H U J V V V J V g U V J n n h v v m m K H H n z v n J I V V V v C N v J I O.O.",
"i w F F V H H J V H N z v H U m l l l x v N J U C B B M C C V ^ V V g N N C C U ^ ^ C N v C E E I m c b V n m H I V V H n v F D H n n m V v v v V V N V J V ^ U m U V H m D U I T I J g C g g V g J V / V J V ^ v V J C I J C J N F V J V H V n N N v F V V H V H F D J J V H m n b v N n H I n v V ^ U V J J I N v H J / U R R S S G S R R R R R K K K R R R R Y K I V V V J g ^ v V K V V C U R K P S A G P S Y R R K P P P P S Y P S K A Z G I N J U ^ J U V J g U V V m A h c m b m V I V S A v n L H N V N N N N B J U =.O.",
"i i N J V H V J v N z M D H U H s b l x N B H V V J B M C C U ^ V M M M M E J J ^ ^ ( C v M g C I H m m n n m V H I I V n N F n m n m m V n N n m V J g n n V V C V J J H V V V I U V C C E V g n g n ( ^ J V C c N F I U V V V B H F W J J V N N v N N I V V m n F N J H I H V F M v N V V H m n v V N U U I J L v F b J { [ T S S G S R R R R R K P P R R R R Y K H C J g V g V J v J H V ^ n R R K K A G P S S Y Y K G P R K S K K K K K K A Y m v U C J U V v g J V V N m h x x b m m m n N v v N J H m V N N N N H I I @.#.",
"i y F F V H H U M N b v N S J S s b v M M n J J C C E M B N C ^ m v V g N N E C ^ V ^ / B g N N V V V v n n n I V H J H A n N n H m m m D n N n m C U U V N U J J U C U ^ ^ g U U J V J ^ ^ V g v d V U U U C C g v n J U H N N N N V V I J H N N n v H H V V N H H N F J J J V n N n v H U J V n N J V ^ U C v E J n V S T [ R G K K P R R Y Y R P K R P R R R Y K K n V V V ^ J ^ v J N H V H Y R G G G G R Z Y S K P G G P P Z Y R S P G G K I K I V C J V V U g ^ J V H n h v n b H m m m n l v N J n n n V v N v V J I +.O.",
"i y B H V V V J D N b v H H T V s c v N C V m J C J N N E N E ^ v V V N M N C C U C E C E E E N n J V C n c b m Y T S H D N n D I m b V N n n n n C n ^ U v ^ v s J J ^ V ^ V V m J J V C g V V g v g U V V U C M V V V / J V n B V H J V V H V F D v F H H H V H B H J H H U m N l M N N J I v V V V n V J C E J F v H K Y [ R Z S S G Y R R K R K P K P R R R Y S S n V ^ V J V v J m U U H I K S R S S G G K K K R S K P R P Y K Y S K S K P Y S v U V V J J v g V V V m V j v b A H I m m n z b v K H V v n n V N V V I O.O.",
"i i N N V H V V N N v N m I / H c c M N N J N J C C N N B M N E M B N g N N U V ^ ^ J C E E ^ E n g m V N v m m m I K n D v N D H m n m m n N n m V V n U M V V V v n C ^ J U J J J ^ J ^ C V V g V g V V V U J v M n V ^ I V N N V C U ^ J V V N D M B J U V V H F J J J U / n N N b N V U V c n m V J V V v g J ^ V n H Y R R S S A Z Y Y } Y P K K A S R Y Y T K H N ^ g V V C ^ v ^ V V J I R K Y S A A P K Y Y R K G P P P R Y R S G S G R Y K b V n J J C ^ v g J J H S c m v m m H V m N M M N J H H v N N V v V I ( O.@.",
"i u N B V V H H n F n n n I U S c m N C M J V V U V C N M E Q C M g E g N N U n J C J E E E ^ ( / m g g g v v b b m H n D n n n m m m b S v N l m C V C N J g J V U n J g U J V V V ^ J ^ V C V V v g g g V I V N J n N I V J C M N N C I I H V N N N B J I V V F F N J J ^ L n F n N M I / U b n v N n ^ U J U C c v H K V J N m G S Z Y S R S K R K K G P R R R L S H U ^ V J V v V J U U V U R K P P P G P A R Y K P G P P P Y R R P G P S G Y Y S V m C g v v v ^ J J n H h m b H S H K n n b D M H V V m N v B V N J I O.) ",
"y i B J V I N C b F N b n J H H j V N B N F U U C E B B N C ^ C V v E g E M Q N V V V U C J E ^ ( C M g M N C M m m m m m v n m m m Z c d m v l n H U J J V C g v J V V V v J V ^ J V V V J g ^ v v g N g N B V v J F V H I V V v B N U H U V V N C V V V I V V H F N J J / { V F V B N m _ ( m B b N b N U C N V v J m N ( ^ C n v S n K K } Y P P P S K S R R S K H J n V I C ^ v ^ g J J ^ / Y K L H A G P S Y R K K R P R P Y Y R K Y S P P R I I U M B N C V V C J J m I d b b S S H m m c v N v I I V m V B N N n V I =.O.",
"y y N F V V I I v n N b n H H K d M B B N C C J C N E B E C E C g g N N g E E g V J V J C C E ^ ( ( C g g f M E m m m m m m V A m c b b c m n c b V C g V v N ^ v M g g v V V m J U g J g ^ C ^ V N V M g v V v v B H J V V V C B N n J J I V V N M V V V U I V F H B V H I / V V V N N C J U m H n F n v V C V E / V v g N U J g N n A S K R S K S A P S Y Y Y Y K S m / V V V V / U C U g g C T K L G A P P S R K Y K S P P P R R R Y P K G R R I I v V ( N E U v ^ v V V I c n b V m I H n v N v m V V V n N n N N n H V O.{ ",
"t y N J C I I J n H N n n m S H c N B N B V J U C C C B N E ( E v g V g g N / M J J J C E C C ^ ( ^ Q N M v f N I V m m n n m c m m m m m c m v m m V U V v g U U g M V V C C V V ^ V C C J g ) V M g C v s N N v N N V I V v H H B V J I V C N N N V J V V U V H B B V I I / V H N N N V U { c F v N N V H J C N v N C N E / v v n J H S L R K K Z A G G K K R R K S V V C J ^ v ^ J J J ^ V U n J L K A G R S R R Y K K P R P R R R Y R K S P R R T N g g N C J V ^ J H m H n m b H H I V m c v v m V V I V N B v v F V V O.O.",
"i i N J V J / U n N n n H H S H l N E M N V C U C C C B M E ) C m g M g E N ^ C J C U E E N E ^ U J Q E B g f v V V J m x b b b m d m m m n m c n n V J v C v N V g V g ^ / g V C g ) g V V C g J v v v c p C M M N n V U U V v B N H J U C V N v v v V I V U U J J N H ^ I U V F V D F H U { m V D N v V V H J N v N V C ( V ^ V N N v S R R K P S G S G R Y R K K K S C U I J V g J U J J ) ) H n L G G G R S R R Y Y S P R K R R R Y P G P R R R I V V E C N C C ( V V m m c n S H H I m H n b v N m H V V N N N N n N m { ` ",
"w y N F U V I H n N n v S H H I g v J B v N U C N N M C M E ( ^ g M M f g E E N J n U U E E ^ C U U C ^ E E f f n V C V b n A v S c m b n n v b H n H H g V ^ C v V U g g ^ V g ( V V V ^ U N V J v N g v C V M v M V V U I I M N N J V I I J N n z v V I J V U J V N V U U / V V n N N V I ) n J V J v n H V H D n n N N H L V n J v n K K R Y P G G Z S R Y R Y S I n V V V J U J V ^ n U U C ( b J S G K R K R R R K P G R S R R R Y R G K K R } Y S V V V N C J ) U H m I c m m H I H H D n z v n D m m V N v N n N N J ) ( ",
"t r N H C I U J n N n x n H H T v M C E C V C ^ V C M C M E ^ ^ g M M f E g E g J V J V C C C U C C C C E Q Q M v n V V v x A x m c Z m m v b b n m m V V V v v n U V m / V V ^ J v V V E v U J ^ U v C M C V g c m V V V C C N N B J H U J J N V v n N H J V H V N N n U V ( m B v v V V I / n m V B D N H H I H n n N V H T m m b V g H Y R K R G P A Z Y R Y R I S m V U J V J ^ J J C N ^ C C J J D S K R R R R R P P G R S R R R R P S L Y R R Y K n V N C C J ) U m m I b n m H H I H n v v n c V I V I V v v M v n m O.{ ",
"y y B F H H J L n J c v H H S I M C M C V V C C C C V N E N ^ E M M g f M g B g C V C C N N C V C V C C N C ( ^ V v M V v x v x Z k b b m v n n V m m m n v v v v I V V U g v C v ^ / J C J M V v M M M f c B N z N V C I J V V V N J V U J J v M z v N n H V J V n n v V m U V F n N V I U _ n H N N n n H H I H n A n V H / m m n J v N H R S K G G G K R K R Y I S b g J C J ^ I V V V n H ^ H H m n K K Y R R R P P K G P Z K R R S G S Y R R R Y K M M C N C C ) I m m m c m b S I H H N v v v c n H V J F F N v M m N  . .",
"o o X + o * @ * X X O . @ @ + * o $ o $ $ $ * * * $ o o $ $ = $   $ $   $ $ & o @ $ o o o o $ & * $ * $ & $ & = = @ X X       X X . O X O X X X @ O @ @ X @ . o X X o @ @ o @ @ * . . = . & @ o @ o * .     $ o   o o o & @ @ o o o o @ * * * $ X   o o X o @ o * o o o @ @ @ . $ . X o * & : X o + $ X o o * @ + o X o o # = + X o + . o * ; - ; - + - O ; # - - O * @ . . & & & @ & @ @ . o + * * + + O - - ; ; ; - - - - - - - - ; - - - # - ; - - # * . . o * = * # O O @ X o O @ # + + + o o X X o o o o o o X o o o @ o c "
};
