/* XPM */
static char *result[] = {
/* columns rows colors chars-per-pixel */
"256 256 70 1 ",
"  c #917346",
". c #947847",
"X c #967549",
"o c #99764A",
"O c #967A4B",
"+ c #9D7C4C",
"@ c #9D7E50",
"# c #A27E4E",
"$ c #A37F50",
"% c #9E814D",
"& c #9E8151",
"* c #9E8852",
"= c #A3834E",
"- c #AA844F",
"; c #A38A4F",
": c #A8884F",
"> c #B0874F",
", c #A58551",
"< c #AB8653",
"1 c #A68954",
"2 c #AC8B55",
"3 c #AE8758",
"4 c #A78B58",
"5 c #AD8D59",
"6 c #B08752",
"7 c #B38B55",
"8 c #B98E56",
"9 c #B48E59",
"0 c #B88F59",
"q c #AC9256",
"w c #AE925A",
"e c #AF985A",
"r c #B39157",
"t c #BA9057",
"y c #B39857",
"u c #B4925B",
"i c #BB935C",
"p c #B59A5C",
"a c #BA9C5E",
"s c #BCA15F",
"d c #B69660",
"f c #BD9660",
"g c #B69C60",
"h c #BB9B61",
"j c #BDA263",
"k c #BFA568",
"l c #C1965E",
"z c #C3995E",
"x c #C99B5E",
"c c #C1A35F",
"v c #C19761",
"b c #C39A62",
"n c #C99E64",
"m c #CB9F68",
"M c #C2A565",
"N c #CCA166",
"B c #C4A866",
"V c #C8AA67",
"C c #C2A768",
"Z c #CDA268",
"A c #C5AA69",
"S c #CAAD6A",
"D c #D1A366",
"F c #D2A569",
"G c #D4A96B",
"H c #D9AA6C",
"J c #CEB16C",
"K c #D0B26E",
"L c #CFB370",
"P c #D3B571",
/* pixels */
"57:r2u5u,17r2,uhO2,222u51522=ri9&,2;72r5552,2q,5p552222rhpr592r21&51==:=<5d9wiu222u,4,7r29ui5uu975brh9u227u359u2:625259q22r5w55u972,au95i727uzb2522-95udu577r7iuu5i,2ud5u,55l0lfbf83680ibfif66600ff<0886ivvf087$89i0i96000vb093<80bv9f0803iivf08<7<03d95222r1443",
"2::259uu222222pa,22222uw15:=:2pp,2,,2rr1u52,:2225551222,w5r5r5i;,@2,,=2;rd552ri2urf593r7r5ihu5u22rd59uf32:qi7522::=wp9uu72uaddd45223p9h5p2:22ph55772,249uir8rifd59575rhud4516iifn003<00ibff96670f90<700<30f00676<3i90f<0b0lvf0867lbbv9i987vi0088<6083954=2,wrwrr",
"y2r745,p,225wudf,22725w5r2:225hd151%,9wwpr5,-2=51192325phdu57282w&5%,=r,94uu95t225p27552755d91u33995p5r-77riir7u7ru5u455q=3r5ddr22,rpdd4u97279p<72:72<w,99ur1fbhuu,325a5uuw26i8vbff6<7l0v0v7760<b9f37786ifb0866-0fvf9088v089008680b0f08386ifvf706-0<9351=r2i9uwp",
"9rruu94i,=;2,5uu+y2q2qr5rr2:25ud@1r,29p5w22,=5q5w11,y23rhd5,qrt;r&,&,%=,p5d9r2p757f5r2i:49fb99,71uu5ui7--:5upt5r23923d4322353durr,2q5df<u;:25uf,2r7:53h99519<4hd23u127u2455w70ffb0f7#80bbvi06666fvf800t689fv78l$<0f9v80<00iv90688inbni3788ffmvi66$i<089<q=2p55p9",
"5r2rrr5p+2=;45df&22r,4w55u7r2qd5&%212qrwhwr2%,w25452r22wdfr5r:t22&112=2=u55d55u255f5ruu65<hhii>r29r55fi132<uu55irtr4599,2225p5942=315dd9u22795f<rrr-72599122<7au25<,,5i5w15,rtfvvv06$>6ibvvi6>$660v8vl7699vl8l8><<f9l878000f900668ifbbi<893fvvv986b6vfv0,21ww554",
"2r2u5ura:=2:12up%12r3,d5555222uw1%272rp1uu52==2ww5w112,2druqr2y1w&1,21==55uur9t=345459rt<5fhpur272r39ra27,5ufu2utrr59dp4==,r9uuu722790f4t2rr75d@57r-7275u7=-rif9,2222<54u542798fifi68><0f3fi8>>6i9f3988-88vl88l6<799i006889f980838v9bbi<07f0fv08>7i9vvfv2,,rwd5u",
"2r2awuwh22=2115d%22y22ww2121=2r51&11%5u4wwq2qr22uuw15rqwuw7w2:r:2&,,22;2545545u25,d<522772dM95r982u4d9u,72295r527ri95dr9--5wud952221d5h55272r5u,27t:r7p9i71=<phf52r122445455-<8ii9078-7if80n87783if300l<09ib87773997vlz6873097788iffib0$67dfff086687ibfi7=55w4w5",
"2,,y5uuh22,,r55w%2=q12552,qq2qau1%,=21u,r2,2=215u55&2,5udwrq2rr2w,4,,;2qu5552rr552durw2,7,4f9u5227tw5ff,r75uu7u3u3udh54r,r2td4u52=1,uuu,72:<uap%,2222ruutr2-2idd311=27w,w4,77>8ivf6<6870f0086><799i$900<vfbx8>l86fv0v00689f090v8tii9vvt#6330f9l<767<9if0t=9ddw55",
"22=q24uf1q;-242p+3q2=r21<,22w5dw&,u,b08o$35&,,745w2,,,r2hwrp9rr4d@5&51,,wu552q:%,5w5uuu=521u593r955d5ua+t2ufuu9ur7rrfuu0725iuu3,--r255h3u2:73ri25;272uuda37:=7rdu5w222p,4w278089i0067768l70v6>6l9ii$880<3fbbbb00<39i3v08l0vf9<l080b0ilb$7668f93#66<<i0b0i-<0bdd5",
"7727455f2r::5r5p+12:,w54<<==2uuw&*<#i3<0$88+4$0fdwu27509fuii7tr23,41122,55uw5qt=,154r32-2r95r22=25u3drb,2:r555u99rtapdud27u5uaurr=:29uu,a7;73uh,972299duir2r7upu5,,=:,f1w237<680f308678786308868f0f<38z603iv90l8<9f000f8l39vf668780fvlm688bbnm0$<6$99f0it<70ibu0",
"7t8tiiff7t727fif#127r7p5<0u72,fu@<0<$f07v@i+$<<$ff06720lbfvlltllv339<25=w5uu222%34u5r5:7295uu772<7u99ui,rr2rr3r2227pd995,=i5du53t-729wh3a6=t9pf4tu72rp9u53=739hdr22%=2q4u50t6060f08<6680b00066779vv38688000988l8<0b908088i0il8608lbfnlb7l8ffmnf868$0fif08-079vfi",
"tt8iiff0986><9bb687799iu933$i=38,#<n8f9308if0393<fl<9680bbbblll8i30730t7uuw5qrt=2ud4uy72249455ur5,94d5rO2=r79uu535ir0dd9r=urffu2t:22ipf5i<=:2df<uu5<u9ud15;2,45d422==2r1w508-808i903l68fb8i0876990v996808fid068l<3f09388llb0v07880Fvlnn<883ibbf086$$9fi976-i30bi",
"988t0fvn8itt00bZ,i07llff9b7773f$$,<@<0i<<v07v338,#<<8778nfilllx8f996i686ifbu522%55d445r2,5uw252=7=3rr55=--5uuud7r299wfp9r19ifud5rr8225p<72==2iu4q52:7r5dr22y2u59q,r==wd,w2i0678v0007<680b9008060fi09876l8v93088l<9v980<0lvvfvv3<80nvbnn787i0vvf786<$ff09t6768ff9",
"976t7ffv8t86i9fZ80886f999v0b03b6<1<<836<383ii<983#6+777lvff0tlx8b9f3868<ifbflir%rrdw155675uauur-2:5wi5r-223uu592727ud9iu917u9uu055r7uubur2:-1rf,3r722q551222+rr54,,%,1u4f906870vfvf87<68b9000$<79i9070<83ff73668<0f08t6668if00l86vbvmfm8llifvbf8866$9f08l7680f00",
"886i0ivv7i880ifb6it80vi99nf0v0b8$if0fimi<i<0007v8$<+<7<iffil8lxtv993367,0fv0ibl#5dh5d51;25q59w9=1,25p32:275rq353u795hduur2truuuu26r979fu7::-55p525:73u5u2,2:,5dw,1;+,qi9bii7670vfif06688b9f7t>669vf9866660v68667$7f37086<0if0fl07invvnn88llvfii866$<9fi686600ff0",
">l>l99fn6lt0bifn$07l0iff90f8v093677339iniviv3biv$$$3766iifii8tn9b9f8<803f0f080z6rwd5d5=-2,951,25-,,4u,7+2=9a95250u5599wt95iiafbu<262rud972-179u,r27;3pdrq,25,ruw2,=%27b9v079676ff980l68lv90il-8t0i097<6i09v86868$8vf<30l0vfi0f808vbbvbn<80lbb0<36<<$0ii088$7f0vb",
"8870089b00l8lvfZ9087l89f0039vf$<vmm3v90vf770i0bn60398760ifvvflz8i3i309t68i006ll6iff5r22,25wur22r2=,4r5p#2=iuu92=7721iuuiirui0uf9r2iu5uu0r8-93ud$2722,5ru522:27rw497760v3b00i66<0f0088879b88ll768vfl0l8$l0ivi0i7>#80v678678vf9i080vmvb0n8l$lvvn8886$#79900060099v",
"iz8xlv9bi06zvnbmii880i00vf038<v9$0$90nb0m39fbi0m08<@8880f0990bb8i<f<<886if0f878$<9mfdy,2,455ru2:-2,2527#-1tpfb727y129ffrutiuuuhf6270ufu4r7::2uh<5ur:5wp5555=yrfh300787f7vf8i66<0903<8708fvfi8<669bbv88>6<30070x8#63v8376l3f00f0700fvnlF6z30fvnv786$#3398088ziivi",
"6ttlbifb30<08vbZ300809i0300bfi08@v99nFm$bi830ff90b$88607vv988lllf3ii3$l$v09f8lz#7fbfbr2==,5uupr:rr21r5u=1-5udu95r72,55f53riuff9ii77<ff99r77:3rh422725idur55200bf99i37ib3f7008807ffl<660vfblll>889ifi>l6l<99806lz-l8008<<8009ff9837bfnfn6l89vflvl666$890l780vvfi0",
"i8tbbfvm88<80ffm<f0709f9i88b<vbio<v,93Ff8f0f009703337773vbb868b0m39i8<860fi06lx#<ivubit2,&2442227rr1w2r=115rdu53t7223uu982u0fufdt77uiup972239dh5rr2;24ddw5tttlff96l67tl0fi008005i088688fvvil87789v0vll>l8090778x$ll007763if9iiv879b0f9n7ll0iv070l666f03v8700vv99",
"06lvbv9n8i867fvf<88l9i9v08980mbb$<9fv93b90b3f0bf897<0808ivil88l6v$0<07869iv398l>00bfl8l0q141w21,59u5u5u172799p72t795d499727avdf9u67up9f59r9iuum95w257qd4iii00lii<9v600v3v09860080if37889fvfvl8l800l88l>x0iv0887l30fb887<<<0i0078l0v0b3b6$lllfb06l766iv89t80ifvf<",
"086lnvvb000879mm$88x0b00ii87<iF073<b9bv9v9099i<9999<8687bvivblx0v<397866fib008l609mfib88t215115,1,p55291225a5u77r5t<fu99t-27fd9uir72iuf95727ddh49u7;5u5u0i0t0bbb65f6lin3fi077<8t90f00689ff00i7889v0ll$$l0vvv88886v0fv88-883f0i78l8bvb$n$lll8ffl67>$6f090i000v0v8",
"07<0fvvb0i6lfibF933800ff0ft8vn33979<n$i3v90m9f3v39068868vf000ll8b39<888>3vvf07l#0fvffvlttu4451=22+u4552=525dfpuut252d9uui2<793i9r7t99uuuu7=299h4255255uf0il68lnb30f68ib9i0f88880390788300vif0t66fil8ll>l9mviz8ll<vvv0087869iff6830vfn8b$l8l8iil688$$9f887000fvf0",
"00<09f0v08<0f9vn608873if0008nvFvf3v3fF99f939f803vvf88837i9l08l08i<9<<87-v0f0f0x$9bbfitl8zf7,12=2:7p5ur7=5<75d957r73355<ii7i59d3f78rtii39t:825fhdp257rqf0v0l60iff30b7ltf903f<88l0if0786009ff0086890ll>l>>8vvbvttt<00v08877ff0907763v0m7l688l808l7l>8>9ff378090f0f",
"0z8i00f990$6vifn<07073fif388llF709bf9vv<bffvv39<v0f98803f0vl8xl6l$73688$ifvb8lx$0vbfbv08lxm043,;-2u15r2%222599457772ud<9i6ui9f50i<r8iuu72272uud35qr299ff9i067lbf39f30ib907<8800l0f39860lfvvii9680v9fi878<vfvi7zl<vvv00t>6iifl0u-76vfb9v$78vbvvvll$<$30v897778ff0",
"7t80fvbv9087<fvZ<06l88ii9f0880v0337<9$m3b<03b69fffv08788fi00llb8m$$$8686i9vnllx$f0v9fivilbnD0,==2,aw555+7=wup9<7y8u79fi<i92i0d9di-87iuu991-73ahu92w239fvf078tivf99i<00n7967666l39fv0883l9fi0<8780fvvtr>70vv009tx6bfv8978<t0vbl9>769vb0v7800vb070l86<0f0768600ff9",
"888tvbvf78889fbm<8<8380v09v60b0<<83<80b393f<668fiiv88l88bv0l8ll6v$376<86v9i0l6x$70fi9fl8lvbnb0+=,2d545rO%2pfpu25rttr9pu32869i9u9l>9r5f7<72-9upfw5,4,ffffi0060ivv0308l7m8f76666v909i9787vifi87>780fvbt6t2<dhfr6yi@9f9u2=89u9u7i78860fm906876vb007l8033f0v8>78viv0",
"68<l0nbv7l8$88vZ<878f00900088vb$3<<@<8vf0+<76800f3068608ff008lx6v$7<3<x$vvlll6l>ibv007070fvfnb2+,,p5upr,=259uu73tuuuhfii66:9ffiii7t779f5t272uffw51rO90b903777f0f9793l0n8i88779089909888lbil987769f732=r2195422=i&wwfr5;q,u552rr2l8v0n98$787viv0v86399if0t879i0ff",
"666830ib8l680$<f<8686bffi9088vfn0<7#67070v06<600i3i9l680b9b878x8v$037$l9vfnvnbl#f0vff90800ffill#,,r5wur%2,5pu9uiiri9buf0t97u0ufit6890uf55u-29ud52&,,77v007760ivf997<0<n9v830888llv0887l7ivii:-;,4du552:=@515,,=2&55h45225r5d5wu73ifim0v<8670vf988>>60ff08l78ifif",
"78688f0v8v80l663$86770fi908760vf960<83030<308800v983086lb08ll>x6vo377880vfff0lz#vfbf08368v0v88tl,,w55wr%225uuu5999a9hfi0>8t69iuft-8<95u0r7r2ud55r12183f0f0760tfi399788vif868666v0bvbl6839b737:2,1f55,2:q4u55242rOw5p5,5qrw5wr5q,,3ifm006l8l8ii00ll769337l8lb99v0",
"776899ff6v600v3b$06870fvi08680f0337<i08393<66$<fvf93667fn08llll6v$39063$vfifvln$lin9f0868vffi8889=,41uf,::7rd54it7u9ffbu229299diitl<i999i7735f9222,2l09l967688i0330600i0v0i86l090f00l7l6ibr2:===15w5,=2r4a51q2rrO5wp21,,1uu455u5,q9dmvv$l7ffvi08l8880900883b0fi3",
"887iiffb7v880fnb<0606if7ff686fvv376<60f7007<78<if0f87780bf8x86l-0o3$07i$f9if8ll$90b078$800bi8l88l8,141y22=559d5,rrurfh9f8>76599027857uf9r223r5pu25;;l0vvv97789ff30878lff90i76<vvvv0l7667iiu,2=225w5pq;22,ddu552y+54d25,2,5ww511222u0b0z<777fvfl8l8090007887ffii8",
"8667v0v08800l0vm<6667300l88808bv<<8770i8f388687ii3f<6600000bll869o3$908<bfffvll>llbvl86807vb0il8zl91&4,,22u5udp97735hbfui773755737879fh3fu:riu572,2=<i9f08<787f03f6$6i8fi0i80<68ff9n888689422:=q5hw522;u25552r22&wwh,q2-154wrq5;2qwdh9f78800fv00b887f3i<00libvil",
"ll68fffb808ifbfb<8880vif0l66lvib7<878t79i8<3687fv900868lv9lv8lD63X<$3<0<liv0l0l$00b90888000b0708zbn9&1r==%u5d5902r57dff9t8677r73778r9fb9rt27uuw5q,2;9ifii8<088b3$90660f0v0i38897fvib88l<0923q:2ruhw2r2=r5p542qrt+,5uq2,;r5554221,,55537687vvbf3vlll0vfi0767vbv0i",
"88l70bfb90600bmm<86783ff9l87lnvv77378fi900<<<86vv0936788vfbb>lx68X$$7776ffivfvx$ivbf07<<0tvv076<8tZb5+2%2%<55f2u29i5fdirt:6iuf09r6:tdfhd9257i5i57,;;8iii0i868vb0$<6<600if00776i00f0v86l89u92q2,5hdpuq2:r1uuw212y,2455=2=51dup552,qu59<3#68fbvfi08800fbi0<880bbf8",
"876v9f0f97808vmG607t689v0i877imn398<6009fiv38689i98<878vifilllx67o<$8<6<9if0l8x68vbff888t3fvffv77tfFi%%+2=4d55ui::uuffbitt709i09989730f9i93ripu222:%8tv0388868fv38868809i3888<8ff38v868lfir,25=2dwwr,,2r24u42q:r,wu9q5==2,wdr31,,qauu<0#<69vbffv06i3i9f077tivv90",
"0l6lf0vv07800ifb<00l7i0080008bmv930660v0f999368ii309i87vvtlllxx>8o$$687603fbvil<i0m008<600ifv08886lNml+.%:q555up6qa09df978r7fii7t2t7ihf0ut2:5uf55:2=0iff88688v0f$6678t0i0007880v0f3086807f9,<,2qdg1w527r5pd5,5rq1ugw22,;q15dhr2,%,wuu,0=<$8fbf99000ib0i08$799ff9",
"0888vifb93660fbF607l7iv0f00i60nv980088v99876<,8fi9i8786vvllx8>x86#$#<6>#f09ivib60fn700680vi9i03878vbDDi..%34w5u9t,05d99f7:t9f9di966trfh0ii>rrufp55:29v00<8888nnf396-8lii9000868v0f6888603f05,,%,dduu2;2qwwddr222%2dp5r222rwur521,,4ww43<8<0ffvf070vfmvi0l8$09vf0",
"8678909v087709vm087x3vf0i77bl8vv33988lbvf888670vi9038670vblll>x86o<$$8-$fif99fv889mf08<700ifv06677i0bnN:OO%,w222r:3udf7tt765f95989:9rd90iu829fd5r,1,20fi79708ib0<00$ltbv9336888vfvl088600ivi7222uw4w4q,245u5qr2w<45uuwr=1uwdq52:2q55p22#863fff00<6l0fv0ill779if8",
"8l8b0fff888809fn<8788v0fvv08l<mv976066vvvv38688093i3780lv0lxllxl8$o<668$9vfi3ib839bbfl66000b0il880v9zxcl2 %2w55223227p52u68rff0i787699dda79u5ud55;,,27bv9<608lbb3<7<7t00f00666800vl886669f0673r1uu5w2,,w5555u5qr1154rr25,5ddw22222w5r,7#768if8f07<iifvf08l80ff0f",
"0l8b8fib88<8879v687z6fb0i9f0l8mn9<8ii0bfmv078680if9i8700fbvblzDltooo#6879fbf90l830vf0fl0008vi867l8b9ivZzl#.%11w32-u5uuu7t29tip9ftrtu9hd9iu6taif4,r2:25fil76>80bf<80<t80f900087609i098l6l0vv6668059f932==14w4w,wr,55155r221ddduq222r5w1527700v09909ifivl076780097",
"67<bvnbnll6<77fb0<70<0iffif9nibni37<<iii3it0670iv8<0it03v0vmxxDzl$o<6<<70ifi08t730iif86808f9v0$@7tfi0inxx8=.,,5r22urirf9r96iui7076i3ffh9ii:9bphr55,=w2vbbit8<iv0338670030f008t8b90il76l6fvvl7668if9075r2,545q2rr,ww14w5,2uwduu,2:;25412%98ii0f97830vfv09ll6lvf99",
"308livvv788<33bf99$0<fiff0<4vvbm9338<3f3<<00$f$73<$$8iifvbf0llllb3#$o67<33bif80899f3n09$83vvf$6$980ii7l7xxi+&5&222twu55i7riafffi72709dd9252uufbdrq:22wdvi7086ibf$76677b9083878vlfvvv86l80v0v77860f0087t8<95,,512,ruw1,,2<4dhuu122,2wr1w=6ivnbv088$0fvv09>886i0i7",
"68<viffb787m0<b0369$39fiff33<bZHf88006b933990933797f<03mbmvfllxzbf<<6<$#33<0$$f,$f300$30<3<v0<$77<i007l88nD0O*4,7:rr9u5i798ufhiut97ff9h99917pud4222=22whb088tbnv7<7<88007fi<86vvvfbv7l7lf9f888760ffi78>7iff71r22&445rr2;54wwuw5rrqu5w,,%29ifb0f388$ivv0788l7i000",
"887lifbb0f80i07v8<$3<93<fi00b<3b3<7304n69<<9fi8<9if3303,fmmv>lxlf9f$0$0@35o<7933@99i9$037<030968i70808788tmF9O&111uhh5492777uuauu9-tfd9957<,<f9<<59524ddivt08iF0979$88l9900i77lif00v7l70fv30678liviitl7liiivu722&1411522qru5252=5qpuu4w%%29vffv8lll7fvv387l0b0$f",
"3l6bvffv388ln3v0$3fio03if$b9mf7v$<$33<v$i3$89<f7i993330ff9nfllxlf093030$0983$93<$3i39fvf9<9f9v0<0800f8i$00lnZuO172u9d39,77ruffi372r7dfff<<7<$<mof$7,rw59u788lbFv37066800900080lbff0f68779000l77lfbvvlt78ifi7it7r,w5124;211whr5q:2,5u9,h,,,90f997$6899iil76l0ffi9",
"887l0fvv006970ff0$999i39bif9nfvi,307f993i<3390f00393f$39909b8lDxvf398308<3$7<0v<39$<939iff$i$0087833i0l$07fhGZ&,,=uuu59222399uf9y7r39hhi570v$$8+<91545545q970vnf7i0<0l0iii08878fvvlb80v0v09007670fvv0l889iv096t7,2w,1=,2r2d551r:=2uww44,,2qu9088l$839i7708009v03",
"006fvvvb78870b0no$ii<$9fv9$9nbifn,v<<73<70v60393ff9<3i0o93i906b67$3v98bbv793303vof<9<i3f<9i7if3877f08<8<668bmZn%%%9pduu22=349ffu9i6230d3859$9i8$8i#,,rpww522<9nd987#839fif00$9080b0b0600vv0086679fin88883fii6877,24,q25,55dd552rr=q5d42,2,4yuf0388$9v0330809vi9i",
"l87bi9fb7077lf0Z379f<f46$9v3iif7i0l7<b50i033ib<7303v<<9bv09ffbv033<43<00b03039ff3$vvif88b0vbov0886f0v86$6639vZZi%%=5uw5162225u9d97:960<008i93f<730,=221uu1u75ruw370-79t097908i0iiff0f600vvi63666ffffv7877vv7l86$<0p422,q525d5512221ud1r=%%1dpuii6$$l0i9<08889f03",
"ll8bvfib70760fmn<7$f$07$i900fppb+5,2u++<bi07imnib3b$9,$93b3ff0m3b<3039v99<9i8<890b0<3087i0i0898l88iib0l6>$30fvnG9%=1wr59:677595ur290iiiif<i<b009#f,=3qwuu<5qrpdw@1r=6ibi80736808ff0076700vi366879v9bv0llllv38l86#9942,122qur5p32,,w4u12,=,1w5q37llllf0798680fii3",
"708lvfvn7i8790v84609@8<3i0d3wkjCpwqqrw1<<7b00bi<7<<<v6,79f05f9fm49<u730vi<99<bi$,97f<00899vi993888f9v8l>6663finzc2=&d42,:=,29d3992t9<9<n073ll0fi$<<$,udhp7uu5ui5&451,1uiii78<7lfibff0<809iv8l8889fii078blbv9>ll#<3355w=2wwduq2722;w5w45,,;1u52r,#l>l0f70680iff09",
"088l09fn6808i0fi<f77<30v3ff9biMfrrqqpeew<9<377iibv06v3330$3dhdf99<95n0bivnii70l<9<v379770vvif078609308l$76888flnNN,&492,::=2uur5r<7r5F0<#0n<080b366<,43da55qrphu&&1,=,2uui0r0769bffi8880vf0986770fiv08608li9>lll7999ww,2ruudrw2-22uur11,;=2954q1>$8lff<88838f9fi",
"ll8zti0v9t72idf5,0#v99605vi3v3bApqrqpigju579fib70bi0<7$,9,usphAgw&O441i9ff3i78b0fiiv00i69ffvf878lif900l#66<390fixni@*w22-2222r94r7:7$79vi00i70#<v63724u5dfr3rbhd&,2=2;55w5ut6i79if0lil88bmv78llliifvf9880v08l>l#<695r4,;,5dddu5y22rwu522=222w49,--r9ui77<60i0f9i",
"7luzivuv97-:3duw,i,0<7i599ib5hpSw&qypdjgeww9u9bi0f00if80f2rerjAjeq1qpqu+33908fll$0<$i38t00fifi88iivi0fl6<67039filllr&1,5:-2r91<<ur-597f7iv7v8l3i<<@<5rd5u5525dM5&&2=21225479860ibf9v8llvvv07$76lffbmv98099ll8lxl<0i92r=q,pdduu2,7=wr51,272qwr52,-:qruuui7<79v09f",
"7709iuf5:22q2ddh,,vvb80vf09invlZi073,hjpgpqqqw59fff;9iu5uappysCAk44qhypedu0973bm$<<<77<803vvf0308vf0fiv<660fv3908tlp5&122:72rdu4227259537f03070v$07$,55duu,9uuZw11,;27q14220870fff9l080ibb7l87683bdb00l8l0l8>ll$60fb5w,22udhuwr=r,45p2,%22,55ww,2222u5116-80fhi9",
"<<57udw5,;,24uhu,270fn38389$9vfhyqr5b<fpgpyqpwjgdppqywppfpspsakjAe4uyjhedg30$fbi09v0000680fb0087780f90b6806f0f997ltbd5,,=2rru<p<7#09uf95iii0ff7$837,<5d5pu2qtuhd*22,2ru411,10t0ffi0v0860nn88$l889fiv0068il8l>ll$1iiiu22,24dddww2275wi2q==251w122;-22uw112244w9h9",
"221wudd5,r-:2dpf,1;<ti0i9i00307Fp1;yjjh99pppygjgpsjqspjjjpaapsMpgqe4egjejjpy<3i<$3$$790800vfvf8880f908b$8800fif8l8x0id%++=35$v<7077vb33<3iii8096333<27uuduu29uhd4322,ra5521,28iifi3ill80vnf36688vvfv8l869l998$l8$80f3<2q45wdp7r2259d9252=rrwr5222;25ww51,;222www",
"5q2255p2%5;22puh=7=2,9#l7<0<0iin2qqwqjCjf9MapgCgppsapskjpjaysaJjk44qeejegkewrf<,7b8$98683fffv00870v00ll68l0f9vv087zlbph=+==53f0v=i$099$8309H5in<7779=5uw5ru599md242=r5iww52,=8t0fi90v70vvnvll$$l0vfv08ll39i9$lll$f0v0522w3dduuq222phd55,,=ruuu59=2,5r4222125www5",
"5=,r45d5252:125f%u295r577i<$f3in<<iweggggriaaabMhpjpsypkjpspsyJjkeq4eejejgjrpqs,$88$87360fvib93l67vfvfv677ivi0v686bindfa===0$399$34b990<$73nblb9iiX5u3duwuiiiv9d1<5+r2h555w1%i7i0f997070vv008>$3fvvvl878l0il#l$x#0ivi552w5wd5u227rwwu252:25wdp<52:25uu2w2225ddu1",
";2,r55ur%=2r5fhM+r2y5rpu3<0ziZ0Fu507bgjwpppjhjAkAjMyyjpjCaMypyJagqeeeskejgjjspss$$9$00660iv0ii0063fif0b6688vff008-llfi5h2=<<3l309900$f<3<i3$95i7i<i395ddu220v33v@19,52uu5uw22000vf0967009ffvl8l09vvb06l87l99ll$x$9ifb52225d95pr52rwup9q-:55545152:2w5w557;25wud1",
"7==254uh22:299uf+15r9puf88<30vvbii7<uijgewpeCgjjjkjesssgpsaasssjj4eqsqjpggggsepjw1<09006<9fvfv0ll0f0fvb608ivivv08787fiq2r:<<3$m4b3330Ffv37f59,0$00$$7u3du<0<fmb0<52,7rhfdr2r%tiiif006769f00v90l60ifv868l68llllll<ifvui,252u55w<,5r95uuw52-rd55q22:rquu91q2,255dw",
"uy:urdw522=2wpbC,,=7,4wuuvi07f0mf<i3bbujppqejjkjgpjyyMpAMpsypsSpj4q4pspwggjpjpypgew$$3760i9f008880v9f9v678fvf9vv8<07fi2rq9l<,o8<80i39f9ff99i745,$v4$f7990biifibf4732r25wguw9,7zi9i0876l9bfi977080f9fl$8lll8l$llx$0fvirq2w5dd592,2df549r3::rwr55=227u4p5,7=,75d55",
"227ruwhurr,595dM=27r,3w599bv9bnm30ib<bfgsypephgkgpjypcjkSyaysySpg*4*eyjpMgjprsppgggq<<8700fi9i008ffif70668fvvi0it6i99br55vi<979038fffi9<3d9wjg5,<93$93<f9f33<3ff3<5<r5pd9p592ulif0f706l0ifi998$7vvff088l6b6l>l>x$07i951,uwwdp2222rpd55r,522ud552=5,w5255q:=54dpi",
"529quwu2,2515fhh=r:r25u5r<8nlbvF99<b34ffpppssMjjCpsypMBAVkapyeJpg*qqqykqgjjayapepgpq1508ii0vfif80fi<,0i738ivf090t-iiiiu=203i7$990<90$f995ipwpdp5$7<799395,30590d945,r29f3f55qrlbvf0l7$68i@$9776l0biv868ll0x$l>lx,ffvlu5125ww5221,5duw12,,359dprr2,22525wr2254,4u",
"2;9uuhhdp32qrfhh,52227p5p5=9nb7i93i3vfvvpwpMykkjjeyrrgkSJjssspJsj*1;qesegwgjyasyjepeq;r<4lvv09f879if$0b6630fivi0l600vf0380f30o$815rrgppwryjpggpqeqqrfv93bhqsgjkg+@<$255d3i$,f389if8f868<b$<@066i3v$i8668l8i0990m<0fvfir22w5w52,2=,r552,,,=r95525;-,u55w9u22rw55f",
"r-rr5df43q:r5dhd&222,,u9502-lii0v$339if9n,yaskjrhwMqypjZJjMppcJMk1q1qqeqggjpwyapsgjpyeqp55$vv90l8ib,v0i6688vfv90l$00vvu53l<0b3$7twhwgpppyyakjejqqqqe39f<ruqsjjkj5q5399950if3$09<<v0076$8b0$6080i$$i0$66l000v978l8fff9ur=q2udp1,2225uu55%2=5p5u2,222q5545r=2wwuwu",
"r,2wddd522=r5pdf=2=7225u9552n<vb9<9903b<b=rpghZdrafu99umNMspysJpj1e;;eewgepppspeeggppayphjf4978308ilb0i<0<i0l9v786l7ff9in$0vnb663tMupgjypypjjjyw;yq4d5u9uhspjkAkq4yqggeg$9fb9935$33i8$#000$$767biv9bl686700987ll<vfff<4554wwwr7=22rwprr=,2up422,=22,udr227,r,511",
"2rr5udu1,=2q5wub1r:7545ur4=21v0F3$39fb83032iu9b9fii9f,hCcVsaysJsjqe;qysqpppepycygwgqqpjsjgj0i3087033bvl6770bv0lll888v990b9000vv$urMdjppqypyjjgjesyjwwgupuppMjkAjjqyq4ggwd3039fv037$<8<6$b938<86i0f$$688lv0i3788l3vvmv025r4du2r222r52u272=,2ud53r2=214wu52:ruuh54",
"222puuuw2,225uuu,2:r7rd552:2,7b99<@9$9n<<<$9f9nvi0z2rejjbjssysJsj*qqqqsqCyjyqyyqpggqywspjjj33<<t7f3,vil7869iffi383i9vv0if0m<n#08fbipkkspwpppkksppyseggjpjpqsjkAjqywqwgkpw4&d97+f406$<<$3000<,+3009$9i37l6vv0vlll6fffi5125r5d552;75uu9rr<:75rr55222r5u5222=2p5duw",
"1229dwdw22,215dh2r22y5du5r22:7FFv<$888v3ii<00fv7i1a2yppgMMBspyJCk41qqqpqMyyhqpsqegpyypppejgg$i<8b6b00lt6879i0bl986009f$9f3vl0mbv7f08iMMypypsphsqjyjagjpgspqwjjkjeeyeyjjjewwqp9<9m008063<b$f33+3<93fi38lx<vvvl88l3ffft2q,&r53w,3;25u5u45,2,r5uq25::2upwr52,,5ddh5",
"1215dd55q2=2,55d12523ruuruq:,59bf<i<3<b6l,b39309li5qftf<naMaspMMkqqqyysyjayyyycywjpepeypgkjhp,3<870300l67680d996607vf099006b6vfv7i05tictppssegjwsysyjkgeaaeeejkpyeywpqjppqqewgg@3bvf18,7867$738ivvv08l3v7$f07ll8<0bvbu2,2rw55u572,dwpr5,,2u4wp532=qr45u52=2w5dud",
"12224ww1,22,+*4w&q2q5upurr3,0rhv39873006i0v83<09li30ri39l7cccsBjA;qqypkqCsayqypywjgeppypjejjwwr,5$$@97l77<80bfv7<7$00i9bf883f093vvf9i3G7aqpssCppyqswjgpysyyssjjppqsejgkpyyqqpegep$83uw5df$v<99339vvv0$3$fb7vvl8l<ffiirq2,whp42w2r,55u22=,229u5uu2==rfu5w:=&u4hu5",
"22225515,,=;,w5w%22235wdwp8070mm3070iv6m<30f70vi0<99,iiauinbssSMJqq4hqkespjpyysppgkeppppjgggpqqyppegq122@7090if<0i<f00bffn0v0i379fbvv39792urpaapppsasjjrsyyrsjAjswspsjMppyyqyjjgh2p,v,w4b5<<990399vb338b7vi9iiiv7vfv99,=34wh55q2q255943=:2r5w55rq215d52wr=1qwudu",
"512qww51%%==,55w&,=21554w51<f<um9nv377ff377nfi5birt5q2wjp3hzssSpjqq*yyMpjpMpyypyjgssssspkkAppayppjgpppe13<<d0770if870<if<<83fmb0i3ff8fv0vtl900ifpysjjjjpeysppjkgppypMjCppyqqqjjgjwyeyapuf7770f3$9$9v<8il00i0i900$00i34q224wd55,:22q5pp2222uruw5ur,25uu525;245ddw",
"4,,255u5=-:=,5fu220759vi0btl0f9Fvb907v79i9330v49urqryrpjMpMiicVkkeeeyyjeppjaapMygkjqspsakkkpspqppggepwe1wi<73,<39f933<7b390b3ifFb9vbinf3ii07ll0f5yaakjejpyscsjjjepysjMMsseypspjjjeyypjj2b0893,3$3+f7i98b0f09060l$ffi05222,5ur5,252555r5%22uuwu2222215w512=2245w4",
"r==29ii07>-780iv970700fi7fi80fubbv0f$f9nff8v49ibfqqqwyhuMrjtaaVjkeeqayagksppyysewjVjyyypggjksapqpjgepyqq5ppgd4,4fvnvv7iv0b9vifi9v73f9im6vv9v5l93iua7MkjppqypsjSgeypsskAjayqypphjjspysp9r03fv0089i9<3bd0t9bv087$8<7f075222qfp552+;,29u22=,,uuddw22=55w5w5q==2dd51",
"i>-8tiv0t8>>l6iv<8t98300ii0lllin9i3033fi$bfv934haazyyhf937uaNaVjjwq4epjeJksppsjpjjejMqpykeessyspspjwppyyyygdpq1uv9fiifff$b99$3fbnbfiffv70v7i2uwerepsMAppsqqpykkaywppjjjjsaqyMsCgkpsqrbp9930i983<93v$308i7vbil877<<i92,22,5wdrqt2225,9h2,2r5uuwuur:25uw55q,<5wd53",
"i88600fit8l808i096tl08f97i0izbfv9i33$99i<<v<vm7fripuaii0N1iuabaCkeq;qegekMjsassyjjjwspysjkjpssppjpApqppqjqpgpwqq39bb,v0vf39ifb00n93,3757qrpikgsqeyyjjVjhccqysjjjqqesjjjpjypqajkjepjwiphf3+3i9$v9in39f0l67ifi08l$77842&22q255u5r5275u15r,=wipwdurq2,2545uu370if00",
"78>70f0766t8tiii967tlvbbf00i0nvmv<lfn7800l$7d300du0viiiviii0laMjjeqeqyseMjkppssypkkpapsjpgjsqpypsjApypaqajgeyqqewp109,<f0i0fv9935bjhCjhueqpppjjeppepgjjyysspjkCaqqqqpjkskssyyjACjpppfpf0v$b9$3<09fi3fv39ffii37$8,Xo$@+7,55u5,42=22rp1<552;55dw4w2ruq1490i600ff75",
"9888iif0997t0ivv887lifv9fi0t0vbvf97300vn$bv30ff39ibi0il7i<vvtbGak4p4pyjpAjjspscejjjjsqypjjMcccyceaCsyssqjjAjspqywwkguu9fm397i93b2uujkjjjpqpjj4sqycsjjMpjppsyMjAjqepyjkjjwyeyppgkjjhrbw99f<7v98<$9v0$3<bd8$27rrri2<<<771,2w5wr5==%2,ww42,2555wdh5r1p5u9u08780fb06",
"6880iibv08<89fvv707t0ivf3900lvbFv<$fv0b$bv8<9vbbfF3G<998biv0lubfpwe1qwggAkjspaMqjjkjsspsMjjjgspsppCgjyBysjjgkswpypjgpw87iv0bv07v5puphjgypwpjCha5rhjMhaihsyarhhbh52qqdhjksqqqyjpjAhhqqy0<3<009933$9i<vphpgjepqyr5%=$$<<$+,5q5rw,2#215uqq,59w55ww55,uiif0086079bf0",
"86888fvv08680i9b<70lvvffv0070bbmb8<630b03nfbifZf9vvfb79<8nb0bnivwqq*ypjqAVjjypjpejjepsyskjjjjpsMjgpjjppyssjppssqajkkpw5q$3f98v99tpjjMjkpyyyhpfM=5fM7b<bufupiuMH5,5q2aMkgsjayrppghpjqr00-i=#bf036f<f4rhjguughilt<=i#8$<21=3r5p2=2-1513,5==wudwuww75iiffv<76689b00",
"687l99ff08660ffb70700vbbbff830nnv$$800fb9333iifnfn$bi9v<7vibiib0iurqwehwjjssppMsggjgpsspjgjjcsspjpkpppsqVkjjpjsyjpjAggpyi$779v$nvphgkCMfuMqii0no3f930uv90iNf9mbi019qpfkjjspyppwgupeqp35u0l<0$70$i3i3rphMdh50b9tz<6l8<2#:=95455=:2;455552=r5dwd5u27ul99i06660ffv0",
"0<7ffb90l8860fifi8083idiiv0v0imFf3866n0m30iviniv39inii<l7m0iiln0iw,ruauudjsspyjjkkMgssssMppgsppspjjwjapqsjqgspsqspjggpjsp73b9fvfniZ9ibG0b70<30i67370909fb9lu07f$+<3upwjppwyqjjjjwqs73iw503f78f8ff9<duivv00$b3n9l+#0$7q=215p4532::7r5rw22,q54wd55t67iff888$6<9vi0",
"f880fbvf868<60bf3000i0fdiii800vZv,86<79<3l90v3v3fb93i,vi79bv00fvt<79500dghpdsyjppjjpjjsjjkgpssppgkkeyasyjpjgpgsyppAjjueyaw1707u9b7<v00v$v0vmiii8<09049f9b90v00v8387r5hhjpaspphjjrwe739w5<ifv<m9f39f9rdfn0090t38t7iww5,,q21hu7u222,r5w5522=pwddd0itbiiv0076<70ifi",
"l6803bmf0v88vf0i6i000vfb0b8800fmv3<<#3F<7ii739f090fff7l99fvF38n0Z1,3,fuwCjhpqpsekCApyssjjjjsspspwgjpypqqpjjjjjsyppkjkjppsyi0ib$Z59ffv3vf7737i7b#303fi30ffnmbli0,8<iuagh,2yz7ypjjppaq2qr<8v0v<i9ib<$9<b3ffivfbti>,9w52,;r2upurq222rwwu55,22wu5duit70if0b866<8ifii",
"i07890b0lz600bbf7008i9fb9fi8i3fvf6667l00,0b3Z9fbv9970824ib0i00v3999i9rkwjgyjpyawjjjgprjjjAppsypypjjpppsqpjAgpjsssgMkjjjype593v0v3<i<3b0709$8<n0i<v<93f$09bnv<bm0$703ufg<1<63baugspyq;ep<3300i7f0iff89ni7vFi<0788#7duwr=2255wu52,25rwdp51,,514d90r7lifiv066699bi3",
"0800ifb87l800fbf7i88liv0vfl8l8fnf06<6nnF393f9f4v90v971q5ublm6n0fn5$7qrj<99pprra4pjjgpypjjkkssscpepjppysqjpjjjgppppJjgpepywd8f907vvfib7f$83<0<nv<98f<v$f9f999v0iio<i38fb<68iuwpugpypyqq3<993fv9f0b9ffvf0v9vi0i<8l,9555r==w5wuurq,54w3u2r,,15w45ii8<t0090867900bbv",
"0878bbv90i0808iv8080iibb0b087libf<<<<07f3nifvbi9vf03#+2qufvi<v<73371u9bvb3v700v8uhCayspjpjjhksyaMsjjyjpqpjjjpsppyjkAgppspep9p<9309v<b#l9957517i<32iiiin79vfi9ib01q;qqgkqpufiyahppeqqqqi,i70fiibvff3i03b99f90it7l#2dw2wr%r,rd2ur27quww4f,=2qu5u006<0ivvn6860000f9",
"0i770mbfvi87009f<706ibifvfzl000nv6<6#600<933fii0vv08=#,2dfbvvvv777f905lo6$0nbFi7,akhyspsjegppspspjjpppMqagjkssssyjjjjjspspwj9f383nb<iub5757quyp1q2i<ifb90<iff7v4,rqewjAqprraphahjsyyq+<$3b309fv9<3v5Zb9m$m7fii8t#,455wq35,ww51u225udh5u,==,5d90l8<09ffb06668ffvf",
"077<ifb9i08l0990<8373ff39f0ii00b06<8-8l0in,953ivfb0l;%=,3vfvinbvi<<7$3i0fv$90nf3lifppppsjgjpysapspjjpsM;jMkjpsppppSjjsjpppwgf9fv3ibfl0uyprqpjjjqqqr33u,<9fi<adeu=qyqjjkqweyiyjhjhws;p=0003f33fb9n$v0907fb9vvztzt@151r,=:21wd5125,q55huu=2;1w59908689v0bv77l79000",
"09869ib000t00fv938863fbf00808fifb<76670v3vi7<0vfiffl8=2158if<lDbb$bi0n90i09iv07$7790buapjgkjsspsMjkgsesysMjAjpwyppkjkkppjegev00b0,0iphjrpyapkjjq1eypri9f05pygjpp1qp;peAgyuipuywjpyqq26i7i9fii90f097f39933dvvitti&545r252,25d2q5222u1dpy=255u9ii08706ffiv86l8vvf9",
"8886iff90880b0b0788<83vfv88l8lvfv8<6<89fivi9980fvbi88;-255<bffFbv9ib<f03<97,39v9<94v0fujkekpypqpjjkgjqjejjjjjsyrjpkgjjjysspjAu0if7i5pgkpsqsspkMwqqseggpdhqysjJjs*epqajjjpirrpryhpwy29<07,90b379vif3f9vl6ffi9ffit=ww5522=21dh5,q72555d49%=22u00007687if90868vfvvf",
"7$8$ivi3v0l8lfvf<9<77f0blb88ll0f077068imfv9$700vvbil8:225d99f<8u3f9v9<0$0i9990nmv7nv$93njjjjypsqjgjejspqpMjjpaauppjgjspsskkjj2h3f5MMgpMppeqjjMVqyeswjgjyueajjAjj1qsqppiwC7uau3frpqp5f893f00<Ff09f9993903ffiii0pt%1w411=;215du5,2w555d5r,q2ru973078l9fvf86<0ff9iv",
"l$86ifd3087l00f0<l6<69ff908l000ff38867fvibv380iffill8:;2u59<v9b9iif$99b33ffivvi88v$087iuiaMVajyypgApMjjygjjjqurruajwgjjpugkjjwuaa30hVscpsyppMjVesejejjjpsassVAjj*qcy9i009007u9ghgyu<3<$ff9iff0nvbni9i38<7vif937t%2uw5122r&5dduw=25u4dr5=3,90v00766l0fbvl88v0fiff",
"l6739f9386l8bnni678668ff036lbv99073i68bbib008llfbf997q12udd<b0b9<99999389f0i<7f$00bi7iiinfbpppysjpAsjypygegApsppapjwppuafhjkkhp9yajpjBSpcpjeAjjqpqsjjkjssasMkJjA;qzu35f,f030l7pwpua90089ii3<0iibivb03<<60ifff03r15uww15=21ww55552555dpy1449030777699vbvi9800v9f0",
"7$8>vvv3l6700vbn<<8689fvf688lblv098786fFiff00tvvfv086,=,5wr49nn9v3b3vff<vv<308f,if00b3v7bf9farpyMjjgjyyrpjjkssypypkjpq8pp9hCjdswbyahgjSuyyMhkMj;sqpypACpjssBMAhh2,urf9b<n3<b<vi8b<099000f99b93f3f907i<o-9ffi9pq115u5rr2722dd5r,22qp5ddr,2,uiuzii67l79fv009lvvb00",
"8766vvf<0867vfff8<6<90iff380lbvb0088880min037i0bfnfz7<:5r43,12t<i$3i<fv3bin0389<9ivf00n3bmiAaiiupgggab3qpskgsjyywpjui9pu09fkCCrebbaaMhKpsqpjjMS2syspgCCgppMSVjfb$3,7u3v$n77b399vb<F9908fb0f07vv8f8n,vl869995,22=14w44,=;,54hd1q3=5ww44r1;,ii0i9007089ff9390vvvvv",
"l7760f03f688bff086<688f0b0i0lv9v3387<6fv3ff8060ifvvf8-25uw525=p,b5fb<7iuv$708<307<9ff9f3ffbiVppypghinlpqsejjpsjsppu9pd59030hbhpyyapkkhGubrajkjV5ufpphkkjpppSCZ99$ff<,798v8bf0vb0mv7o9$60ifii0f93v$Gn$i8>99id3q72&5gwq2:;%r1dh5222145pw42,,090i788839bbfll780ffvv",
"7l869vb3l7800vfi806<3vff0il88biv<37l$38f3f8f008fi000t1=2pw220<n2w33377l6700<963<7f00mvv0bfifaati5i99spayrjkkauuzii5whuibff00b9pasqMjkkjpj90ihaN5,6ia59hhpyyjG0va$vi<8<vbfbb79b<390f7083739f8bvn$n$b$#7929uwru5y211u55r222w4ddry5=224uw5,,1909f0<66649v07l6lv0vf0",
"l6l67vb0v86lvbbv88063fi9i0ll8n9v9$o$v330o9$i,f9vmfi085==50<7l222w,54<53ii0<,03307ff<3<98ivfifZbuu3puujsyp14hip9vv0fubf30dff999ppjejgjkj4syuf8bm<163<,9i9jrpbbn9f$8099i9o<3vf0if9b8l<$80890f99770l83f057%55w5uu2555w5521,1r4dwuu5,,w5dw12<39i0il00709i3f30680fbfv",
"l$l800v30l680bnvi<8<3fiiiilblDf08$3f<8$9<<,33<<,7<7980<1l#bu=7r24,9,112:55v0<0380$v0vv9fiffb9fMyjpgqqqsqprdwqui0<af<b94f9fmif3prqjjjAkMpesii07n<<0f93<$<3ufiubvf$33793n9n03bv3fvfb$30600fffv800b30b q,r=154w5wq525ddq2,2,wwdw1u2,&5w4u5,<77090008800vf7f068l9i3i",
"l6$6v9nfvi8vfbmv08l$083ifi907n0f0<$800,70f03v63,3f9<0ii5i24r=2r2d434<277355i771+<f039if77<9bvupppMjspwpqygjgeqp24qh30v990<3fmlfyqejgkjspqqg0f<z68$0$0ivnbi3vfi9b390f0$<$3b<9mvfi9m0<8768ifif0t7<<0v3w1w15dwduqr215dwr,522,wwu5rr21w1522,67v9f3$v88v9bbf0063vff9i",
"l8l6fiv30il70ivb0l8<00i098887nb8330,nii8<fi08<v0fiii<5r4dpii7:7=34w431r2arru2:==<fv09fb5bf0mZjspjkMjjps;hpggejsw4df99<83i3f<0vlhpqpjjjMpsqhgf8m<n6i7<v<<u90f3n39$$b7ff8<099<9nbvi0v8708<fifr1iiNvfn522215wddrrr2&1d4r22q55wd52w52125wuq2$89f0ii06009bbf976<7f0fb",
"860<9ff883i00vffv88678ffv0ll6vvb<<8vfi830iv7088idivu2,29p4purtr=,1u122;25p5w5q1=8973vmvn$990fuMbjhSpjpi2ajjdwyaryejdu@m3vf0muibviujjkjjyypqpj,f<0fbbi0fiiiibbini<9390vb<vbv7974viv$0itt99w5w%2q5<i3p95r%444w5,y711dw41,=215wd5p,2rw24r9297809i0fi0990vil06llif77",
"v77600f3i<70vvf0vll6l093888lln003399vFfb9f0000ii9985552ufu9rrrt254,1,2-29ddr12:730v998vffimifbfvbMkhjyp<9iiv3alqedjw98fm39vbv9f9tbludgk1eqjpua3170600v0ibi3<mnif<08v30b<30b8i0m<3@9<titwuwu52=2uff@5uru,55u2512214d495r,1255d5r,q,ww559277ti90f09003il30088vffvi",
"8883fff37i08fbb96ll$8f99f6088bfv903f07vvvv8888li99,1r27pfuii5ru2u3r25::255hdr2r70f0v9b3333if00v9v0bnbii379fniG90vvf7i9<mf7m49ffb98v9vjhasyseg2lo773b7vi,i<09$zfn@$m<03Z$3<fb$f<b9<v$7222wwu25:5253345qt2w5d55r2=11d525q2155d55,q,w2wfui<770i09f770i0vv0i880iv0v9",
"67<3ibb970t8ibff68l$8f093386lbfv330<080vff93380bb55,2;2rdwaar7a214225=2,9wwur-7709v3f00bi9bb9fb39b990i0<3tlv7iiu09biffb9579f9<9mfu<baisppygpkjr9<<84@7hu709v8nii0$v$7bb8v<ff39iif90<,q25d5pw22urddd42,r,uwuu5u221154r2qr5dwww5&2259w90067770f00vl0v9iv0936i0f9i0",
"l883ifi9038<ibii098#790i07808nlv790<70vffiit676bd452522p5wdfiryt4,345===54w1279-8fb00303i3i3fi999if9f$f688vfbff8,,fn<duu91279b79vi7if0iaypapwjp<i,5uhgwp9<m80m0v<7v9$399b8i8i79ud452,qrud3d95,35d395257=94w52r,25ww5uu221uwd23<7r7f90f0768000f907878fi90778lfbff",
"i6l8fii308830ffi068$770f8880lmii3iiit0viiiitt8i9w5w,=255d5d5urt,u4u,9=2=55515t8>9fvf09n0i33bf9$v3fbbvfv6799ifbfi714qdd59u72u4d9347i5805<apsCjggq472djjw2fi808vvi0n7fl0vo3lf<629rr4u72,;5d,45224fwdd5,i5X<29d,5=2+5545ww11udwru9688039i876ti9fi9987l3fv9l7787f0fv",
"bi8tfiv378089fb908l770099<880m9i47i0l0m3f0iut,uu5,r=:257fp49utlq3,54==225uw29t6689bv90f999f9$b0l9vbdbvb880vi9i0002w3dw21223ufuu5<=7,9093lfpgjgpwyqrpjjwei3m8n<vb$03i3bF0ll<32%15u5u52r=2,w357,3f9+@$<9i+ruuwq5tq,1ww2,5525hfuil687089308678999d9l8lvvv77767vfi00",
"l8t0ii0$8<903bbi686780f9v098fFii<37<08bfb5r4r254w9py223545u5qrtuu,451=;&55120i6689vvfi8f9$v30vvn87f9fvv0800fff<872ww5d7q:275dr223-72bvdfi7ijhjqeyyejgkgw5<<viF07<306ii988bv$2212w444=2554w999i<$97<@37<<34uir5r,,5duw1r225dfi90787899980680i90097709vlv3l739vff0",
"08lllii19>6t9bbi<88-rtiaiu0itnfd<<<222pwu5512555wu2,,7rruuw59rtuu45,,=2=55456r8>l0ffvf87l$ll3$$3v0fff0v38lvfvv07365ud5w522;5rf30-2=24u1wivbfjSjppqspjjgeee,<bFn0i2i<7vu&415,rr,w552,270u9fi$703i9993$033r5uu595;,4dd142wrffbv6886009008<<<0i0f9066l3fvf000tifv0v",
"08iitbl79--727f54<:%222541r2auw5@@&,,2u4f55,;22rd552,25rfud9r7r5w521=+==211it96#<iv9i088799l$9ll070fvfb6$0v0i097$6<4du522:=7rfu5ur77999@pyi<hkkyappsjkjjpqqq73Fi302<<,u&uwwr,r55525,:75,9837f397f0f$7775upuuu9r=,4dwp,2=rifub06766f090i88<iifv00l6l7vv0f76iivv9f",
"i372wuh3====25p<12=%,4www2r:traw,,4,15d4ppu52652455,2:,ihd9urr72f1u5==2=5w500l8>0fbfb0l8i9vv0$$386v9iib867lviv07l769wuu977225di92=729u9,07y0iajyppypgjskkryyggAg;;q=6,u,555u27ri55r,=73i0fbb9<3v$<0f+i72ifd5tut,,55du4223fv0f878809f0f08660fiv067600i09i067vnff7",
"22r,52p5q2=;2wp5,32=<1d5r=52u5hf*,,@,2u4huu2r:r5415,25,whfuu5ur3u455==2=2100ti877ibfv008300li90083ffiv00870v000f7677d5wr2:755uup26,995u,57iupnnfqqyppjjgCppsggSg;qy;<3r5u5,r2<4au27=:<$5g5<0nb99n38$,r7359duput2,4dd55259vvfi887800998866<0ifvi077livfi9l679fd4&",
"2;yq54p252::wuu52,7255p995=2u4hf,=:+27t5duu222,rr25,-16,dfpurrr59*r7;%:=157987<63fff0000890il88663i9ii9380b090v8867255u522=r,du972779uu<<<f0dAMbltajsjjjssyBjjJjq;p;q595u1w222,9u,9,3<pedq403if90v93238r5uuruuu7,25drq,r7imf006660i0f3866880fb0i770fvff9w,5wddw5",
"2#21u5w122:22id5q,7;7rduuu7272iu,=2=22u5dwi3-:,7r557-;7u5uufyirr5,w5==r:139907><90bff70883b9l87883999i0$7ll0ii80877244112-259du9r=:25wu99,19v9pdsinii2pgcppsMkJjqqpqweX1w5r7-:<<9,319pgpgpw0<0970<94u7rufud5uiy2=4ddw4,7t0bbi06666800876663v9v90l680vfud2125dwdp",
"7=2=555152r35rh42,3-uuduau2272a5=22-21w,i5ur:222555--%2ruuu77ii25&55=;:=,703il8#93v00ll8l7lb70l$78939906779fff<0786915552:,5dduu28:r09350=280fbippspej1jBspVjMVp1epqwjs1,,u3=-273<+$ypggggp90bfmi89377229du95utr&5dfw5270iibi078#83000l8688ff0i08$87i0d5r2r5ddu9",
"q257u52@==24rubu221=9udfir7--rbi,29-<355i9rr--22i32=:=32huwi2rr:u1q22=-%908888l690fi0f867i9ff0l6669i0l83760f9i3<867i44w27<14w3u522:9uru29#81f9ffufblhjw4bssskKPMqqa;wyjwhw0<7#1l6oyqypjggwp,fffb993<27775fu597r2Oudp5w=67vi9vl687i0ff0i86<0ff0il7l67d4d4q25wd4wu",
"72725wu52=1292uu5=2-595dbia76ibp+1668-u3b577:82iwwu2:-22ip9uttq59452q2;-2ii9i86<9ff9007670vfv88866f0f806868ff08877>654&,,:229hd976+:2thru5z3uiiiimb9ifgwssjjVSJkypyqsyj*epyypejpy4y1yspjghwf0vf9i#5r62627ff9uiu2,ud5w5=-6vfill6>67f097v7777vii767704wdwu2,;25955",
"5=7quuu,1#==2iw52-r-0uudufi92alf,,778r95pi9u>22ii271:=75aufupi7541u12:2-:90788863ifif7l6l7v08fv7860iv0b$687if9386760211,,,5rdhffr7-223uuti0i7mfi9fbbvbffssppjMJjyeaqyjk4pqeysejesqeqpsjgh499bv33F3<i778u5fu52rtu&5uu152-399f0l87668ff38l8t0ifi07><31ww5uq225pd55",
"7=q=,5917:--2pd252r=fuufiti8tlMb26322797fatr-27uiu927-,ruuf9yi755@52:2q29u09l78<9ff9fll669bvl88l67398i08$0999006-68vb2r322255dp577:2<4fw330v0vib<3i0959fprajAAPjyypyeVCpjspypMkphqyqygpjf3909fb0997i77979f5u7r5i&5du51280l00ll6666iif8688<ibfvi78-4@w5u5r,rq45pu",
"r:r25du<7--:3uf2-36<99fdf7lrtini79<273f5fftir30ui791r739du55rt2q5@452=%=ii99zzt69fb9708809vvvll6890ii3086<8ff98086libw5p:=2u95furr8239d553v3iibi<$F70ib3vb99jALp;yyqpkAysjssskSVqqp*qgwp9$0903f0Z0ll928ruff552:r+5wur2=160i0ibl66800f7388i0vvbii7<5&ww19r,,45u95",
"22:72r97r;-:2riu7262t9dfMt9tilbfi9i773iuipi327trfrr,327pfd52r7t2p,5,r52;0ii39it839mii9880fffifl78700f38<768fbv068868i515q772uu99rr892ui92<i4f5ibb3f,ff0998bfu<ZirepqwjSesMspskVJMyqq1e5,099m9ii973,<977tfvir77=iO9pd5r7070if9ivl880ff00<98i0biit7-6,4w54q=222u54",
"q7:-r2p<ut:7uif45,:-15fffu29iiFfiui06rbiufi72:iufat--22wfp9u7uu55@421=:%lbfi068633f0007080bviiv77<30008688lvvfl8888bi5145:255ru438:93wup2597v3v<i$v$70i030f9biGi3rpqpgkgsjspsjjPJsqqqq0<9$3mivvi3vvf01899fp3a27t%49d522888bi073078fvf8087iivfblt7-,,55d552,r5u95",
"r2>252p55622riM9r29--2id097rtiNf9u80t7Mfvfiu887uidi5:6r7ffp0rrt7u&u41,2Otifii08<60f9f0307iivi903l870v0l088tvv0v66870i3522::,5u552:9u7u9i,09i6vi06<335380v<v<8iii#6upjpjqjyssMkjAVja1r<<7v<f970i093<<l7liubfu2r2t,95puw,t000i8i8760fvv00000bvvfil8r,,wdr57:255fw2",
"r2y79594r9r85ibu73t=<<9fui96rlba597<t7bubfi9tr2iuu33229thff5ruur5@d1222%i0ivi0t600f9i987699330036bbvfvl878inv0bl7888i955:2222p9,2;1<dduu93<n8vnv33#<73$fvivFf7Z91uiaskkqCpsepjAVJMsq4<0,84$9<999bii<u7ibfhla2r2t$4du1w,80vffi08870ibvif0770ifiit:21455wq2274up5r",
"52t6,ud,7r274dm5u68-<9uf00r8u3ff5i7700fdfiturl,ifu22737ddfu51t27u@d5:::.3fbfzzl63003f077i0ifvv08600v8f0783fbn07l780vb9ur-;225wr5-12r59992tt=3iii189<z8v60i$mv<Fv$9f9dhSgkpjasMjjAkVri,#79349<<lilf<5iu7ibifi5=27+55h9,578innf0806i0fvvv070iifvv8<=,,wwdd,1:25u41",
"2:2y59u,5:72<9hfir78799ii79tt9fu373-90i9hr99tr39i7222739huuiilyquO5&,%q%37f9688830f79778ivfbvill8v0b9088670ibv7fl7liiiw52:23uiu528,7uph55uul7<l38$v$mvm<9+f083f00ob0pdkgjksppkkkjjhi03,<95<,36<7u739tuulbbfvu37r%55p25=r87ibf0087lb0ifvb0iliffv0i7,1dww35,252rr2",
"r72959p<232r9ifu322-9i9fi2it9ibi95u-,<iuh9i27ti9fpt2r7<pbu0utairh@5=;;=%33f98676$3fffl680if0i7086lbmv0ll6l99fv8978vifi5,=2,2495922:uufd9270tbnit$<m#73<0b00vbvZ3$$+9ihSwgssshjkAjjpil6<05<<1$<<9999fit7ibmduirrt1uwf,12,003ff00060fffi0z<00f0f907qruwwui5%r24udr",
"r7r53uf,22759ff979920pd9i3rttlfd716-89i5b9t627ui999=227pbdp5r7iuu&1=2#%O,233797z7bmvvl8839ii008l<8vbv0v06vv0vv0vllifffu5q:255w25=2-7,dfu9il<09bZo6#80$9l3b9b700<#<$<<9MdpayppCjkjr9i3i9ibf72#-<<5959u77iuhu5r22t,uudw212tvui9006l0bv9liz880ii98951wu5ww572r59du5",
"r7iru5f,2267ubm5r222iibuiu07r0ii1<<<28i9h9d92-7uu57<27-ibfh4y725w@1OO%+.,5fbfnxl9fvvb0l8i8f00b67679ff9vl88bvvviv>llluf8,5:;75d55277u54d975<2<i0v00i8<87v3783F8FbX<043b97ujappjdg<7,f38r9bmbi-+#1<343l7969hfd757r@9wfq,r:989i990880fb9v9v0l0vill1;12w4u55222545u5",
"r57ru5u<r1:2<5ddr38-9uff590t7tff87<697t500f9-iird40<=8=rhwf02r:-,@,*558-ppmnvltn0vffv07688i96b07887viiif800vbff06l8xbi0<==,,ud22,,25u5d5222i3F0v780$993fi396v99933i77@9<<ibfjhi90n008ri9ubbFz88r<4$30<999f9fu77r+1dpr5r27l8i79860fvnf00868iiuii,:23ppdd12222459u",
"u7u5uui2222-75h5572-iipiu332riffr97<6ru9f950-t0up05<===35415,rt99455p9i,uwvb00l09fvf08966iii3il8699i9900790ivffvtlxbbitt-%214du,2;723dfur227i5i<30F8i0f7b0<v9009X9<393803b70i9f03f<327tifuaztlli094+7<<099d7rr7t,2dfu25:9alif78680fbb038<7fifii27:2udd5w:225<555",
"rrirruM222-859f5,69=u9iirt7:7ifd976<30f<u9<<179dfu3,#+#,<5u5tizaf4u525r,549v0886<if9ff8689fi3800000f0003899ibfvbl70bbfi9t%,;5wu1,=1w4wdr527,i7ui<0nvnf<v0n$339bnf$0380999<b4i,i<<7622-itf70t88itvmb<<,#<9dui1rrt15whh55,2tfvf0f<<f0f0i0i<37f09052y2pd5fu2:7u4u5p",
"22tr5ffw22-7r7f5r59-9ip9922-28ifu0r-77i5r932#27r9<1-#-2idhMbtucud19942,O555f9fzz<ii9i806l6vv008680899908l889fi00zltivf07l>$352915==rwdu15,72909ro<0$<ivbi873899v153=1-0ib0Z<im<F<,771697i9uir:88iMnazt8:50dd735l,9ddhda=25ffi9i86lv0iiit680ii0,12r2dwwudy2=u2525",
"r2arwuh2y7=25rd,72t1uibu971-=7fu49u<-7uir375-#,953ur9rtib5firzz55&4&49rO55w570it<if9i96<390vf0l68i8fvf8060f7i30f8lninv076688rwu52:,155du5,=1iiui$<f<<<0ii80$b9vf,32=26ip9d92liii3099-627b9797t78viiltttt@3303,2t,9dhduur459fi9t670vbii0t><8ipu422q5wudw5r-:7wu55",
"r2ut45M932-:2rb1197=3ufh7u8>2-iu3r977774u539t:rfhffuit:tbuiirtN79@&,=,2O5dwdu8i030fi0l8889if9008888vf00868vfi99i8tlifvi78$6lbh9wy,,,1555rr-6<v3ul<mvF<7vf<<3f0<d259=-#9if5ii0i5i#5i0>66997u968rilitbtllt5<,,222t$55dd52rqr5ulti<60fvbiiit075u42=,q55dduu2=;259wu",
"r57urdh9r=2655fr32r,5ufu7rr:92ii23,=7530u275r8ulhfu3:y7uruiu3ra2941@,7:+1w554it83vv006l67iivi9087l8fff00<30fbffv78ll9f9886$7uff9ir2r5452,;-:59r00<73970<f890b3d02722-25i99uii0br0997->2rf9797>-7bflzzrllvu3,=2qt4dhdu95,5wdwr9i6$<fvll8t67045ww2,r53wwdru=254wuu",
"rq5,udh4u2:275d4227-35iu227279u5757=:7uuffrr9909u9i=782291fuutz94,,%,=r+p599prz03fv8080<i8090098<0fiif0l600bf90v888n0093666699i9u7800u552,::,ahf3f9+08b03ii007fh1227,2<udf9ubiiiu0776rrifuv772679bibtaziibhr#=2r,dddau22,uqu5q7776uf9iri=31w55w5;7qr4wdur=r395w5",
"21t,u5u9r5:-,5u5r,7222ur57=r59r51qt=:775529990puu,r=7:62u<59itpr7&&+,:6O4ud45tit3ibf0vl6l0f09988670f908l600vvi808ll0bf078$$lifivz8079vfvr22,=2uu87lu5u0vii7899fd,3,==,9d9diubitiui9u=830i30i8<9t3u3itttl0bbb2#-7&439hir255wu5q2,211dw5uw,rq2w555227pww557Or2uwdd",
"r257wud,r22224u555,221u5,5,27afu217226h5u27::99db572::7:a,r7t7t7i,#X-2:=4u5uwuqi0fvfi086ilvf388<86fvif8l$89ifi0b8lllf00876$0iv9908i79f90t76675ur,,5=u5pu2,1759ud,=2=-29duu95i7pidf97--ttfp7u9>6tibuii>rl5ffft7=1+u9455r,,ud5w57=252w5w522rqww115q3,uuur,r%5q555d",
"p252uuf,,::239w52,=%,5uw25r,9rhf5<6:21uur5r727u9du97r=7ti5r5trrru41+,=2%d9wuww5,<fvfi8870fvf088660ibv008699iff0088bvvf0676399vv300070fv086-6iih51,,=r49au,2329ud2===-=9d5uiu,999ff976-65bi9068:iiiuiit9tifuuri<-@9dr55,2,wuwq,2;1-5r5522=2,ud515r5u5ddr2;+3wdu5u",
"u5725dd,2,==25w&21,=57dfw5922afh42212=u57quy=95idp9i97r7ii99iclr73,O==1=ur5d5r,115ff00777i0ff88877vfv008687v0900$llxlb87$l>8fifv6388fi9vl866o$3v,55+91pu51222rui222--=2d95ui22r9uiii72=93u998:79uf9007rt7ffruut2.,d5555-25hwu2==254uw225;5,4du1,rurpdhd92O=,pd49",
"3,uq59u12,%,%2w11rr,rrddr5753fdw4<5,725542356r2uf95ut7utipiuitztu,<$-18+4udu5955,1wif9786ii9808680vfvv076vvff0v9ll>88b087$88f09vll8$390fll8lb399O77:95555<,2yrfr1=2==2,pu559t6tauuua7t67u96<<-77ufi737r75fiiuiit215u952:225f522==22u4,=r=21,54r13r2uwhu5r=255d54",
"5%2,54u&51,,5wm521t22wuwwrr25pd5&,,=qui5u52,20w9fd23r27rfifuiic35@$@2=u-9u9527r245ww87760ivfvv068vvbiil8$60vfv00$l8llv87866l0vf9l880vffi88880bbf<92#94dd5223qrhh2,=7:;2tuur2327ufuiu:t0iiiu22--9ivbu2769<05797tr25453y=22wu5w292:r5pu5,a=75u445525w5w5ur5=215dp5",
"q=2%5554rrrrhhhwu,q2w5w5u25quuhd,25=,wd59r52,u2p5dr5772ufiairtxtu1<+r3t2u5uu522225ww92<670f090v<809bv0686llvv0vblllvlvll88709f9f839f00f0088livvbi777<0d45,2q5udr1r=2::5u4u2,7u5dfirt76uriut6-88-fuul77>t<uu562r77fi5=572995dp5522r5wr2=r2,25u21r222&554521rrud3,",
"2,9,aMhfar255dh52w5,5354415r4pdd&45O22hw9535=23rd9527r9uuiiuiiciv,@,<<72ffd9r2u71udu2==:60ff0i687vvmvv8l#90vvv0vll87iv807ll60vf0l6609ivf0887i30bff0f$0bfa,;2urpu1,r5225u$9<<2295hdii2t7tur092669ibuu7trt3tp7=9rr2bmf2,<=2rud9u2r225uw5=u222rd,5152w,wuu5w+2w555&",
"57y25fhduu:29ud1542;9dffu00tlbv9122+=1dwppqr2=259u9ft69uudiulixli5$44,23fhfutrrr+2du22:=<7f90v808linff0v699fi09ill680v9768l7f0ff06739fvbfll0fibmf73n<0iib22=2ufh422,225f<<72327phfui69r9if997-19uiiuri8t3rfi68:83dhMu52=<r5drq272,,u2212:r,55251q-r,44555&11w594",
"q5275uh5p72q5dg&<<i<fubbv7908ln05876=2r55uwu3,wpuprr522ridf0ttlif73,<,<,4ffurriy,55p22=r,2u9f00780vbv087660ff00f8l79fvl3768000fv7ll79ivf9lllvm30988$viffii52,2wd11r:7qwd9<@$372uhb9itrtuuiu372=7ffii22:637rtr8872pfht51=,59w952r25rw522=22rurr5;=2-24,455:2rhhhd",
"57y5pdd5r5215hb570t70ffvb0i66ibf799<-9i455rurrr9di57q737dbbay2lrf5@<07325ufp57t9,5fuq,-;5,4w500080mbv076689090978l0f0vl768l8vv306ll7f0b0$877ffZm990<0vvfi9t724du11r272ud5f0f=+25dhuur<uiuipt7870uhit98t2055i922r<fdhit9#55555,22-95a7r2%=345u553:2=155,5r2frdddw",
"q%r15dd5h52r9ib7778<80ffv0v88fbv38760ib354,21q5rff59327uifbaiicii9,53r7r9fhf9fia,5uh53=-91&u1wq7i0fmvil06l80i993l>lll8l0687vvvv7l778vib38868ffi<3087i9f9000t9ipu*,,,q5udu90i7355dh95387u9f957187ifu776t7tr0u7277,hbffut:72wuu25--2<5u57==52,5,w,=525d994u2p9udd5",
"5=2444h5ur2i9ibi37v<8vfiv008l0vb<70$68b9d5w212w5du4i7-u9duuittxlf5<3r3ri4f0d4i0l,ufu5r2=rw1w521,79dmbi00870vff78l>$l06l7077vfvf988l09ivi08700fh07788vfifi<8878fd122w7rddwr,22355w0u9=2rtufui7<9afff392275uuir628,ufhub5rtw55r2t2=25449u,,725u12,=r11hup4225rdwuu",
"y-2,45w1u77tivbi<<8<3ffff8l88vbb37l687z83542554udd55r:3uffi97rrli9,3326t5uhfu57t,49d552=,r51512%250fn0v076lllillll8llv9l78890fvvl00lvvb9ib780bvv900300ifb09880vp2,,,22uudfu2729u3wfd275rd9997777ffp0rt7-359i72r6,9hhtay7ai55525r:2522251,2ufhp29:r214durr;2pup45",
"u22154d&9299lbbi668#79vf0387l8vb337770bii03,=2,9uu077=-rhhirtttNdf@i=-620fdfi7,2@<dh57r:14ww5,r,,19dvbi88l8vb0l76l$6il938$79vff9l8llifbiil800bbf07867v0v0i7t78mbu5454rugw5q22:,pd939227uhhfu32r7dhf9t9r:3u959r9i30h0iu920ffuu72-=77ruu72r29ufu29=23594u4,2r2uh55",
"qq2255h,i67<90Zf790<i0fvf90678vv536069lvii72,2q25dfpi812ffii7rtiud@91-99,f9ut7ti=9uu757r72ru52,q5,uwhvf<83vvvbvil>l67908l8l7vvi3b$7lffbvf8679fvv30l60vvb707888vn0d311w5dd5,2=22rfur2r-2uhfffa77r9dhfu0t72ua22<rr3whhd977iufhu9rr75fr5ru197ruiurrrr=55wu2%,2w5wd5",
"572259m9l78890bf30t<vvfb0008l0nv377787ii9i7222r5wuuu9r95fb9ut8tlfb$09,6l9fupi2:2+9uu2;7:2rwu55,,==,w5ultl9fvbbv9ll>80f7386l7vff9l7lv393v8l839viv39087vvbv8888lvb07f2,uwdw5u1-=5u5r5226279dd9977tfd999779uii339723dfdff57iadffu3-2rffu97,=2rpuwu5r7,,dwu52=52w555",
"q2q20uv<l788iibf870<3ffbv800l8vf97708ilf90u2%,225dir27t9phi9rrzi9b5983<07993itt2#2ra5r22995dr9222444u47ll8vbbil96l79v90686870ifv860vvvff388830bb607809bb008l6vvvi977,,5ww25,2,5uwi525:3r5uuuu2299hfu9927uid927r659fd9fur0pfhu9922rfhhri5=25ddr72urr1uuq22=25wd55",
"r272ffn<i070ffm9378600bbvi8lilvf36068lvv7i7t2,115uai2r359f9itrtl30,977199hi258rr+499u73:5u55q25=215493$$799bvll0ll09vv068$l9990v7l0ivvfv<38770bn30780fibff8l8vvb0<ut7uwww22,,<2uup7222t594i7ir59fffu95r-79f532r245du9u995ifmp95217uduirr2199ww522wu1ru5:2%,45w51",
",r96lfb7l878vfv0<<369vfbf900l8bb4$086fbb8i0022rw244i277r3bu3trizhf,3<03aibhu91yt=-u9u7-:2r59511,=12wr22,027bfbbl8lll0i00$l$l$lv0$l$livbf3v8800vv9306iiiii0f00mmv0368t0duu4,=,22wdd55<-uua599528ufdfu7-77i4h9272r3whhir9y9hhmau221r5u9u5<:25rw5,,u;r,ww52,,=%wwuw",
"r,l7lbb3l668f0vf9<7<009bb078l8bb398888fv99i05qurup5956575ui0lttiff$<50<8<ffi77tt=29r29r:2iuuf12,=%4wwwr,i9i0f7fvl8l0bf00l#lll>07l7llfbbm006l0bf0<86<<if0i098vnmbl0806094522=;,55ufpu=23rfa9p7:-rhffui221uuiu7r92,399utu74wdff7756id9dur27=u75h52u2w,u55w-;=2,41u",
"i9tifbb9b8<080v9l676799iviflv0nv<<7780iivf00=2r59dp5r>r29ur7rztl9f,5126l4bui937l,<uf5r:75r5diy,:+214555,80ifff3izzlvffi6$l$8>8806ll$vvvv008780v03088i0bf0b0<bvbb<030869052,2===wdd592:755dff22=54duutr659uu9,2t2459du45575hhfr7=29rdr9f2r2525uu222u,u5,22=2q55dr",
"09t7bub9l8808fv9678<f0ffi3700bbm33966lv8fv00,25ddu99t2i25fiu9trzfm,ft77i9fuf72rt#54pu7:::rduiur2%15141w=60fbfii0t800fil0>>l6>z766$l6ivvv00300fmb<88600fv0i0<9ibb008788399111=5q25hfu2-5r5uuu7727u3u20y-254iur,7=5du4hi7r39hhfrr:=2wud55,7=5249wu=2u2wuww2=2q5ufi",
"i8i0ffZ088880vn0<66$i7ffv988llvm3$0883f08iv8652wu4ur27tr5ui3rizzfh&f796t9bdi788a#72w522:<uu55527:qru21q2<09bb99000lvvb80l$8l97938$600ivv68689ibb7i870ifbv8l88bnb030878693022227qdw3u722ud95u32-ru93urr75i9uur222<9d4d99359ddfuf5<uu5u55,=222152wq=wudu5w2=979ffi",
"i6z0vvv9866739b37686009vv088llbm3<608809i997<35u5w<277atuf096rtbhb<9<32t,bbur>:z=339537-2ufda51;2rufu42,18iifv73l60vbfl0886lvlv3l86l09ff7l60b0bb30783fffv38888vn399088l0u777;5uuhhd42=25dduu7722p4d73rr2iwu4ur7:<5dd5ur232uhupu72uu5uu72-2r51uw122r5dg225,0iidf7",
"l8tivfn9x$8789b9<$680f9f0068<lbb0<088lv0f0381;15d525-2r9ifit6rtbff@i5t2z5fb9tr-i#7ip,5-2,5dhip7-22uhw152#8ib0f3786f9bbv87877vvfi68>6b9fv3i08vbbb30889fiii8$780fb937888bl07077%5ddhpar-q55w3525yq594,5-3,rffrtr224394fri1iu4hufuu22ddw2a=2=2555r5:1qrddu98-87viv8",
"v60ivbmibl6700b99<660ifff988lzbl9<3<86v9b0007-=9w9,2r5iraiuz99izfb,7657z2bfuu08r=25f272:2uudhirr59wuw5q2=80ibf08060vvvv88873fvvi8868f00v6i63ifnb<08809bfl08<80bn9u768880077r975w5duur;,5wd5u2273u45@57r3pdd5u7r=13d42uu<p43dua7t,355r25,7;,4552522rwwhvi8607fvf9",
"0800fvbfvl7888b8686$99vi00880bmb758<6804ii96r,55dd4<22tufuuibi8z9h,93:7lubfuru8t+99u75r:,r9wdd75qfpfuw57,uf9f988863vififi8l60viv7l800fib07000fbZ37880009vli688vb930808ff07086800dddd352,5522=22r55u1427,uw5u5ur2,4944492rr5u49uu22q2525,222;14155<d9fnv0i8i0if7f",
"08i0ifm9f777lvb9688$09vif9v80bml9<37<0v9blt96=,qd5r<22trfu9utztMfm39772itMhb5t2t,pffr76==udwwd9<,iuhuw25+<09v0<986<i9i9iv3llif9i6l80fifb80080vvn<7060vi070068nbv998888vn9i6880fb9d554125ur552,=r59r22%225fw955r215d5522259ddu1uqr55wu9u=-;555221<$ffivb98877if98",
"08l69fm9l8l>6fb0$8760iiiff886lll300687l9f0t78=145du5:-uuih329ttzhb,922775fbbitri#9pdp<r:29rd525525whdwur22ffvf7768<i0if9l76l00v08880fffb737t7bfF7888<ibv077680vv097<l7ivf9i7<<90iifiu2=5wuw5,72255d4q=%,4ud4,r22,ud4w2,2,45dh45rur5u5522-15r54,5879vbbbv9l60ff0f",
"7700fbm366>70vbi6773$fif0006<lvb90067800f07t8=,25wr32627hf99ptti9h3f3-2t4dfdatrz%3ui5972125u55,5,uuuwuup%27v9v07888v90706l83f003886l0bfb9860ibmF8l8868ff008780vv338886ifff087<fffivfit9rudw,2;24w5u55=2,,5p24722,wd5u2=2455w5d3255u5pwr;:;=wd0i707vfffvv86tlfi07",
"it70ibb8087#ll9f77l70899iil88l0i3937800ffii8t2225453:692uf57i0nzff,iu7r9<fdff96z19rdq35:5954w2225qip55ra=q,ifii786783f9f887l9933688890fviil38fmm70b8lib9898660fb8<00800ifi08680fi9f0il00Mbf9067,5w4,2=;1&4547u2u15dw22,215ud4ur,2qd5wr,2;769ul7778ffffivv67liiii",
"8608ffb388866l036$767v9900886vmbi98739i0f0t76-,qw2547rr7uuf5iuzMfb343<7i3df5u0rr79dh752-5rwu921,,qud552h2r12fi79688l0<i07l6lvv0i0870ivbv80089ibf677800vf798<83bn933888nivv08680fff9988i9vbf98700ifi772--,u5u2q,511ddq52=25wd55p72wu5uw7-8999i990668fvi3il8800d93",
"07667bm08378lvn88676l0vf9988$3vff0l88709v77t9r12d552227afd59urlimf3f22-i<ufi5772<59hu7r27uuu3q5;,2wh51,r,rw,5i97-6lvf99068l80v0007700ffb08380fff8il887fivt0608fZ97700fbf0fvl<88fii90l008fmf8l6880f8787>70999ui60,fufu2u2915dw195275pfib788i9i000008ivi80860vf0f0",
"i7t790Zf87686bv8686$0ffb008689i9988088iif0086525udur2:7ufp<73tridh3d3==i9fudui7,,9udirr22r5dr57:,24u45wr,qu1wr2i66600ii9786700ii0688999vi08iiff0<l8zi9o8$606889bf<<68fv0v0bl6090f09688v3ivv037680vb0t7>>99i0ili8<iiiit8ri0dff9007iifffbit8l8i077879ifii086$0fvi0",
"i8089ibvl8788bb3878<0vb90v686lvv9087<609f0007i2rdwpr9r7ifhu976ti9f7u9:>95ff52862@9ud5532725u5u52r225555r=2rw4552260i9i7t6l009i9f8670838v0870bbbf$009<<<v3$86608v98780ibv0ifi800ffi037<0f00v907l7,<3vl86660ffivv8<09ff080009f098803fii9v6l80f000386099ff086600i93",
"8683fiv3l6663bn9738$i0vi0fl868vv38i876830907urq5d59w25raffurr7rM9h53r92r<dur29rr,uuirr52rrwdu5,12:2p,w2u=5r5w5wr:22u9iiu7000fif08880ff<<$3$$f<9f<0f63<$bb<0<$70f83<670ffvf0vl897i9008870ff907$$08$7il888l00090b<7bbvivf00f0ff0f6lfi0i8i688vfv0088679i9v0078v9f98",
"3788fbb986876vv086870v0f9f77778003067l6097836t4uddut577afdirr6tt4u25-1-i5iu72=6:&5d595r72r9ha52222,ur55a25r5w1;2=5,w5w1,1630fvf080$<<3$$0f$33099<<030bi3<<$887bl37308iv0vff88ll8ifif0806vv00l609vf99b08fbb0i88l8<9bfvf79f9vf997<67ff990786vivf996800ffi0l6600ff0",
"7<860fb0l7$66lvf066700ffiv088fii0l0860l00i986w2w455q275r9di57rri9f<t-7=r2f5ir6r:,f5uq22-quudur2=:4,4w5155rww2w=2:25w5uw17#<00f300bi8<0iv3$f9$<d<$33v<0,i0$08<63b07<<<90fv0f08bx0ifi9v000fvb79l$#39fi0603$bv006l74fb390$ff$v0i088<8ffvif688vvv0886<899f07888899f8",
"8600vbb986873vvv00800ifb8f888lbb<$<0680fff068<21344,2rridhi5r:li9i1r1<-t4uf99162,uu5452255wdrrr2:y,9,225=ruhu4222:1u9252t0,3f97030$f8<8v800<90<f9v9f90vi83<b$3f0730008ffv908000vv9i380ilffv36l$9#<<<943909997l83$333$0$9n303$f<660i0viv66l9vvv008688079988l0v090",
"66700ib3l8ll7fv38360l0vf90808300,$7$80f9f0i6<0rww494272udfp9728iff,9=--i79uur27=,2hf23=23,4u52,,225p5w,r+r9uu555;2754ur5700i9993b3if4b0b$m790fm93v00vffvl067l800<<<688vvv9f3880vfvif88vi0ff603m0$7$88$f93979obi0439f30f0mfbmb076600vv0i66009vf08880if008l7lv99f0",
"l$86bvb<l866fvbf8838i0biv0086vm00if083i803006119ddr2223hphfb527afb952--15u997561,15925=:55ww252%23uhwu5u=qpuh49522:5454f9<9099<99v<b000f0f00v000$b33fnff<8668lvv936638fifv98l8ibi000l80bvv07679i7<7399$i33$30f9339vi33fv9393f06637300fi<87vf0f0786libbf37l7v0v0f",
"l<7<8vb686l60ivfv8800iffi06l8mF$3393i<73bf808<1555u,r259fffu7-6uubuu-2-235uurr7-<2uu55::r25uuq2=,245w5uy,r55d552:;2t4999093,f0i3$b9f0390$v93fZnv3n9970b0886>6lfv877<t0v3vvi7880vfi0i880lvbnl0877io$6909$33if9fb00f9iddbbiiv97$888033iib<08009ff8<6800fi96l009i90",
"66878fv386l6llbi0988fffff060l9v$i3$939o<$l388u12w49,477udufbi=3iuf3h1-9:1u999rty,2ud3r2=2r1w5r5522qw5u5r5r5du5r2:2=7w0<3aFi3vif0ivvbf3vbnvv<9f<m<v90iibbi88868bv936<8ib<0iv080bvffi376ll09v90fn3339$9vfFi083793i33f9593399f003380893f9b306v0i900760vi90f6l8llf90",
"l6660i03l6$ll0f099888fb0f07680Z<90b3f08@91=7772,wu55525idff4i37ffh<f1<8t,u9uuuut39pf2uy-1q2w422222555w29=55uu5r57:22wi<,bib06f3i3<9v790fi8970f9v3n0890ffi88808f0<98<i0n0399067ibd909l83bli998760$i3$9ii30v33i9i9993<3+vbl0f3i<<$76i909b0068ii3887670fif0766lvf00",
"8>-78in9l8878fvvf8830fiif0l78lbv$vi93bi$0<93<0,15,79<m2iffbfl09vuf407#:r09u592721pddr5751152r2222555554q=2r9ddir7r:5o#0@37ii00i00383f3i,900i0vfb3700i0vf000i8zff38<<79b0fi7f<80bf00il8l7f090730l809303Ff0fif9imv30f39$060fif99008<9339i6088l00366770ffv0876lvb0f",
"878890f3l6$78vb0i8066fff93880ib0ifb33vn88l375i5ui99,59<<9f390559i<<$<#$75fhpu,5r,9hhirqr927ww2222r5dw595=24w5d542r8<i<<v=70u$m8<8f7f0<39,5255dmb98i8vfnv08788bnb386<63v0v070<99ff0f9l8bv0ll$63l$i0ii09b9i9b9i3i<79o9f<3830fff90l087i08l7880vf0768883ff006677ivv7",
"088f07i307$80fbf990300bfvb780vbv3fbbf$8137<f9i<9prpyqu5i7,7ii5udheepqqqpwg4979uu1dddw55rpr552w,%=25ur55r%2,wwup<il0i87$$<:6i3i<i$f7v08p<4922quff9377ifvvbf768lvv9666880fffv86<ifbivi000vv9ni0v0$79ii03b<ff09ffvb99973<7667vbnv00l009073686llb07<6688fvf0l$63ifvv",
"0668fff3l8863ivb09888vfvi8l68vfv0ibZi7vi,<i9rfdudqjqwpjh5fffrepwMjpprypgpgq4yu0u55uu9u3:5ud42r12;q5w55,r=5#+w,79<i,i<<389:-7070i79=b99592<222ibb008670fvbbz080v00976l0f9v080670ffdvvii9iv9$03l80<<333in9$3nvvfm0039i388787i09v07l00fb006866vf08687000fv7l776vi99",
"0l68bfi8778lf9iff08<0i0fv0b700b909,9v6300,9udui09wjiwwjAMsu5baijgdyspypjegjpryp75udd5pr:1udu5r,;2245525+qjpppjyypupj54v<N7:5559572Zuu5u5,,2,15fffil6ivffi0flzmzvf07<68i7vv0l880bf99$3677vffv3$9v03<$n$v<03vvi90v38$$v868i<9f0f08860vv0f<7$00f366668700ll8>039vvi",
"87l8l0v3l770fi99f8860ffvv00086vfv0n8mb09i05f397vhrappegkAksjqpCkhjwsqppMhAppppedd335u5r59upwu222,5wu03epwhjggpwspjkgw<i0r72753r5732795d41,,,1uv9vi87ifvv0i008vb09b0<77i3ff90l060fivfl8llb33biiv0f33$$73<330fv90Z<f90v836v9f338i870ffv08-7700fl6$6$030v8l86030vl9",
"i<86vbbii3683vff9776<ibbb003ti0573b309vfnb0009dhCgjwyjpgAjjspyjkjpqpwppgjkjppppjqjejg4f9534dd9,r,,ijyqqsypjjeepepsAku299u673hu937t:755u<q7:24dbffi063vbfvi0t8fnfi88<7<f0fv076vff909777llm0v3$309i0f8$<83339f9i8v$ii3vi8<80fb8788i8i0b0i<860blbl<6$l69i39f$80ifif",
"i88609bi00688if8000830fvffl8llbv73ii9if99n73f3u&iZaseshgCAjMsspjAjwjppspggjppyssgggjeewwjjj9$wq1,qejpp;syggjjjrepppjw<<7iu85uf29rr72iu5,u:q,44007806ii39f00l60bb90l677b9i0v8600vbvv6l$0fmfi3mv$iv<i3b$073if9mi08ifmi9i88039nf0778i9fmfb<<80vbill8-669909l6<9ifb3",
"08l8ffb9986890f030880ffbvf08livv9fini0v$8Zn0upfggejpppgjkkjsppjgkjejpsssjjppapsjjjegppwpgjjppqqsgppjpyysqjjjppepjpgjg73998ru5i2392035u4,u=725wb99883fvbi907088vv00v680bfi9f8600fbfl7877fbvi$vb790f<7b<76fff3008i3ibf0986000fiv0000v9f0l6680iiv08z0869970l860fib0",
"088<vfb00088v0ff0907003iv0070bmf09fF30vf49bnigjhjyypapkkkjpsyppkjjupsppsjMjpepppjjggpsppggjawy1qsgjgsppawkMMspsqhpkghb,,r2299h972=757u5,u15uuubv9<760vbnf9006ff00f0807v3fi37680ffil6l78vnvi80v03$v9$06633if90v87iiff006<00fi900800ff08l6680vbll60tl9998i6880viif",
"088<79fi076700vi90l8ivif0v8l0lnb9790b3v3057hjjghpwdqMuhjkphyppjjjeqpppjMjkjsyyssgjjpqpspjjgeyyyypjjjpeyMwpgjsjppkjMj90r3t>19iffut7r7295+7227udbf087<90fff300<ivf999989bivff6670fbif30l6vbvv00$03$,<b00<6399999000bff0l86liffif0700iif7086<8f0vb0z8xi833f7l79f9ii",
"08878fi30767vvbf9i68vvff0v0<l0mv3998n0f0f04rpbhjupf77i3bMpjzypggjjqgqejjgkjjprcsjjspeqspjkkksyqypgjMjsyppkgjjpspuhu7$b99r227uii4598r3du552255dbf0083899988b08vfvii0388bfi3l0680vvf998l80nmv07bi93$<$v80809980<68<if3i68>00vf98003fii0f866<0fflv7lxnzb<$7$00ifv99",
"90809ff787670bvv00880vfv0i0860fv3303m0nv0v2uiubfu0fi9vv8l<aaaajCjpqysqjpjppppyqjggjap;sjjkMpssypsjkMpjpspMgkjgpau,f93,uvi:70p555772r95p1r2225hZf0307i0i0l70780v9979708iib0008609v39337ivvff3$8976$<3$$<893i0378l0iv08i6><8fvi98600f09036860ffvb88lxmFm0<36$ifi9i",
"03l609f<0$799ffnb000lif0f0008tbi95050b0i9iaMb537biiiubmiibibli5MkyqqpysMkkjpeayMggpjpqyjjpjppaqsegjkpsyaeVjgj<708v3n0pdut7rrifi0r6:2755,5r:2u5ff7888909ii87lt0n0v73000iib00l070vi907060vnnv076vvf3<<<7363$b7<398<<06<3>>609b99v8i0v9i08<<8309iv0l7l0bbb8$639fv93",
"86z8vnb3l67800bif0i7ivbf97888lb9<<8<i0ff093umu779fv,b0ffii70f<<fSjqy4ypkejhpypsjjgpjywppjMjsqqqeegjAsppppMgjffvb0b3iuuuiu6ruurt,72-ritr111-,2wv90808liv0f06ll8vv907780vfb097780vf307776ifmbf3l3l<3937<<378$<6$879i<9338#<<ivl7it80iivi00-6l0i89087lfZvlm776<0ff6",
"7<83fbm98l880viff7i<zvbf08687vbb3386<779994fu09f930ibbZnHbvbf<v9hayyqqpjgjssyyyspgjpayypjjjjsyqppggjpspseBhnf3ii3i1iuu59t-29ffu761-2u35112-=rwb997768lvvf00ll0bf00766lvfv0036700v0970699fffil7n0v9<<39830<vvv353i<i0bvl68399i692lt8iii78660vvf09l8vvmbvv8l8<3908",
"870<3fb9878livfif8760vvb00867tfb337,i9f7b3f,f$v<f3fffnFbnnl6Zfb0ilw5quqjggphpapsgjjppypppjppsryapggjqsasqn50<3Z<i2uhfdu9r927ud0u1::95uu522==14fu300870vf9080lnmf0f9367v7vf0867l0v0v7l$7lbfiv07lbv99<0<893099b930f3fvbb0807f7789870vf0i866<0fff9088l0vvvv8lll3<i9",
"l$887fm3f880f9fi0l7<0vfvv007t0uw*&2O3fn9<f79f33,93vnbbbbu7n0n<0niiu0,r57urfryysMppweqyapkjjpsqqppjjMpyah9b97m7v7235id59u27359fu587:tu9r<;2-:11fi<7<3iffvvv088bv0900787b9f008687vv0l78880b99i087bF97039$$f30vf0i09bffii8607fv776983830it788i0vn3388v0vbvbll8nv339",
"08880fbi008lfbmv<i070iffn071=qru,,2%219,b3nib983u0f0ffuuhwf88009fb907700<i9ffuyjgepryewpsjpuppyppggjuppn9ib9fu7572ru199u2-275f<9-l=7uu9,2=2=259f668<ififvi000inf030600vvvv938800v8l6$l6lbi9illlb3nf939b30999b$6i<9fvlilt88ffui88889i998<60f0fv08870fid0vllznmb93",
"8$66ifv0v007iivf07i8ibfff97#q2d5&1=+-<f03b930vvv7i309255dd9bF@3v00<3if90,v<i<6rMjghpyui8<pjppyypppgjpjiui,9u4995rtrr5uu28-:7rii5:9:23u9r72==,,f087660f9ifif0lbbf338<67fivi00<030vlb7$l6lbiii608vvv8bv0v0fbifi07839ffib8tl394,2,27325059r6$9i9ff98600f9if8lllbmb0",
"08<<3vv309393fvv00070iuurq5:2,u4&42;20ii8fb3799fv4d992,dhbniH0n33,883900$f0i3mbfkpe7,b#7<ipppq7ajjj,f9vi&555duuu525p99r7r723755528ri9uuur6-22109<08$39fii908z0bv37066703f0ll6700v0ll87lln3v938803vf000n9vf90ll0l<8fi0i5;559u552=1q5w5557<<t79i0787v0ii80l7vbbnbb",
"066$00v6v390ifff000<394wu2223r5w+&%2:0b<<<0979fv33f927<ibfiiZiv<93i3$9if977i70b0N1l$<<8<f<bli0iii904<b3b=q555r54ui7duur7:t9riiu7-==39huury715wf737860iff8vi7zmvv978686v3007l7767bfl$l$78v90v786l8f373$090v8b088l<0fu25,=2uuwqr5-=22uw22,-6tbff9766i0fi0t8>3fvvvn",
"b88$69i$37800if7<9t824q,5=,2:rfu%,==,<8<8fb93bv09f$39tllfiflf0f779f8<33840b70v3b8$v688D8blf0i709fi9@<d3f=52515p59rrfp94,2:7ri9ui7:7r4dfu9222;5li607870fb93vf8bmf370<86099000ll76vfi<8<8fffiil66l9fim<fb8f7fvbftz<0ww452,2,uw552:=25ur222,,5fiZl96<78i0ffl687ffvb",
"t8xl8303v<00i0f0376522u122;2=7r51=3:5999330vbmb$3u1r67ilfvfFm7f0039$f<30$<09n0770$7<86667<3797ff0fm3iivv;2,w51r33u29d97<7:7=iu397::t<5d9u2r2r5fi3<7700ffvbv08bnf,98<8883ii7776l390088700v0f0l77lifiif360v7ifbvti,5555r2,r5w55u221,4uu5:2=%5wpiit6660ffivb8809ifn",
"l60zvf3$68660ib0<0,=545u5:t:22i5,,2256i06<90$855w547660bvf7fn3$i90<339v86$036$llb#i036-666vvv07080i<$39f2255uw432rrpuu537877ru5fr26i599f572qu5bv6776ifvi90b800mb<<368803ii08666l308670i8vi9flll89fii7070ffff80<q1ww5252=579hu32-775du22==%1uufil86<3995iz78vfff0",
"06<7bvf<<067ifvi<<+%2u555=2:6yai,,2r720b09<f7vb92u7i<7<ifi7vibi38#+<$i3bfb39nlllf837l0678004393808fib#935&21w5p52rriup27r-ruuf759r2t55dp2,,25pvn686-7vniivn0bvnv<66$8lv0f0f98870ff0<880lff9i877v00ff00089ff99557,uu5,,<;35wuiuy2<ruuur2:-=2w542i66<<f03<88609f98",
"8667bnb8<688i0fm,2=%225r5-=:=5pf&&<727rlv8$<i3i9uwut697l0v80i0i7fl$#9$7v803fb08ll7<f008680f03376903fbv97922ru5ur291uu953t-29duu,7>29r7953;2q2,bb<6003ibb39vl0bb096766009vvl68l8ln83<7689f0f3087viviv083lbff42rr7,5uu25:-6299ui7r2ruu927r;-2uu55w8769iii768lfvvi0",
"0667vbb086<709ip,::=55p52:27-,uf<&2u2tup399<7f0u457i>800vf0mvl9038#<<37i<$9iff6l00f0l86687f0096vvv9v0388t6q5d259229u9u2,96rrf9077r:t55wu22-25wbZ6<6799vffffi0lnv<3676fvff0767780vf3<7$<89ii97<llb99il868udduw7y7&4uu52r2rp5up72273rt59r5:r2ai52268iii0i08$8vvbff",
"068<ffb8i86889u51,7=priuu22t8-ab,+,329fhfv333i01wdii>-87vvif9f037<$7$$3i009i9l0lvifb0066$8709039ff93<338094www5rt75u5p52t:3uuf95:r:iird2=2=,,1ff0<660i9f3308l0bb9<6<60vfvvl8l80if9668-83f9f9$680iiii77834wwuwq2a=uu5p7r:2i95i3r27iihi5r-=355u4,2,73lb0i67<38vbnv",
"8767fbv7li008fuw%,<#159u7r8:715b7-123,dfdb8mf$f2wdill>789f0vF977ii$<<38i7999v7l7790vi0886830000039f7vv08<iuw54541y,97ut21=2<ufiu79:l72u92r=255vi0363ifv9f8878lnvf7066<l3vfbl63l99806866899i37870fvliii3215555urt,5f0ur6-3u9u297727fdurr-=59rauq,=2r79fv08689ivvv",
"68779fv3000l0255%q2:<pfdu9u67rrb,22727afdfu998u25w0v888lvf0b069303$3<i$i90f37i8l090i306886fi9vf$9f09vif66<73h4527:=21u5u7:299f5999ri5rru,t:22uin<36<8fff0887839097l677v33078660vv9i<868i99i06708ibf9r,r;5r2wuu7r=95dturr8ruu5,3677uiu5i2-t5pu5r7=%,0i99008609mfi",
"088800f70088iwuu%222r59fuitrti7G4<27-25buu9ui3iu590877lifbi0v00bnv$<8<6873i3680ll3fv9766689099v980vbf8i8<825w59w272u1uu9ii-iud9urtrir395,,:2;wbi<8863vb9f67689ii9$7l7vb009v06883v9i<6-68v977068ifvvu1=q25u515urr=55iuu28775i3772urufi9762ut5u925===5f99988i00dvv",
"08llbff88888ruww%==:ridf0792iu1m032673up5u,i902uw5i86>7b0bnzl7mf38$3736830f87<87039v0688609i090v6fbbbvi86i55wu5r=r2u55u55t27u9947t0uipf5q:=:52nb68l87fbf977780f0$3$787vvf9996873f7036>>8f9070780f59u2222wud95rrt,49927ttiiif97<-9iribi7u2ufu55rur;52ii076800vfff",
"8080vfv090885uhw%%-=5uffurrtif,i5<322uif5922,32w5h8x660lfvvbl097f33$<867<9f00<8887990l688099i378lfbvvi0f8iiwup5r%2=r299r27uafu99270uufhf57%:,2ib<68080ibv0887v9b366877ivv0v7l880f8086778vi0877l0f5d55q27545wr5tp,9dd53796uifit77tliu9ait,tiu95457253997708i0vvv0",
"0780bbff008r2puf,,:=tpfdu7r7tzfu722<22ubpi552,rwwd9v060ibvv8z07iZ9@3<868<f9i8668<69f8088800f038880fbfi80i7iudw557:=555u7=26aiid7782r99durr::41fi<086ibv007l68l8066767l7ff700768li90766000f9090iifdd5512q9u4433>t#9fu58699ti9di0170ffd39u29trau322:2qwf830l9ivbfi",
"it7lvvvf00t5u5fp%2220uhfl37t2zub9<<97:if5i322r955dib880lnnflnt7<b9o$3868899908786338037808vnf78637i0if0fltfuw542y7:2ru35--259599ur7i9ddu22-:,qfn3077ifi079878D0f93766l00ff80l667v90776800fi807liw4w5r5u75hu1258r+9hp73irufu999i799ffub5t<l7ufr272t2r4f978l0vbbii",
"titlvibvf80,9pfu,,2-5ufdpiutrl99r<167uub97i1=55u5uib8677bbi0b060$9#<<8689f9i8t88i8f3<866ilffb06<<<0f3fi08805ww522>255fr77267ph97pr2ruupa5r2251bb$088990i6l7llm0v30989lfiv7078l89ii067-0biiff888fddwwrwu21uw52=77,5tu5<579iaffui0r0iM0uit1trfipr2=r5u348l7l9ifvf0",
"007i0vfi087,1hbh,,2:7pffii9trz9u9<r76urfuir22=51di7z88iivnblD67l9io<<0$83f998760<90f8l879i9f98l6880i3099-0i5w45<2:=25055:92r90d57ttiu9ft5t5r5ubn666$63v0788l0vif<9970if9b088780900l8860ff90i80595dd452rqrd9urr2r53ii7,<62tifui0ii7fbiilM199df<uy=7ua090390ifffdi",
"zl8ivivlii:2&4hd,r77u3h9u0tilbi94<396rlfwd9,752wuhui68l8ffvbF86l03$$667l0iivl86l770fi97$8l89bv78607f9908789upwru2:95192r7230d055339iupf0527r52nb<00860383308zl0b<<7<ib09i930888i90l6866bffii99094wu1,5wr5du457rr<u5fut288d9fbu7i9t9hf0dv2tr953r5r2uadwf73i7vnbbf",
"6l7vffvvli22wuff,2:299hf99ytaiif<,<775ia0p5$2rwrdhiz778lbfblnllxfn#9366i0l0i888868iv00l68bf9i07767fff88070uwdw55:-235u357=290p99y2227hh531rquwmb3787789f7888zzfb333<8lf9f700880lf7i<<8<iifi97700dud25wruuhfu79ry,iuhr77>79dhli3u7iffhfii7uuur523222hdwfi08i9fbv0",
"70<fivbb7y225hdh2525udd9i9iutl9f4,$6,<ub9ur2==3wdp0l88i0fvvn8l7xf8X308608v0v66>8<09v88873vifv00t879v0v6876uwu4rw2:5p5922r25u9hd9981u7dfhur2uuwMv<87768fvi30tll9f996<0zz9f9i0870if0v<76<8f0909799hww5252ruphfrrtt2uhfu987<5f9bi997ufdi59i7uupu92,25,wdwf9tl800fif",
"7z3b00vv69,,1udd,u735fhf59ttiluu8,$<229furt52-,25u0z88l0bbvb688lfb$<@66i9vfvl87l<79f08ll00iiv08683vf9fl088udd9277r<d9p738:30wd9hir-t9duduurruubb66l>8<3f0708lmff370<70v0f8i8070ifv068838fv0006873dw,q5,r59dip15t,9fbir28<7uuuiiitr9f9i9u7t7iuu95#5,puwuiizl8iff0",
"086vfvfnt2q2<dd515u7ruff577ilbai576-66ub5u93r3wud5vb898l0bli878b3b$336689n0i908x0vfvv700800ff87666ibffi8<843d555r2;74uf52877d959ir3iudd9555rwwhN<8>87709088l8Dv0,97<78f<i9i7000ff9i78880fff00080ff55q2=qd5du7527,4ffittu<3u0uu0iiibbff792r79iuu9::2w5du07l83df3f",
"887ifvfm71,=4dhf,,r2i5ddiut2tl999,762<ri5iu5r0p5ud0v888lfvbl78ll0i3i$$883bi8838n3vibf877<v0fil88689fffnz685ww555r:29duu2:2225959ir2u9dd55r255dfb<07l88v9i76l6nvb333<$7i339006780098668709f0vtl09iff4,2225dddu5rr,5dfiuur3,u90f9itubbuuii29i9dwiu78iu44uf0v8vff99",
"06887fbb5r=2dw9h2r729ipbia6t6bu9912:29ihruu2=5ruw5f00780vbnt668lfi,978889bvf300t7fvv00886099v808839v9v70754wdw2257225uui72rt59du7i7b9fhf<9,ruwdb$7<688ff08080Zbf78l666v3f30<860lf9v38680ff008<07fb9i552,4wudy77r459u5992u9udu4022ifMi5ut7u9duu9rq;5pr1597l9ivvf7",
"876lu9ff2r=;5ddh1ut5i9dfuiutibiu8176659f2755-25wwddi0678fvil888zif<78<887bvb060z790mbll88nffb7876v3i9i0i<555ww252y3pr7uur=<a9diu2r4h3hhd5p1<wddb0t8868009988ibmv3388669$v387687iv9067800fifil8660fvi09345d5152ru55hdri71779ui0282ifhbbuu<2fw9w4972ruuw14787f0fv7",
"78608fff1yr=ruhh,ru9iabifiittauf7<3<627p9r49,52555pzl60bbb0l08lzbv$08<7l<ffi887x309f39078bbvivz6$09i0f38;2rwduu9=2rru92u7=25rr59u72iudff292,2pdf388890bfi0008mib99f68lb600686670f90378t0ibf008689f0ff06i3ddwu15r9uu9uu32223uiu92r7uu55ft22rpd59pr55wu5207l8f9f97",
"6l880vdr,1225wwh55u2ruhbpfitrlri0,23:92t5ip97uur559i888tvnv707z89n<3<<6x9vb0il<l7ffv8fi8if0vv0886lfv0b,,%,2wdu5u275u4u5uu727duu1271yu4dh4r524wuw<6l699fi88787nfv0996<8i6i3876<800f8$68l0fivv8880vvfff88vfddu4,2r,4ddu92=75rhuir-55ufr2ii2uuf59522urddw51678lffl3",
"6l8zifdf12,2wpuh55u54ddfbiitiiuhi799179f579322r5ww2i9790vvv0l8ll8v37<66b3vif8v683ffv<07800ffiitt808v5i9,O24uddwp2y7uud957r2t<9f9:279fddh2u225dww$3l6v8ivb0088bfv9386$6l<907886<0vf0<6-8ffff078639ffiv0600fff5,;2,155r6522=55u9r125fhh3ut-21dp4217qruuw5u78780vv8",
"860liuwu4222555f,93t93ddiiyiizitrr2t3rrduu5r22wu5d2t870iiv9vllzxvb30<<<t9nn00i87390v70788ffiii87809f2w52;2145w55r2uuwiu357;749wu782r5fuh5r2:udwu,0760b99f00llbfv978<l8l637l#3870080$7<3fi0vf0676iff9i870i0f0i35:,4u4r=1:3&4u59951u3uh75r235du451,7wudww538l87fb0",
"t68iu5wd122=5ud9,q239ufuuu3i9Nfdf572229rufi5r9f54ww4898ivbi78lxlfv9v67689fb9i0l8$f9v9f700fff9i0959wd512q=r,rw522535ddd9u27:2u559tr595pdi,ur7rhuu+2960f0i087l0lln<80$70v095<<76800083668vi9fv068v00fi007lvfvv766<15uru,222,,w<ur2=3p3d5,5-qpfd5r2,qrpdw152697vf00",
"0r224uwu,552pdh5272259f59u7u7bbhi99u82515pup15pr3411898tbb0i8lx8if9v88$l9bfi688839in37708fff9752255d55r5=252drw2r2u9uhd99r7uhur4u57559dh22r55dd51&7669ffi76lbFfb388<7l000036768iff08770vii9786799fi98068vfv0t776<5gwu2==22wr51r2125uf22=-25hhuw22,,5wu1527290vi0",
"52,54d5u1r52uudu%2,2<9ud9pt95fdbur9r9r7u99492:9iw245970ibvliltxli93008683vvf87l7$80v980i<f5w511,r54u555r,555,55,5:5d53u95799ufu<rtta95df2,=rrhp22,,10fbvf7780Zff<<8$68f3v0lt6809v90388<ibvf38868f0f07888vvfbl08875f952=2,,2552159245w5222,rddw42,r2wwdr22:3,d93d",
"rr,p5wwdur2rdu52,5%<<5udr7592aufduf78rt59du9125ud5525709bvnil8Dlvi3367$v30vf76l6$b0v73$9<dwd5p,,rr9ppw25,r4dwur=22uw5dip2r55f5d93rrruuuu522=5hf5,22=39vvbvllvZff<6l$6707f6008i0009098t8fffff86800f0f9863ibiv066789i789;%2,5w55,,-2r1w5,O=%2wdwf2,72p5wwq22<4ww9d",
"2q=55d4u5552apbu2r2-3qu9d5509hffu5529ufudur52u5ww541,quivbbvb8bbv09i90<l6i0078t7,ffhqr%=14555r5;52<5w55u=1,u555<2=7udu59,r7559u527i<5ddur5r5rfp4%&2%,4w5fiiliGnZ<70<78v9ff876ll0ili88$8vfv00l78l3fi976788ffil8869lv900l$l$l6395,,1u2259=,115w4u52w,p541222=1www4",
"22;2dd4uur,19adf,72:,75uu9<109uMu57=5riuurir;3rwu5255,5rffffnillv9<9038libvft792O5wgu72=1414w5r=rp55uw1u-24rp553:72r5u9u52rt949,222u4df5227quhf4,%;%,rw45w5rllvbi17<8697v038<800f9v0888vvf008l68d9i087663fv07lz73iv9vl6ll6blil005,54ww2+=5w555151r2udw41,,22wdwr",
"q727dddw5a725hhd22:225r575319pdm9rr22tuduuur222twu1w,2rwh9d98llzi9,,<<609fbiq5-=+5uw452=<31442522ruduu3q7222ur2,%25w5u523=55dp55527a94d52=57uhM9r::=,5w51152uwad50u-60l<f087760vi3l78lllvfl66666f9i3l0l00ffi<68890v$990lv7fbl98ltiii90i<17fid4<,%2425w512:2q5ddu",
"r52qwddd49r2p5du5r=872u5u27-595h953,2rhuh9u72-255w2&2,wrdww3i7l8f03776<<95w9rr2;+54r,12;2r125,,r<4uhhwrr2r:,2252=,ri4542:2229u72,r,u9ud5r=r2dbh555=%5,451&,,2ud9,,516ti70v070800b0l$68$lvvvl88663ii388t0fffi88883vm000l$80fvvl7$tif9ii8779ivbi3825%w5r5wq,224wwd",
"1r22qhddr,224u5d2r=r9iu9uu72-rfdu47122w5955u;:15542%,;wuh5w955r224,1,%=;14w52rr=&rwp2;;--55752==,55dfu5t;tr551112:=rur3522ruuup97=rr5uuu5=2,5hh4,2q+:=uw2,,=w2hw415,25fuv008869vvv0$l$680fv9ll8>833738t0fbf0988790vfi08l80iffi98ttlifii6-6ifbi83:817,521r=3pww55",
"552r4udmur2riud35522rf45tuur25uu453#,r95ddu92223h55,,2,qddprr2y2w1&&1==%21dw5wr=%wpf5=1>2=223u2==ruhfhwi222u9561-:=35q2322ru55u9r2=2495,5,22,um5527-7=55r7=:5uhu15222wu1fi980809vfv07688iifi88l80v8378t38fv08v86v0f0l0868vif9fl8t3iifi00880bf908-77p54522=,5udwu",
"ur5555ww5i27wfdur2,5ru55r95urrpdr,52=2d5fuur5r5,5ur12:2,34purri24121;=2=55w51592+59du7-:22242pt:124dhuh5t7u52,92-r225,,2-;2rr5u522=29pi2552=5ud52r72r2,4112=<4pd11,,;2u4fi90000f9vi9l799ff0f866l909673063fvv0ll7ifbv9i777iffi9v$8<i99vb7l00fv9it>87t411u=,,r4555",
"rr2uuwhd1q552ud4,52=u554wu,7759u5=723,9,dp9577ru495,22u,ddparta7q&&,,,:=155w2uy8&55fr22-2u2q,,72205fdfu97riau23=#122dr59=2=3555uy=2=4up=2;72<9p4r5y-rr1rr,2275d9,,5:+254w3f00078ffl08lliff008l6$f90388888bb0lll80iviv0860809f909l0nd90f606i9b9807>tiu4151=&dddww",
"q335w5df5r2=25rp=57:u7du29;:599d,,2,725,up795,u5w5t,52a55dd9u5a25,,&2,rO<4u5,r2t%,d5u22=ruruuu52r94fdhi5r2rduiu3:r-2rurp22:2,9,7r<2225a@7=522uf,u7r79iuu527:=7ur2,u2=2u5u,9870vvv9937800bvvi0l6l3i9760869fbvfbl690bf000l0v9if80608bffff766789if068ivu22q=1%2w5wd",
"r22u5dd5252:=w9u,=,5555hpr9725rd512222r2w5u,:52u95a;2,<ud4p5<ri75,511272,dwu5r2r25f993-:,r959ur7<<55dubirt9uu4222725wr5r:2:u5pw5712=2rf=22=:rud4ur:255h952::25aw1,2572u5d4u8667vvvvil89ifffi878709i9678<fiif0fz<03ffi968fffiblv780bi9f03l70099007<<brw&2;;2qu55u",
"p7,pd5du2r2235wu22;2252553222r,5,1,,57w559rr7rrrd5u55r5rdhu95:r2544,,27,,49u2y7i,5fp77223tuuuu07995du5p9rr2par52:=5,595i2:255u55-::-,5b1,5rr2pb,qa5=7rputtq25tiu,225r2a,5150770if3v308l3f9f9078lf309i88-fff088l<0in300369700f786t8bvf0v6300vf9v088<9uw1122%,45w9",
"r3255w3p,u27quud1r=72rr5r,2=25ru1,,,=,w,w52522rrwwu22ruuuddprqt554511,;=21hpr7yr215hrr::uu53455275fhd9f95i5tut227-22uw4u27,95dw9r2:1wpu5r:7:,rM,20t23ufuu5i72ufd225,r,a2wu30880vv9v$l77lv0i9l6$8037<808<0fffbll6ivmf0i77097vv79678vfbln$6880i3i06800u523=:==5,d5",
",2=55u5h,rr2rp9f,22=uruu22r=rrrw,,2+2:q15r52=23pdwd421wud9iur:zr41,,,==%245du5tt52udu322ruud927677a9d955295p552,7:7r9dp5:r:pddfw22;=p9w5r2=25db$5=7=35ihu,ut2tba5<u225f3d555$llvv9i07l$8biff8880l907<76<fff0v0l6i0mil788ll90f00807ffvfl6889fv978678l5542=:=,4&2r",
"w2:25u4i5r2,25uh,5q=944f5,22,rr5=:2+-2u32513=,&w95u992rhwdpr22uy5&4,5=-=2194r55r<5d5uu7-7uu9u5r255fpd9u782uuf95,-:5u5ui72:=35uuhr9:5<uh55722,dM,35r72uidir7r7rbp42r3=uw,du22l30lm0978lllb0i07766b8f9008<v0fi80l$vvmvll7lll9v0908l7vf0vv888ivi08076$8922422;2w51u",
"2-:5155r2r2252df7,92225u7;=225p1%12===r2222;2:35539122u5d9au72r,u%2,2::=59d57525<435u75:959u55r73ufdp9u2>727up7721235wpu72:54druu7r394d4922u9uM<2-:22ufuiitr5ufh99252tp4hu24l9vvv080l68lv9086660fif868t390vv88l$$vbv0l080lii0878l8bifv07870ff9838888r5122=,2554u",
"r:=r155r,27<r1dw=22uq2p9q22=,9uw&,2=2%a15522=24dw1d129uuhd5urru=5&1%=22,5d9u5u622iur9rr2,9uu29ut55h9h7i:=r359u52::3445ru2r:5uuu5q:,2u595i=1259a222>=75hdurut2fff9pu2rthwuww2000fmi738l$vfibi8678vf997703i0b908z600bi9988bvv9f36608Zfv0v87<fff366878i9iq22==15412"
};
