/* XPM */
static char *result[] = {
/* columns rows colors chars-per-pixel */
"256 256 67 1 ",
"  c #8D6E44",
". c #937246",
"X c #987647",
"o c #967549",
"O c #99774A",
"+ c #937848",
"@ c #9D7B4C",
"# c #A27E4E",
"$ c #A37F50",
"% c #9E814D",
"& c #9F884E",
"* c #9F8251",
"= c #9E8851",
"- c #A4834E",
"; c #AA844F",
": c #A3894F",
"> c #AA884F",
", c #A58451",
"< c #AB8653",
"1 c #A68953",
"2 c #AC8A55",
"3 c #A78B58",
"4 c #AD8D59",
"5 c #B08752",
"6 c #B38B55",
"7 c #B98E56",
"8 c #B48D59",
"9 c #B88F59",
"0 c #A79054",
"q c #AD9356",
"w c #AE925A",
"e c #AE995D",
"r c #B39157",
"t c #BA9057",
"y c #B29857",
"u c #B4925B",
"i c #BB935C",
"p c #B59A5C",
"a c #BA9C5E",
"s c #BCA15E",
"d c #B79660",
"f c #BD9660",
"g c #B69C60",
"h c #BC9B61",
"j c #BCA263",
"k c #C1965E",
"l c #C3995F",
"z c #C89B5E",
"x c #C0A35F",
"c c #C19761",
"v c #C39A62",
"b c #C99E64",
"n c #C99F68",
"m c #C2A565",
"M c #CDA166",
"N c #C4A866",
"B c #C8AB65",
"V c #C3A668",
"C c #CDA268",
"Z c #C5AA69",
"A c #C9AC6A",
"S c #D2A366",
"D c #D2A569",
"F c #D6A96D",
"G c #DAAA6C",
"H c #DCAD70",
"J c #E2B171",
/* pixels */
"t6769f99857bv$865c$$6<$u36<2-2y4436rr>rr4r311611u433222wpdw32->u8889586668k$8icc888i$8i8djjhdjssagAjjpeyqa6<5<c$b55i89ic6hnhfdggasgpVguapyyajg<i6996u<iu888596rdd9f66tifd889t6vihc48<69iffu96<299fi6t92uibd89<;>9u4u96662utdu6<>62ud484ur2prd8u2>1,w1dfit77l5988",
"95759fc8957795<596c<i<35$63->24d26152244u42>1<w,4431211133402>11$88cc$8kkik$ccn8cc9ic9$icfVjggsygjjjaasyepe1<8<95<$vi8vf8icnidhupapjViiparaeegapryi5<-@88fi66i8udi9i68chf882<9a9vf86<699fvfi25598u9369564iu881<5288u8u25iriur92<28uh844i22iuw422->2w43ii657licki",
"k7t689698697iifuS,i;c8fi5,<>21duur311r3uurq,>r>,1322214yuu432->66kz$67cv$898i9c8cn88c$ccf898pyjrjjjjjyyyajpja<v9ivv3f<dfvddc8fn81rpVjvf8ccjpgpppyywpw33%34i9<fcffv<uu8ifdfi9298dhfi616t8uudi656<cu89626tifv86;--tidf998<u8848u2>28ru84<882uudp23--2243wi267bfcfv",
"itt7if8i6<566uu32a1<O<<5i<i2124u3rr164urr331-2r32111r234u43,0>65kkk66$$kDvc$v$cc89Dcc8v899ciff3pejjjsxyyqpjgpa$cb8998v98888c68nii8imggup8i$pjjgppprpsej1<,,65<fdu8t969uf8iii69f8vui9#8tffii86><<iviutr668udt275-3ifud6u-8tuu<92>6rifdu1r6ridvdu<2%4qdquu7<6vikvi",
"7ii7ii9i555>88d4q31t33689iur62w43-211r2pfur2%1u,422wr324dr23r;67k5kkkk$kvcic88c8ckCDcnn$i$vciv8cdjjggmspaaegpwqpb246f6i89civi<f$8<<dudgpy8vi9<ggssayaywqy2q249iu8u82<uicu8i829vfivt6#;<rdvit7;-<3if9fc<tuuvi6t6>26iiiu6<6tru84u<<24fdi48392dfgp8r1r2uwuu169ci9i9",
"6i6ttcii9566<343136q1,4444222144q12r2r44wu22>-w24q22>213uuu6k565kk77$k$k8cc$n$d8c$c$c$c98cccv8i$ddjgpasasggjjp0ypa$k<uvi6886cv96if6f86u9viaifir8laayjgaqeq:2pu8d89696<8dfi66<6u4udi665<988u975;>88du69266ifi567;38uuu66>288992r6<284ui82r6uugf82>624ud8g1<1cffiv",
"7ttkfcftt2->1334202r12d3332>>1234132-2434ur22ru,wd332r6rui76t;57k$$kkk$k98ii8i89c$c$8c89v$C$i$n8i6vvjsypajpjeap2wpjgw<6t69fv88ni889fffi62i3ff2rryasamgbepy00eggu2u@966<u8u89;<t8u9666>5uu9utt7666d888976i8iar2;56i8iiii;u64342262u4d4r23288dddur2>qrwdw41-2uu4dc",
"2<568pf4r11>443321-222w32,2r22y481,>1613w0-1-q31ww332r6lvfi66757kkkz$k$kcc698i9fc98n8$88ci8c9ni$f6889fjsjjjjapayppjjgg0q3d9n<8i6f5888D<629969ad6rayagjjaaaywejgdy23<,<9uf8396<t8ff6<5659ui666;;;8u868u56fffl66659fdrir6>6tu886t66t84u8<>2<3dd8i2222244d41%3ddu49",
"11>133uu22>:132322q>1241r1116,<5322126r4rr4*->y1896868k9viik7t66fic8c87kkkk$5555cc$8ic9$v9$$99n8cffi<fcfmjmNaapapsjjjgpeypdgiv#156cc<f8cf8i9c5c9f5dvdhjhsyprwgdgspyaryiu8f9569838896>656uu9t6;;i8iu<66222dhvvi66<48d4976iui96,r226ru4886222ugw41>133w4a4>-,4dduu",
"<1>1344wr2>1qu22312>3r44122><443#<2-1>2ww33%<1uufc996999ffi957568ii89c$7$kkkkkk58$c$kc8$$ki9889$69c<v8D8urgjgpsppjjZjjaaejjdaap6i6$i695$cb5ic9$c9c<9cuc5aapmsjjpsqq0wwfw,i955594d8u95766683667>6idi227i6868f88726ff88ik6i28du256264ir848>2idff42><2u3w8u1112wp3w",
"-2>1r4w3r22-1ew411122qp431q14,u4232>113uu42-;698ff6865k9ifii777iff8i$896kkkz#k;;9icc9$k#$c$986D$iciiuci8hNggayaqqgjjjggqyyh8upp>y396i689c9<89v<ivv8f9D886b7njjjjjprq0ppd<<895658u8666;6iff96><6<8fv86669if886t6689h8u486tiuui6<52i8ufw66624uhfuu26<ud4p8--213dup",
"1113wuu,21>-,4u42q>-22u4212,21w32202>13ewr2t65f6ufk66599vvivk7i599i99kk75k5kkkkk9cc9kk9k$cc$kkni$<888ci<i2jgassyejZjjpjyaejjijm1r44w9b<cf8666f8ivcu5n9vf#6<53uejsspyeageu$98,<98u896t;utdti9t6556di96<6t88d88666<6du4<66iiiuii26ruvi8tu222,ufiuur6644dr4->>3<3id",
"<1124ru422r222uw3r2>prw82p3<11r1q33>2>2udi96659<i8997669vf9i77k79ci8z$6kkckck;;#8cf989kM9c$9$8c$i68fv8996f94pphppajjjjseapjjV9n3wpu4eq38<c26<688fv999f8588ffrgugmyaypjjgeq6,885<,i79<<6uiuu669668d8965<t9fu<u65688d828>6ilviif2-56ffditu5284uu82r>21d8u8<>113wup",
">>>>3uu4q22>444euq6><u332r1212r3p2>121tuii79559<888<6667fcf867l7cvi8kk$77kckkk#kcifc9i79ic9iicG$6$Oic<<f95<v94rrwujjjyjaaajud8b6<ad4p86p9i699$8<<688f98<<88i$fi6fdr2rdfggyw,65<<88,95;59ii696->28f8826;69iu2<<>66if967222r8g8ii62idfd6iu6iuudu82t6u24d442>228u8u",
"2>>144d42r224443r8222rw32r>>q244uw216tki8v9ik579ii99<5<98f9f67k7kc9675$88iv9kkk59nc9ni868k899cb$8$$f5<$c8cc56i<98ffjjjgasgjjhdC69b6c889932628f5i<8if5v<v$<994vii<i669i86jay20,48i8<i,566iii6t;558df<625,26i67;-#<6f66966<8uf9ui65tdduf99riiid4<2>226rur16-124wup",
"-61644ur2rr2fuu4321w4uww4q216444u8825ikvfu69766i889k665i8c9857l6cck77788i9cikk#$cicici$k699i8$9c5$$8c8<<8cf9fi<9i6uffu4ayjjjhfcc@v<689f89$1-<8<88$<f9cv857f956<ic8698i4riuqqwq#8<889766tduiui;ti8f8<5;;694i675;-68d81<6ttifduir76aivfdu626iac4O<;262uut66>#<d8iv",
"1221r44ru3r2iauud32>q434w43112447kk$889cz$k$kk$k998i75577kki98k59fi9ci577i89k5$kfcc9k7k56cifk7k7885$$5c98$c9vk$9kc88kiiccd8f8d8icv<f6ncbci599<<88c<9$i8c8$i9c9c$c99f$c8$D9$dpq3q<dt96858f99ai56iiff<66;28uf9ii;#568i<68268fu88u69ffdf8it61ifmb162561446962>r244f",
"2t6rui48i2>iafd4h8612r44r42>,-449kkkkkkizkkk$kzkccc677k5i8888kk99ic$587k8kick#5k6icckk5k69iikkk5$866k9$8c9n9bb6ck98c$bc8fcvn99vf<i<if96<699<<8f<8f9n8$c$c9$8k$bc8i9ccic89fii8w3eq<<26698uiii7;<64ffi96;;6<886ik>254u6<6<u<f8iu822u8ffpf66<6ufit2;>r<4422622iuuii",
"16r6fuu82r-24dddar41234434r2qau<ii867cvczzk5kkkkii99k$76ic88599kkckk9$k$ii8kkkk$8ffck5$k59ckkzz$kk688<k$9$9M9cv$98$$8ni88fv8c8v<i6i<v985civ9988868cfifc6cbk8k$$c89v89i9n6c8cb9ifwgyO5<9idciik56i<uf66t56<<46t2t56ti8u6,<6i88fi89<6ffffd9i68duiiu>5t688ut66riiuuf",
"2276fudd22<<uuud4r6-63w3q12>2ik9iic577cckkz#k$kkf5c97656fck<55kkcc8c96779c99$kk#6ii9k7k688998kk5$k77kc5c8c$cc8$$9i99$c$889cccfvi6f9c9f88<i9vini9869688inv9c9c88c6ccn8c88$cc9b85$puqr,<$36i-i765k68886t666888866ittiut5556uf8u8f666fd88u96t6id8826;aif84u6>r8fdui",
"<,u8vfwu8r21<dd3r2r62r3r23216ifd9986988ck9k7k$kzfc6877k58k9k6678k788kk558ii888kk99fck8777kk9c9k58ciik99kk8c$$M98$cb$i$i8<vcciin$<68n8<n$8iivv8n9f83cii98c9H$98$$8iv$8c83bc$$b$v$<ir44$8$6<f<i6976<8 566798f<915599ff966<<2889u666uiui86t2ttiuc9<65i9ii49t66uudf8",
"6<28hfup92u534d8222rqu344412$icff898598kk799kkk#cc988569cc8998k9kk695z#kiin9k$5z9icfkc$786ick9c$$$kc9889778b988$c$c8cn8cc$$8ii88cc8$v<8<948ccvfi8niiicif9cick99v$89i9c9589ii589k<8<i883u3<$i$39c688<6>;<5<<<99t29fi8i87>684i8t669tdfd8f<6iuifut<;22ufi8tr6u8fuvu",
"<<<5ucfuu62i8udda31634u448869ci8k998786ici9kk$5kfc897658fi688779zzk#kkk5$ccik$k$ifif9c67568fk7k676k9kk$9998kkccc9$8i$ci8ki$9f9c#888c344r48$38c6i9ff89f$d9cn888c98cc9nnf<$ci$F9i$,9f6f8$9$6$3<8<#3fv8<,#$4ffui6758iuu9t7566888i26<8ifc8t679ti8it<5666df4<6668ifai",
",2<48uu8u9-8u4d8r61211d444589kc8ick58f89fi99k$75cn996k5688k588565kkk#k#kccc998k$8cff9kk8ii<8kz76$k9ikk$k799k8vccbb9888O88kv$8nv$$i9buw*28<544uhfvi68iif8f9vf$86c83vcfi85c8b$8ivk<niv<i<888i6i5<9<$i4c6<#<88u96529uu887r;6idu885<<<i8fd6t6uiuuui665rtufc<6696udfM",
",i6788d3u6-1p8u84r1111r4u12699nii9k6$k7kkk9kk$kkkkk55kk#98995k75ii8889#5kckbkkk$9cffcc987kk8kvk$$kk59k$77k79c8$n9$9c$9oc8$kk8icki88888341122yu8dpiau9fff888<5i9f8fffni98<6@kii6989<8c8c9n8ciii,cf9$88it2,6486<758if869t-<tiifr6;56iffci<66iviiit6-<68if866568dcv",
"#675ifvu965<<udd82>623w44wut6699898kkkc9kk6$k5$kkzkkk;kkii8899k5ci$8k$kk99cMk$kki9f8fickkcck99k5k5kk7k9$7$9kc9$999knbvk#98$kicv$f$i844442>-23pdd869688udi958988fd99u35c8<6i6<v8,5if9vcv6849i586f<99c6t6tii83,<<52id86595<u8ufi22<22d8f8i56uivu<8t9<8fp98>6<7ufiv",
",66ufffu66664uudr2>2124dw2968k9d9i896i9ik5k$$k$k$zkk5kk5ic88666$9c8kk$k$k8k$k#kk899d9kkk9iccik68$kkk66k$$6kcci95ccc$888k$kk7icv$c$693u3311>6uudu836<d9dii86<888dv9uu9<cfi9565<i<9<<6$v8nf6i9$<9i8fffttl6uvnf<-#>,684u2<78i8u8i5;6<6ffi99666ufut667tu88ii6;5rfubb",
"#5,6dvff662>848dr2>1643332969i8ui86$$8ickkkkk$kk7kkk55k$if9865k8c9897$kkcckkz5$zici99$k$ki99ck6$76c9kkkk$89ccik$6c9cbv9$$5$6kMv6988583d<22118ddu829,u8h8886<<938d999c99fi96>669r8<iiv9$8fii9969t8c85t>tiifvfi5@><48896<7<fu88t6<7ttufi22<96uui9i659f8d89i662uiib",
"#;562u8dri>66r48r2>1,pww22966i8iz5k$6669kkk$$$88798kz#kkz$k5$5kkc9cik$8kccnczk$$k99kk897k788$kk#6kk8kk6$k$5kkkkk99k9c8ckzk5k5kv8767698d33r1148uu4<6622d86t5<8889f896t<dif9296tuidi868nic8f88<;>64cf6i6656fucii62<$<4<6659iuf6ii6<iiffiut5698fu86626tifu9tt69idfn",
"-;>66f8fri6rtu82u2>>,4u43r955688k5kk7689k5$kk6kkk9$8z$#zzk5kk$k#b$9c7k7cc9fi9kk7c9ck987$7l895k#k$7kk99k$$kk59k9k$7kkvcc9$5kkkkc87;7596342q61ud44u2229<i8ui5;58<uid8999iid926555iifiii5858i4<t6tt<cd6utt7ifiilitt6u3,3$656i88u66<<86dvfutttiru8t6t66884<6t6tl88vl",
"#55586d62i6irdi426%1<4rd4pi;56<8k6kkk9$c5k5k$$6kcv9k$k$kkk#kk5#kk989k$$ciffikk78k9k7kk$k7z55k#$$$$kk9cc6k$kkk98ck$k9vcc955k$7kc8i7k5ii3422213d836r>6uu8i869<6<<uu8tt66iiiu96<tu8ui88i695ift65>6648f9656rcvfukiltivv8$$#,<ic348566t4ffbiu66iifiturr9i949uu92ciiii",
"5<66uffi9u6ruuf482-112w3wik7<k599k$7$99kk5k$kk$ikc9kk$k6kkkz#k##8896kkc$iiiikk$88ckk$k$$7zzkkkk#kkk7c8k7$kkk9c8$77ckcnick5$k6k95<6758iu4211184ua2i>19uudiii$<<<dui96riid89i65<iivf968<688pi57>t68fii96t59fbviltticfC98$##2f<<<$<968idik6668ifdk6ti6i99u6u688fpli",
"6>5<f8d6u6utuuuu2<>-13345kzk8i8986kk$5kkk5k#kkk5kk57$$zk$k8777$788i<kk76kicikk$kkzcck6$77k9k8<k$589i895688f8fcvi<9<icbv9k7669f9555769ff3u8>2pr3u3u2>>u8p69u<6638uf5<<t6ii9i96><9di8f99656826666i9vf6t65tiufiult5ivfnazl;$<848i-;698fffii79t8du9tti6kd<i269iiiakb",
"6652iffiu26tuhuw62>>2u4u<k55kc3fc877kk$kk#k#555kk77kk$kkk57767k58588i$57kkcikkk$7kc8k6$k7kkvb$k599icckk8$$cifii95i69cvv977668c9<<5678cc33u>2r448r25629uu9976<65<4i8557uuv8t26686ifu976i<u849t6tifhi6a656cc8itittu8ivltktk9f3,<@;2<4f3<6ir6iicd3i9iilvfi62<2ifvii",
"25t<iffd96<69dvfr2>-114w3kk$9vi8c987677ckk5k5k5zik76$k77kkkk55$k86$7875kicifkkk7kccik$55kkcck8$$56kic997k$88ic8959fuffc9755kivv965578ffw<312u4u3rr2526iuuki58c6u846<269uf99656t8fui99<it89t8t66unfcui6766iiau66tkii8i6trvkDf86-;<6tu8<,<68fcff992tuidvi2<699ffvi",
"25698d88u2u62fhfru>2>3<p3ikk$kci9ck67k6kkkkk55k#97k7k$7k5z76k5556kk7k8$k8fc9k$7k7ccckkkkk8kcckkk$85c88855k8fi9ci565cvcvck769ivc877568dc44412puu3262;6uiw<utr<86ui9i66288u3666<6d8369t<7ti8u2u659ddu965ruu8iu6i>tiiciai57iiCCfu-@,2f8669,<66fvfdi62i8u8i966i6fful",
"65<6iufu7<6r48d884221r442i9i7kv977k$$kkkkk$k#k$ki8iki9kkk5k;kkk#k55k#k#k88vni97$kkckk$5k5k7kkk$k758k8767$kkki9ic6999ffc9;777cvb5k675ic984r1124p8r2u>uuuu292r6r4<88666t6ii972t6tiui<67<664i8,6<6ivf68u5ttifv82u76ivviut66itvVMmt-#,<p8<6<<<9dvd626i9ivuu96;28udki",
"6272iufiu<;29udfrr2218w3u97i56c99kkkk577k$k#5#kki99956$kkkkk$$5k557$kk$kcd8ffik67cc75k#kkkk8kkk5678kk759k$k5f9f99589f9if75k7c9v997695fdwqr>648dp6r266iu8<u667kf6iu5>6iui4t66t2tiuu2<665u48962<,6fvfi9<66iuhfi6526rffiir6tbiffvi6t<<43<2<5<6udfi86tafbf98t5;6ufik",
"<<65899ui25583ddir6r1uu3u77kk8f989kk7kkckkkkk5kz98889$77kkkkk;5kk5k;#z#5icf88ci89izk$k#kkkkkkkk$5888kk$kk5$ki888968fcf8k7657cfi86k578u3u44r13u48u11624u82u266rt4ui6<itii822<668iiit6665t88di9656fi8u69<88ufdut56u8pfiru<6vfviit;iaff82,$<6<9if96>2iifv89ii628ifl",
"269tuff2r6t6838d26q>3ue4ik77kkci99$k68cckk;55k$ki8i86kkkk5kz55555k#k5kk$9cc9$cc968zzzkk#$k6kk5kk79i9kz55555kc9k568558c567777vvc967778864r3224dw821>268fd6<<65riru8626tuui9u5>62u8ai666;288u<62r2ud8u62299d8ui7rri488ii68<pvhiur5t7ifft6#,<<4f4u96<iidfd9tk9tdfub",
"666tiddir6>26144wr6r1rg3dii9k8ck988kkkkcbc86k#k5ik9775996k9c77k59i88$7kk8cvf89999icvkkkk5kkkk66kkkc99ci8$$kk5kk66579fc98959iicv9itikiv33421quuww3r22628du6>-<6uurur5664i8r8662;u48886u2uidi2<16r48i882<<84d883669r83iui684ddvi6266iidivk5<><d4<8689ffff6666uud9i",
"-<<iivffiu52224rrr2<124w89c8c7kkk896$k9cckk7k$5kci999k78k8kcckkkkc8866$kffci98759iiik$$kk5k$k7$$67iii9kkk$k5k7kk69iicfv8777iiv9867ktnf834w12iuupw2><uruftrt6$448ut6r29948u8urtti6ui96;t2uift5><68u4r2262,84889rtuuu34i916uffpi22226p8uuuak86,8,<268vfd86t62ttf9i",
",6<tifdur66668d44r3>,44w98k5lkkc966$67i9ckk9$k5kc9987kk9kc98k$#kvcc8677$<fc97977ifcczkk57kzkk55k798ck585k7687c595779f99c9kivcvb9666iifd3*1168dddr6>22rddr32>,8u8492622tu84<225ii8dair6ru8duu256>8d8865r6468336228iud3<1648hhdi31214i88p8ilvVf9<1<><8ff946t62uuii",
",<#6udii6r5r62u4,421r3dwkk877cvMckkkk$ic8k89kk$kfc78k79vcvk8kk5kvcvi66$78ffc96779cvcz$k$$kkkkk5$55ki958k$9988cc5776i9f8k977icnb8t76vbfg011-1w444221>26udu6266uipu862654u4ui<62iadufi2t2ti3y6266248iu22>>iuu<36222448ur2<64uuu896r8uu6226rifvViu,;-,4df96r6t6iiii",
"5<68ufvia66r284r2r2>4u3di8k889ivck7k6688968$kkk$cck8k7kckvvk$5k5ifc967769986v6;689cvcckk77c9fi$kk89i98$c587k987k85icv8695i89icv8975kffuu&1-%14w4366623du8p9282fwu8r<r298448r22rrd48i6634uu38626i8f8ur62ru8dpr262248228226iaw222#6rpf88t2>68hhfv89622ufi265tuvi9i",
"<3<tcdu8616ifdu432r>,43dc899cff99666677ki9987$kkfdk885kccckbkkk7cccik67689888875$dffic$k$k9cick$798ff875888kkc8cc7iifii<997ifvn<7699ddgf1-1@@3u321219u4du8r28pffdt86266r882966ihd848162<4828r>>rufppir>6ud9,42>52rw2221623ufp8r>514u34au22uwduu9262<,88d62i6dfiu",
"<<268udui6<6udu3r22>233dckkkikffi8ckkkkki9i57$kzici8958icckl7kkkcv7k5667ic88966;ccc9i8$$779ic98$57<9c9756589cf8vk6kff9i8598u9fn6tt624dgf4--1,,33ur>1<4846u62<8ddavq26t48r4226<2pdpri6rp9u43662-14wdirr622up621116uw33>>2u2d444r>12yu44262q2r844452u944<36288rffu",
"<2<4ffdi6223rfip216113udk9k<9cf9c9k$$k$zci98k$k$cic<8588cf7kk577i98kkk69vicf7767$c9ci8ck7kc9ic8k679c8<<5568fci9975kvvfi85<65fvn8ti533wu4y2-1,11342-13uduyu62<444fu6<3<49pu38-2834dur6>r8ip221<><3dwiq2223u4211%>3232226144dp442q6-44p332622id88,r2<ui8<>6269diil",
"225iu8uu6252upd8r221>23i<ic9kkcf9k77<88fvk67i7999i9c1>144wwdw22w4ddui9ttk8f9t67589cckk759icc9kk7969ck7$5$589cv99i76icf8895669dc88212qug4y2r-11*331>-243iu4ur2r8uupu1>26443262rr4u8u88>2rdu41<>>18wd4p3222rr3i2--38u4331622qd4232111ui2u1>>3dfuu255>ruu9<8<26rfir",
"256rfduu46>28rdd42111248uii59i9f99967<5iii656it8838$2&>ww438442wdddu2326ii99it668c9987k5i9f9k96kk79cc7k55$7ci9ic7i7icf995779id9661023ruwq1r2>34,261-qruur4868r3uu8u25ri4w23<1r83dw3411<34u41>-1>3d3dr662pp4<rq>%,<4w21122ww43r221,43w312>1<ru631rr5udu886<22uidr",
"-126diip86r14444q1>21q36889<5kcfcc7666599iii7ki433$,2-3udd4uu6,udwdwp6223ff9ti65899957k599c9895899k9k8k6777cd9c97698v9955558ibu32>q23guu2>2r133422:-1fdhu8ir2r434ur613r4r412-1r8dd8rr-2244q161233w4303169gu3rq>O3,$88u26tivd99762>44432r>13iy3u>146ruu2u2rtiipii",
"1<1848ui2162844421>1&8ck599988fv9c75766i88t65;wuu4332%-2w344u1w4h4ddp22rr4ff7t6599ck8876kccfk978599ik77755678ffikk9ccv9655<6iii*2121wuu3r22r22rr22>>,3wwa4q6wrud4483>12ui4q22>13dww4221qr4213>>144wu22-<3uw31r569f8cii66icvcki9666ici232>13r442<><rrur<62262fidf",
"<<<r883882>>ruu420%1,88f5f7679icfic6779cvfk96>qwuu2r1<-4234r6r63uw3u82q6rd4u9<75i9ff99k$6iici957ckci999$$8$888c87k69ib7956666tr*22>63wuarw2r3423q252,3p4ddu38hwdw2r>>>24u442-q134w4r2r2rdfw3265544uu8566cfiit5656688z$$$6invvc7lt7iifi97-112w2r112r4r412-<69udiv",
"162r8u3w61>2rd4426>-,6fc5i99868c8596669cf89221rrwdw821<r443332628duuf2218ddwui56<9d8k<879ifiik88kkcc9kk7$89i86f89659fv9c757iu33*2q-18343rr2r28p32>>1w4d4u4233wd442r12123w2421>24g44u2qrwpw82;57kfdnvci7699ifi7tt97k8kkkk6chfcc65t29k6i877twru241>18upuu6>-14dipv",
"-<62uuu,21562dug221>12i889k87cccv9977698ci2<11wwdud22>>24822<11idud8hir2w4u4265i8ii996$788cck8$96vkvid98k58if89967589f9i7776rup,1121q4442r>q624w3211,344wr12r4d4p812222222q22>2ud43u62tibc6i665k8ficf997k9f9t676k7kk$z$k9ivnff9<768ic96699644w61512ru4426>8rufdi",
"-,r6fhf41>2234d4q2r129f9835679kic9769<vifi23238uduu4r>6r48826<>2vd8pia6r4duw3257iifc7kk$89inik95599c99i7kk8i9i9859898c895777w4d,1-34ru42rr22343,r222,4d4ur12u24d4uq61qw433-12q4dd8iit76ibni65t558udi9966cfit655676kkkkk$89vvv9i77989c9665996u1321>22d83<5264dfVf",
"-<16ffh826>>3p8w611%riif59556c8cc6877kk9fu48118uudiui66uu846<2#<8dd88u64iguu2r-688iii89889cccc596kfi8k955k$kk7k777k96f595662gfp12-02uw443r6r2ru3121114wwwuu32wuduw421ryw433<66k9fi68kkk7kbk$55kkiffi7k759ii86555888c$kk789ccc9k7699cf99i5kkiii311>24rru311r28dfd",
"12234up43r>12r44w2>%6i9f87556f8ii976599nfwp421u448par2i68u6<2<;2du8df8628fu4rr-66ii9i87$8iicc9k859cc8k97#kkk7kk775k7f9i956234ud4%12rud4w322r3uuq12>212u434r124uedw2222uuuut5<9i9f888z$7kcvcvz$#59fc9997k989866668i9c$k6798nfkk9779cvf999567kciu8-224u3626>28pddi",
"<-,644p8626642342y2>6iii596$66fii9k6686cd34426rddurha;<u88u47#52ffd8u89644dur3r29i89776$9cciv88958ivck98kkkzi9k$76kicfcc76123uiw1>2ru443221q44uw2q%1q3de4rrrr43duww296ffiii65759ii86kk68cck8k$$$icf9c779k99f66578iifc9kkf9fcik697iifi899769fcc86>124ud4q222rhhv8",
"#1<4u8uu1-1rrfdr1q>2ttcv9<67699fci969<89u4wr22aphdli6t28duf65#<28fcf88938ddpiur279k9ck$7ifci9i9966fci9k8#k$ki9kk7;9kf95c7r34qf2312&2gdu4rr213wwdw2>-44ud41133w8fhrtu999vfii99998f9i8$7778ikkk5kk8fff96779989865789d9ck$k8fcfic787t9ffi977i988f86>:244486r15udhvr",
"<%->84ui62>2w8u421219cfn955579biili6959c4343u34wdfddti224d66r-#6i8f9a62r4d84831u9i9kk77$$kkckk7k979cifi7k9icicci7666iu9665>24du112>3rfwuur12q3w42r-11w4343432iddvf999icvbiik;k9kdi9858$kf88c897$88fi959798997k659fific8999vi9f869fii9f9k76kc9ii661qqueu361124dhd",
"622tud4422-24pgdw1&<<89cc75559f99kk789ic4w,1r8uududi5l>t88u62-5;iddiii6664d8p6>1ki8866k$8k8ii9688ckcf6i9$8fcc9ck7577f99t652qww33-230wfdup8>1234w3uq-rrd3w2r66ivvvciti68fccii67ck997866k7cfi8k$779f8i9576vc9f9k6k9iick979iicvii956cci89k976i9f9i6622u3u31r>288huf",
"1<1r84iurr>2w4udr226599f965967fcfi9v65fd4421123iuuiirk6ic9u66#5;8uu699t8i8u32u,<8kck7k75i8ii8ik89iic955767fcv98i759i8ft76223ugw2>->2wd44ur21u24131:>wuwdru89t9ufvc9ik7kccc9k77k7fif8k5k69f988$67ccfi96789c5i975799$985$9icivc9966kccu695778fc9t6521443266112whvf",
"1>r6puu432234dd42r1699v976$75ifcvv978<ffw4rr36d8huuurliffvt65#5<38fu66664fdu38,,<fkk$kk5iiiccik79kffk86k$k9cfi897<9fiii16->2urwr1>124eu4442,1442,1%24rdu846t69fccf96k;ivfff9k7klc9i86$5k8dc89$$kicii9777c5k99777iccikkk899dfi96659ccc<99699icvki6q1242wrr22444uf",
"<>rrddfda22rrdd4r2218ivfv8#65958f897k5ih434r12r4pu8u6tuifvfi6>56uu986626448843>12iii95966kff98i95ivvc879$6k9iik8k$67kic67>2-uw131>11448321r113q321:14dfdfv6k9dfckk76989nkk769798$k5k5kk$i5k7k5#k8vd85#kkz5kk$k5kccificc7kk89k666$8i9f<5865kif8896<-u44wrr22ui8uh",
"3,6u4hd82r263pg4331><6fcik756588f899i9ud41446r82u8u2699bfff9<<5uiiu<6<>648d83<->0icf99865kvff9ik8kccc87767ikck99k76kkkk976>2ur3w1>2>uwwu12166343221>4uv8996998fn99k7888cvckk$999kkk5k#kki9677#k79vcik5#5kk5kk$55viii9ik$78cvc856k69cf69$7<7c9i86663r4432612rpfdd",
"6><rdduw22>64ud412>>668c97k7968df8i99994q,3212fudp8f66rfvhii<;66ifi6>6;236466r--,iifkki97vbc858589cvvi867$99i8c87$k7ic9k7-12du42226234d311>1qr34111@38fdcc999cccc9k7969iiickkkkkkkkkk5#kii655#5kicccz5k$$$kkk5k5icffi$c999c9k7k5777kckk657kv8895<>13wdr336>84u36",
"1664ddu4112284wd2r1269ivk8599iic5<69598444,263puf8u8i<ufubiu6<65idbu5756<883612>368657k6icnnf89659icvc88689vv9cik7kkc998k-12e4u*1223p44=11>32344022>34fd999k9icdnikk$998f98877kkkkk575k$vvz7k5579cick5k$zkk#$k5kfcffci8kc9c97k575k79k877<66ic9996>213wu2<1rufvu8",
"<<<piduu21>24ww4r1>2rtv8876766cvv5<5<9u333,3164i869rr2768fii65626dui6566u2p61>--,88896i6ffccc9696k789kkk76kicck599iicc99i62q83832r22ug44>1->6r4wq32>29h8c9599icf9i98$kkc89886$7ckk$k55kk9if85#k7f888c$kk8ccizk75iiii6k569cfcf88$k8ic9i976itiiii622rwu4421-3iuhfd",
",3<8p8d8r222,4duprq1tucd9k5767inv96<;56q22->128rpuuut56uifiui;69ff6i655>t96u>>--398i8895<cfci996k$kk9k7$66$99vc97$9i9i88t;>r4pr312q2wdu,1>1->3w1r322488fif5<88f9fi987k7ci899k77czkk$kk$kc8i87#$kffci8k$k$9cikk6kiccik5k7$c98c<k$59fik89566k7f976>><pdwu2;>12ghbu",
"13<rfd44u2>1,44u22224ivf9k95599cclki7;313q132>u2d836t7<68ut5r2-6ff69t626ru822>>--i8i86658ccvci7<k6c$89k6$k57i89$$k8cc9i955>34wuw31>rudr2211>1343w12>6dd8i75<<9i8k898$$89i8897k78kkkzk5$8i889k5#kccc96$7kk8ii7k758icikk6$9ki9ik9885kcck8669i6ici32-2r3wu82>38dfff",
"-2<24dd<22<3#1343422wibic7785icvilttt7w333222>iri466265riuvkt5<6ffuttrt6uiu2<1->,tiuii<686cv977<$8kcc969k$k7vic876$9fi8c66134d43262q4d4q1->23u3w112-<83899996888c9k688f99i8$65kk775kkk$kck885k$kdncc9kk$cc8ikk778ccik7k68kvc98i5958kk97$599ffiu81&1wdi4r2>,84Vhw",
"<225ru34<<->>44412113uff9c97799n89975k2fq,1w<2yfd9u6>5tr6iiu6665vcu9i6t66rf422->39ci6k65998fi885k76k9897$889i9k97k$k8c9c87894d331r2rp3441%>-20w4022>2at8i99569f9c9k976k9i88$7kk8c8k7k$7$vc9<85$kkckkk5kk9i99di99icic9i6589fvi997k59ki96657i9d84q2614d886622rphvf",
"<12ruu831-;-343211>>1rdii879k9ink99667wdd2,2213iu4u65;6i6uiir56<uf8<uttr6rdr21--49ickkk79vfff997$k7kkk6k99899i8k7kkki8i96656ddd4122ru4u4r>>-r3ww222rrtu8297656f8kk99kk99f8$8$k75c9kc7k7kkci987$5ic9k$kkkk899i8685ii9887789ic99<5669ick6977kcu44wr124upr3r>22ddvu",
",><28up8>-;-<2p23>r-13fd9c796fvnckl65trudw41261i892962tiuuiir762uvfut6r6<4i8r52>4ci89kk5iccfv9667689998$6ki9898k$5kkci8k786fu4dd212w3ww401->1w4w3322uu4i667k669f8i9k6kkkk577k$kkck9vk7k7cckk68k$99k7kkkkik98k$9$8ifii88k98fff96698998c7569kuwu232>444w436>28ddh8",
"2#>28u862>->2832212-23du8i9799cccii7;644uur2>2wifu62656ufuiit566uffii66iuuur1>>-,9nc956759fvv77<67979958$79cc888zkkkkcci676cuwd4q-2w3qu322-1r4w4021>ufu8655679v99i8k6kcck858$kk7cc9ckk76ickk775$cckk$k$k8vc977$k88f99i9999bcf97#569fk66<62uuddr32>84d8r86>28fvd4",
"2;-6uud866>>u14332211,q4f99kii9vif6654w4q44r<114wdiu5tt2888di9568f88u856vfi882123i8fk$k59<8ik9k5$kk6$k#k75kki888k5cbccii8679i8d4q--1*33311->131q1222ihrur2>55999k67kk69ckk59k9k8cck7$k5k5kk7kkk#9fcf777k7kkkkk$$58ki867959fvc9l698f5fb662u3uuwurr21udu49r622dfd2",
"6;>268u9r6t>624@61rrw443<99klkiiii96<2ww33urr826dr8u6r65888696<u8f46<622ihdurr-<8if8k7558ic8c776k5k7$kkkk$$7i989$k7kccik7589f888y213131<111144322212ri8uil;6688f$k$k779ck98$799i89kkk5kkkk7k$5k#iffik77665kkk$k#988<85<799iic9k68k9c<6u1-6pddu8pr616u8uu6628fff9",
",>;52u8<2>66iir3r>12uudgf99i9vffv9kk72342333rri8dd86167ifuf69t668d896629ihd8u2%1,ccfkkkk67kk66765kzkkkk$5777i<$95k5kcc8877$998834iafd331,,>1*436q21>38d43it599ifk6$6$8iicck665ccci6kkkkkk$kk5k#k$ff8kkk7kk5kkk5#7<8<8$859ifi856;69kd3,4211wwh3382iir33r6u5u9fhu2",
"<<56i8p862>rrrd3r2>rr4u444999ff8it675<w4r83>28p4ufu65r628d88<666f8f8f69ududuuu114fffz$$879ccck6k$7kz$kk$kkkcv98k75kkic987665ii88u99gv4131%:21*13<a662uuu2ri269ic99kkkk9c8856k6$fcck7757kk55k#kk7fic86$kk9kkkzk#58k5989659d9fl76>#5,483332224dd8ur6ari4ru666ufvc6",
"-<5uiufir6-64dd4461644uw338iiicbf9666<w3wur36rafufrirru2uid8<6568u84622ufddpr6113ifvck77k7icci9965cvc8c97kk9nc$9889iic96k$$8icciit68vh3$1@<1ir342r6ur24du8216iaf9585679vc55<775fniki596k9989$5k5fcvccck$fvfcik5#k58k565$5tiui211-334w22228r4duur82ia8d868166ivvr",
"><592dfd6615886u332qudwdd,82tlfvki<7<14uw32462pffdu8t6628fft6r5r886<9t53ufff22123i9ic95679ifv89k785vc99ik$89fic8899c9i9877$cfcc9titlvCb4#,-52r9336q222uu84r12ufpf8857i9fcc996568fic97$69k9<6k5559ffi9ikci8cck7757k685977<8w3a3-1>12343211rfdddd8uritfui12<26uba8",
"-2<i68d86r2>uudd221<3ddduwu669vfc8652204u42132udffuut6i6uuit65668ui222628duur32q39f89c7796icb9c7i8fii9i9kk7kick8758cfik87$$cicickk9tvDDn<--;<<u,1<r664pdr1r216ddf58956ffci8975<88i767659cc995kk68ii8kk9k999cl6657kk79955,w0342>->13442261u4dduuu868f84u9<55ufvb8",
"2#6idh88t62<9uwupr623w44ww4u98bniit662yu444<22udfdtrr6tr4fir6>5r8u<4i6264uuu61224fccc7k7k98fv97659i9c9i$7k$8i9k<968988ikkk9cfcc8iikibvnnl<#;234u1<-532fdr322<3438969668i989<k78i99k6666kccc9$k5$fiif7k$kf8f87965k#7666,<<4p3r31>>6uuuy2616u8fdw8r2rrpi626;6>uvi9",
"6<5tuvdfu25<<8d84222r2w44ew239ivf6i<1143w4w2r1uddg4<56ut8ufi656r8uu866264d842122,fuifvk79c8ufi966cc999ck779i99i86678768kz$5k9if8kt7klbviMz5$88686<>>33wwf2,1%14ww8<6>99i99995679566kk5558cci69669ck9$9kkcfi97657iifd4>-q21furw2222rp884661audff86uaiiii965,6ifvi",
"655u6hv8ut5rd84439r64pdd4u2228dfc84,&2r4w4r122rfd3u26>6uf8u8265tf883122<uu4311>%4cfi8i9k9ific995<59k896$5k99cfk5$666kkkczkkkcicf7i5icvvckk75<68<22-164ugper>1qq33ur6<6t8i895759ck7k5;#kkicci95k7cc$7797$fvvc775;6f8w23123piuu26>>r8dp44362ridfd966rid8c225;6dvfi",
"8656u8d8ka568hd8882184w44wr,63u8ip2>12431342i6whdu822>64vv82;56ufcvf9<,244363>--2iffi8899c8iv6i55kiii9k557k8iffik$7ckkkkkk$kkii86657ibftkk77$58<6u<-33*wuuu-22u43386;ii9i<5<6769kkk5;5k58dcik6k6cckkkk$k9cv9756669durr-22wu4i22118udfi26<3834d49r5iiifut56<68vv9",
"266t8iv86trr6dd82r23ruh4u4y2238drir-224wd3,31r2dhur8<>u8udil66<tfd88i62<<<431-%%,u885i<95kcfc9k7<59k88c576k9fi8<$8ckkz$z#$kkbvi9i67kvnci777983882<<,383444w11rpu3,31>ikkic975969k5kk55$k9f998576cckkkz$k9cftk66768444q--84uupw6164uup8r2>28f48tu62iu88i9>698ubVf",
"2626vfp8ir6u948ur4614dddwdr2-qr8u33--234wru28r8ud983>#66dfvt66r98vdutiu6<3r,31%>$8i86k5k68fdv988k67c9k95$i8ii9$55k9biiik7598nvc$979899vvkkk5k5#55,2>18e33q2>,4wwp21216ifc9c9556688<8$7k5ff9i7779icff76kk7cvcit<723p82ru-82ug4ur2ruufd8d2;6iiuu94><uiffv265r9ifvu",
"26<6ibffit626844226>4dwwuwrq11wurr<>@14444r33244dpr2;-22iddi61668diiutii33,,>1%1,iii57k$9<889995679ci9k698889kck5k6kcfkik75cicv877k7ccvk7kk7kz9#<,5122udr2r1,444r21q-8p8f9996k79kk9kk$#k9v99i6k96if9kk7kkkvctt671<44w2r222838,u<29idfru6<11ui44t7<98iivt5566dfvi",
"66<<idd8irtir444321>38w43442234d2r11&1qquu3212ru8d88<-<14d8iir5rud8i6rrtifd,%,,-399f785k86998995889c8ck$k9889ck975kkccfi995ivvc8599k9vcv7777bbb9,2>11w3qw4213034w42112ru6ii99979k8k8k#k$6dk8k6k9fic9$k$kkcvclti6,341u<>>38udu1162t8dvau2r5488888658ufdvi66t58dfi",
"26668ifi8rt68ru<663,,udu44321344i22->-24dgrq26du8uu46>524iu3t6tudfhf6irrafvp2%+%$86996k$669i99579iici5i$$7icni89577kvv99i685bvci66899vic7k77llnc#<,1323wu2q112443w2->1rfi8c665698969$kkk8ic9957kciff7kk$icvci77r3443u222<p8ur2622uiwiii<69iuuiu966t9iduit>zucviu",
"<66<8fiuu666iud4r22121p8rw0212ywp83>-133w4481128fu626>>r4d88u2ttdvhirr6rivmhp2&@@$8886658<9i88$$5ific8i57k7knc9kc999fvf89k79nnc976559ffck7k77lvbt<1-134ww4111u2w3ur1112fi995557k888865<88f967666iic8$v79ici8ci822yw3822>2ufdu,259u8df88<2ru9u989666uuf8i66ufivvf",
"<$5<uf8uiuiriuiu36-21w4durr22244442>114ddd3426rpdaur6662uuu86<8uuhfui6618dffiyir$$46$86k8ii8665$6888ii$57vk99k9$99$iffiikcckccn899ik99ff67;ikbvcv9-@13w3342210wu43r>-10uvc7k7598f69968$9iid69kk6d8i89c79icdii89634w3331;6r4df,#3uu9dfpu6t6i9623t5tutifi82<tididv",
"5<689i88ir5utru41i>-,4uw42q6234wrr61>1w4dur2128dw4u662>rd8u122u2dfd8r9rr4dhpip8ic8$<5$$6$v9c89$858iiick98kkk8kk$67$8dvfi$ciinfnc75;7cfi77775vcvvbaq@11444yq-424e33a2,,44uf957779ki7k77<cii9c66kicf8i8k778v8f9$<81wuu2222u2pdf42<6uuufr6262u8fut6<69lffai76iiffvc",
"6<<68d8386t6vdfr626><3uw4322r4334w21>1d4er4w28pudu21>r28idt5156ruhiu8r>64dd48r26nnc8$57$8ki885$79$iii98k758ckkkk6788888989ccccf97k66cvvkkkk5ki9vftu1*3u34rr>2u4f24rr,,444i7767c99k777769i98977kccnii8$$kiiffck<8rruuu1r>26C4du<86tidhfl699986866672ufccttr98cuvk",
"<<<<cf99i626uiai2<2213ddw3212uuuuu411>4gu4w24rruud82<<<348832664dfhfa66ruafw46r2cbSbk$$$kzk59$<5968cn9676k9kn999kk$kk$k98$kkccf877<99cc967k7icfif822*3w33pr,22udd3322-4wdu69<7i9kitt6679f9898959icf977<58fufti1>4duuur16riCuuu,6utddffu956i8uiii<utu8df888iivbui",
"65;6cf84r852iu8pu1>>264w44212rfguir2124uug411r3hud4r>226u23->2628dd4626r8rfw31>>ccDbbc5#$zvcc<$5588cck8867k6cc99$$kkkk996699cnc9i77iccnci5679vvifrrr434318rr4wddw2-12>uw442956iivcii95i7cff87985c9v8k6679f89221&44w41<1>3dvnbu366uuh88u652a9ui8966uiuuf659tcdbbi",
"66<68d868262hu4422->12uwpwr>324d8862-<w344w4213uudp26>2rpu2<2-62ddfu6121r4uw4>:qiccbbkzk999cc95699cvvkk665k9iik9$k8k7k$k6989fff9695kcvvvb677iic8uu2qud41,33r3ueuu42@>11uwu867998vci97559ff9f8766ffcc975798ff982>2udu622>-iudvu<1828uf92965u8ui2296<icvfi999uifff",
"2tt66df2i8u68f48rr2>1iuw4rr11888i8tt-,3=33,u223u4484r>15u82<1<228fdur2r684422>>2ikcccbkkcbfd9976999cck7k$kk7c89kkk$kkkkkk699cfick57cfvfcct67kkc9<111rdg3*1%3r3deupr>:2wyw8p2999ufci77656<if5k566988k9767fciiv225u4durr652a8ddr962u98fp862294ii9<<6624fu8c5iidvfa",
"66ti2fdfir6tudu882223u4344r24u8fdt9766244w1012rihwu226>1488361>28wu836>2y8i3r1>27ccckk5kvMDDfck6769cif776$8cci68976kcd8i97k5i9i9k68idcc8kk779fv912>:20du3,,18uuweu21>14444wr96itick967779ff97678if8i79769fciir31uuduw42>2fwduui222fudi2966988ui866u9u4f<629rfvvf",
"6<6i8uu8ir2u6dddd<22,u4w4urr9kfiv69i6i89w2321>quudu4r26343r2-2<23uu3312244u41<>77cckkz5kccnDviv5k99886c666$38if89c98c88i96c9i9i8$k69nccc9lt<ifdw-2>22r4g3%*&13wduu31134wp344i9cvvC667;97cvi976989fi997775ffi9413wugh2622<tufi2a<6,8u8d92292888uitittfi<p628i8duu",
"6<-ri8ddpt6i8dhup66-2313ww265iiff687k775u422214w3dy2r6rrd4<2->11dd88262r344y1>;6kc9kkkkklbcni8k<7l9ci886$k9if99<$9i8vc898669icc$6588ccdf69k999ir21>-2uehh3@*,,duuu26>2138w3,rriicnk66758fcf77k75cccfc99fincfp2224dduu36263pud8tr66i4ur26<9i6d6$856iuhvu9t2<iid88",
"r252udd84pr3u8ddrp212q4432296tfvi9857k7iiiq32%u44wu122r2ipu8>->#3du4222rprru1>56$kckkk7$k7ccvnk57kkvif66k$688ck9$88ifc9997798cii85<89ffcc5k7iiu3q21>1u4uar,%@,3344y3>6,ww44,12uvcc97779<9ff97k7ifccc97$98cvcyr>2,3udrq2686fdu4tr628uui92<88u8u891iruff8822<6fdfh",
"2<<24duu6<u6rp48gr41123u99kk$8cckki979f8iui622w433d43<2wu4r626>>1up822124u446t<689f9fckkic8fc9l78kvickk6$zk$k776k5kk9if9$99cfnc89878cccc99$ifruwq6>213d8iar2>1r33221622wurr1,138vcfii7k69cii<775fdfnik55988f3,2244dd44212<udfui26iu94p92656r4<@dur488futt<uirfw4",
"61>68444u,34rdw4fir26q33885k9i8i9k9979icif6i76r433<ur22iuu4422<<4u3333>24dpu695k6icci8k7ffffi9k6kccvc7k75k5k7795$kk8fkcvkkccicc85c67$dc$88k99u443q>62p44uar2114u2uq<>12333r222w14i88tik7kic99598ccifcik89if423114wd4r4r<2488d4u6u29p88826u9p488$8998uu38i5riifhr",
"2212ud443t224dd32y2<1r86k69969fc8c9779fcvc8977kk<4332q2rdeur>25>uduwq2;<48vc7767ii9i9c$$888fick<9ccvckk6$kkkic85$7k9988ck79$8ff877789cii9776u4q,,2>r2ih482u66334326-2>w33411124rd9k$t799fcf99796ffcf7kkkiff44w->24dd44662rudu8362u68fr9-4$$866<81<uudu8422riduv4",
"-2-38duu,4r24dw434r#6kd9<69599fii9c5799vff9669ivf995612uwwpp2:7$,eq22>57iidfk66799i88i9k589fiiv<6ckikkc9kkkk8c98k$ccvc9i99cc8df96k$kc8ii9776fuu32%1134hdr4ruri43w32>>6ruw,11-q3wd399<99ifici66l9fccf8$77fcdw2211r4u4r6rr8uf4uu<66u844822i98<kd$dtu6i$d8312tru8p4",
"21224u4w212,4dw3666$869k99698k9ccii999ivck7i<5<k88i9998vdufcz$kzuffik5$798c876559kckkkkk89c89uv6$7cci9ck98cfvc98$8cv9kkkk$kkif897k$lk7fc8976,4r4031r44udfrr22af3363<-634fr311>24444429icvfci9599fifi788kv4uw111>puuudi262iug862263ur48r16ii68<8898<<<,84166uuhdu",
"1>62w443322,44ddc56<569i99698kk9fclk79ccii9ik7kiiff<5899fii8k$k$fff8k6658i8976669kcc5k$k858c98997kcvckck9888ivi9866ickkkk$$k$98$55k7kk89c98f23w3r,%2ru4wpri62ifp3r-21224w42<1>6ww4uu1<6tc838899vffcc57$684ww11->,d4w4ur23ufdru6>r6934u6256i8f86<8<83<46823q4u4hu",
"w22qu4421677f888k7775i987$688i8ifiiiv8nifii6z5iif596659icf88k7kk89i855699c9i76;779kkkk9$$8i99i998cccvckkk9c9f98$9999c95$$kkkc8i$$578ki99k958433222>18r4u4ruuaafh4<>152uduu1<>-33dww411164c59986cff895kk58uw4r11243u43,rr88hur8u>22r24<22,896c<<cnccv6$-2<>1ruwd3",
"9t6tiu966669if89776989k9ck689fffi89995fvb9i7b6969kcc799889i8667kific86668i8995#66kckkkk$k$fd8kv78899cckkkk9ivk$866fiiikk$k$7c8$87566ivi98755r3,4q2>23uu434229rffd2->61,r8pr2r<134434>1113f<879599fi9976733wui1-148ddu<p844ddr4u252244<26<8uii8$f8v69vi,121>3ddf8",
"699lki9<6567kcif687$k7k799879888c86999fnvc98c7k8ic8869kkif988$kkfvi<95869i9896$7zkfcn966999f8<98k9iccici9vk9vc956<icc8i97$$k$k$i$6$58fd9tt22ph4481224rud4rr<rrddfr<,16232463i22w44112284ur31<<<iidc613>rr44ud4-144dg4<qutiddp,22<644822>,6<9vv<889ff$c$89kk6kck9",
"9<7iici865$796ii99667k9798k5kki998<7599fv9i576k9ik9i$889cff9k9$99v99<5$6698kc55$5kcfk98788ffi899k88ccici5li9ci8<<568cf98775z67i$kkki9998trq18wu4w21r4udu441-t8ifgfr---23u89r2<28,623>134i6341<<344u322-2udwwp22#43duu361urw8fr2<>18u22u2<16cvc9cc9c6cc6$8$kkvvc9",
"9566icbi565579c899$;<9iik895k7kcc98889ffvvc966k$8ii87$$vvc9i96$7cfc9k5k58k9999869knvc8k599cf95<566cki9bk77iiff95855iiiiik$$9$996$599di96t22-3wd322>>,udhf822<8pdu86>->284rru2i8<966$-2<8i89i<$<433w41q>3uddqa22-uuddi2323ud8u22<26<rw422-<3u89c$8f<D$f9i977cCvc<",
"<65999ik775679f9897688cic<9898ccf855589fvcv9k6k56698k76kcc9987k7fc8k5#776989k9778kvc9877599f8898689ci9kvkkiu98896659fici77k988995k5i98i582212udu11-<,d84dt12<4uftu2>;22u481u<58i,#9X66$5@f$8vi$$$d3322<34wd3r26144d4uw262ddw6r2;>1,442111-83du9ci6f<9ik9c$69nbc$",
"<579f8f97776i9d976k779ni7955kiic996$999fccf67788k5#k$5k$iccik$7777kk7#k57759k$$7ifvv9999799ii76557iiii89lkM988t6k$89dic977$k$888577kiii621112ugurq2q24ddit2u2rufi8r223<dd4r222<<868<$9i3<i$8$f88<8<332494wuwrw3244udrq2628h8w41<<<23811->142dd99iic<9fki9699nvb8",
"5#66k9i999678cf9k57699ni7k758$8k7765669iiic95568kkkk55kk8cikkk6777kk5577$88977569fvf96k566v8k7625324888<tivt899966558888797k$i8875$78iicr,>123wdu82622w8pu26r6fpuu66;63d84u8>66,<<i9c<c<8n9i$$i8i<f$i63$fu42rr1624duu21rr2hfr8116,-6r3<>--1u8v88i8i<uiic86i6nvCi",
"9<55998699k899f89686ick9kkk56$8889698<68c97k567$$kk#k$$k9ik77kk87kkk5k$k58k6k77$i8f96k96i9fv8rr-121333342uuid8<667$88ii89$$i8d99#k7kii4i6%>14wddurr21249di8r2r462u625i6848r2>>229,f<<f$<<c89nc88f89568$i83u33r2r4wdduw323wrdw42t#u<<,<q21<1pc8c99668i6fci8k6nvb9",
"5569ci3<$559i9vf876$8cfvkkk$67kc9k7559<dk77k55k5kk;k$$$kc98k5$75kkk5k5;#775$k5k7ii9i9k7$9i8ir32&>13w48,462pu38<<k$899iv$99cc$8985k$kif8r2>1>3d4druu62i33puu69fffr66>>2<pfuu8><93988$9ci85388$f$8v9c#<f<8<$t31216,udu4r>-<iw4dr,5<9<<i<61>,8cc9996759fff899k8vcvc",
"65699cii665695ic75568fifncc8k7795969798ivi895k77$k$k555#zk5k775k9ni9kz#7#k75k5568v8d$kk#5kk5w222--w4w2r2q2yd3416$$$kii8568893c987kXk#zz78r1-24dwdp89<du,iuu6iiuifi21652,uiur62a68384,86kic$fd$$vi68i59fu93$u<u3<8ud44u6-3ud8pr>%-3i64#i2<5698f65$k8icn9c957$ccck",
"6559cfi85$558i8f996699d99ck7$97c88977999ic976677kkk$55kkkkkkk7696cv9k77k##k$779689ffkkk#kk952ww21>4ruru,2rwfw,1<5k$k888<<5888vcck5;5k577wy2r4w4w44896fh88u62ruidfu65>692u2626<t3f32fD89$9di$38486<8<c$$i9<<$$f6244d4341>13348u1<-1<u,,<85k99i9987$88fc9c8kk6cM97",
"7#665ui566555ci899k$cifikkk67kiv9966568ickv95599zkk$5;#k7kk$k7878ii977kz55#5k5668ciikkz$<9cuww26>33234rr1uypq33,;#kkf6985565$cd85#5k28k9211qw4wd83483$368886i9fpp895>irudir6>ri3fu4888c89i8i<d8fud6d89$<8nv5$i$c48ud416626448r>>->248<<3k$kccv98k$8$fic9k7k7icvv",
"k5579vi975558ii867579ic9k6kk8kci9k<565f9cckkk6k8k5kkkk5k7k$k7657ii8ck5#kk###ck85$cfi$kk$t8duuuq>122w414y2<phh1&,##k#c89i6<65$8cikkk58ii8212-4wuuu289$cc$8f412ud8292,>6iuufur66fr2rr<899v8n8if8$ci4eu4@88f8<<8<8<$u83u2>1-2r3uar1>1248,,6788ccfc9k593if8fk$7$cck9",
"7;;77ki9755577ic7866k6cfvkkkkkifvck7759c99k666v9k5k$k$kzck8$k577ccd9c96klk$$9<999fnci$k$9idw3di112r443226rugV#@+X;##<6,55<<589887k776ff43121w44d4316<f6<3<9<28uddu9>,6f8pvd266ai8u88$8i$c8c8fv58ufi<883gc9,@<$f$9$8urr6621r434ir614uu2<577c8kkkk$kk$8f889796ic99",
"77;5k6f8kk67kc9976;756ndc9$877ccvc9k57ccicc656v6kzk$#k#kik8k6777if999567lv86$$6588icick$9udww4r12>3u422262pfh,1,;5>lti8979#5<986577i6id812>:44dw926#8ff<$88<9tifiy66,,4d8fi662rdhd8vi$c<i98f88ci88nc9<Cinm6154<c9$i8r22rq2du4,1223wee3u667kk5kk5k##kiin97789ccii",
"765795i966559cv9k8755<c888897kkfcv6k66cvccc977k8kkkkk#k5cvc9k5k79ccik567cv6<bc<<$c8cc9$99u4d4441r22wp34222rvV,4,;>>tii9997#5<i9666ii9iiu,2133uw422>2$598f$8$#<ufii6a2;<dd8iui88ufu5ib8868i6fficv$c8cb8C9cva235<<9f3$uu1r44w44r2>-2wuu479k7cckkkk5zkkffc9k799vvi8",
"k67799i87kk76kcc99k$559f8k756k9i998976kccvc9k7796c$k$kkkccc8755k8fcfk987bc69$k$$$ic8i9c82944w44-1rp4u,r6rqpmV3p2;>5tifit77#<3c9<5;56fcd8q1%2#uur8r%6k8<88<4n$@,,i66i5648fuu,28cuhd39k98$8<898fcDv$viv<nfnDbi:qe853<6,v124ruwy2211q4df9i685977kkk5$k$i9kk77i9vv9k",
"k$7k$k9k6k$k$icfkk65$9ifkck7i$8fkv6k98if7kkk5k$kkv$8768kic9857$9kkzz5k5#9ncikMz#38$8kk78iidwuu2>-24443r2r3uVZ334<55kk5kkk$$869985557if98qr1>1ruu461296b8$86n$3ic$8995<dffdf868d4ffi8f9v869<8c8F<ncdif88dn8c8c898dd8g$82216fg8q26-qw4vfc9999iicc65$56dffc88$7kc8$",
"5k$kk99$67k$8ifcck7ki989k$77i9888756988fkkk$kkk6kc965788ck9kkk69k5k$k;kkici5$$758ci68989id8wqwrr224ur32262ugC2146599kkkkkk$9$ck96i67fcv83r>113u3,2>>689<6<9f<<$9i8$i9$88dd$<8dd6dfu8<<f9iv88ff8698$898n8nnD98$c8b$wdqw2b<3rdr3413rd4dfii99kcfic9kk76vfii97k7kkkk",
"kk$k9977$k8kicif77589cc9k$k68ccii875$69fk9k#5kz5ick7k65kif7ck77kk8zk55kkcib8k6$k8998$<8899844*42:2gdp8yu2r4um4,345k9k7$k$k$98f995667fvfd32>1r2pu62>#@8i<88ifv$i$k9$868c66nd$8$cfdfdi2<2u9i8<56ci8$ffffd8Hi8cCci8b$$$103w5<,dw32r12w8cfti599cif8i977ccfcc9$z79cck",
"$k798ckk$7989cdf7k799cc$k9969ki9i5k$k99ic9kk$kz$9i95577kci76k$9kkc$kkk#kccv$77#k8f8ik<$6<6u4434r-3uwu4wrrafuV44f9998ckkkk$$$8989<7668fvirr1>323u11>-c5f69c$cb9$$$$$8<$833f<9$99$3<8d3868ud488f8c8$<<cfcini989c$8cb$8utrpgd5,1231r1a88ctkk59f9889659ciiiik6kkccc8",
"k$kkk$k$kk$kivv8k887ckc8ck9686kc9586599ik9c9$kkki8i96k$ccff875599cc96k$kcii8$zkk9fcc83i$68f88u,4>:24e3p82wvpnwwf6i79$k$kkk;k8c896779i8cir22>w444122-2t99i858cib989c$9$$$9nc9$d9$6$88f<f<cd34<8v888$iv8i$ncnn$i$c8cci88iidee3,<<224df8f8i999iick665698cki978k68c9",
"kk#kkk5kk$k$688v977699cc896k5k99c86678k8i9ci$kk$i8i8$k57f9fk77665c9ikkk$cicikk$zccf6u896<Of88k<,111w448rrrphC9i8<i9kkkk55$##cc$k5599fifi62113u8pr2>%2k,18c8$<$99b$c9c8$86c8i8in$<6396i86$88i2,2v9i$8$fv8ic9fci8i9$i8n$cc,6quq2q26ucvff7689ki89k66669ccc877k889if",
"k5kkkkk##k5598ci9766ckk6k$$k9ic9ik67899ic9897kk6ik8k$6<8998c77k99i88k8ci99fck$kkcccc5<68i6$<$ck911433,r289dcCcvvkkvvzkkkkkk;$ck$5699iccft12-12446r2>26i88$6vfi<fccc$k$$k$9$d8c$i8iif<f8888<<<1<<3i$9$8$8ni9$8v99k8vcii9ii9cgp0qye6@vvi5856iific9k55kcfdk$k$k88fi",
"kk5kkkkkkk$k99995k75999kkkk$5ic9i9665i89ik7$$7k8cv885<69fcc<768kifcf899988fi$k$$8ff8ifi<<<9$#O7kt9iu8ui<i7cvGcvnk69vkkk5k#5;8kk65<6iucffrr2112232r622r9tv8$$8<68c8kc998998c8n8c$<$<<f<6fi6$85,8$446$n9i@8ci8ii9in$$cnicff88iippy3gu$<ii5<58fu9975k5kcfvc$kki8fic",
"#k5$$kkk$7$k7698<i959ci996$7$k99ckk$5kkk9i88$7k9ci9c579k68f86<99icfv8i$88f8cfckk8c9f989$kc98$$88769689v9lkkini9ilki7cii8k55#k$769<$vccc6i86,13441-1>23i4k#59<i3ikbck898$98i998988866$k$6$bk55$88698,<<c$449v898k$nffnnJ$k8cnc88fdgj0e66#26ii9989898fiicczk#zk5k5",
"k5kk#kk#kk$76$9#i$v8ccni677$$kk98kkk$kkki8967$77iii9<5<686i8599588i889k$8fi$8$$78fiic8k$$899k6$87ii9cf967klki8ik7kl7vci6#kzkkkkk5669ifvcc$5,23rw226>1w43<8c95<$9$$8$kckbiii8vkc9$i8i$$$kv$$kc55if466,,$9,4$cc$$$ii8ccif89c89c9k8pjjjayri<@<kfk885998dci9kk#kkk7k",
"k#kz76k5$6$$$6c$88$$$6cv7kk$$$z78c9k$k$kki8kk$z699i9k6$kif9958k688$8$k$#8c8cc$kk8ccikkk$899$$89$@k<if79777bvi98i67tiifk67#kkkzkzk6598df9l755133402>6224893$9c9$ikkv$$$$kcfbici8c$i9ikkc$8vb58$8<58c9988$,443c98c$8d8f8cf88896c$64wjjgpr0g8<<$#t68698ccci$k#k9ik7",
"5k5zkz$z$#kcv$kci9c$8i$$7kk6k5kk99$$kk$ki865$kk7ic8i$k876f98<<6$3f8ckS$#$8888c7$9vcik$kk8ci8v9$c68<89iki67cccccc66ki6f97k5#5$k7$776kf8i997552843212122p4u66$c9c<k9k698k$8$n$8ccb8$88kv$8k5k$k9i96<<59896$8d86566nd$8f8f9i68k99kM3ujgsspyyej442<26988iccizkk$8iv8",
"kk7$ci88n$c$$@6$cccc9$898$k798ickkz#$kkkcc8776k5kzz#5k5555f6755$7kkkkkzX88d877k89cvk5$k#k5c68kk$<<988<9k8kcnc98k977v8868$k$$$8998677kc9976755id402q11344261ic$f6$cckic889d9ccinc88k69kbk8cb98k$56898$8c58$$C<f$c$fidCfc86n989c$v9<83dfypwppgqeyq$<999icfk6i998c8",
"6$k6k8i8c8v98i68<$98$i$8$c#$$ci$5kz#k$k$96i877c85#k5k$k$575<$$kkkk5kkkz#$ii89kk79kzkkkkkk99i$c$986d8$8<98ckcv96897k9cf887$kkfd9vkkk67ccik6k556u8r4223rr3w22368v$98$$$8$i88iic3c$kv9v55c98c$v8c7k<<$f$i9$$5n$68i888c$9v8ff$f98ibcci<8f8jasjjdaweq8$8vc999$5k8ccn9",
"k66kii9$69bc8$$n9c$9c8i$$c8cc8nik$5k#kzk988676k9z7#k;k5#5$5#kkk7zkk$kkz5$869997kkckkkk559kck98$9i@<8i899<$cfci9k6k7k9986$k$cii$i$kk79c987555i999u52:w4du31<,n898$9c9$$c$f$$ic9n9v8$$cc89cc5k8k$k<9ifv88k5nc88n8<$c83<c888cf8cvk$9f9<fii6gmjjjq22pq486kk$k69i98ci",
"k76kccD8k$8v$9$ivf$6$invici$$$8nzkk5k#kkkk76k5857kk55#$k57kkk5$kkcz$kkzk<488k95$9czk$k$kk9ckk8799$8858689$6$cv7766vcc996k$k$8di867669kv976$7k798i762r4wuy,,<$v8$9$9$88$8iinii$$$ick58988bk98#kkDf8<9i<9$ki$8$ifc8n9ic89f$i$99$5k<9<i<f98<<gjje1,fugd$6$k5$9fcfv9",
"kk6k9cc8$i$c$c$9cnkccc9n$c8ci$i8$7k57$kii8ik698kii9i<<77cSk7kk579cc9$kkz5688i9$$9ccii8$99$9fc8978<86$$c$c69$cic$666kvv66$k$ki8dc$$$kci9cz77$$i8fiit5i9ff84<2<2iik7kk7$6k$9$c9vc9k8ck8c#6$$$kc9$M8i86c<68$bk$888$88$Dc$c$88vc9$$$c89i96kv89$pjjq1f9uggi865$$9ccf8",
"77kkicfi8c88z$c$$c9$ck88b8cc8c8$5577k57ki89kc768i8$97kkcccc9k77kk9kkkkkk7$88i87ki9iO$8$$$6$98c$k59f8k698cc88vcb97k769kk66$kkf8$ckkk$9999kk7kncc89i77k9i99877i7t6$$9$$b9$kcffnicc$c9Mkzzkk978$6M$<i$8$cc$k8k56cc$k8n$k88C89cv8vck<8i<i<<c9692sas=wfff3d8<i799icc8",
"9$$kcicic$kcc8$iO$8c$99c$bccccc98$7$ckcic98<7k889i8kc77kcick77k$8889z6zMk$88k$6$c9c9i989i8$c8c8$9cc9$c$c898c$99k677kc9k7k5#zii88kkckccckk7kkccncik668cfc99977tvbck5kk56k6c89i9n8b8b$$kv$k6c76cck6$c$$685$8$$8$b$c8c9kckkc98898kMvi55cc5nf9vi,paqug8ci8866888fcv8",
"$k7$ci8i9c8$9b$cc$c$c9$8c9$b8cc$996k$kicii956k$civc8kk7kckk9757kkkc8zkzSS$$9$k$6iiikc$$9$i$8$iiO993ic88$$M$c8$kvk799ckcc5k$k9i89$$$ciib$k$$cccdfki776ivfi6777iiikk$9lk58$$8@9c8cv$cM9cvc$kc$96c8f$99c$8957k55$k8$bc9icn9cck9S$M9ii95v8$988i8lvwfew8<58368<9fccc<",
"8$$kkbcckkcbiii88$Ccn$8$c8ccic8vk88$79vii966$5kcni9<7k9icii89776c99fiikMGc$6k$k$kkbck$88898$9c$i8ifcnvic$6c9k$$ck679iv67kkk5kk96k$5k$cnck77$ifcck97i67vcv969i7cc99b6k$k$ii99$c8fCccc$D8Mk$kk9b8ccb8$$85c8k6$6$69$Cc9vcv$$F9k#k#k99v98$$878i86884pwj8iuf9i$38cfc<",
"9kk$8kfckb$$99c9cvc$$icf$9ccicicb$c$O8cik97lkk7kccikk6kkd9k8k87kcc9ci8kvGS65k$kk$989k66$i$88$8c9nC98$c99n$cc8$$8M8$7ic98;kk;k5k8$kk$cccbkkkkfifvvk9799f8v9956iivck9$M99ccvc999ff9ccc9kc$kD$kk$$c$v5c9b88k58k$i$9b8c8$Dki6c9ckkkk856k,ci65i5ck<98peju<88888848fc<",
"$k$799cc9c98n$$v$c8vvid$cc8ifCc$ic$$$799icczk7kvcck85569cik8576kccii998kbFk$$kk#89k$$v9c8c9$inccc99c$9898$$cc8$i8$$iic98#k5kk5k7#kk7$bkkkkkkcnciki65kiffk766868ck9k7799cci88888ccckb9vcc66k$886ciic$958i87$8c$55icvk9$96$k67kkkz99i99c55c8ki9c$iupagu<8c88488in9",
"9kkkcc9c99ccccc8$Dcniic89$8n$$v8c8k$#$9kccczklkcnc857965fcci6$769i9fcc7kvDz$$$55k7v$k7k5$c8i9$8n99dci9$9k98$c9cciv$$ick5k5kkkk75#7k5kcc7$577ffcck7k59kcf9997598fk$k7k8c9ii9ni98fci$8c89kkkSkvc5ccci6c99$8$8<k<6kic$9kkk$k7kkk#$k69ic9c9$f89vccc82regg8,ddff88$n8",
"k$898ffcck9ckccc$civ6cfii9988cc$c$k$6ccif9898k8cvvi8857kifvi97799kkkkkzzbFn$88$c8$i$<88$v$O8998$nvbnv9vc9$$8889$98$$kivk598cccv675k$zkk$8667kk8d9k7899c999677k9i98$$kkccc87S6$$6ncc$Dccc$i$9c8k98Ckc$iccv$k9$k$98ncck6kkk6kkk$k$598icik$596$<$n868gjdq6<f8fd8889",
"$7$$88fnkk$n9$9$ccv$998f8$9c8$$c8kk$7kc9cic96kk9cc8985k7f99i777kk7kkkkkzcDD8$$$88k88k989ic$cc$8$$88n88iivc8k$k8k$8$k$$9kk66ccvc9#7k5kkzk97678c9fi889cc9fi86755iikkkkkkccck6$kkk78cc999$c99vc9$cv$ic8c99$$99kk7k$68cvkk$$kkk8kkkk56989ik86k88ck58<6fdjuf98i38f488",
"598983889k7$699v9$cn9d$cfc$9$$k99ck9k6k8868kk98kcc86776kffi6<6;i99$k$k$zcbFc$9$ki$k$$k8$8c$$8$9$cn$8n$8999ikO8ck9k$kb$kv6799ifcvkkkkccckkc678viik99899iivk67<6889$$6$7kkvck7k6$k98cbkkkkc8$8k998ci888i99$$8vz$k$8fcckkkkk98kk$kk6789866659i9k$k86f88epwun8fndi$$",
"989$c$c98$7kvi9C$c8888f98$988$$c88k767kcc88$69<icck88$$kcc95766kickkk$kkbnDnO$$$k$c8k8988c98$9c$$cDccci889cc9$k777$#k$5$7$88cfc9$777icckkk779vc9v8969c9c9c6768v8kkk9kkkzc9k676#k898$9$7kbcv8$6k6cc8ivi9ibk$i$kkkiccfzk$$8kcczk$$5k79kk67969ik689<f<f8qp098i8i893",
"9858<ic5956$$9i8vf8$$9$cd$c$k$$$8$$c67kkk7$k6799dcckk75<cci9555999if$kk$9ncD$$998ki89$ck$8kc9$9vkc8$nc9$n898cki$k$k79$k7k7k6ccc98$$cccncc6768fiikk979kcv$kk$659i9c98899cci68$kkzkk$kk$kkccccz$#kifcffi9ckbk$k$75ifcff8k7kkci9ikk79ci8i9$77ki9b98icff9vw2&i88vcd$",
"8f4<8$8ck7k8c$c989d8cc$8$vn$k88$$i#kk$796kkk77kifiik7c96cf897677iciik$kkcbnDbOO$$c$9$99kvbk$cc$89$$c8cCc$8ivkcc$5k6k$$O$7677ccvi$9kc$98i9k668c8999876kcvkkk78889c8c8$cccc9k8$k$z$kk$$k7$kkc9kkkkci99f$8bkkv996k5ifnccv$9kcccf9$$$icck878569ifcvf8868v99a24d99iuu",
"i<ug<3i$$8i8f8899888$9$ccccvc$$$c$$k7kk9667$$788ifc997k9fc9566i68ccikk$9ccbbkO$$$$cv6b$bc9c$$9$cccicc89cn8inc9c$$6$k7$$$$779idcc8$9cccf86688$cci8k5k68cckkk6$988c976889i9886k$5kkk$k5kk77kkzk#5kicci9iv8c98$$kk$9ffccci99ccc8i88kkcvv9kk<9iiv9c8c9cc9c3iy6dhiicf",
"ff8dh8$59$<89f89$$$$iibbMnDcbv9$99976kck8k7kk$689cvv6788ic8i7569$i8ikz$kccbkD@k$$5i$ci989bDk89c$9c$888o$c8$n$kcc7k$v6kk6$$$899cc$k98cvci656889ck7k57kk9ckkvkii88969k7k9cc896$66kkkk$k$k7k5k$kz5kccnc98iv$bc$$$$k9fffiii96vDc89$9$7kc9k7k8598iii6vv9fiv<9823d89c8",
"9fcd8pw6<<96u488<5ic9nccf<D$n$i@<$nc<ccci9ii7kk7588i66794f8<9679nci88c9kbnCvb$$k##$7M$k9c9i$88$5$k7k6c$vk$ccnnf8ci898n9c#$k$ccck$k$kicvc8ikk57k6k8959ciiiin99b8ic589k7kcc6568869cn898$kkc999k#kkvciik$57c6v55##k8ccnc87k9nDncf<97k8k9c866699i98$ikck8f958v33g4c9",
"4686beqwu1,$8$35binif99ccvvik6$i88$8999ci8996kk7cc9988694u969666ifi88c9$9vnMvk$kk7k6kcc66Mbcbc$$6$7c8vv$icc$$98nc$f$9$8c96$8$9c8k$kkfvvc9i$kkk888955<ifi9fc7cCc9cc995868i995569iccc9$767bviik#$zvvvkk667kcv6kk56$8dc9kk7<dDvc959kkccii9975k69vi6i988c59v<896<eu8",
"<i8cuv4wy3 -<f8dnf<c9f38n8vv98$9v<f8$89fci996kkiivc866658r222t5tiic$$kkk9vvSSz$$$$9k$9$98kvcck55$k898k8988vifi$fn8$9i9<$7777$$8k#kk$fccci8968ik$9c77i9v99v7<ccc88k897699i889$55icc99kk76fccc$kk$8fkkk77k9kk8667$ii8vk8669iCvck<<7kkcc9v7k6f58fc658k<89<5969939j4",
"4f<df<689r0h5f6di9v9k8v8f83ic98<$88869c8ci99$78vccf8t6i64iu5265icvffzkk$cccvvz7$6$#8kMk69k$k8b85889888$989c9c$889cii588$$$k$59#5##k#9ccci8689cvc797599ff9kk558ficc76765896<589i99nb97$7k9cc8kk$kiik87k$989kkk67$8ci9cck76cvcc965$k9cc99695988fii$6ccf8<c6cvb<2b0",
"4wu43<$<kivjv$48<9,99<in6iii8d9$3$8$9$6iifc98k79d8iu66ir4483<97icc$kkkk$9vcczSk#k$6#76k7$Cb$$$<i$kkc98$ic98cici8cib89v#ik#$k88k$$#k5k$k967$689ccfk769iinc9k79kcfi9k957<9897876k7cc9kkk6ccfii$9$kf99f999kckfi76668if8c8k89cvcc9v58ccfc9855679698tk5kvvvk996c89if6",
"i4ped8vfn6i2w<8,636iv88i89c9ciiii$$8$o8if986$88kii8266iuuf42<659bcv7$k$k8cnvkkk$$#$6k$k$8kk8v98998$88ci98c$ffi$9c8c$i9i9k$$vk9c$#k$k$kk76k7kc9ii9967<ifdi67776if8i9777k9i6576kccbvc86$69cncckkk$f8df6k7kcic8k77k88ic8i9889fvcck58cfiii9959998ci6979cvcinn99c<v8,",
"86,gjfffn9i630,5O<<98i88c9cc$Ci8888iv$8$fi66556kvu862122idt6<15vc9kkkzkkkcMczSk$#$kk$5#66kvbcc8969ci88k9$8c$9i8v98cicvc888$O$$b9$##$z$7k6k98ccci9k998ciii9$7699ci887k7k7i5787$kccbkkk$99dci$8kkk9c889558knvik757cd$ivkk<cc8ncvi669fnk8c5756ifff9679ccf4v8$86c8c$",
"u8vVAZupv9c69pe,<@<f28fi88cb8cc68<8<86i$vi98k5$lif66t6irdiua655kcck55$kk8cbkzvz$##$69k$8<9ccbckk9ii988v$cv89v$$ii$kv$vv8kk$c96c9k$k#k#$#$k<8iicc976999vic77#67f89c967779i887789ikkkkkk89ic88$k7$f99$998ikvcik7k7cvf8$986i88fcc99$799k8589658888i9699dfw4<viu85fO",
"vfcvVV4ffu,c9$w049<5$8cc8899c8ci9cc8$<8$$k75789ifc8666tuduiik7<7ici955k7kcckkkS$#$$8k5z5$ciifcikkvccccM898f$9i$9c$98c99ccn8$8$98i98$8$8$$79k6kcck6759fi8vi75998f5kkkkkici896679idcnc897$9i86566i9if$c9k8ffui9c658cn8$$c$9cii8iiik699i98766656889968ddh6341v1<,<9",
"fvvi6dgufpruvitq2w<,c$889f9iciD$v$$cii$$$kk65$8icff65<i2ii899k7kccf8kkkkkcvbkzzk$5ikk5k$$8i#fci9$ckcck8c$i8if986c6f$$c$vi8kb98c8$8kc$$8i8$869kci97756c9859956vfik$5k68cni85887ic9fci987kcc99655iifci8$$9icfi99k6icnn9$$969cvf6c9k7ikiki6577iit886<843w8<6@O89bcf",
"8vcf888dv8ai89t<0r0vn96<8df8$fc86c989f8855$k8$89uvii6<99ff82666iccf955k$icvMzzzz$$98k$k#79986i9k9kccckccb6$8c889i$$i$i$kcccic$c8$9$cc8$$68$k$cccl675<9vc967668fikk$$k$9ci9i55599idcfk7$9fv9967678ic9kk$kifc869669cnvkk$$<8ivv999kc8ci96757kkii62<1,4dw63,i-wnvbv",
"iC$iini919uiyui6ryuf$v9d88ic88c$vnn99n$89$5k5k$9ifi9<668fvi977659cfck$kk9ic9vkzS8$565kkk85i$$5$k$9i8ckkk968f6fc5c98c98k$5$ci$i88$$D$9nc$O$$88c$cvkk565fc997566i97$k$k79ccki98$cific997kkvnk57679c8cik$k$5fv889859cncSz$k$8uuif9678kckki756<if8w,1,333$8888iad6v<",
"<cinc6c86rk22i4u82rgd3$<9v8c8i$9c88c$8cc966<6688889956768c99f6l7fffcc8k$9iffcc7Sv$67887$9996c<88kkz99ii9vvc$96$O79k$$k$kc9$686i$88$b$i$icci$$8df,8k<cfv89685<69ik5888k8ck7766769f9f8k98innc6k7t67k75$55k<8f8ii7iicvvkkk$#8if8ia57kcffi6t57223q&,%%13388dp6fu8dvf",
"fc<c<fki6iv64fww0#6p4i$f$$8c8iccc99c96$898$8$$$9fi9i7778f8c879ikccn$c$77idc8cikzG$$k986699icc855$cccd99ci$$995$$8$k9k$c89i8ici8998$c8cn8i$iic$diw$f6<<if696<75ic788588k9cc7k678ifc987799cnf566t97kkkk$5#6f8c77569ucnkkzk<<8c8tlr69ufdu21>2113,*,@%1uhd4diu$$44<4",
"$b59<cci2i88iiaypq8i989i$8$9$$9c9cic886<cii8v89$8f99667lfi899678cdcc9k6k99cc988kF8$997k8iifc87i88$ici868cii$88$8$66k9$c86iv89vc9889$88inc8$8c$$cb8i8$589kt75989c99898cvcickkk$$cdi99k899cCc5t67t6kk$k$5kt989k8,88cdfk6kkp*343,23<43eu4w1<1213,+,2uwphp133<99u4ic",
"8vcv86vf<6n9u62r2yq2cc$Cii888$$98c$ic8kk8c8$9c$$<vfc6677f9889969fcci9$$kciffcc9$Dv$$77k7889ck8k69$8i8i6cc9v$i895k$8$kkk$$i998$cv$c99c$f$fin8i$8$584489$p9575856fc66898c9c9kkkk$kii9577c8ivv826568kz#k;;;2443u6,,3u44r656fw*33122<84d4ur41>2131,wr24udruq1<,85pu3",
"4ifii8ki9c8ick86lry4V89<6v99$38<v8ii996<icvi8i$86$cck79icc97k5k568zkk5k$7kk7kkk5kv$5599776ific96k#k6kk$9$kc8999<i89$98i3$v886kc<9888@$9$cc$9c$$$8$$98<8ui<8,<6<fii969ivcdifib798dir,3-2r4we11,1124uu221>13u4dr23443u4rwrrh4*1*,14348233,11,ruu4r2>024uu412>2<49$",
"6,i<i$8cc895$8n$b823h8i46b<96<38$9cvc58<<<85$8<$8$<k699kciik75$k9kk5kk5777k5;55kbF9$6796k7ici966k$5k$k69kck89cck6<6<<<vc<<c9i6vc$9kkk89$c$$cnbc$9$c$8<36$8i<<#,3351<<88udu4rr231432421144u3<-1>3<434y2>q824343r-8dddwuurpvh4*13-2w443,1--wfhvp322212w3p32>2q4wu<",
"<i<vcnk$88i885$69<kvdd483fv9<8<3w,9#6b5969<68i$f99ci677kci77k5k5<8k$$k5k7kzkk;k5knv@67kk69inv788kk8ck9kk9cMc9$$89f988<<5i886i9iv$k$8$98$cc$99ccc99c$iv9c8O889O88643414uqdwr36ru1wu4w22q,dd4111>1pw43rr2rrp44212q44dwu43rgfVh,%%@1<3p1,32r2pdfp4r>2228u4q6->r4ud3",
",<i<ik8c5k99$8c99i<9v84c<uv989<<rr6k8i9c$nc8i8$8$i$5878889k75k$799kk#k$78k$kk555cDn#$5#57kccvk66$k$$kk$7kkc$$c$889f<8ci$8<86v9<vckk$ckvkk$nc9$98c$$c<i$f85k$k5<<$4,,-33dd8p2qra2wdu4r213wpu,21>@84w42>2r4pu46>213whddu82uuChp,%--34duyirrrufdu02-:,23p23221142a1",
"$1fcfb8c8$9k$c9ifn8nci<<68ui<6fi@6r,56ii9ck89v8$$888777cfci8k6k79i9977$k8ik8k#5kkMD$$$5k88fckkk67k$k9856$ccCi$b99<8$<6ck5<38vviv8i$c66k9c$$kic$8ic98ii688$89<8$6<,r6r2rud341224uu48312rrddu%-->@3,431-1uuuf336>284gduu32ifVvhi@%-1rdfpp21r2iduu62>21832112r8u4u3",
",,<i$89$ccvcc$$6<9<fik83$848cff4Vu2p858<6898$fifi$8i7789cci676$kcc986$$zk8kcz$$kkkJc$$#k6<if966566kki987$c9k9k9cicf$$v8i89vcff9ci9c98ck8$cb8$vii9986k69$k5$9cc<i,<o<13ugu4u1r24wddrf21ur4d4*1>214d,46112wudu1222uudduur2iahVmf2>>uuvfu82264wdu812>14uq2363rp42u1",
"2@ifCcv5i8$k8i9vn68ic8b8c8vi8iD4rpyued2$c9i9989f$8f8789ciffc7767cvc866689i99$k$k89bv$$$589ki9665$kcccc9877k9v$c$7883<$9$$8kc99<c89$vkk88iccncc8cfc9f9ci$8958ic9$858$<33uud23r28u444pr28r8d2>>#>>4p8221<6pddfa1124igfr8224duffir1224uuu2222p84ru2>>3rdfq,221r8983",
"2,<i$c58c6989i$ibi8f89898<tni8vff2uwagpb<v6c96i$i$f<c$8ifcf97676ivvi585$99iikkk$9kDD$#55989cv9758899c9ckckkkkc$kk<i94$66689<vvi68f98kc$8$c9$cc$$8<if8fcck$k5$k6<$$<<8$44piu12w8ddwwir24rpva161@184396r>w848ru8>244dfr39>1rdffa6>2438urr2634u4rr1&>164f32>r24426<",
"-62v5<8i899c8c99$c8cfi86<c$<iniicv4wwpue8$$ici$98$9$899if8cni<7kifcc8596899iiik579bGk##55c8f9i9977kici9idiicv$c69$875v88,<<8bfnc8c98898vv9v98888i8df8vn9i8$c5i8cf<$8$88348d8>rtpdd48r>6uw8u,r2<-24388q6i8u34f9<<4484u8r224fdfiu>5238u4u66>r4r386>>3wuuwr>22rui<,",
"112vf9<8c$98989cc93i6dn$5f6884c6898iyigdiin<v888$98$c$8cicfck86ccc9c56kk89idkikkkcMGz#5#599i98977588ii89$f$c999$v8k85c8i4u3<6v9v$$9n636cc988888i8viiffc9996k6<88<5<38888333422rd4w4di61iup3,5>>236u3661u8dd<94618dd84,u6u8fdatu>228944rr61r4u,22><<rwuuw,>1ruc69",
"<1@t688iccv8bc8$fc889986fiv9v8vi9fbf8mdyd4f96ci9ii98ci$cnifcck7kiiiik5$kc9f999k$9cbCG#X55<i8c8888kk9ii88989cCicvi8$$$88$<<w,8vcc9888c<i8n$88cc8c888c88i8bciCfc5<i$8$$89$<f38,34fdu4fk2u3w84<2#@16u4422r68hd46ua568ddu36>riddui625>14<283r22i481>-<<2ddf41>>r8cv<",
"6i6ri6<<$$888$kin8v8$ff$8<39cv8n<c888fjwwwu98c$9ic98$i$$ccdi7689vic85$k5icvfi$676iDDJz#568kk977789icc998$88i8c$fc88$8<8<9f6h4<6<6c$8i8<<$n8c$f8dn$8$i$cfk$fcci6i<i<i<$88i$35-24ud8ufa2ir8f4<>#->iuu8rr6rufh4622<3u8u831<18fhia16r65p82u666uduu1<6133uur2%%,3cvb<",
"$89kc388k9$998vc8c$c83i68n689C$9c8cnf<i9<8w03c6f8iiccc$8ccf88599cicck5578i9vc9k79ccnDM#$6iii8955$kkckk$k7$kkcfi6cb<8$c8k-96uuu,8$i99fcf999$n$c$f$88f$f3cci<<uiv5ck6c68$viii6<<8ddddfiu6idud<8>>@uui816218dd8ru26p8u8r62;32dvbf46u28u4,1<2>6uf82>>>18ufp82@>1<fC8",
"8$kv86<$v$8$$98vcn8n96if<$c69iic88cfvi6v3<928di$i$i8c988$dcc6669ccckk5k79f88c969i9cnSH#X$fv89c588989kk$k67$k889ivi<bk9<5,6<8uqay$$989<5$i8898vcc$f8$8$$$9ic5cc88i<5ii3v898$8O<u8d8uvka324d,2<-262uuu<<2686dppt6<8i8d852>56uuif81tt4fd662<>2rur612262wdf31>1,d<vc",
"ck$Ccikic8nnc98c$c$9vc888fd88c$n8f<c<9k86,94$$$c$$fif$8$fc9v96999ik7k55799ci79979dccbJ7.$ccc9c758988k776$kkkc9icM688889cv2fir9p289cv<8fv8888899fdc8$f$848$vivDcbv8<i968ccb8i<84duu486r12dfuu<>,9uduuu2<6udfuiir62i4ip6626<udp86662uhi2812-63w31<->2044pr>>618c6i",
"n8DbccOccii$f8c$Divccf8vu38$6$ivv<c8ii8i9ifiii9icffncd$88vcc57ciic7k5k5kivik9c86fnffMDSO$9ckc9785iikc975k7c$nicv9ii<9<<iaupwhi98uw448698c$i86$8$ccciddhd38vc5c83in<8i$v$di$89648dduciztufu4i,-,6f888<1628dhfr2tiuvuui<<-i4f482r52uifd82><28r8r<#1-638dur,>244fvc",
"9ic88ddn9f5ffc$,98if$8ccccu3pi28d<v9vf68i2fu668<c8fici6$fvfd89kki89i88k$kkc9kk$k#zivvbG$@8vccf6968kck5<98899i899$Cnb9iDc99ddjay86vepp3vuvi6c8uueppeqejgeu439<8fd69f9i<f<iu6219iu4i2iuituhf8i->12uhfi2-;56pdf4u<t9d84u96-6ipcu262t8udf8612<6au96>2>62uu43<-1qdufb",
"k89n<6d46ii<v85,8$88c$c$i$vuhgu8f6ik49cvd88i8,4$<v8n9vv$$vfc8$$9cciic9k$77c9$kkk5kcvnDS6O8cc9ik96$8kkk$i6589$k9iic9$8i$kvc8djj0p4fpujpq0fc<964qeqyapgjuqawyy$<fc8bciv$n<4ri2<uudfdpri28rhvu4<2<6u8uui;529dfff968pfnf896;66uvi4<26u8fvui2>66ruur212324wd1<1,44ddi",
"9ii<6f88386fc5k98$$88fnfvnn<ugdg8<ufi8<f96uppi4<8$vv9<$fdifikk98cfif9k$k9ik8zkkkk76ikvDk.$fff68i888ic976$67ki9$fcnn$cbc8kaduhjqqy<ipgp3qy,i4ffgpsepgjZNeeq0aew48cvv<c6ci68u5<284huiiil<9ufu2-;52if4iu2;2ufd4iu268uvf862>6u8diu669uipuur6<688ui4,666ru8w61>-8dwd2",
"8ib$f<8d29v<c$f98nci$$c$v<v8dvfepw4gpgucifcifuu88$8ibn<88fii$$$kdif9c9k$ccc9$k5$kkk8kbSSOOiv99<578i9c9955kkci8i8$8i9n$c$i3dgfmyyq2ipgjqqpqahdvjZa0dgjZZjaypguggqw66c6f84u8#216uduuurttiavhf8t;628fd895>549f4it61fuff2u2-9iffr2626uifu2t61r8dd8i,>23r8puu-21udwu4",
"8df896884<65b9icicc88i$8ivvb<8f6py3agqegqqeygpee,3<,v538k7k$kk$ki8987k7kcicc88k$9cc8$kbS5o<85k5k$kiki88k8$8fdff8icni8cf9ku4gVvvpspjjgaw0ppygjjjjpypyjjjgawpseggewe2w#88,9,6$,<68h8f8ai5ifdfuu#52448u9t>2<4488266ivddti7-uidfu9r<6uidi26t<<ru8ia2r1244rwu2r<4u3w4",
"<3,if6<443<fv95c$88cc8c98nf,cic8uqeampdgsaeysjgd44,<,i$875kk7$$kiiii6$k79ffcc$k$i9iik6zSzO<ckk5$569cci86988icin9c88cfif8bi9pjjarrasjgjspypajjZjjapsagggqpyssjjjggdeqaejde4y1<@<udf48tkuuvnf8t>62942499r6u94481<<<du8u56-6ivf93662iuuiu38>>6ruuu<6tr8u422184pdu83",
"3284$f8432<f8n3kii$idc88$d96<<<f4iupjjjjpapwapjjgja9<f<ik6$kkk$zii97k57$i8i99$$7$ccik6zSD$$8kkk557cvcck5k98ffi9fdcv8f9intiicipwp6rajjpjpspajjAZgpepajjaysypagjjqaqqpgpeaawyqe16O$64966iifdu42<28idi2365686ii652ttiiu6t;;<udf826<78uu28>6668uudf<1ruahd433>,wd843",
"<<62<<$21-5$$ifcnnccnc88u8uud9d8auppgZjjsessjggggdjpc896kckk#k$zk99$k6k7ccc98kkk898k7$7zG5O$575k569cfi85$kiic888ic89v8f99MuapflpauaagpwqyayjjjajqyssjjppppyjjjZpjpqpjjpjgpyaawjg<<46u28dvh9965228fiu626<94iir226avff2i>-2tiv46i2t6i9u92<<6383up8r262du3<122wupw,",
"1-r2ufi36>2r6<6ucicicnvi58qrpp8rrryppdjjjgyaNsjjaepypic9kck89$7kcc99$96k5kkkk#kk8i9ck#kkzSX$$6$$$$ivk7k$kk8kcicnov8n$ii8iiiiupi6yeumijpqqpppgjspsyajZNarfdumVgjjsi$asjjjjp0qyjggu0<666<8dvvi6t268iiu>t66tu8uu<26fvvhfit#<4ffu<86u6utit96-2iuu382224uh842>6r3rdd3",
"11u<wgfw2r2q98dif8f8ncci8D9aqjajgrypyjggjeqpjgjjjaapag<d8ckk96k$89i98<577k5k#k;#69cik5$kzG##6777989fkkkk$k99869888ci998c689inif92q8pf3ipyyppVjjpppyyjVfv8dgVVgVpast6igjVjaprqajggy06i2646fd8u8trfpii266uiiuii6528udbvit662d88<6<tu98uu<u>5rifi84u28ufpu2&2rr3wu1",
"2121,wd424228v<8v868ccc8c688fdejsppppjjVjpsqaeggjgajagg6$89$kkkk9ic586$k7k5kzk#k$ic95k5kkGzX6667$k8i$ck$5k768i9988cnicic8vcuii9v>rapi2r20p0ppgaeqasaupii$888VZAgsaqu68iucfprqgjggype<$6udduf96tiditu66;tuufit666if8fia7579c6368288fpui25212upu466r84dup31<2u83a2",
"r>34,ud4yw2r898d4c88ccn8cv28ipwasraqgjjjjsaeaggjgpjsjpgj$$$k5#kk8cc8596795kkz#k58888k$kkzGzX7$$6$kkcckk97kkkfiick9$c$fcc6nvtuukc6i2ygp628byagdspqpqphf8dcnncibjgjpppdcvif9tv,pgmawpqw9#8fu88u66tvcu6t65>98fd8626uvffii9566ff62<6668<8tr669iudf<12164ddd431>wu4p4",
"r61r4wdu44r24ni8i8v8f9cCni599u4fapyypygepjpssjZepesaesjja666$$kz8kckkk7$8kk975$k88i8885$kzD##$75$kkki8ckkcc9ff8n8cvc$i883958kk$9<C88ai226<rpgjepyqu4vhu6nfcncv$9jppwgpn8fc$k8v85gapq2p@<df8fftiidvfu62i6f8uvi2;638ffftit6tfu9266662i486<5rur8d4222>rw4d48q8rw4d4",
"w1>344wdru23u4cfc9cn8vv8nkf<ipfwaaqyaygjeppyssjjgapsapggga#5z5$z5c98k$778cc8k55k6ki988k55kH7O567k$$kccc9k$fi8ci9ivn$$6f6859i$v978fb5ki96i53tpupypr6di8$e$8cci8bcu<twww<989kc989intsy:pp3,f882ttu8fvi62669ufiiu5;68ffilrtitf86269it8i9426;;888u88222ru4442244uwd3",
"2r114dw444,2839v8i889cf9vivvuwggpsysgmjmpjaysaggjqpsesdjjga75#kk7ck$7$6789cikzk$9998899$7lSvO$5k$kk6cc6k$kficficc$88i$i898i6$$$k<889iki<bk2arp3r6r69$3c988cncicckic99<wicc9cf<ii96bsrejg<$fr<8r98ufit<62iuucku6548di8u65iidiu9526iiuiu96>>83d34<622pwu23214dwdu3",
"><>3w4w4r3,8d43c8c8ff,v5v24trgrpppqsagpgpasppajgjjpyajggjukk$#kk$kzk5k9ic9ii$kk699i967$k77GDO$57k99k89kk7ki8fcc$nc8c<68<96i$kc6k5$i<kic8blifm8t3ii6f9i53v8v$8vcnn99f9$8<<8fcc9<8ifi8aqpgg,$i666uffdi9<6<ifuvitt669ui4t62tvf8i6t6<69ii882768ih8<3-128uwr211144wuw",
"615130w3316qr446fv5859<<<989uduiliwypdggyssyjjZejpaeajjmgjpyywti8cck65567c9i6k5758f9;k7779nG$#67kk89icci7799$cvnccci89$$k$M9c9kc889k6ffi<cc88v859k$k$bii8$c8$cc$66cci$ki88878858vc889ughged3t26i6dffi676c8fcvit66udi986598fuu665<69ff42656uuvfiq--1844u431114wdu",
"627u6244u<22r223u6fv8c<8c$<82i9,icitgVgjwpsapjAdjpypygjZjjypyep@8dfi976998i9777585895;;799bHkX$6$kkkcicc769ki9i$icc8i996$$v$c9kk5i5c$89v8iv8c888$$8Fi8cicc8nccc9<6f9v5$9$c$vk6k$6i686djhjepw8i6i8cf8i666fifdvft689u8ui66tu88u6662<6fit55<<uid9p6;>%8dwugr2222wic",
"i56kuw3=361<4w43363c98f<9<i69<k#i29if4jVpqspajmjapy0qpgZjja0yeqd<<it999798ii575779k956#555cDF##7kkk899i87kk9cc$C8nc9$i$cc8c$98$Di9i5vi6cfnvin6cik$c$vnb$cfnc$ic98$8<ci8<c$v6k$$98$9<f8ngjpwpws948fd86u66fddfui66iii82u65tidff<92769diu6<2#3iffu66113443821qw8ff9",
"t5;9du4,#9,2ruu4<6$9ci<8<$9ivik966kni<chjyyppaZZjsppwppgjaepqaeeu,,u5979cf8ikk579kkll77679i9b$.5k$kzf9k$k$98iic$88$cv9$999988k989ffi<88u8<f<cf8<888$$c9$dcC$Cc8c56<88c$898c8$b9c9669fid5jjppewpj$8fit6968uf8i9969df86<659888f9i66ifuit655;4uurw6>5-2r23312>68f86",
"6659cf43$884r48fw6>9$i<866<<8<<98<vf5cufajqrgagjjasyyagZpayyypsaep0@689t9fiiv86k999i779597ivM7 $99fccii$$kkkcik8988kv$k$c888$98$58i68885c$i6<8f9$iic88c9$8vvdfc$889f5fii99c$kk88i8<<89<iuafqypajp8vi892ubuf9uit68udi66626699ii6i2tiui6665>5ip88i22<2w4r3%2u7ffi9",
"i<56ivr2<<<9<346u25;i6c99k59,9$$9$8c9<i569kppmmNpppyypggjapapapp0aw3O<69988dkk5k9kc97765969vMz.#8ifcfckk76k8c99in888$c$9$ck9bk$99f<kc9i989398588c$$98fc9ff8fcn$999$8ivfvcck$9$886c$<96$$u,<e0ejjjq0ut8<6iffditi629i896r6ia48i96676ui6ut2rt6af842r5rur4y21@9vvvfi",
"7566uiu34<$f<<$$629<i6kck67bkkf85$<88ffC9D<84hVjamsyyyjqjapsasjmypyq1$,6ii898k98iccvk75;#88kbS$X8$cc9986kk8i9c9kkkv88588c$M$c9898f9i5f9$88i85<388$$8@c8i$8$ffn$$fi5<$9ff9i9cMk$v99@9<868ki<9<egggeew,6668dditu6k6ii9i7t56i84d692uiiiiu6;2298i432>6>pp483%%58vvni",
"7659ibu2r2c9cu<$266$<99v69k9k$<589f<f6iiCu9c8pVgjjpaxyjppppypsjjajyaq2@<9988k9k55fifl77k5959lS7X$9i9ckk6$iccd898599$9#k76998898c$9f8i<bv<k8i898<n99898888i$f$cccc8fc<$$69ikkkckk$$888i96<6f<96ijjjpyyyt688i9ui7698luiir;8888889656viiti;<6uuai6<>22338g81>88fciv",
"676689f342<f5<436i<6<inik6k699f58<i$8fn8D<Fcn$hgspapssjNjeppprNNjjape0q3<ii46i7t9ifd995975ifiGMX$kkcc9c86$kkv9i8k$66$8ci$9$v9n$n9899k7cv89k<i98i8i$$88v$9998c$$$i$n$i8c$$d89$8vib8k$986988c5cfdfjVppqya,ri8uii96698ffttir9u86,6669if89966r6idri8-%22422r12592nci",
"7t77ii6432>b5c5d<r26i8uf9n66<c$c<fc8<f88vi<cbvfnapsypjjjjjpyypjjZZjssqqy<$i66777i8fc985568999bS##$kv98k$$k$7fiii6k7k8ckccc8ci$i8ikvkc$c$b8c88<i88kk$9bc8i$i$8k8$i88c988i89c9fi8$98559$k5c$9889vvdjjar0pp$if4ut6r8uuuii2t964u8662t98fd8266tiuuu4r>>,2u33r15i78fcc",
"77ktcif4121188941<1<<fffi6f8v<$868i66c6i<di8c9i9ses0yygjpjjayyjjjjaeaaypd4<95<65989ck59657f99cD6O8kccck8$kkkick9#l7ki9k78c868c8c6ibkSc$c985i87c$$$vv$ii$9c988#c$88$999ci99ci8k$$989k9#$98$$8c9f$8wgsypypge<fti766688<9ii9uii82;<rtuivk6r5ufi848tr>22w463>6i9ffcc",
"66k7fffu02622f6$2-<>88dvit9f9v98<ii8c$n89i<88niiujaayyjjjpssysaZjjjjyyppqe8<9<778998kk679996fib7#$ccii8ikk9kfcik$$$8i987669i669888$86vnii8<8$c$v$i99C88v8v8$i9$89if$c6$i98fcc$ckck$898k8Mcciiicfvivapagjgwd5<6i68df8666969ifi96<tiiuuft92tii48246<w2233115iiffci",
"9679kvf8q2162r8<622;tiu8489<<i<cii88<i83icii,9cvlppasyjjjgayyjajjjjsppaagdq3;<65$8ik676k6ikk97zkO$ivf989757cckk9kkX#kkk6$77v7kiv9i8cc9c8vik$968$88c$kc9$8k8$9$i8i5i69c6n99ic98kb8ci9$8k$588v8c9cucc9pagjjg0q04#t68f868696if8i89-68fdi8866ripdu222->rww21979icvfi",
"7i6kccv843q2iwu6<652tdf8$899<5f88c8$<$cc5<ii89f696asasjjNjpysjgjjjjppjysjdwq0r678886k556i8zn97kk##89ii9ikkkkc898k5k#kk757$6799i$iic9cc9i895c$kkvkbi88kk$8ii$$i@$i8$88c$c88$99$$9i<c9k8<c685cnccc<9ic48Zjjja00093$6cf68996cf884i<u6cddc666i6rfr666r264ww3279vcvfi",
"9iticfcfu122ypf4r22<8i8i5689c9f<nci86b$n896f5fuv99ysaapejjayqjgjjjasysejjseeryw667v55655ikvCckzk#.$i8fi8k5k6if98kk$k#5kk7$k7kc96n8f9$c598c8c$9c$<8$8<v9$8kvk98$i89cicccccc88vc9986k9c<ck8<ib$cf9fvffv88fjjgpq>r0d@,<<,656iC8u6457tfv9uiu5iifui93<r2y43w8698ffcc9",
"69799ci8r22>3ihdr26<8dhfivfcii66c$i98fi9bbvf888i<n<pyjjjjjsppyjZpjppyseajjaqq02eu9$#k7k69f9n6izk5O588886#kkk9998$kk#kk$7675k8ccc8d9i68kc$kii8i5k8v98$8c$9kM889$8i9cin$cic9i5k$c$k5c998ivk9vcc8cn8hfi<incZjggayypje<$<,$3$iCdd8<6i8fbuill66uif4ru>2uuuw23969cicff",
"kk99ciffrr>2*3duyi6r94fdciDn8c6$ifc9ivCci8$cck8in99$yhVgggasssjjNeawpysjZjajpyqpayeew66<7iicbbzz9$$99977799fcikl5kk7$k$kk78k8c98i$cvc8i898in98i$c88ckk$7$9iic6$ci8f8cn8$989ic9$c89c5i69fcv998ffc3vu44unfijsryypegj0s5<9<<i8$f8$8883,<6di88888$98u<duddd4586vcvvf",
"5k8kcfc9pr26rud846<68uff98i89f896$f$i$999cc$$9v$vvii5gjgjpaapsjjjgjyyppjNjaayyyaggppyq959vvi9itkk$$8c866999fcc9i5$77kkkkk$$9in$ic9c$i98if$cfc8icc9c5k8c8k9c6i988f988cvicn$8Oi8kv95b$k9$$8nc$ii88b6f8rdgjvbvmppsajjppy0@we8Dnc<<i4gdd6up3cci8$6$i534dwd4p8699iccf",
"58<iicvc32213d4di8369fd8f9bc<$998i$8$cii9cc$9icvccib49jjgggpsjjjjajyssajjjpsyqqagjepyqr25ccfc9kzz5$89v6876ffc8f9k5kkk7$k7$kk9n$nc8i$8c8ccficc8vckc859$kc9k<c98$$cci8cc8$8989v9$98885c$89d68c8c8iifi5budhjpDmasjjjjjsuwry$$ddg8f3pd<du84<998$96@$22<<dwur79798fif",
"5k<f8uff323,<pd84i686dvf48c9bvi<9689c8$ic$cc$9$$9$8ccv88jjasqajjjjaapypsZjjspypaggpysppjpicii9ktk9$89ik877fbcc9i57$kkkk$k$$c8fd9c8cn$88cic8d8ccivvvkb$$99k99ccn<9cvi9cdcc9H$viiick8kcc8$669<f88$f9c3in4hjgiaaqajjgNjspqyw88<<fpub46<488vkc$c$8$$-3,w8wdu9kk9iffi",
"966kfcicu2214uw3wut6rpff6466n99i$c9$8$n9n$c$n988$cfn6f669spryyejegpeaysgZZagppssNZsasqppagdft7776k#6fii65989vf99kk$kkkkkk$zki98fckc$Dnc$<6ffvvb98kkk$$98ivicccn$9nc89<fi9$f8n8k9$kk$c$ckv6c$c$u6c9vv8n6iVghgpp8agedvalpawgge2ffyfVvuv899ic$$c$c9,>438duu68968f8i",
"9665fcfv611>,dhd23r<i8dff99,ci8<c8i9$6$99cc89cc8898u8nif8<ipqsjjjggayyjpjjgyprsjjZjjjpyyqgppikkk5v<<ufnk999ff999k55kk5k$$kk$8i8fkk8c8ccfnun65cff888vbb9$vf9i<$nf8<88$8$<@f998$8i$k888k9$$$cfivdv9nf<6fd9vifvfdapgjgVmpppdegewjpajgjfn8vfcc8$9c8$9,dw33wf7k8kff89",
"k$864iciur-2uuwuur62uidvii665kc<996ikc9vc8v$8dC8dw4,9u6<fMbiqeyjjpyayaNqjZjsqysajjjjsppapgperqkk6k8$8i88699fvf967757kkk5kkkz8iic8kccifc88iiFv8v885$M$87k998f8c68vbbc888i8$c$v89c99c8989c9n$8$8u5c9kiici,8vdMb8dfjjgjypppjjgpywpyqjjVg8c<i9cc$idn<588u344888kivf9",
"7566i8fitq%>4dd8uri2iidhiit76fiic$i$69n@$8i8i8cn8hhuu18<9292uaajjapypeNajZjNyqpsZjaNNsssjNjys0y25bi<899779fifii95kkkkkkkk#$k9fcc7$$i8ncc8ff9cvcf9cbM6kk5$i69fcni8$k9c$9<8$8c$c8i$kvc99889cni9i<<6<8n583ff8<8$fdch8dmtmaujjgfjpqpdjjgjfv898nci$8i8<8<u444668c8ff9",
"6755kkk9trr>wudd8ru6lfbdfia766i<8$v$c8<5f<f989i$9,pyawaut4<2i9yVZswyaejjgjsssppjjjggeyspaZZjpssy,iv3#u6699cfvfk9$kkkk86k7;599fidkk7kfff9cf6f8F$d896b588fi9ci8n8ciD9cckk5,v96#686$k$898c8fv9896c88c89cv8vfcf8c8CiDu889c94u8udv8i4ggjewwp;i$f9icci88$O348i677k5f89",
"$kk$7k96613<343dp862ruhvifi76u9ii89v6i,8<c9fcncD$8a8ipgdpfi4u68ppmsqyyaNjjjppaqjjZjjssasjNjjsypa4gAe3p%,,69fccfi5k676k5kk77i9ic56$7$f8dccni85f8<216183d<898$$c98c9f$$8k57,fi6,86cc5k<f9888u8i958vvfnfi9ci8f98$$i9uni6c88f89dudf<ff8jp0pp6f8b$3989ic988897$5kikk5",
"7kkk9ccvt611wuudu4u<<ddfvidt76ufkMkck<9<88ifi$ni8u6pbb8dgppyyybilgaq0pajjjpaysqpjjjjypeajjjjpasNwjjj=wy10e9fccfckkkkcci8996k<dci$$k$vcff9f89b5f4236<988dnc$i898fvvf9$88$8659<6<9fi9<<4i26fif9ft6ivvii88ffi9i88$8$3c9$86f6fi$uwi<<ifcfwww<<<f9<fvf8v$8$6$7$7k9vc9",
"5577cfc9t22324ww482u84dddiittitd898vifc8i5<f89cc9n984259peqpasvgaisa0ryjjZNsppawjjjjpprjgZjjpsysujjAqyqyyuee<f99k5kkcck899598iiikk5kicfvf9f6c89<rr238f488i999f$8<in9M58$88k<,626i8i<689cc5cc4<899dn9cn$8$888$c8ci698c8i89$9<6dyi$n$fvfiupu8v6$6$8ccf$f98$kk76ici",
"k$8ififf683-44u344524dddui496vdfc891v96<fiic9dc8<ifcfin,vgv,rajjjjamypagjjjjsyapgjjgaayjjZVgasasyjAAy0qyyjegpq,686iccvii9779f899z5k$kkfi<8rru84432228u88i$inni8n<c6669c9$<i8>5668i68<<9836<di5u988c9$f8ni9ici$99$99v9cc9ci88,v8rq38uvc85<f88d9898$c8c8$9$$8c9f99",
"k7859cd9976>d8g2862,88d8u8666fbfc99962b#f<ddc8f8$v<5iiiki8frfupggjjjpswjjjjjqqypjjjjeyysgjVgpesxdjZZjqappggegpq1k8cdcvci777kvc98kkk$kkfd31r2u8w8r<22<3udi8$ifdc86c888v5i79<<52tuui8865uf8i869<668if88v$9i989v8$$kkc$v$$ki9586<v86d8vv$i$9ffci8i8838$898ik$$$if9i",
"65689cii9ir1uwe8,211,88d8pi63idvif99r68udi6ccc8c9finvvi8ukuirCimjpassapgjjjgpysyjjjgappNgZjjaqssjjjmjyyppjjgqpw&8$dci9i9977iffi8kkkk$76d21>2pu34uq2568ffc$89ccc$i5v$,<i8c9i96666di8875<ivfd558568$iccd89kvk9v998k8k8kv$v9i<8u88u3ce9f6iiv<iCv$8iin8i9v988$@$$$9f",
"kk5iificli6wdw2332-,<4dfrr26<8fddff87tu4uu88998cic8<f889igC8vpNfhjpyqpejdgjjypawjjggywqjjjZjaNypjjZNZaqypjjjjjp=uudiiccc6k9ff9c8$kk$k58r4311uuu8tt6668dfff8iniic6c93586ii886t69688885t9iffii8<69i88ic9$8$88bc$$k$9$k$Mk$9$fii9<i<<939$<<ici6nnD<$ic9ii9vic9$$$if",
"66$kic8di89<fdh4rr2-26u4d4298uidiur69uv8dur16Sv9f36ficni8nfcnugjjjgjpapjjjpyyqyyjNNjssqpggjgpsasggjjNaqsygpjpgpqqwpjfdit2iii6ff966y,4dduurr2i484322<<4u8f88f,fcnf8n8<689fi86rikuufu962tiffuti67i8f886<8<8fc6nv955i<8i9i;698if9v9i89<6q6$2636f8cfc89c8k8c9Dcc9$$c",
"77k$cnd9ci958ddu382>124du83<69uhiuu>68uddrir13v,i5c6id8i$iiindhjjjajsyjjZZjasyyajjjasapyggegssspjjggjsqspagjjppyejpge4ii952zi89311323wd432r6pdu662;;,if38f96v89cv6666<<$cf6655i6iiit666ifi8ur656888899i8358$8c8f<f8f<f66ttc9vccii88fi<234ddu888ccnc9vk9$$9999icv",
"7k77ccf9cck8wddur3>216w862512udddiu61iudu8r25162ciff9$ccncc$8ghZjjy1qrsjjjNsayqejjjeppyppgqqpeaxejjjjmyyjsaesarq3ajgewqq$,i5cf342>3843d421ruufhul65><9f8<5889c938f8656u6ui666<i8f4uu6ttdfdi6<52>d8d8f6b9if6i8968<6$88896t8ibi<9n8968<968$$8$ff59$n88c88kb$9c$cnc",
"k767fnci98k$uw4drr-262u4p26-388duut22ufhh8i22<21$c8<89fiv8ivcdddgjjpyyyjjpjsspyajgypyqppjmpypyyBpdjZNsasjjaeeypa0ejjqpq32w88$p2312184wuur<r2ffhuai2>63843<6<49ff8<<<6t9u8cu866i8f89<666ifvftt76569d$6t9c66c8<936<6ff88i<6ifdcvvcDvf666f586u69<398$8$c88cczc889cv",
"5k779bnik8893w3wur,28puu9u62-8udd882>288du3u>221386$cfdic998$v68rdapsqpgjgjpypapZjjpyryayggappqsegjjZjyxpmmayqyyyaqjjprqqwj81i<r2-2q8u4u8>2-4dfu76t;5>u6<2<<66fffi9uuiiffi92659ufc826<26fff8lt65886<3899c8<888$fi3vciti52ifd8f8u<icff988668dg9<Oci$k$98cc$8nicdi",
"k6688ccnv777iuwwr41<8d44uurr22888u61184pdur61221u88593689vcc8f9fi598ypwdjejappsyjjjjpqyspppppxysqgjZjmpssajjaarqyppppayyywjj36<6<1>13u43w262<4fiiit56>94tt<<6ifudf9t6tiidi88r6u8ffi96266ufi9u6tr8i48689688896996ii8uuut;2i8d8it66888iivnf48fu4ciOicc9$kvn$$8ccfc",
"k7k6i8f89l7i9dwwp<124r44884urruut3r8>24ufpu826r@3u49c5c$f<9D5v98i8ci1yggjgdpqypspjjasyqajapwysxxeegjVjNyNjmuq1i9rjjppqr0ywpjew,<<<#1rdu46r6<88iftkt6663<,66<<68fui2669idvu997ti8uv8it896ufui9556888<6$99<ci<99n6uihf9t62<idfi8i284i<f8f4u83fu4ii88$8k889$$$8$$8i",
"k76kcinf899i8dw3q2<%r483ur,8632uu38r2<83di4426p43848<cf8ififccc8i<9it68djjpjypsxgjamaysysjpaqqsspjjjjmmpsjVati862wjpjaspqyegww6ui<5#$<66216238udaii56i<992669<8f8896#6<fii89t6829diitt9iffu96t52888688693nfifi988ffdii5262u8d9r898cu66f98<84f82i98D$9icc8c$8i$i8",
"i898idcc997,96341q2>r2du24>>644u4326r22wwd8221a<4rr3ncf8ic8c6cfi$8k5k$c8jpap0pyjggjasypyjjjssssajggjjjjpjpvc8i998k<6dhfjpaga3a@696k9$8,O8<656uu8lit66i8426r5>68ui4ii;79df6r667iudf6826tuvhf8ti568u89672t9fvffc6868df8u7t6uuuit6<66if88481222wwr2-28pc$8v$$$7k$8$",
"$$$$88$f999758443,1234wdpr6q1248u66u2282w8u,16r24ua2vc8v9f8i$9$ii$k$$D6vpjgpyaysjjjjayqajjjeassxeejdjsNsgapii59,89k998ccyppZeap186<,86c<,9<1uuuuva6964v86<55<6u8886it69fhuit53tiffci9998ff9f6662688t<625idid8895i4uf866<98d8fii>28du4i48t262344r1-*d999<ckk$8869",
"ni84i$$<5867t884w2>11244342226,32232263r4ur26ri1uuww2n9b<vfci8<8cc8C9i9i$<yurspmgjjjpyysjjjdpjssjgjgsyaCvi269f66c6988<cv62aheaww3-9@<$9$$6i82fiitb9564f89i955i98i92it6i888u666i8u88696i4iui8t66ti48ut65<cif8tu86iif8u88><388p86266iduu93268u88p221,,dc97$$kk9v88",
"99ii$88$f6<7ifu42q->22uw4<2-263rw262-123wu26>1a34duw66yuf8ii98kckvcf956v94brypjhVgjNsprsjjjpepppgjZmjpjhvvib998899<<i88cb6uhyjyyur<255<988t<5ufu9iii5<f846i62tidu992t2aifc9t66ifffc4t<6ifdi8i6>694829766ifddft66idff8i62563iu822<28gfri<3r24438w>223if9c$k$k$$ci",
"$8$ic8i8cuc84v98322>u8up116-6q24632>>%122u4112u4www4116ufuf6c9ic38vf955k5c8cfivVNjjjsyysjjjjpysagjZgjew8uc5f<5<8i8c6cii9,uvNjjma2r23dww36$<69ff8i6r62<fi8<ti2tifi8it28iffui92ttff8ui6u68vffi7666if9825,2ifu8iu29iuvpu8truu69ri62624dduu866rup31r1>2r4f9965$88$ic",
"f988ii8<f59<<,9u63>%633d812216r422q>->ur2u32-,,3444ur<wiw8f9c8<b<886888n688$8f8cinggsypyjZjgspsaagVjgp4tni8bc8986i8c,iiv9ripgjjsmawjwdp9,,<8<pf8u6ti<4f8ut6u59ifu8ut<988ff98t6d8vi6i96itcuiu65<2c88t9676cfd88826idffat66r94p4646928d8ur82qrd86121>,2898c75kki888",
"k$$88ii$8$f9<$<,<321124u0>->16w32266>@2u331>11u144433183uwd4v9i6i<i5n985<f<<f<f<99<9wrapjjpjpaspgjZjjeu8c6989c9<99<3$9irfrpfejaaarjjgeuwr9<8,ivit25i86du9iit69uhfi8i6tidvf92i6iffd6it<uifft7665tiddi<6698fpi6626<fdf9ii66i8896<2t2uuui8226uru3212210685k5$89ii9i",
"kk$76ii86k98c$8,5,<nq2prw22-124w2212rOp44r2<<-u4w3u,44uudd3488c$<5<<8c$vfv<fi9fi9c9d6iqppjjaypjjgjAjjqa2$i<8<9c<$ii<68ubpmgjjgsypyagjpwpr43<4,#6t6t5t<v88uti2f8vfvutttfcdfu969fdnf29r66iidfit>6iif88625uifi4856686dd88t6uid8u61186fduuuu2,uuu31>222p5kkkk5598998"
};
