/* XPM */
static char *a139120dc9dc4146e6951773aa7eeb8eRsAQ5qTeXQAqkQUa[] = {
/* columns rows colors chars-per-pixel */
"256 256 256 2 ",
"   c #2F2F2F",
".  c #3F3F3F",
"X  c #4B4B4B",
"o  c #5B5B5B",
"O  c gray42",
"+  c #7B7B7B",
"@  c #8B8B8B",
"#  c #BBBBBB",
"$  c #CBCBCB",
"%  c gray86",
"&  c #170F0B",
"*  c #1F170B",
"=  c #271B0F",
"-  c #2F2313",
";  c #372B17",
":  c #3F2F17",
">  c #4B371B",
",  c #5B431F",
"<  c #170000",
"1  c #1F0000",
"2  c #270000",
"3  c #2F0000",
"4  c #370000",
"5  c #3F0000",
"6  c #470000",
"7  c #231307",
"8  c #2F170B",
"9  c #3B1F0F",
"0  c #4B2313",
"q  c #572B17",
"w  c #632F1F",
"e  c #733723",
"r  c #7F3B2B",
"t  c #8F4333",
"y  c #9F4F33",
"u  c #AF632F",
"i  c #BF772F",
"p  c #372B13",
"a  c #47331B",
"s  c #533723",
"d  c #633F2B",
"f  c #6F4733",
"g  c #7F533F",
"h  c #8B5F47",
"j  c #9B6B53",
"k  c #A77B5F",
"l  c #B7876B",
"z  c #C3937B",
"x  c #D3A38B",
"c  c #E3B397",
"v  c #6B4B57",
"b  c #4B2F37",
"n  c #371F23",
"m  c #3B1F23",
"M  c #DBC3BB",
"N  c #CBB3A7",
"B  c #BFA39B",
"V  c #AF978B",
"C  c #A3877B",
"Z  c #977B6F",
"A  c #876F5F",
"S  c #7B6353",
"D  c #6B5747",
"F  c #5F4B3B",
"G  c #533F33",
"H  c #433327",
"J  c #372B1F",
"K  c #271F17",
"L  c #1B130F",
"P  c #1F2B1F",
"I  c #2B1F00",
"U  c #1B0F00",
"Y  c black",
"T  c black",
"R  c black",
"E  c black",
"W  c black",
"Q  c black",
"!  c black",
"~  c black",
"^  c black",
"/  c black",
"(  c black",
")  c black",
"_  c black",
"`  c black",
"'  c black",
"]  c black",
"[  c black",
"{  c black",
"}  c black",
"|  c black",
" . c black",
".. c black",
"X. c black",
"o. c black",
"O. c black",
"+. c black",
"@. c black",
"#. c black",
"$. c black",
"%. c black",
"&. c black",
"*. c black",
"=. c black",
"-. c black",
";. c black",
":. c black",
">. c black",
",. c black",
"<. c black",
"1. c black",
"2. c black",
"3. c black",
"4. c black",
"5. c black",
"6. c black",
"7. c black",
"8. c black",
"9. c black",
"0. c black",
"q. c black",
"w. c black",
"e. c black",
"r. c black",
"t. c black",
"y. c black",
"u. c black",
"i. c black",
"p. c black",
"a. c black",
"s. c black",
"d. c black",
"f. c black",
"g. c black",
"h. c black",
"j. c black",
"k. c black",
"l. c black",
"z. c black",
"x. c black",
"c. c black",
"v. c black",
"b. c black",
"n. c black",
"m. c black",
"M. c black",
"N. c black",
"B. c black",
"V. c black",
"C. c black",
"Z. c black",
"A. c black",
"S. c black",
"D. c black",
"F. c black",
"G. c black",
"H. c black",
"J. c black",
"K. c black",
"L. c black",
"P. c black",
"I. c black",
"U. c black",
"Y. c black",
"T. c black",
"R. c black",
"E. c black",
"W. c black",
"Q. c black",
"!. c black",
"~. c black",
"^. c black",
"/. c black",
"(. c black",
"). c black",
"_. c black",
"`. c black",
"'. c black",
"]. c black",
"[. c black",
"{. c black",
"}. c black",
"|. c black",
" X c black",
".X c black",
"XX c black",
"oX c black",
"OX c black",
"+X c black",
"@X c black",
"#X c black",
"$X c black",
"%X c black",
"&X c black",
"*X c black",
"=X c black",
"-X c black",
";X c black",
":X c black",
">X c black",
",X c black",
"<X c black",
"1X c black",
"2X c black",
"3X c black",
"4X c black",
"5X c black",
"6X c black",
"7X c black",
"8X c black",
"9X c black",
"0X c black",
"qX c black",
"wX c black",
"eX c black",
"rX c black",
"tX c black",
"yX c black",
"uX c black",
"iX c black",
"pX c black",
"aX c black",
"sX c black",
"dX c black",
"fX c black",
"gX c black",
"hX c black",
"jX c black",
"kX c black",
"lX c black",
"zX c black",
"xX c black",
"cX c black",
"vX c black",
"bX c black",
"nX c black",
"mX c black",
"MX c black",
"NX c black",
"BX c black",
"VX c black",
"CX c black",
"ZX c black",
"AX c black",
"SX c black",
"DX c black",
"FX c black",
"GX c black",
"HX c black",
"JX c black",
"KX c black",
"LX c black",
"PX c black",
"IX c black",
"UX c black",
/* pixels */
"D D S D D D D F F F S D D D D D F G F G F D S D D D F G G G G G G G G s s d d d d f f d s a 0 0 q q q q q w w q q q q q w q q 0 q 0 0 0 0 0 q w w w w e w e e d d f f f f d f f f f d G G f G F F F F D D D F F D D S D D F D D F F F d G G F F F D D F F D F F F D D D D D D F D D D F F D D S D D D S D S S S D 9 s D G F G G d F G d d f f f F f f d F D f f d f d D D f f w w w e C h w e w q q 0 a q q w w w d F d e e e f f d s w w w d d D D D D D D D D D F f D D D D D D F F F D F F D D F S S S S D S D S D S S D D D ",
"Z Z C Z C C C C C Z C C Z Z Z C Z Z C C C C Z Z C V V V C C C V C C C C C C l l k k k C j l h g h y y j y j y t t r t r e e e e e e e r y r y y t r t y h h y t g j h h j j A j j A A A S V Z C C C C V C Z A Z C Z Z Z C Z C Z Z Z Z C C C C C C C C Z Z Z Z A Z Z C C C C C C C Z C Z C C C C C C C C C C Z Z Z A B V A A S S A S A A j h j k C k j h j k j j k j k C Z Z Z t r r g Z h r y r r t g A j h y j h A Z j j j k k V l l k j j h j C C C C C C Z Z Z Z k C C C C Z C V C V C C C C Z Z Z Z Z Z Z C V V C Z C C Z Z ",
"D S D D D F F F F D D D S F F F D D S S D D D D S S S S S S S S D D D D D g D g g g h S g h h h h t t r r r w e w w w q q w w e e e e e e w r w q w e w w w w w d s s w d d s d d F F d s s F F F D S D D F F F F D D D D F D F F D F D D D S D D D F F F F D F D D F D D S S D D D D D D D D D D D S S S D F F D D F G G F G G F d d F d d s s d G f d d f f r d d d F D F : q 0 e f D g w w q q w f S g e w r g D g f t r g S S h g f f e e d D D D D D F D F F F f D S S D S S S S S S F f D D D F F D D F F F F F F F D F F ",
"F D D S D D A D S S S F D S D F D D D F F S D D D D D D D D D D F D D D D g f F f f f F d f f r f e e e e w w e q w w q q q q q q w w w q w w w w e e r w w d w w f d d d d f f f d D F F d G D D D D D F D F D F D D D D D D D D D D D D D D S F D D D D D D D D D D D D S D D F D D D D D S S S A A S Z D S S F F d d d G F G G d d F d f d d s d F F F h g r f d f D F H f r e r f D d w w q q e d a q e w f D D D f f r r D g g f f f d e f D D S o D D D D D S D S S A S D D S S S F f D D D D D D D D F F F D F S F D D D ",
"S S D F D S D F D S S S D D S F F D D F D S D S S D D D D D D D D F F D D g f F f d f f d f f f r r e w w w e w 0 w w q w q q w w q w e w w w w q e e w w e e w e d d d d f f f D D S F d F F S S F f D f F D F F D S D D D F D D D S S D D S S S D D D S D D D F D D S D S S D S D D S A S S D D S A D D F F F F D D f F F F F F d F f d d d f d F f D S h f r e f f , d B j e w w e D f e w w w e d H d t w f D D D f f e t g A h g g g f w f D S S S S S D S g S S A S S A A D S S D D S D D F D S S D D D F F D D D F D D D ",
"D S S D Z S D D S S A S F G S D D D D F S D D D D D D D F F D F D D F D F g D D g f f f d d e g r e w w w w q w w w e w w w w w w w e e w w e q w e w w w r e d e f f d F f g D D D F F d F D A A D S D D D F F D F S F D F F D D D D D D D D D D F D D F D D D D D F F S S S S S D S S S D D S S A A D D D F F F D D d F F F D F d d d d d w d f F F S S D g f d d d A C Z f e w e f S g e e w w e g S j y w f F D D f g g g g S h g g g g e r S A A S S S S S g S A A D S S A S S D S S S D D D D D D D D G F F F F F G D D D ",
"S D S S D S S S D S D F F D D D F F S D F D D D D D S D F D F D D G F F f F S f f f D d w d d w e f w e e e w e e w q w w w w e e w w w w w w w w w q w e e w f f f d d g g D g D F D d G d S S Z S S D D D S D D D D F D D D D F D S D D D S S D D F D D D D D D S D D D S S S S D S S S S D S S A S D D D S D D D D F F F D D F F f d d f f f f D D S D D d f d d j Z D D f e e e f S g r e e e r g S j e e g D S A g g g g g h g g g g f f f S D S S S S S D D F S D D S S A S S D D D D g D D S A S S F D D D D F G G F S A ",
"F D A S A S S A A S A D S D D D A S D F D S D G S S D S D D D S D S D S f D D f f d S f f r f w w f f r e e w w w w w w w e e w w w w e r w w w q q e e w e f f e f f f g S g D g F D F F d D F F A D S A S D D D D D D F F D D D F D F D S S S S D S S S D D S S S D S D S S S S S A A S S S A Z S S D D S S D F F D F F f D D F f D f f g d s f F D S S A g f f h D D S S f e e g f D f e r r r f f S e q q g S S S h g g g g h h g D g d e f S S S S S S S D D F D D A S D A A S S S S S D S S D D S S D S D D D F F F F F F ",
"F F F D Z A S S S S A S S S S S D S D D A S H H A A D D S D D D S S D S D g S f d d G f f f r g f r g r e w e w w w e e w w r w e e e e e w q w e e t q w e d f e f f f g h S g D D A F d G S D F S S S S D D D D D F F F F F F F F D D D D S S D D S D D F S D S D D S S S S S D S A S D S S S D D S D D D H F S D D F F F D F D D D F f g 0 s j F S g S S g d d j f D S S D f r f g S g r r r e f g S w 0 w h A S A h h g h h S j g S S g f f h A A D D S S D d f S A A A S A A A A A A A S A S A A S D D S S D D D F D F F F ",
"F D F G F S S D A A A S S D S S D S D D D D D S C S D S D D S S S S S D D f g D f g d f f d d f d e e q w w e r e e w w e w e r e e e w q w e w w w d w w e r w e d d f f f f f g D D D F d F D s F D D D S D D S D D F D D F G F F F S D S S D D D D D F D D F F D F D S D S D D D D S S S S D D D D S S D D Z A D D D F F D D D D F F d d d j k S A D A S g f g g F S S S S f r f g S f e e f r g g A r w r j A S A h g g g g S A h S S f f r S S A S S D F F F g S A S S S A A S S A A S S S S S S D D S F D D D D F F D F F ",
"F F D F G S A D A S A A S D D S D S D D S D S A A D S S D S S S S A D D D D g g g g F D f d f f d d f q e e r e e w e e w w e e r e e e e e e e w w e e r e e e r f r g f f f h h D S D s s F D D D s s F S A A A D D D F D D F D D D F S D D S S S S S D D D D D D D D S D D D D D D S S A D S S D S D D D D D S S g f f F F D D D D D d d d f g S S S S S g g g f f S S S S f r f S S f e e r g h h A t r j k S S A g g f g f D g h S D f f f S D S S S D F F S S A A A A A S S S A Z Z A A A S S S D S D F S D D S D D F F F ",
"D D D D F D S S A S S S S S D D S D F D S D D D S D D S D D D G D D D S D D S D g f F g d d e f e e w e w w r w e e e e e e e r r e e e e e e w w r r e e w r r t d q h f d g g g f A g F d G F A S G s S D D D F D S F F D D S D D D S S S S D S D D F D D D D F D S S S S S S S D D S S D D S O D S D F D D F D D D f D D D D S D D S f f f g g S S S D S h f g d h S S S S h t f S S g r r g t g g A h y t f D S S g f f f g g g S S S f f f S S S S D D D D D F F S S S S F S S A A A S A A D S D D D F D D D S D D F F D D ",
"F F D F D D F D D D D D S D D D D D D F D S S S S S D S S A D D D D F d D D A S S g d d d f f e w e e w w w q w e e w w e w w q w w e e e w e w w w w w e w e g g h j j d f f d d G g f f d F F F G F D D D F F F F D S F F F S D D S S D D D S D D D F F D D D D D S S S S S D S S S A A S A S S S S S D D D D S g D D D D D S S D D D g f h h S S S S D g g f f f k S S A S g g f D A g e r r f f g S f e w f D A S g f f g g g S S S S f f f D D D D S D D F F F d S D S D D S D S S A A D F F Z D D D D D D D D F F G F F F ",
"G s G D D D D F D D D D D S A A D D D F S D D D D S S A S D D D D D F F F f D f d s f f w d g r w e w w w w q w w e w q w e 0 0 y e e w w e w w 0 0 q w r e e f h g g f g g D d f D A F g f F F G G D D F S D F D A S S S D S S D D A A S S S S S D F F D D D S S S A A S A S D S S A A A A A D D S D D D D S S S S D D D D S A S S S D f g h j h A S S D g g g f g h A A A S g f g S A h r r t t g h S f w e j A A A h g h h g g j A S g f f g g S S S D S D S D f F S A D D D S D S A Z S D S V C D D D D D D D D D F G G G F ",
"G F F D S D S D D D A A D S A S F F D G D D F D F F D D F s F F D D F F D f d d d w F d 0 q e e w f f e w w q w w r e w w w w t t e w w e e w 0 q q w w w e e f g g g g g f g F D A S F f g F F F D S F F D D F F D S S D D D D D D G F D D D S D F D F F G F D F S D D S A S S S A A A S A D D S D D D D S S S S S D F D S D S S A S S D h h h g S S S D g g g g g g A A A A h g g h Z h e e r r g g S g r w g S S S g f f e f g S A D D g g g g S S D g S S g h g A A A S A A S S S A S A A S A A S D S A A A S D F D D D F G ",
"F D F D S S S S S S A S S A A S A S S F S S D S D F F D F F D D D D D f f f D f f f G a s e t e w e r e w w w e e r e e e w q e w w w e w w w w w w w q w e r f e h f f f d F f f D D D G D D D F D S F H S D F D D S D F F S D F F F F D D D D G D D D D D D F F F D S D D D D D D D S S S F D D D D F D D S D D S f f F D D D D S S S D g g t g S D D D g g g g h h A A Z j h g h S A f e e r e g g S g r e f D D F f e e e g g D S A S D g r h g g D h S F D g h A A A A A A A A A A D S Z S S Z A S S S S S S S D F F S D F ",
"D D F D S A S D D S A S D S D S A S S A S S S A A S S D D S S S D D D D D f D f g g g d f e r w q w w w w w e e e e w w w q q w q e w e w w w w w w e w w w e f g g w g g f D g D F G D F D F G F F d f G D S D D F D D D D D D D D A D A S D D D D D F F D D F D D D D S D S D D D D S S S D S D D S D S D D D S S f D D S S S S S S D D f r e g S S g S g g g h h h S A A j h h g S S f e e e q d f A g g r h A S D g g t t f g D D D D D D d S d A S S S D A S S S A A D A S S S A Z S D V A A S S S S S S S F D D D F F F F ",
"D D F G F S S D S S S D D D S S D S S D D D D S A S A D D D S A D S D f D D F f f h A d s q w w w e q w e w e w w w e w e e w w e e e e w w w w w q w w e w e e e s f g f D : a S F D D F f D D A D S d , G A S D D S A S S A S S S A D S S D S S S S D F D D D D D A A S S S D D S S A A A S D D D S S S S D D D S S D S g S S A D D D F f r g h S S S g g g h h h A A A A h h g g D D d e w w w d f S g r r g D S S g f f r g h S S S S S g g S j k F g S S S S D D D S S S D D S S S S S Z D D D D S S D S F H Z F F D D D D ",
"F D F D s G F S D S S A S S S S D D D S D D F D S D D S S g S D S A D g D D D F f d f G q q q q e e q q w w w w e w w w e e q q w w e w w w w w e e e e w w e r d s w g f f H s S F D F D d F F D D S F G G S S S D S S D D S S S D S S S S D S S D D D D F D F D S S S D S S D D S S S S S S D D D D D D D D D D D D D S D F F S D D D D f d f g g S g g f g g h h S S S S h g g g g D f w w w e g d G f r e g S S D f f r e g D D D S D S f g D F D F g g D S f g S S S D S S S g A S D S D D D F F D D D S D A S D F D D D D ",
"F F F F G G H F S D D S D F D D S D S S D D D S S S S D S S D D D S S g S S D f d s d f w q q q e f w w w w w e e e w e e e q w w w w w w w w q w w w w w w q w d d d f g f F h A F F F f F D G G D D D S F S S D F S D D F D D D D S S H G S D S D D D F F S D A A S S A S S D D S S S S D S S S D D D S D D S S S S F S D F A A D S S D f e f g g g g g g g g g g g S S S h g g g D S f w w q e q 9 G s e e g S S D d w e w f S D D D F D h f D F F D D g D D g S S S S D D D g D S D F F D D D D G D D D D S F F D D D D F D ",
"D G F S D F G G D D S D F D A A S S D H S S D D D S S S S S S D S S S h S S D F f f d f d e e w w d e e w w w w w w e e e e w w w e w w w w e w w e e w q q w w w d f d d s H d F G F d d F F G D S D S S F D Z S D S S S S S S S D A A F C C S S A S S S D F D S S A A A D S S S S S S S S A A S S S S S S S S S A S S S S D C S D S S S g e g g S h h h g g g g f g S S A g f g g g S F w w w e 0 0 G d e t D S S S f d f r g S D D D D S g g S f F D F D S S S A S S S S D S S D A S S D D D D D F F S S D D D D D D D D D D ",
"D D F S D D D F D S S S S S S A S S S S Z D D D D D S S A S D S S A D g D D D D g g G f f f e w f d w w e w w w w w w q w e w w w e e w e e e w e w e w w w d e e f g d w f G s F G D G s d G G D D F D S S D Z S S S D D S A S S S S S A A S A S D S D S S S S A Z A A A A A A A D D S A A A A Z A S S S A A S S S S A D F C A g S D S S g f e f S S A h g g g g g D D D S f g r g D S F d r e r q s S h r d F S S A S f e e g D S A A S A h h S D D S F F F S S A A S S S S A S S A S S A D F D D D S D S D D D D D F F D D D ",
"F F D D D S S S S A S D S D D A A D S A S F F A S S S S D S S D D D g D D D D F f d D g f d w w f e w w e w e w w e w q w e e w w w w e e e w w w e e e e r f r e f g f d g D f F F F G d s F D D S S F D S D A S A S D S A S D S D D S S S S A S F F D F D D D S S D F S S D D D F D D S A A A A A A A A A A A A S S S F A C S S A S S S A t f g g S h h g g h g g D S S S S g g g g S D d r f f f f A k h w D S A S D g e w d F D D D D A j g D F d D D D D D S S D S S S S S S S S A D S S F D D A S S S D D D D F D D D D F ",
"D S D D D A S S S S D D D S S S S S S S S S D D D S A S S D F D S S D f F F D g f d D S d w q w w w w w w e w w w w w w w w w w w e w w w w w w w e w e e e e d e f d f d f D D D D d G F G D d G D S D F F G D D F D D D D F F D D D D S S D S S D F F D S F S F F F F F D D F F F D D S A S S S A S S S S S S S S A S D C S A S S S S S g f t g h h f g g f g h g D S S S h f f f D S D f f g f f g A h e d S D D D D f e e d F D D D G g h f g D F d f f S S D S D S D S S D D D D S S S S D S A D D F S D S D D D D S S D D ",
"D D D D S A D D D D S D F D A S S S S S D S D F S S S S A D S S A D D f F D S F f F D D f w q w d w e q e w w e w e w q w w q w e w q w q q w e q w w w e e e d e d d e g f : F D D D F D D D F S S S S D D G D D F D F D F D S D S S D D D D S D D F D S S S D F F F D F H F D G D D D D D A D S S A S S A A A A A A S S A S D S D S S D g r r g S g f g r f g S g S D D g g f w d f D D f d f d f f F f e d D D S D S g w w g D D D D D D g g g f d f g D S F S D S S S D S S S S D D D S S D D Z Z S F D D D D F F D D D D S ",
"D D D D D F D S D D S S D D S S S S S D S S S S S A A D S D S D D F F d G d D F f D D f g e w f f w w q q w q w w q q q q q q w w q w w q q w q q w w w e e e r e d d e f d d Z S F D F F D F F D D S S D S S D D F D D D D D D D S A S S D S S D D S S D S S F G F D D G J S S F D D D D F D Z D A A A C A A S A A A D S D D D D S D D S g r r f D g f f r f g D S S D D g f f f f g D D f f f f h g D f r r F F F S D f e f f S D F S D D g f f f f f f g F D D D S S S D D S S S S D S S A D F C D F F D S S D F D D D D F S ",
"S S D D S F F S S D S D D D D S D S S D S S S S S S S D D D D D D F G s s d G f S S A h f d e g f w q q q e w w q w e q 0 q 0 0 q w w q w q q w e e w e e w w e r d d e f d S A D f D F F F G F F D D F F F D D D F D D D F F F D S D F D D D S S D S S D D D F D D D F F S Z D D F D D S D F F A C Z Z S S S A D h D D S F D S S D S S D g r f f F d f f e f g D D D g D d f f d f f F f d e g h w f S g e f D D D S D g r d f D D D D D D g f f g f g f D F D S S S D S S S S D D S S S S S A D D F D S D S D D S S S D S D S ",
"D D F F S D F D S D S D D D D D S S D S S D S S S D S D S A D D D D G d F d F d f f F F e r w f f e w w q w w w q w w w q q q q w w w w 0 q q w e e w w w e e f f f f f g f F F D D D D D F F D D F D F D D G G S S D D D F F D D D D S S S D D D S S D F F F F D D S F D D F G F F D D D F A A S A D D D S D D g D D D D D D D D S S D D g e f f D f f f e f f D D D g g f f f d f f S D f f f q 0 d Z f e d D D F D D f e w f D D D F D F f f d d d f f f F F D D D F D D D D S D D S D S S S A D D D D D D D D D D D F S F D ",
"D F D D D F F D D F D D S D S S F D D D S D D D D S S D S A F F F G G d F F F f F f D D d e e f d w w q w w w q q w w q 0 0 q q q q w w q 0 w w q q w w w e e f d f f f f f f D D F F D D D D D D D D F F G G G d S S D D D F D D F D D D D D D F D D D D F F F F S D D F F F D D D D D F G A F F S A D S S S D D F D S D D S D S S D D D f e f g D f f f e d f D D D f f f f f f f f S D d d f f f h Z d r f D D D D S d w d f D F D F D F d f f d d f d F F F D F D D f F D D D D D S S D D S D F D f D F F D D D D D F D D S ",
"D D D D D F D D D D D D D D S D S S D F D D D D S S S S S D F F F F F d F F F d d F F D d w w w e w w q w r w q q w q w 0 0 w q q q q q q q w q q q w w w w w f f f f f f g f f D S D S D f D F F D F s F S S S G s D D D D D D F F D D D D D F F F F D D F F F F F F F D F F D D D D S A D D F G G D D D F F F F A S F F D D S D D D D D g e e f D f f f d d f F D F f f f f f f f f D F f d f d f f F d w d F D D D F d w d F D F F F F F F f d d f d d F F F F F F D G F F F F F F D D D S D F D F F F F F F F D D D F D D D ",
"Z A A A A A A A A A A A A A A A A A A A A A A A A Z Z A A D S S S S D g A A S g S g S A h t r g g r e e w r r e e r r e q q e e w e e e e w w w e e e r e e e f f f t h h S D h S f f S S S S S S D D A Z S D D D s s D D D S A Z Z A A A A A A A A A A A A A A A A A S S A A A A A Z Z A S Z A A S C C Z A A S A C A S S D D D D S S D D f w w d D h g g t t g S S g g f f f f g g g A S f f f e f f A g g g S A S A A g t g g S D S A S S D g f f f F f D S A S S A S A A A A A A A A A A A S A A A A A A S S S A A S S Z Z A ",
"- - - 8 8 8 = 8 = 8 = 8 9 - - - 8 - - - - 9 - ; 9 9 9 8 8 U 7 7 9 8 7 8 9 - - - 9 9 8 8 9 8 8 9 9 9 9 4 8 7 8 9 4 8 U 1 8 3 8 4 8 8 8 7 3 7 3 7 2 7 7 7 2 7 8 9 8 8 8 9 9 8 9 9 8 8 8 9 - 8 - 8 J H a : ; 9 - 8 7 7 7 8 8 8 7 8 - - - 8 7 7 7 - - J 9 9 9 9 - 8 9 9 - - - 9 9 ; 9 9 9 - - 7 7 = 8 8 - - - 8 8 7 8 - ; ; 9 7 7 7 8 8 8 8 = 8 8 7 7 = 7 7 7 8 8 7 7 7 U 7 U 7 7 7 7 7 7 8 7 7 7 8 7 7 8 8 8 9 8 7 8 = = 8 8 7 7 7 7 = - - 7 7 7 7 7 U U 7 8 9 - : 9 8 8 - 9 : H J H H s H - 8 8 = - - - 9 9 ; - - - - - - 9 ; ; 9 ",
"G G F G F G G G G G G s s G G G G F G d F G F G F F D D D D D D F d G G s > > s G s a a 0 q 0 q w q 0 0 9 0 0 q 0 q 9 w q 0 9 0 0 0 0 0 0 0 0 0 0 0 q q 0 q e d q s w d d d d G a s G G G s s s S F H s G G G G G G F F G F F G G G H H H H G D D F F G G G F G F F F F F G F F F G G G G F F G G D F F F D D F D D F F F D F G G H H H s s q q s a s q q 0 0 0 q s d s s w s s s s d F F F d w w w d G 0 q w d G F F G q 0 0 a G F F D D D f d d d F D D D D D f F F F F G G G F G H G F G G s H H s G H H H H H H G F F G G G ",
"V C C C C C C C V V V V V V V V C V V V V V V V V B B B V V C Z A Z Z C Z j j j h j j h j j t h h r t y j j j u y t j k r y t e y r r r r y t t r r t r r r t h h j k l l k V V C V V N N V B B B V V V V V C C V C A C D S V C V V B B V V N B V C Z Z Z C C C V V V V V V V C V C Z C Z Z C Z Z V V V V V S S B V V C C V V V V V V V V V k j k V C l k k l l l l l l l l l l k k l V V V l k k l k C k y h V B B B V l k k l V V C C C V S g z k C C C C C C C C V V V C Z Z C V A C V V Z V B V V V V V V V V V C V V V V V ",
"D D D D D F D D S S D D D D D D F D S D D S S S S D D D D S D D D F D F F f f f f f f f f f e f f w w r r e w w q w w q q q q q q q q q q q q q q q w w w q w w e d d d d f f g S A C Z A S D D D D F F F F F F D D F D D G D S D D D A S A S F F G G F D S D S S S S F F D D D D F F D F D F S F F S D D F H F A D D D F D D S D S S D D D f e g S g g r r g f f f f e d w f d f f f D S D g f d f f D f e e g S S D D f e e f D D F D D D s d h d f f F F D F F D D F D D D D D D D S S D D Z A S S S S D S S S D F F D D D D ",
"D F D D D F D D F D D F D D D D D D D D S S D S D D D S S S S F F D D D D D f d d d d d d d w w f w w d r e q w w w e w w q q q w q q q q q q q w q q w w w w d d e d e d f D g g S S S D D D D S D F F D D D F D D F D S D D D D F F D D D F G F F F F D D D D D A F G G D A D D D F F F Z D D D D D D D S A C A F F D F F F F D D D D D D f f f f f f f e f d f d d e d w d d d e f D S D f d f f g D d w e f D D D D e q q d D D D F F F F h g d g f f F F F D D s > D S D D D D D S D D S S D D D D A D F D D D S D D D D D ",
"D D D D D D D D D D D D D D D D S S D S S S S S D S S S S S D F F D D F D F f F f F d f f d d w e w q w e e e w w w e w w q q q w q q w w q q q q q w e w w w d d e d d d d D g g g A S S S D D S S D D D S D D S S D S S S A A S D S S S S S D D D D S S S S D S S G F D A C S S S D D S S S S S D S S S S S S F D F F D D D F D S F D S D f g g D f f e e f f f d d e d w f f f e f A A S D f f f f S g e e f D S S D e w w d D F D S D D D f f g g g D D D D S F s f g Z D S D D D S S S D S D S D S A S S S D D D S D S S D ",
"S S D S D F D S S S S S D D S S S A D A A A A A A A S S S A S S D D S S S D D D g g f g f f f e d w w q e e w w w e e e e w w q q q w q w w w w q w w e e w e e d r w w f f D D f f D S D S S D S A A S S S S A S S D S S S D D S S S S S S A S S S A S S S S S S S F D C C Z D D D S A S D S A A S A A A A A S D D D D F D D D F D F S S S f f h S g g r e f d g f w w w w f g g f g S S S S f f g g S r r t g S D S g e e e r D F G D Z S F f g f g g D D F F D F f j j C D D S S S D D S D S A A S A A S S S D F F D S A S S ",
"D D D D F F D D F S S D D D S D S S A S S A S A S D D S S S A S D D S S S g S S D D f g f g f f f r w e e e w e w e w w e w w w w q w w e e 0 0 0 w q w w w w e e d w w d d D f d d F F D D D S S S A S S S S A S S S D S S S D S S S S S S S A S S S D S S S D S S A V Z A D A S S S A S S A A A A A A A S A A S A S S S S S D D D Z S D S h f f A g g f e f f g g d e r e g g g t f S A S S g g g g A r e r g S D S h r e e r g F F D F D S g f f g f S S D S S D g h Z A D D S S D S S S S S S S S S D S S A D F D F S D S S ",
"F S F F D D D F D S S D S S S A D D S S A S s G S S S D S A A A D S S S S h S D g g g g g f g e f t e e e w w e w w w w w w w w q q w e e w 0 0 q w w w w e w e e f e e f f D g g F D D S D D S Z A A S A S A S S D A S A A S S S S S S S S A A D D F D S S S D D D D A S D A A A S S S A S D S Z A A A A A A S A A S S S S S S F F D D D S g f g f F g d e f g g g f r r r f g g r t S A A g g f g S S e e r g A A S S e e e e D D D D D D D f g f g g S S A S D g h S g D S S S S S S S A A S S A D D S D S S D D D F D S S D ",
"D S S S S A A S S S S D S S S S S D S S A G s D Z A A A S Z A D D S D S S g D S j S g g f g g f r g e e e e w 0 w w q q w w w w w q w e w q 0 0 w e e w w r e e d f r r f f g g g D D S S D D D S S S S S S A S D S A S D A S S S S S S S S A S D D F S D D D D S S D S S S S S S S S D D S S D Z A S S S A S D S S A S D A S S F D S D D S f g h S g f d e g g g g f r e r g g g r t S S D f g r f S S e w e t S S D f e q q w D S D D S S D d g g g g S S S g D g S D S g D S S D S S S S S A S S S D D S D S D D S D A A D F ",
"D S S A S S A A S D D S S D S A A A D D A S D C Z S A A A S D D D S > F A S A S S S g g f h g e r r e e w q q w q w e w w q w w w 0 w w w 0 0 q e r w q e e w w w f d f g f f g g S d D D S F F D S A S A A A S S S A S S A S S A S S S S S Z A D D A D F F D D D D S S S S D D D D D D D D D D D Z A S S S D D S S D S F F F S S S D F S S g g g h g g g r f g S f f t r r g g g e e g D D f f g g S S r w e r S S D f e w w e g S A S D D D D S h f f D S S S S S D S g g S S S S A S S S S S S S S S S D S D D D D D S S D D ",
"S S S D D D S A S S D F S S S A A S S A A A C V Z S A Z Z A A S S G s D Z C D S S g g g g g h f r t w w e q q e w e e q w q w w q q q q q q q w w e q w e q w w w G d f d d F d F D F D A S D F D S S S A S S A A S S A S S A S S D A S S A S S D D S D D D D S S D D S D S S D D D S S D D F S S Z A A A S D D S D S S D S D D S D S S S S g f g S A h g e e g h g g r e t g h g e r h g g g f g f F A e e e r D D D f e r e r f S S A S S g S S g f g g S S S S S S S D g D S A S S D S S S A S S H F A D S D D D D S S S D S ",
"S S S A S S A A S S D D D A A S A D D S S D D D S A A Z A A S S Z F S Z V C D A A A g h g f f f e w w w e e w w q w w w q w q q q 0 q q q q q q 0 0 q e w w w e f d g f f d d d f D S D S D F D S D S S S D S A A S S S S S S S D D S D S S S S S S D D D D D D S D A D S D D D S S S D F F D D D S Z A S S D D D D S S S S F D D D D S D D h g g A A h g r g g g h h r t t g h g r r g S D g g h s D V e w e r D S S F e w w r g D D S S F F F D f f D D D D D f g S S S S S S S S D D S S S S S S D C C D D D D S D S S S A S ",
"S S D S D S S D D D S S D A A A A A A D S S A A A Z A S S A S D S A S C V A S A A A g t g f f d t e e e e e e e w w w q w q q q w q q q 0 q q q q w w w w e e e f f f g g f f d g S D f D S S S F S A A S S S A A S A S S S S A D S A A D D F S S S S S D D D F D S D S D D S D D S D D D D F : F D A Z A A A S D F D D D F D F D F D F F F f f g h S g g e g h h h g r t t g h g e e g S g g t g h B V e w w r D S S f f r e r g S S D S S D F d d d F D D D D D g S D D D D D S S S D S S D S S S Z C S D S S S S D S S D D D ",
"S S S D D S D S F F D F D A S D D S D S S S A A A A A S A Z S D S D A C S D S S S S r r g f f s g r e e e e w w w w w q q 0 w w w 0 0 q q w w w q q w e w w e d e f f f d g g g D S S f D D D D S C A A A A A S S S S D S S A A D S S S A S D D D S S S D D D S A S D S S D D S S S S D S A F G C Z Z Z A S S D D S S D F S D D F F F D F F d g g g S f g e f g h h g r r r f h g r r h S g g r r S A S r w e r S S D g g e r r g S A A A S S D f d g f S S f S D S S S A S S A A A A S S A A A S S S D S D S S S D D A S S S S ",
"A A Z A A A A A A A S S A Z A S S S S S S A A S A A Z A A A A S S S S D D S S S S A g g g g g f f r e e r r e e e e w e w q w w w q w e w w e w q w w q e r r f g g g f g g h g f D S S S S S D S A S S S A A S S D D S S A S S D A S S S S D S D S D F G G G D F D D D F G D D D S D S S D D Z V S Z A A S D D F F S D F D D F F d G F F D f g g D g d d e f g g g f g r r g h g r g h S g g r r S A Z t e e f S S S d q r r f f S A A S S A g f f f f S S S A D S S S A A A A S S A A A A Z A S S S S S S S S D S A A A A A A ",
"S A A A S S S S A A A S D S S A Z S S S S S S D S A S S A Z A D S S D S S A A S S Z g f j g g g g t e r e r e e e e e e w w w w q q q w w q q w q w q 9 r g f g g f g r f g f f g D D S S A S S S D S S S A A S A S S S D S S D A S S S S S S S D D G D D G G D D D D D F F D D S S S S S D S D D D Z S S S D D F S S D f D D F D F D D S S F g D S D d f r g g h h g g r r g h g r g A S g g r r h S A r e r r S S A F j g e r g S S S S S S S f f g f g D D S g g g S S A S S D S S S Z Z A S A S S A D D S D D D D S S S A S ",
"D D S A A A S S S S A S D S S S A D S A S S S D A Z A Z A Z A S S D D D F D S S S S r g g f f f f r r r e e e r r e e e q e w w w w q e e w w e e e e w y t t g g g g r r h g g g D S D A A S S S S S S A A A D S A S A D D D S S S S S S S D D S S D A D F D D D D D D D F D D S S D D S S S S D S Z A S A A D S S A D D D D D F F D A S D D g f D D d d r h g A S g t e e g g h e g S S D g r r h S A r r r t S D S Z k r t g g h S A A S D f f g g f g S S S S D D S A S S A A A A A A A A A A A S S A D D D D S S A D D D D ",
"D S D S S D D D S S S D S S S S S S S A S S D A A Z A Z A A A D D D D D f D D D S h e f g g D f f e r r r e e r t e e e e e w w w e e e r e r e r e r t y t g h g r r g r h h g g h S D S A S D A A D A S A A D S A D S S S A S S A S S A S S S A A Z A D D D S D S D S A S D S S S A A D D D D D D S A D D A S S S S S S D S S S S S D D D h g g S S D f f h g S S h g t r g f g r f S A f g r r g S S r e t r h A h g g g g e d g D D A A S g f r f h g h S S S S A h S S D S S A A S S A A A S S S D S S S D D S S S S S F F ",
"D D D D D S D S S D F S S S S S A S S S A S A A S A A S S A Z D F F F F F S D D D f d e f f f f f e q w w w w e r e w w q e w w q q q q w w e e w e r w e g f h f r r f r g g g g g S F f S D D S S A A S A S S A S D S S S A D S D S D D S S S D A S D D D S S D S o S S S S A A Z S D S S S S D D D D S S A D D D S S S A S D F D S S S S g g g S S S f d g g h A h t r r g f h h g S A g g e e g S A t e e f g S f D g f f f d D D D F S A h f e f h g D D D S j A D S S S A S A Z A S A A A S S S S S S D S S S S S S F D D ",
"S S A D S S S S S S S A D S S A Z S S A A A S A S A S S A A A S D F F S S D F F D f e e f d f d e w w e w w w w e w e w w q w w w w w w e e w w w e r r r f d f f g g f r g g g f D S S D D F F D A S A S S S S S D A A A S S S A S S S S S A S S S D F D D D S D D S S D D S S S D D D D D S F D D D G D Z A S S D S D S S D D S D D S S S g g g S D S g f g f g h g t e r g h h h h g D D d w e g A A f e e f g D D G f f f f f g S F d S S g f d f f D D D S S S f S S A A A A A A A A S A S D A A S S S D S D D S S S D F S ",
"A A A S A S A A S A A A A S A A A S S S A A S A A A A S A A Z A S S D S S S S D S S f f f g f f f e r w e r e e w w w w w q q w w w w w q q w e q w e e e e e e e g g f e g g f f D S S S A D D S A S D F D S A A S S S S S S S S S S A S S A A S S D D D D D D D D S D D D D D D F F D S D D F F D F D F D S D A S S S A S S S S D S S S S g g g S S g g g g g g S g t r r h h g f g A S g f r e h S D g e r r g S f f D d d f f g g D d D f d s e f f S h D f S j h A h A A A C Z Z S S S A A Z A D S S S S A S A S S S A S A ",
"D D A S S D S A A S S S S A A A A A S S S A A A S D A O S S A D D D D F F D D F F f f f f f F d w w e r w w e w e w w w w q q q w w w e w q q w w e r r e e r f f e f t r g f f g D D D D S D D D S D F D D D A S S S A A S S S S S S D D S S D S D D F D D D D F G S D D D D D S D D D S F D F D D D D F F D A S S F D S S D D D D S A A j g f S A S S g g g g g h g r e r h g f f g A A S f e e h A Z h t t e d G d D f f f f f g g j h g S A g r f g g g S D D h k Z Z C S S S S S S A A A A Z + A S A A S A A Z A A A A S S ",
"S D A S S S S S S A A S A A A A A S S S S S S S S D D A A S A F F D F F F D D f F d w f f g D d w e w e r e e e e e e e w q w w q w q w w w w q w e r e r r r r r e t t r f g g S D S S A A D S S D S S D S S S A S D S D D S S S A S D S S S S D F G F F D D F F D D S S F D D D D D D D D D F F F S S D D D S S S F D D S S D D A Z A S j g h A A A S h h g g g g g r e e g j h f f S A f d q w f h S g r e w w d d f D g g g f f f h f F g g d d d g d f D g S S S D S S D S S S D S A Z A A A A D D S D D S A S D S S A D S ",
"A S S S S S D S S A S D S A S S S S D S D S D S S D D S S D D F D S F D D S F f D F d w e f f f f f e e e e e w w w w w q w w w q q q 0 q w q q w w e e e e e e w e g t f d d D S S F F D A S D S S S D D D S S S D S S D D S S D D D D D A S S A S F D F F D S S D D S D D D D D D D S D F D G F S D S S D D D S S D A S S S S D D C A S h h j h S A g g g g g g g g t r e g S g g g g S f d w w d g D f w w e d g f F D f f f d f g g g g f f d d f f g D g D D D S D D S S S A A S S S S D O S A A A S S S A S S S S D S Z A ",
"F S A S S S D S D D D S S S D S S D S S F D S S D A S S D S S D S S D S D F D F D F d f f f f f f f f e e w q w w w w 0 q w q w w w w w q 0 w w w w w e w f r f r g g f f g D D g S g F S A D D S S S S S D D S S S S S D S S D D D D S F D D S S D F D D D D F S S D D D S S S D D D S S F F F D S S S S D D D A S S S S S A S D F S S S h h h A S A S S g D g g g g t e e h S g d g h D g f e w d g S f q w q w d f F d d d f d f f S f D f F f d s s f f S D D S D S S A Z A A A S S A D D D D D D S A S D S D S S S S S A D ",
"F D S S S S S D S D D D D D F D S D S S D D D S S A S S D S S D S S A A H H A d F F f g g g g h h f g e w w w w w w w 0 0 q 0 w q q q w q q w w q w w w w f f e e e f d f f g S S D D D S S S D D F D D D F D F S D D S S S S S S D A S D D S A S S D S D S D F F D D S S D D D F D F S S D D S D S S A S D D S S S S S S D D S S D A A S j h g j A A S S D g g S h f r r r h S h g g g F g f e w f g S 0 w y w d g g S S g g f f g f D g f g D f d d f f d D S D A A S S S S A A S S S A S o D D D S D A A S S S S D S S D A D ",
"S D D A D D A S S S S D D S S D S D D F D D D D S S S S S S A S S D S A A Z A F f f f g g g h h g r g e w w w e e w w w q q w w w q w e w w w e w w e r r r r r g f g f f f D S D D S S A S D D D S D D D D S F S S D S S S S S S D D D D A S S S A D D D D F G D D D D D D F D D D D D D S D A S S D A S D D D A A A S S S S D S D Z A Z Z j h h S S S g f D g g g g r r r g A h f f d f F g e w f f D d j y t h f f D D g g f f f f D f f D S f f f D D f F F D S A S S S S S S D D D A A S S S S S S S A A S A S S S S S A S ",
"D D D D D D S D D D S S S S D D S S F F S S S S S S S S S A A A S S S S A Z D g S g h g h g h h g g f e e e q w e w q w w 0 w 0 w q q w r w e e w 0 e r t g r g g g g f r f d F f g S f S D F D D S S A A D D D S D F S S D D A S S S F D A S S S S S S A S S S S F D S S S S S S D A S S D D A A S F S S S S D A D S S S S D D S D V A A A h j h h D D g g g g h S g r r w f S D f h g S D f q w d f D g e r t g f f F D f f f f h D f f g S D g g f G F f D F g S S g D D D D D S S F D S o S A A S S S A A D D A S A D S D S ",
"S D S F S D S S D F D F S D D D D D D G F D D S S S A A A Z Z A A A A S A g g g h h h g g g g h h g r r r e w e w w q w w q w w q w q w q w e e w 0 0 w d f e e f g h g r d d f g f F D D F D F D S S S S D D D S S S A D D D D S A A D S D D A A S S A S F D S D D S S S S A A S D D S S S D S D D D S S A A S A A A S A S D D S S S Z S S g h h S S h g g g g g g f r r e g A F f g D h S f w e f D S g r r e f g g S D g f d f g S g f f D D D g D D f f D f F D S D D g g g A S D D f D D G A S D D S D D A S S D S S S S D ",
"S S D D D D F F G F F G F G G G F F D F F F F F A A D A S A A A A S S S S g S S g g g f g g g g g g r e r q q w w e w w w q 0 q q w e q q w w w w w w w f d e w h f g g d f g g S D S D A S D D D S D D D D F D S S S S A A S D A D A S S S A A O S S S F s D S S F D D D D D S D S A S D D F F F D D A D S S F S S S S A S S S S D G D A S g f g A S g f g g h f g g e e r g S f f g D g D f e e f D S f e e w f s f F F f d d f D D g f d S D g D D D D f D f g g D D S g g S D S o D F f S F S S D D S D D A D F S S D S A D ",
"D D D D F D D D D Z A A A D F G F G G G F D D F S S S Z S A S D D S D S A h S S S g g g g f f f g g e w e w q 0 w q w q 0 q w w w e w w q w e e r r r g g f t h j f D S h g g D F D S S D F S D D D S S D D D D S S S A S S S S D D S S S S S S S S S A F S A C A D A D S D F S S F D D D D F F F G D S Z A S A A A S S S S S D D S S d A S g g g S S S g f g g g g f e e e r S g f f g g f f q q f D D f w e w d f f F D f f f d F D g g d S S g D D D D f F D D g A A A j A A S S S D D S A S S S D D D D D D S D S S S S S S ",
"C C C Z Z C C Z A Z A Z Z A Z Z V V C A S V Z Z C C C V C V V Z Z Z k C V k j S j j j h h h h j j k y t y r e e e w q q w e e w w e w e e r t y t r r h h g h h h h h h g h Z S A Z A A A A A A Z Z Z Z Z A Z Z A A C Z + @ Z C A S A Z Z Z A Z Z Z C C Z Z N N C C C C C C C C C A S A Z A Z A Z A Z C V A Z S F A C Z Z C Z Z A A C Z Z B k k k C Z k j j j j k h h y y y t j j h h j S h j e r j C C j t y t h k k Z A g h g h h h j A h A A A g D Z A j A A A A k j k k Z Z Z A A A Z C Z Z Z C Z A C C Z V C Z Z Z C C C C ",
"C V Z A A A S S S S S S D S S S S A Z Z D A A Z A Z Z C C V V C C C k Z Z Z k A j j j j h h y h j h r r r e w r t j t k l r e e e r e e e r h h r w r t t g h h h g h j h j Z j S A A Z A Z A Z Z Z A Z Z A Z Z Z C C C Z Z Z Z Z Z S A C C Z Z Z Z Z C Z C B Z C Z A Z V C V C Z Z Z C C A S A A Z Z Z C C V D S V N B Z C V C C Z C C A B l j j C Z Z j j j j j h g y r r t h k j h j C z j r t j C C j e r t f g A Z C j h h h h j j j S S A j h N V Z j h Z Z Z C C l z V C Z Z A Z C C C C C Z Z @ C C Z C Z Z Z S A Z Z Z ",
"S A D D D D D D D A S S S D D A A Z A S D F A S D D S A A Z C Z A A A S A S g S D g g g g f g g S g e q e w w r e w w e q q q q q q q 0 w w e f e q e r r r r g f f f F f D D D g g S S D D D D S D D D D F D D D S S S D D D D D D S F D D S S S S S D D F D D D D S S A D D D S D D D S D F D F d F D D S D D Z V C A D S D A A A C Z F V h g g A A S g g g g f f r w w w e f f d d f S f g r e S A S f w w e f g S D S g f f f f s f f D g D g f A S S g D D S A S D S A S S A A D D Z A S A S A S A S A D D Z S S D S A A A ",
"D S S S S D D D S D D D D S D S S S S S S G A S D D D S S S S S D S S A A S h S g g g g f f g g f f e w f e e e q q 0 w q w 0 0 q q q w w q e g e q e r e r g g g g f F f D f f g h S S S D S A S D D D A S D D S D D D D D S S S S S S S D D S D S S S S S S D S S A S S S Z S Z A S D D D S D D F D A S D D D V V V A D S D D D F D A S C g g g S S A h g f g g f f e w q w f f d d f S h g e w D S A f w w e f f F D D g g g r r f f d D D f f D S S S D D D D D D D g S D D S S S D S S F D A A S S S A S S A A A A S A A S ",
"S S S S S S D Z S D F D D S F D A S S S A S D A D D S A S S S D D D S S D S D g g g S g f f e s f l f w w w e w 0 q q w q q q 0 q w w w w q w e e w r r e g g g f f g g f S S h g h S S S D S S S A D D S S D S D S S S S S S S S S S S S A S A S D S S D D D D D S S S A A D D S D S S D S S D D A S A S S S S Z C A S A A S S D D D F S V h h h A S S g f g g f f f e w q w f f d f d D g g w e D D D f w e e f f D D D d f f e d g f d f F d d f D F D D D D D D S D D g S D F D D D S D S D S S S S S f F D A S S S A S S S ",
"A S S A S S S S D S D D D D F D S S D D F S D S S D D S S S S D D D D f d Z g g f f f d d w w r g w q q q q 0 0 0 0 0 q q q 0 0 0 q q w e q w e e w e e r f r g g f f g g g h g g h A S A S S S S A S S D D D D S S D D S S D S S A D D S S D D S D D S D D D F D S D D D D F D F S S D F F S D F D F S A S D F D S S S A S D D S D F s A D f h h A A S f g f f f d e w w w e d f w f g d g g e t S D F d q w e f g D D F F D f q d f f s d D D F F F F D D D F D D D D S g g D F d d f D D S S D D D D S D F D A A A S S D D S ",
"A A A A A A S D D S A D S F D S A A F S S S D F S D S A D D S D S S A S C C g g h g g f d f h g r f d q w q q q q q q q q q 0 0 q w w w w w w r w w e r e e r g g f f f g g g f h D D S S S S S S S S S D D o D D o D S S O S D S S A A S D F D S D D D S S S D D D S A S D D D D D F D D S D D S D D D S D D F D S S D D D S S D D F F Z D d f h Z A S h h g f f f r w w q w d f w d f f f g t g A A A f e e e r f g D S D D g e f f f d f D S F F D D S D f D D D D D D D D D F F D S D D S D A S S S S S S D S Z A A S S S A ",
"A A A S S S D D D S A D D S S S A A F S S S S F S S S S D D S D D D S S S g S d d g g f d h r d e e G w w w q q 0 q q q q q q q q w w e e w e w w w w e w e f e f g g f f g D g g D S S S S S S S D S S D D D D D D F D D S S S S S S S S S D F S S D D A S S S S S S S S S S G D F F F S S D S D D D D S D S D D D S S S D S S S D F C S D g d g V Z A S S h g f g g r w w e g f e e f g g g t h A A A r w w w r g h S D D D f e f f d f f D D D F D D S g f S S A D D S D D D D D S S S D F S S S S D D S F F S Z A A A A S S ",
"D D D S S A D D D D S S S S D S A S D D D D D F G S D D D S D D D F D S S A f 0 d h d d h h w w f e g r e w e q q q 0 q 0 q q 0 q e w w q q q w w w e e w e f r g g g g g g S g g S S A A S S S S S S S S D S D D D o D S D D D D S S D D D D F D S S S A S A A S D D F S D D D F D D F D S S D D F D D S S S F D F D D D D D D D D F Z D D f f d D Z A S S A f e f f e w w r f f w w f f g h g r A S D g w e e e f g D S S D f w e f f f f F D F F D S S h h h S D f S D D D S D D F D D D F D S S D D S G H F Z S S A A A D D ",
"S S S S S S S D D D A S S A S D S S S D S S D F F D S D D D D D D S D D D S d s j j f f g r f e e g d 0 w e e w q q q w q q q w e w e e q w w e e e e e e r r r f g g f h h g g h h S A S S S A S D D S D S S S D D D D D S S D D S S S D D D D D S S S A S S D D S S S A D D S D D D D S S D D S D D S F D F D D D S D D D F D D S D S S F D f d F D Z Z S S g f g g r w w e f f e r g g h g e e A A S f q e w w f f g D D D D e e g g g D F D F F D S D h g D D D g S D D D S A D D D S S D D A S F F D D F S Z S F S A A A S ",
"A A Z A A A S A S S S S S F D S S S D F D D D D F G D S S D S F D D D S S S F g k g d d g e d f e g 0 9 q w w w q 0 q q q q q w q q q w q q w w w w e e e f e r f f f g g h h h g g S S S S S D D D D D D D D D D D D S S S S S S S S S S S S D D S A S A A S D S A S S S S S S S D D S D D D D D D S s G D D D D D D D D S S S S S S D D D D S D F D D A A j h g f f e w w e g f r r f f f d w e A A C q q r w w f f g D D D g r e g g f d g S D D D S S S g F D S S h F D D D S A S D S S D S S A A S D S A Z C D S Z A A A A ",
"A A F F A D S S A S D S S S S S S S S S S S S D D F D D D D D D D D D S D D f h f d f g f d f e e r s 0 w r e q w 0 q q q q 0 q q q w w w w q e w w e e e d e r g d w f g f f f g g S S S D D D D S D D D D D D D D D S D D S A A S D S S D S S A A A S S S A A S A S A D S S S A S D A D D D D S D S F D Z S D D D D D D S D D D D D D A Z D f f D F F F F f f r f f r e e r g f e e f f f f f e S A S r t e q w e d f D D D f r f f f f f D D D D S S S S g D D S F F f D D D S A D S S D S S S S S S D D D S S S S Z A A Z Z ",
"A A D C C D S S S D S A S S S S A D S D S S S D D S S S S A A S S S D D D D F d f f g g f f w e e e g e h y t q w q w q q 0 q w w w e q e w w e e e e e f d r r f 0 d h F g g g g D S S D D D D S D D D D D S D S S S S D S S D S D D S S A A S S S A S S S A A S A S A A S S S S A S S D D D S D S D D A A D S S S D D F D D D F D D D D D d d g S D D D F F w q w w w q e e f e w w f F f d d e D D D e w w w w e f f D D f f e f g D f D F D D D S S D F D D D D f F D f S S A A D f D S S S S A D D D S S S A S A Z S S S S ",
"A A S A S S A Z S D S S S A S S S S D D S D S D D D S S S S S S D D D D D D G d D g f d f e d f w q g t y r w w w w 0 q q e e w e w w q w w e e e w w e f r r r r d j h f g g f F S D D S S D D S D D D D D D D A D S D S F H G S S D S S S S S D D S S A A A S S S S S S S D S A S D G F D D D S F D D D F D D D D D D D S D S D D S D F F D h S S D S S D S f w g f r w q w f e q e D F D f e f S A D r w w w w e f f F F g g w g g f g D D F D D S S D F f f D D S S S D D F D S S f D A S D A S S S D D D D S D S A S S S D ",
"D S S S S S A A A A D S S S S S S S D D S S S S S S S S S S S S D D S S S S D F f f d f e e f f w w d e e e e e e 0 w q w w e w w e w w w e e r e w w e e r e e e g g f f f D D D D D D S S S S S D D D S D D D S S D D D D F D C S D S S D D S D S S A Z A A A S D D D S S D S D D S D D D D D D D D D D D D D D D D S S D D S D D D D D D h g f D D D S D S f e r f e q q e f e w e g S D g f g A A S e e r e e e f f D D g f r f f f f D D D D D D S D D f D g D S D F S g S F F D F D S D S S S S D D S D S S D Z Z S D S S ",
"A A A A A A S A A A A Z A A S A A S D S D D S D D S S A S S S D D D D A A S S g f f f g g e e d w w d e w w e w w e q w w w w w e e e w e e w e w e r e r r f e r g f f f g g D D D h h g S g S A S S D S S S S A S D S D A A A A D D S D S A A A S S A S A A S S S D S S S S S D D S S S D S F D D D D D S S D S S S D D D D D D D D D S F f f D D D D D S A g r e d w w q e e w q e S S D g f g S A S e w e r r r g g S D D f r f g g g g D D D D S S S D f f D D D F F S h S D D S S D S S A A S S D D D D D D D D S Z A S A ",
"A A A A S S S A S D S S A A Z A A A A D D S D D D S S D S S S D S S D S S D g f f f d d g f e f e e f r e e e w w w w e e e w q w e e w e w q e e w e r f w w e f e d f f f D F g D S S S S D D D S S D S S D S A S S S A S S S o D S O S A A Z A A S S S S S D S A S D F S S A S A D S A D D D D D D D S D D D D G d D S D D D D D D D F F F f F F D F D F D g e e d q w q w f w w e S D F g f f A S S e e e r t t g h S S g g r f g g f g D D D D S S A D f g D S S D D S S S S S A D S S D S S S S S S D S D F D D D S A A A ",
"A A A A Z A A A A S S A Z A Z Z Z S D F D D F D D S S D S D D S D D D D D D D d f f f d w d f e e e f w w e e q w q q w w w q q w w w w w q q e w w w r r w w d e e d f f f D F F D D f D D F D D D D D D D D D A D S S S S D F F F D S S S S F H G A S D D S D D D D D F D S S A Z A S S F D D D F D D D D D S s s S Z D S D D S S S S D D F D g D G D S D D f r d d w q w w e e w e S S D D f f A A S e e e r r t g h A Z g g r f g g g g D D S S D F S D f D f D D S D D S S S S S A A S D A S S D S D G S S F F D D F S A A ",
"S + A S A A A A A A A C Z Z C Z Z S S S D D D D D S S D S S A A D D D S D D f F F d d f w e f w d w d w e e e e e w q w w w q w q w e w w w w e e e w r e e w w q e f f g f f D D D D D F f D D D F D S D S S D S D D S S S A S D S F D S A Z G G C V S S S S D S S S S S S S S A S D S S D F S F F D D D F D S D A V Z S S D D S A A S S D D S S S S S S D D d f f f g e e e d e w e D S D F d f A A S r e e r e r g h Z A h g t h j g S h S D S S D D S S D F D S D S S A S S S D S S S A A S S A A S S F S A D D D D D D S S ",
"S S S S A A A S A A A C Z A A A S D S S S S D D D S D S S A S S S S D S F S g D f g g D s e d s e e f w w e e e e w w e e e w q w w w q w w e w r e w r e w w w w f g h g g S h S D D D D g f D D D S S D D D S S S S S D D S S S A S S A S S D C V C D S A S S D D S S D D S S A S S D F F F D F D F F D D D D S A A D D F D D D S S D S S S g D D D S D D D d w f f f w w e d e w e D D F F f g S S S t e e r e r g j Z A j h t h A g D g S D D D D D S D g f F D A S S S S D S S S F A A D D D D F F D S D S D S S S S D S A ",
"S S S A S S S A A S S A A A S D D D S S S D D D F D S D S S D D D S S D F D D D g g g f f f d d e w d q q w w w w q w w w w w q w w w q e e w q w w e r e e w r r g d s f g g h D D S S S S S D S S S S S S S S S S D D D D S S D D S S S D S A A Z D S S S D D A D D F F D S S D S A D F F F S D D D S D D D F F F D D D D D D F D S S D S D g D D D D D G F d e d d f e e e d e w e D S G F d d S D D e e e e r r h h A A S h r g h S g S S D S S D D F d f d F D Z S S D S S A S D D A S S S S S S D D D A S A Z Z D S D F D ",
"S O A S Z A A S A Z A A S S A A A A S S S S D D D S S S A S D D S S S S S S g h g g g g g g f f e w f w w w w r w w w e e w w q w w w q e w w w q w r e w e e r f f 0 s j h g D D D D D S S S S S S S S S S D S S S S D S F S S F F D D S S A S D D D D D F F F D D D G D F S D D F D D D D S S D D S D F D S D D S A S S S D D F D D D D S D g S S S D D F D f e f d d f e w f r w f D D F F d d D A S d w w e e f g D S D g g r f g j S S S D F D S D F d f d A A S A S D S S O S F A S D S S S S S D S D F S A F S A A S S S ",
"S A S C V S A A A A S A A S A A S S S D D D S D D D S S D S D D D D D S S S g g g g g g e f g g f e g e e e w e w e w e w w w q w w w w e e w e q w r r r f r r f d q k l j g g S S S S S S S S S Z A S A A A S A D D A A Z D G D S S S S S S S D S D F S S d D D D D S S F D S S S S D S S S S D S S S D D S S S S A S S S D D D D D F D D S g D D D D F f F d d d d d f w w f d q d D S D F s w D D A t w e f r f f g S S S g t g S A S S A S F D A D D F f f S S D S D S A D S A S A A D S S S S S D D F D D D S A Z A S A A ",
"A S S S A A D S S S S S S S S D S S S S S D S D D F D D D S D D D D D D S D S g g g h h f t g h g e e e w e e e w e w e e e w w q w e e e e e e q e y r e g r g g g g k j D g h S A S S S A A A Z S S Z A D S D A A A A A Z S D S A S S D S S S S S D D S S S S S D D S S S S A S S S S S S S S S S S S D D D D S S S D D g D f S S F G G D S g S S D D D f d d d f F f f w e f d w e D S D F d d g F D f r f f w f f g S A A h t g h S S S S S D D F D D F f g D D F D S S S D S D S A A S D D S S S D F F D D D S S A S S A S ",
"Z A A S A A S S S S S A A S A S S S S S S S D S S S S A A A S S S D D D D S S S g g g h f r r r g r r w e e e r e e e w w w q q e w e e e e e r r r t e t g f t g g g h g g S h S A S A A Z Z Z S D F F D D D F D D S S D A S S S S S S D D S S S S D F D D D D S A A D D D S S A A A S S S S S A A S D F D D S S D S S S g D f F F F F F S D f g S D F F F F f e f D f d e f D d w q F F S S g w f S S f e d f e f f f g D S h r f A Z A S D D S S D D D F f D D D F D D D D D D S D D A D S D D D S S D F F D D S S D F S A Z ",
"S A A D A A S A S D D S S S A D S S S S A S S S S S S A A S D F S S D D S S D S h g g h g t e r g r f r e r r r e e e e e w w w e e e w r e e e r e e r r g r t g g g h D h g g A A A A Z C A D D S S D D D D g A F D S D G A D S S S D S G a A D D D D D D D S S A S D S S D S O A A D D A S S O D D D D F F D D D S A D f D g g D D d F D A g g S S S D D g g r f D D g e f S g w e F D D S f d g D S g g f g g g h h A S h j h h A Z A A Z A A Z Z A S S f g S S S D S S F F D D S D S A S S S S S D S D S D S S Z Z A S S A ",
"S S A S A A A O S D D S D D A S A S D S D S A S S D A A A S D D D S S D D D D D g g g g f f e r r t g w r e e e e e e e e w e w e e 0 0 w e e e r e e r r g f t t t g h g h g h A A A Z C A D g F D D D D F D S D F S D D D D A S S S D A F Z Z D D D D D S D S D D D S D F F S A A S D D D O S S D D D D D F D D D S S S g D f F D D D D D S h g S S S A g S g r g A S f e f S f e r D S D A g g g D S g f g h g g g h S h A j g g j A Z A Z Z Z A S S A S g g S S S S S S D D D F S A A A A A A S S F S S S S S D A Z A S S A ",
"A A S s C Z Z A A A S A A A A S S D F S A S S S S D A A Z S D A S D D S D D D S g h g h f d e r g r r e e e e e e w e e e w e q w w 0 0 r j e e e e r t g g t r r t g g F g S h A A Z A Z S g f D S S D S S D D D D A D F S D S Z S D S S A C F F D S F D D S S S S S S S D S S D S S S S A A S F D S S D D D D S A S S D g g g f D F D D D D g h S D D S g h g r f D S g e f D f e r D S D S S f g S D d d f g g f f f f D S h h h Z A Z A S S S Z D D S D h S S S S S D D D D S D S S S S Z A A Z Z S F D D D F D S A S D S A ",
"S S S A V S A + A S O S S A S D S D S S A A A S A F S C A F S S S D D D S S D S g g g g f w e g g e r r e e e e e w w e w w w w w w 0 w k j e e e e r t g f r r t t g h S g S h S A A A A g D D D D D D D D F S S S A S D S A A A A A S S D F F F D A S A D S D D S S D D S A A D + S S A A A S S A S S S S D D D D D S D D h h S S D D D D D f g A S S Z j h g t g g g g r f D g r f S F D S D f G F D s d f D f f g g g g D g g j A A A A S S A A S S S A A S S S S D D F D D S D D D D D S Z S S Z C S S S S S D S S A S S D ",
"S A A Z S S A D S Z A S D S D D D S D S D D S S D F F D G G D F F D D D D F S h g g f f g r r e e e f r r w w w w w w w w w w w w w w t j e w e e e r t w f e r g r f D A g g S S S S Z S D F D F S S D D D D S D S S A S S S A A A A A A S S S S A S D D A A S S D D D D D F A S A A A A S D D S A S S S S S D D F D S S A f H S D D S D S g f f S S D A S g f r f g g f r f g g f d S S S D G d D S S f g g S g g g h S A h S g h A j A Z Z S A S S Z Z Z F G S A A D D D D D F D S S D S A S A A S S S D D D A S D S A A S S ",
"S Z A S A Z S F F D D A S S S D S D D D S S S S D S D F S S D D D D D F S D D g g h h h g f w e f e f e e w w w e e e w q w w e e e e e e e e r r r r t g f e r r e g S A S S h S S g g D D D D D S D S S D D S S S D S D S D S Z A Z A S S A A D F F F F S D D D D D F G D D D D D S A D D D D D D F F D D F D F D A S S D f D Z D D S S S g f f D D D A S g g e f g g g e f D f f f D S S D S j g D D f f D D f g g h A A h h h g A A j Z C Z Z S S A Z A g S C Z A S S D F F D S S S S S S S A A A S A A A S S S S D S D D S ",
"A Z Z S S A F F D F D Z A D S D S S S S S A A A A A S S A A S S D D D D S S D f f f g g f f w e f e e e e e e w w e w q w e w e e e e w w e e r r e e r g f e e e f g g h S h S h f f F D D D S D D D S D D D S S S S D D S D D S S S S A Z S D D D S D F D F F F F D D F F F D D D D D D D S D D F F D F D F F D F D S D F f g D D D D S A S r f g D D S g f f w d f f e w d D d f h A S D A S h S D F f d g D f f d f S g g S S D A h h A A A Z A S A Z Z k B C A C Z A D G G D D G G S D Z Z S D D S D A S F F A S D D F D S ",
"V C C C C C A A A A Z A V B C C C C C C V V V B V C C C C C C Z A A A A A Z A A h j j j j j t y h y h y h y t t r e r e r e r y t t y t t y k j k j y j j h h j j j k k l C C C k j C A C C C Z A A C Z Z Z Z Z Z Z Z C C C Z Z Z Z Z A Z A A Z Z Z A Z A Z C Z Z S A A A A A Z Z Z Z Z Z Z S S S S A Z A A S A S A A Z A A S A Z A A S A Z A g h Z A A C k j j y j k k g r h j h z l l V V B V V C A C h g h A j j h j Z C k Z Z C C C C C V V V z C B B C B V V V V B V C C C Z Z D Z N A Z C A A A Z A C Z A A Z Z Z A Z V V ",
"C C Z A A A A Z A O S A S A Z C V C Z Z D S Z C C C V V C C C Z A S S S S S A g h h j j h h h h y g h t h y r y r r r e w e e e r e t t t y y y y t t h h h t h j j j C C l z l l k C Z Z A A S A A A A A A S Z Z A Z C A A Z Z C Z A Z Z A S S A A A A Z Z A A A A A S + A C Z A A A A Z Z Z C Z S S A A A S S S S S S S S S D S S S A S D S g g g A Z V C h h y j k j k h h j j k k Z A Z C C V Z A A h g h A g g g g S S h f h S h h h A A Z Z k j C Z Z l z C C C C Z A A S A Z Z V V S S A D D S S A A A Z C Z Z A A Z C C ",
"D S A D D D F D D D D D G F F F F D D D G D F F D G A C A A D S D D D S S S g g D g h g f e e e r e e e e e e w q q w w w 0 q w q w w w w e w e q w e w w f e e e e f g h A k h f D D D F F D D F G F F D S D F F D S S F D D F D D S S F F D F D D D D F F G D D D F D S D D F D S F F D D D D F F F G D D F H F D S D D g D D D F D D D F G f f g S S A D g f r t g g g t r D f w g D S A A S h S F D f d f D d d d f D F h h g g S h S S A A A S A A A A A S S A A D D D D D D S S S S D S S S D F F F S D D S A A A S S S S ",
"D D h S A D D S S D D D F F S S F F G F F G G D D D F A Z Z Z A S A A D F d d d F f f g f r e e e r e w w e w w w q q w q 0 q q q w q w e e e e t y e e e f e f r f g h h j S f D S D D D S D F D D D F F D D D S S S S D D F F F D S D H s F D D F D F F F F F D F F D S D D D D F D D F F F F F D G G F D F F F S F F S A D D D F S D S D G q q f D D S S g g e r f g r e f h f f j S S A S A A h D D f e f f f d f f D F k h f g A j A A A Z A A Z A A A A S S A A A A D S S S S S S A D D D A S F D S S D F S S A A D S A A ",
"A S S A S D S A S S A D D D D D F D D D F s C A D D D F D S A D F S D F F F f d d s f g f f r e r r r r e r e e w w e w e e w q w w w w e e w e r e r r r e r r r r f d g g f g D D D D D S D D D F D F F D S D S D S S D D F D D D S H H D C C S D D F F F D D D D D D D S D D D D D D D D F D D F D F D S D G F S A D D S g S D D S A Z S f d w d F D A S g g r e g g g r d g f w g Z C Z A Z A k D F d e f f f f f f F h j g g D g g D S A A A A A A Z A A S A Z Z A A S D S A S S S S S D S S A S S S A A A Z A A Z S S A A ",
"S S D D D D G D D F F D A S S S D F D S D Z C D D F F d d F F G F F F F F F F d d f d f g r r e e r r e e e w w w w w w e w w w w w w q w w q w r e e r e e e e r g w s g h h g D F F D D D D D D D D D F D D S S D S D D F D D D D S F D A Z Z D D D F F F G F F F D D D F S D D F D D D D D D D F D F F F D D F D S D G G D S S S S S A S D d e f D D A S f f r r g h g g f g g e w G F D S D S F G g e w e f f g g f S A j h h S A h D S S S S h S S S A A S A Z A S A A A S S S S S S S S S S S S S S S S S A A A Z S D S S ",
"S S S D G F F F G F F D D F G F F F F F F F F G F D D D F D D D F D D D D S D D f d d f g e e e e r e e w w w q q q q q q 0 w w q q w w e w w w e e e e e w w e f g g h h j f f g S S S S S S S S D D D D D D S D D S D S S D S S D D S C C A D D F F D D F D A D D D S D F D D D D D D F D D D D F F G D F F F F D F D D f D G F D S A S A S f f f S S S S D f e e f f f f f g g g g F G G G G G H D A e w q d f f g f h g f f f D S S g D S S S g h S S S S D S A A D D A S S A S D D S D S D D D D S S D D D D S S D A S A S ",
"S o F D S D F F D S D F F D D G F D F G F F D F D D D g S D D S D D D D D D F g F d f h h r r t g r f r e w w w q w 0 q w q e q q w w w w e w w e e e e e e e r e f g j h g D g h A A S S S S D D g d F D S S S S F D F D D D D D D D D S S D D D D D D D D S S D S S S S D D D D D F F D D D D D F F F D F F F S S D D D F F F F D S S A A S g f D D S S D D f e e f f f f d d f f f D D S S D D S Z f w w q d f f f f D D d f D D D D A S F F S g S D A D g D D S S D S S S S D F S A S D F D S D D D S S D A S D S S A S S A ",
"A S F D S S S A A F F D D F D F D S D D D D D S A S D g S S S S S D D F F F D D F f g h g f e r e e e e w q q w w q q w w w w q q w w q w q w w e e r r e e r r r f g h h f g h h S S S S S D F D F D D D D F S S F F G F D F F D D S S S S D S S D D S D D F F D D D D D D G F S D D D D D D S D D D D D D D F D F D D D D D D S S S S D S S g g S A S S D f f w e f f f f f d f e d D S D D F G D D g w w e f f f f g D D D D S S D D A F s d g g g D A S S D D S S D S A A S A S S A A S D D S D S S S S S S D D A Z Z Z S Z ",
"A O D D D A S S D s F D S S S D S D F D D D D D S A A A A S S S D S D S S S D D D D h j g t e e g r r e e e w w w w w w e w e w e w e w q q w w e e r e e r r r d r r g g g D g g g S S S D D d F F F D D F F D S D S F D D S D D D D S S S A S D D D S D S S F D D D D D D F o A D D D D D D D D D F F F F F D S S F D D F F D D S A D D D D g g g S S o F f r e f f g g g f d f r e D D F D D S F D F q q w f f f D h S S S D D A A S D G D A z j g D A D S D D D D D D D S S A S D S A D D D D D D S D D D F D D S S S A S S ",
"F D D D D S S D F D g D D D S F D D D F D D f D D A S A S S S D F D D f D f f D D f f h g g r r r r r r r r w w w w e w e w w w w e e w q w w e e r g r e e r f g t g h h S g g S g S S D D D f D F F D D S S D D D D D F D S S A D A S D S S D S S S D S D S D D D D S S S S A S S S D D S S D D D D D D S D A S S S D S D F F D A S S S S S g g D S o D D f r e f f f g f d d w e e S S S D S A S D D w q e f S S A D S S S S S S S A S S Z Z l h g S S D A g D S S S S S A S S S S S D D S S S D D D D S D S A D D D F D A D ",
"D D D D D D D D S D D d F F D D D D F D F F D D D S D D S D f D D D g D g d d D S g f h f r g r e r r r e w q w w w q w q q q q q e w w w w w w e t t r e e e e r t t h h A D g D S g S S S D D D D D D D S S S S S A S D D A S D S S S S S D D D S D S D D D D S D S A D S S S A A S S S S S D D S S S A S D A D S A A D D S F S A D S S S A g f g S S D f d w q e s g g g f d w w e D S D S S D G H g e w e g S S S D D S S S S O S S D S Z A g f g g S g S f D S D D S D S S S S A D D S S S A S S D D D F S D D D D D F F D ",
"D o S D D D D D F G F F F F D D F F F D F F F D D D D D D S D D D f D F d G d F f h d g f f f r r e e e w e w e w q q q w w q q w w w w w w q e e r r e w w e e r r t g g Z h g D D S S A S D D D D D D S D F S S A S S S D S S D D S D D S S D D D D S S A S S A S S D S S A A A A A S D A S S S S D D S S D S S S D S D D F F S A D S S S S S g g S D D f d w q e f f D g e f e w w D A O S D A D D Z e q f D D S S F S S D S S S S D S S D D g f g g S S D g D S S D D D S D S D D D S S S S S S S S D D D D F G D S D D D S ",
"F F S D S S S S F F F S F D F S S D D D D D D S S S S D D D D S D D D A D D F d f f w f r f d r e e r e w e w w w w w q e e w w w w q w e w q e e r r e e w e g r e r g r Z C h S S D S S D D D S D D D S D F S S D S S S D D D A D S S D D S D D D D A S A A D A S S S S S S S A S S S A A G G S D D D A A S D D D D S D d d d D Z S S A S S S f f D S S f d w e e r g S h r r e e e D S S D D D S C Z e e f D F D S F S S D D S D D S D D D D g f g g D D S S D S D D D D S S S D D S D S S S A A A S S S S D D D S A D S A A ",
"D D D O S D F D D D D S D S g A D S D D D D A S S D F F F D D D S D D S D D F f f f d d f f w e e e r e w w w e w e w w w q q w e w w w w e w w e g t e e e e f r e t g g A A S g S S D F D A D D F S D F F D S S D D S S D S S S S S S S F S S S D S A A S S A A S S S D S A A A S S D Z D G A Z S S A A S A A A A + D F D f F S A A A A A S D g g S S S g f w e e r g S g r e e w e g S D D S S S S D e e f D D D D F F D S S D D S S D D S D f f g D S S D F F D F D D D S S D D S D D S S S A A A A S S S D D F D D F D S A ",
"D S A S S D D D D S S F D F D D D D D D D D S D D D D D D D D d F F F D D D D f f f g f f f f y f f g r e e e e w q q q w 0 q q q q w w w e e w e f d w w w w d e r g g g j h f g g F D D D F G F F D S D D F S A S S D S D D S D S S F F D S D D S D S S S S S D S S S D D S S A D D D D D S A Z S D D S D S D S A S F D f F F A A A A S S S D g D S D S D f w e e e f D D r r e w e f D D D D D S o D f e f D D D D D D D S D D D S S D S S D f f g D D S D D D S S S S S S D S D D D S D D S S S S S S D S A D D S D D F S Z ",
"D D D D D D F F F S D F D F D S A S D D S A D D S D D D F D D d d f f S D D D f f d q f f f g t r f r r r r e e w w w w w e t q w w w w e e w e e f d w q w e d e e f S h A g f f f F D D D F F F F F F D D d D D D S S S A S F D S D D D F S S S D S S A A A D S S S S D D D D S S S D D F Z A D D S S S S S S S S S S D D D g S A A A S D D D D S S S S f f e e w r g S S f r e e w d D S S D D S S S g f g D D D D S S S S S S S S S D D S S D g f D D D D D D S A S S S D D D D D D D D D S D D D D S D S A S D S A D D C C ",
"S f S S D F F D D D D D S S S S + S S S A A S S S D S F D D D d G F F D F F d f s 9 s h f d g r f e r r r e w w e e w w w w w q w w w w e e e e e e f e f r e e r e d f A S F g S S g g S D D D D D D D S S F S A S A S A A Z S D A A A S D D S S A A S S S A S S S S S A A A S S A A S D S D D S S A S D A A A G F Z A S g S S S S A A S A S D g D D S A D f e e w f g S A f e e w w g S D S S S S S A g g g D S S A g D g S S S S S S S D D D D g D D S S S D S S S S A S S S S D D D D D D S D F D D D S S A S D D A C V A g ",
"S S D D D F D S A S S D S D D O A S S S S S S A S A S S D S S D F g D S D S S h d f h h d d g f f f g r r e w e e w q q w q w w e e e w w w e e e r f e g e w f r f f f h g g g S S D D D D S f D D S D S A A S A A A A S S A S S A A A D D D S S D S Z A S S A Z A A S S A S S S D S S S A S S A S S D S S D S S C C S D S S S S A A A A S S S S D S S S D g e e e r S A S g r e w e g S D D S S S D h f f f D S S S f D S S S D D S S D D D D D g S g S S S D D S S S S S S S S D S D D D S D S D D S D S S D A S D S B A S S ",
"A S D D D F s S A A A S S D S S S O S S S S S D D D D D D D D g D D g S D g D f f g f d d f f g g f r r r e e e e e w w e w w w w w e w w w w e w r f e f e e e w f f f g S h g S S D D D S D f D D D D D S S S S A A S S S A S S A A A D D F D S D D D Z A S S A A S D D S D D S S D S S S A S D S S D S S A S S A S D F D g D S A S A S S S S S S S A S S g f r e r D S S g r e w w t S S D F D S S D f f f g S S S S S D D D D S S S D F D F F f f f D D S F D D S S D S S S D D D D D D D D S D D D D D D S S S D S B A A A ",
"S S F D S S S V S S A S D D S S A A A A A D D D D F D D F F d F F F D S F F d f f d f f f f d e r f r r r r e e e e e e w e w w e w w e e e w e e f r e f f r e f f g g g S S j S S g g D D S S D S S S S S D D D S Z A A S S S S A S S S S D S A S S D S A S S S S D S D D S D S S S A S S S D D S f S D S D D D D S D F g f F D D S S S S S D D g S S D g g f e w r S S D g r e w w f S S D S S S S g g g g S D S D S S g h A S A A A S D D D D g g f S D D F F D S S S S S D D D D D D D D D S S S D D S A S S A D S A A S S ",
"S S S g S S V C S S A D S S Z + Z A A A Z A D D D D D D D D F G F D F D D D g g f f g g f g f e d r r e e e w w e e e w e e e w w e q w e w e r e e r r f f r f g g g g g D D g g D g D f D D D D D S D S S D F D D S A A S D S A A A A A S S S S S D D A S S D D D D D D D D S D D S A S A A S S S S S S D F D S S D S D D F F D D S S S D D F f g A S D S g f e e r S S S g e w w w r A S S S D S S h g g g S S S S S S f h A A S S A S S S D D g g f g D S D D S S S S A S D S A S S A S D S D G F D S D D D A A S A S S S S ",
"A S S D S D S S A A S S S D Z Z A A A S S A S D F F D D D D F F F F F F F F f g f f f D f f d d w d e w e w q e e e e w e e e w w e w y e r r e e e r r g h f r g r g g g h j S g D g D D D D S S D S D S S S D D S S S A S S A A A Z A A A S S A S D A A A S A S D D D S D D D D D D D S S A D S S S S D g D S D S A S S D F f D S D S S S S f F f S S S S f d e e e S S S f e w w w r S D S S D D D g g g h A A A S S D f g S S S S S S S S S D g h g D D A D S S D D S S S D S A S D D D D D D F A A D S D S S A S D S S S S ",
"S A O S S A A A A S S S S A A A A A Z A A A Z S D D S D S S S D F g D D F f g g h g g S g f r f e d e e e w q w w e w q w e e e e e r e r r r e e e r t g g r g g t g g h j S h g S g D D D h A A A S S S S D D S S S S S A A A A A C Z A A A A A A A A A Z S S S S S S S S S S S D D D S S S S S S A S D D S D D S A S S g f D S A S A S A A g g g S S D g g f e e r A A A f e e e e f S D S S D S S g f g h S S A S S D g g D S S A S S S S S S g g g S D g D S S D D D D S S S D D D S D S S S Z C D D S S S S S S S D A S S ",
"S S O S S A A A A A A A S S A A A Z Z S A A A S D S S S D S S D D D D D D S D g g g g S f f f r r r r e e w q 0 w w w e w e e e e e e e e w w e r r r r f f f g r e g g h A S h g D D D g S g g A A A S S S S D D S S A S A A S D S S S A Z A A S S S A A S S S D D D D D D D D S S S S S S S S A D S S S h S S A S S S S S h g S D S S S A S g g h S A A S g g r e g A A S g e r e e f D D S S S D f f t g g A A S S S g f g S A A A A A D D D D g D f S S S S D S S D D D D S F F D D G F D D S D D D S D S S S D D S S S S S ",
"S o S S S S A S A A S D S S A A A S D S S S S S A S D D D F D D F D D D S S S g g g g f f f f r r e e e e w 0 w r w w w w e e e e e e e e 0 0 r e r t r f f f e f e r g g h g g g D D g S S F f S S A A S S S D S S S A S S S D S S A S S A A S S A A A A S D S S S S S D D S S S A S S D S S D S S S S S h S D S S S S D S S S S D S D D S D g g g S A A S g f e e f S S S g r e e w f D D S S D D f f r g h D S S S g g g h D D D F D D A S D S f f f D S S g D D D D D D D D F D D F F F G G F F D D D D D D D D D S D D D D ",
"S A S S S D A S S S S D D D S D S A A S S S S S S D D D S S D D D D S S S S S h h g g g f r g r r e e e w w q r w e e w w w e e w w e w e 0 e t w r f r g g f e t f f g g g g S g D S S S S S g S A A A A A A A A A A S A S S S A S A A S A S A C A A A S S D S S S S S S S S A S S D S D S S S S S D S S S D D F F D F D D D D D D S A A S S g f g S S S g g g e e e S A A g r e e e f S D S D S D g r r f g D D D D f g g g F F F F F F S S D D f f f S S g f D D D D D D f F F D D F F F F G D D D D D D D D D D S S S S A S ",
"S S S D D D S A S S S D D S D S S D D D S S S S S S D S S S D D D D D D A S g h g g g g r g f e e f e e e w q w e e w q w q e e w w w w w e y e e r r f f f f w q d f f f f g D D D S S S S S g S S A S S A S A D F D D S S S D D D D Z A A S D S S O S S S S S S S S D S D S S D D D S S D S D S D D D S g D D D F D D D D f d D S S S D D g g g h S S S A j f e e r D S S f r r e w f S S D S A S f e r f f D S D S D f r f f D D D D F D S D S f f f D D g D S D D D D F D S S D D D D D D D S D D D S S S S D S S S S S S S ",
"D D D D D S S S S S S S S D S A S F F D D S S S D S D S D D D F F d S D S S f S g f g f r f f w e d e e e w w w w w w w q q w e w w w w w w w w e e e f f f f q w e r g f f g D D D S g D D D f D A A D S A S A D S S D D D D D D D S S S D S D S S D D D D D D F D D D D D D D D D D D D S D D D D D D D g f D F D D D D F F D D D D D D D S g g f S S Z S s d f e f D S S f r e e w d S S S S S D g f e r g S S D F f f w f f D D D D D D S D D f f f D D D f D F D D D D D S D D D F F D D D S D D D D D D D D S S S S S S D ",
"D D D D D S D D D D D D D S S S F F F D D F D D S A F F D D D F F D S S S S f F f g f f f f f w e f e e e e w w w q q q q q w w q w w w w w w w w e e e f f f q f r g g f f f D D D S g S S S D S S A D S S S S D S D D D D S S D D D D D S A S S S D D S D D D D D D D D D D D D D D D D D D D D D D D D D D D D D F F F D F D D D D D S D D f f f S F G d d f d w d D S D f e w w w f D S D S S D f f e e f D D F F d d w d d F F F D f F A D g f f f D F f f D D D F D F D D F D F F D D F D D D F D D D D D D D D S D D D S ",
"D D D D D D D D D D D D D D D D D D D D D D D S S A F F D D F F D D F A D F f D g f f f f f f e e f e w w w q w w w q q q q q q q q w q w q w w w w e e d f f w f t h g f f f D D D D g S S D S D D D D D D D S S S D D D D F F D D D D D D D S S D D D S D D D D F D D D D D D D D D D D D D D D D D D D D D D D F F F F F D D D D D D D D D f f f D D D g g f f e e S S D f e e w w f S S S S S D g f e f g D D D D F d w f f D D D D F F S S g f f f D F D f F D F D F D F D F D F F F D G D D F D D D D D D D D D S F s G D ",
"D S D F F F S S S S S S S S O S A A S D D D S S S D G D D D S D D D G g h S S h h h h g g r f e e f e w e e e e e e e e e e w e e e e e e e e e e e r t g t g g j l y h h g g S S A S S A A C h S A A S S A S A A Z A A S S S S S S S S A S S Z A S D F F D F D F F D D S S S S A S S S S D D S D D S A A A A S S S S S D A A A A A A S A A A g g g S S Z S g g g r r S A S g t t r e t A A S S S A g h t e w d D D D S g e f g D S o D D D D S g f f f D D S S S S A A S S S A S S S S D S A S D D S D F D D D D D S D 9 9 G G ",
"s H 9 9 9 9 a : s H G H J J J J J ; - 9 8 9 8 8 8 = 8 9 ; J J H a ; 9 9 s H : 9 9 9 9 0 9 9 8 8 8 9 9 8 8 9 5 9 9 8 8 8 4 8 5 9 5 9 0 9 5 9 5 9 9 9 9 9 9 9 9 9 0 0 9 9 9 0 0 0 : 0 : 0 9 9 a 9 9 : 9 9 : a : : : G : 9 8 8 8 8 - ; : : 9 : J H F J - ; : J J H : ; : ; ; - 8 - - - 8 = 8 - - : ; ; 9 p : H : ; ; ; 9 ; 9 : 9 a ; ; - - - 9 9 9 9 9 - 8 H 9 9 9 8 8 8 8 - ; 0 0 9 0 9 9 ; ; J J - ; 9 8 8 7 8 8 = = - J 0 9 9 8 8 8 - - 8 9 - a 9 9 9 9 9 9 : a a : : J J J ; : s J a H : H ; 8 ; ; ; 9 9 9 - 9 9 H a 9 a F F F ",
"s G G G F G D F F F D F F G F F G G G s s s G G G G G G G G s s s G G q a G s s s s s q s w q w w w w w w 0 0 0 q 0 0 0 0 6 9 6 0 9 0 0 0 0 0 0 0 0 0 0 q q q q q q q s s s q s s G f f d F D d F G G G F F G G s s H G F F F F F G G F G G G G F D D F G F G G G F G G G F G G G G G G G G F G G G G G G F F G G G G G G G d F D F D D D D d f w d D A A f f f e w e D S A s 0 0 q q q F D D D F s s q q q w d F F F F f w w d d G F G s G F f d w d f G G s a s H H H H H H s s H H H s H G G H H H H G G G s F G G F G G G G ",
"Z C Z C A G A A A A Z Z Z A Z A A A A Z A A A A A Z Z C Z C C C Z C C Z k C Z Z j j j h h h h y h h g t t r e y j y y y t y y y y y y t t r r r r r r t h t t g g g t h h h h h A A h j Z C C k C Z C C C V C V V V V V C C C C C C V C C V C C A N B B V V V V V V C Z C B V B B V V V V V V V V V V B V V V V V V V V V C C V V B V V V C Z k h j Z Z Z k j h t j k B B Z h h j t r l C C Z A A S g g f r r h A A Z A h g j k Z Z Z A h S A Z l l z z C A k V V V V V V V V V C V C C C V C C C C C C C Z Z Z Z A A A A Z Z Z ",
"D D D D a H S A D D D D D D D F D D D D D D F G G F G D D D D D F D F F g g D f f f f f d w w w e d e w w w q w w q q q q q q q q q q q q q w w w w w e f w w w f e w f f d f f f D D f D D D D D D D D D D D D D D F F F D D D D D D D D D D D D D D S S S D D D D D D D F D D D D D D D D D D D D D D D D F D D D D D D F f D D D S S S S f f t g g S S h d w q q q F F G d s s q 0 w g F G G F F d d w w q d F F F G d w d d G F F F f f F F g f d d F d F f S D D S D D D A D D D D F D D D S D D D D D D S D D S D D D D D ",
"D D S D G F S A S D D D S D S D D D D S D D F F F F D D F D D D D D D F g g g f f f f f f d e e f e e e e q w e e w q q w q q q q q w q w q w w w w w e d w e e d e e f d d f f f f f D D D D D D D D D D D S D D D F F D D D D S D D S D D D D S F D F D S D D D F D D D s Z D D D D D D D D D D D D D D S D D S S S D D D f g D S S A S S S g g g S S D f f f q q q d F D g d d w q q d D D D D f d d w q q d F F G F d d d d F F F F d d F F f e d d f D f G D S D D D D S A S D D D D D D D D D D D D D D A D D S S D F D F ",
"D D F D D S Z C S D S S o S S D D F D A F F F F F G D S F F D S D D D F D S D g f f f f f f f e d f e e e w w e r w 0 q w q q q w q w q q q q w e e e e e e e e e e e f d e f f f f f D D S D g S S S S S A A S S S D D D D D S D D A S D D F D D D D S S A S D D S D S S Z A D D D D S D S D S D S D D D D D D S S S S D g g g S A A A A A Z h f g A D D f f d e w w f D S f d d e w w d F D F F F d d w w q d F D D F d d d F F D F F d d F d d f f f g g h D d D S D S D D A D D D D D D D D D D D D S D D A S D S S D D D D ",
"D S D D D S Z S D S S S S D D S S S D F F D F F D F A D F F F D D D D f F g h g f f f r f e e w r f r e e w e e e q q q e q q q w w w q w q w w e w w e e e e e e e d f f e f g g D f D S S S D S S S S A A S S S S A S S S A S S S A S S S S D S D D S A A S S D S S S D D D S D D S S S D D D D S D D S S S D D S S S S S g h S S A A Z Z C g f d d D S g f f w q w f D D f w d e w w d F F D F G d f w w w w G F D F f f f F F D F d f d G d d d f f f D f g F F S S D D D S S D D S g D D S D D S S D D D S S D D S D D D D ",
"D S S D D D D S D S S S D D D S A D F F F F F D D S S F D D D S S D F f g f g h g g g r f e r e f f e e r w e r e w w q e w e q w w e w e e e w e e w w e e e e e e f g g f f f f f f g A S S S S S A S A A S S S A D A A A A S S S S S S S S D S D F F D D S S D D D S D D S S D S S D S D S D D D D A S S S A S S S S A S S A A A A A Z Z D d d d F D D D f d q q w h A D f e d d e e d F d F G d d d d w w w F F D F D f f D F f d f f d D s w d f g D f f S D D D A S S S S S A S S S S S S S S D S S D S S D D D S S S S S ",
"S S D S A A A A S D S S S S S S D D D F F G D D G H G D D g S Z Z D F D d f g j h h g r g f r r f f r e e w e e r e e w w e w w w e e e e e e e w e e e r w w e e e f g g f g g g S g g A S S S S S A A A A A S S A S S A A Z Z A A Z A S S A A A A A D S F F S D S D S S S S S S S S S S S D D S D D A D H s S A S S S S S S A S A A A C S F f g f D D F F d d w q e f D A f e f e w w d F d F F D f d d w w w F D D D g g g g f g f D g f g f d g h h D f f D D F D S S S S A S S S S S S S A S D D D S S S S D D S S A S S A ",
"S S S S S S S S D o D S S D S S F F F F F D D G S S D F F D D D A S S F D f f h j h h g g f g f g g f r e e e e r w w w w w w w e w w e e w e e e r e e e e w e e e f f f f g g g S S D S A S D S S A A Z A A A A A A S A A Z Z A Z Z A A A A A A S A S S D F D S S D D A S D S S S S S S S S D D S D A F H F C A S A S S S S A A A Z A C D D f g g F D D D D f e e q 0 H F g w f f e e f f f F F D f d w w w d F D D f S g g D g g g g g f f f f f h g f F F F D D S A A S S A S S S S D D D A A A S S S A S S A S S A S S S S ",
"D D D D D D S D F D S S D D D D F D D D S D G A Z F F F D D F G G F D S D D G d f g h f f d f t h f f f e e w e e e w w w w q w w w w w w w e w e r e e r e e e e r f d f f g g f D D g D S S S S A A A A S S S S A A S S Z A D A A S S D D S D D S A S S D F F S S S S S A A S S S S S S S S S D D S D F S C C A S S S A S S A A A A A A D D f d f D D D D D g e e 0 0 G D h d w d w e d f f F F F f d w w w f f f D D S F D S g f f f f f f d d d f f D f D S D D D S D D S S D D D S S S D D S S S A A S S S D S D D D S S D ",
"S S D D D D S D S D S S A S A D F D G F G H F Z F F F F F F D Z C F s G D D F s s s s f j g f r f g r f r w w e e w e w q e w q w w w q w w w w e e e r r e r e e e w f f f g g f D g g S S S S S S A S S S S S S S S S S A D F S D D S D D D D D D F D S D D D S A A S S S S S D S S S S S S D D D D D S Z C C S S S S S S S A A Z Z Z A S D f f f D D D F F D e e 0 w D A h r d d e d f f f F D D F f d w w d g f f F D F f D g F g f f f D f f d d f f F f D D D S D D D D S D D D D D D D S D D D S S D S S D D S S D D S S ",
"D S D S D S S S S S D S D D S S G D Z S F S Z F D D D D D F F D D S S G F F s F f h g e g j g r f f d d r w q w e w e w w e w w q w q w w e w w e e e e e w e e r q e g d d f g D f g g D D S S D D D S S S S S D S D S S S F D D F D D F D D D D D D D D D D D D G A S S D D D S S S S D S S D D D D D D g S S S S S S S S S A Z Z Z S D D D f f f D F F d F d e w w f Z C h e e e w e f f f F D D F f d e e d f F f f F f f F D f D g f f D g g f d d g f f D F D D S S D D S S D D D D D D S D D S S S D D S S S S S S S D D ",
"D D D D D S S S D D D D D D D D H S A D S A D D F D F F F G F F G d F D Z A D S d d f e s d d e w q d w w w q w w w w q w e 0 0 w q q w w w w w w w w w w w w e d f g e w w d f f D f D D D D F D D D D D D D D D D D S D S F F F F F F F D D D D D D S D D D D D S Z D D D D D D D D D D D D D D D D D D g D D D D D D D S D D f F G G F D F d f d F F F G s d w q w f S D w w e e e d d f f F F D D f d w w w f f F g F d D F d f F f f f D D g f f f f f f f F F D D D F D S D D D D D D D D D A D D D D D S S S D D D D D D ",
"D D D S D D D D D D D D D D D D S A S D D F F D D D F D F F F F F G F D D d d d s w d w d d s q d w w f w q w e w q w q w q 0 q e q q q q q w q q w q q w w w e d w w w d f f f f D g g S S S S S D D D D D D D D S S D S S F F F F D D F D F D D D D D F F F F D A S D D D D D S D S D D F F F D D D D D D D D D D D D D S D F D D S S D F F d d f F F F F F d w q w f F F w w w r r f f q f F F D F f d e w d D D D D D f g D D g g f f f F f f f f f g D D D f f D D D D D D D D D D D F F D D D D D D D D S D D D D D D D D ",
"A A A A S S A S S S S S S S S A A A A S F D S S S D S D D D F F G F G D D F F F f d S g f g g e f g f r r e w e r e e e r e e j y w e e w e e e r e e e e w q w f e e e f d d d d f f g D S S S F G F F F D F F F D D A C S S D F F D D D S D S S D D D D D F D S A S A S A Z Z Z Z Z A A A S S S S S S D D D D S A A A A S A A A Z Z A A A S g g g D D D D S D e w w g S S e e e w w w d f k D A S D f d w e f S D D g f d f F d f F f f f F d w s d d D g f D d G F D F F D D D D D D F F G F S A S A A A A A A A A G S Z A A ",
"a ; ; 9 9 9 ; - 8 8 9 8 8 8 8 8 - 9 9 ; 9 : J ; 9 9 - = J - - 8 9 8 9 0 9 8 8 9 9 8 9 s 9 9 9 9 9 9 9 8 8 8 8 8 8 9 9 0 8 4 0 9 8 4 8 5 8 4 8 8 8 8 8 8 8 9 8 9 9 8 8 8 8 8 9 9 0 : 0 9 ; ; : ; 9 : ; ; 9 8 9 - J J - J a - ; 9 8 8 8 8 8 9 8 9 8 9 9 - ; 9 9 - J G H H H J H : : J ; ; ; ; - - - - - 9 8 8 8 8 9 J G s 8 8 - ; 9 9 9 9 8 - 8 9 9 8 8 8 8 8 8 8 8 8 7 8 - 8 8 7 7 7 7 8 9 0 9 9 ; - 8 8 8 8 8 8 8 8 9 8 8 8 8 8 8 8 8 8 8 8 9 9 8 9 8 8 9 9 9 9 8 8 ; J - ; : H : 9 J J : ; - - H G : a H s : H G H H H F H H J ",
"H H H s G s G s G G G G G G s G G G G G F F F D F F G F F G H G s G F s a H > H a 9 9 F > s s w w w s q 0 0 0 0 0 0 w q q 0 0 9 6 9 9 0 6 9 0 0 0 0 0 0 0 0 0 0 q 0 0 q s q q q s G d d F F F F F G G F F F F F F F F S F G G G G G G F F F G G d G G s G G G G F D F D F F F F F G G G G G F F G G G G G G F F G G D F F G G G d F F D F G G s s s G G G G G G 0 0 0 s G G w w e w q w d d d d F D F d w w w d F D F d d d d G s s s s w s d d s w q w s s s s s s G G G G s s > s s G G G G G G G G G s H H H J ; ; : : H H : ",
"V B B B V C C C Z Z Z C Z C C C C C C C V Z Z Z C Z C Z Z C Z C C C C C C C C Z j h l k j j h h h g h g t y y j y y j l k k k y j y y y y t t r r e e r t t t t h g g g h y h h A Z A k C C C C Z Z Z A A A A A A Z Z Z S A S A Z A A Z Z Z Z A A A S S S A Z Z Z Z C Z C C C V C C C V V V C C C Z Z Z Z Z Z A Z A Z Z Z Z V V k z B C C C C C C C Z C Z A Z Z t r t j Z Z h t h h r h j g h A C C Z j h j q q Z Z Z j k j k Z k j Z k j h j j k k j k l Z j A h A Z Z Z A A A Z Z A A A A A A Z Z C C C V V B V C C C V B B V ",
"D D D D D D F F F F F D D D D D D D D D S D D S S F F F D D S S D D D F D D F D f w d d d f f f d d f w q q w w w q 0 w e w w q q q q q q q w w w w w w w e e e e e f f f f g g S D g g D D S D D D D D S D D D D D S D F G F D F F F D F F F F F F D F F F S S S D S S D D D D D D S D D D F D D D D D D D D D D F F D D F D D f D A F F F F f F D F F F F G G w q w d F F w w d e w w w w d d D D D f w e q g A S D f f f g F f d F F d d d d w w d f g S S S S S D D D D D S D D D D D D D D D D D D D D S S S S S D S D D D ",
"D D D D D D D D S D D S D S D S S S S S S A S S D D D D D D D D D D D D S S D D g w d f f f g g f e g w w w w w w w q q e w q q q q q q q q w w w w w w e e e d f w f w e f f D D D D f D D D D F D F D D D D D D S S D D D D D D D D D D F D D D D D D F F A S S D S S D S S S S D S S D D D D F D S D D D D D D D D D D D S S h A A D D D D F D D D D D F F F w w w f S D e e d w w e f w d F D S D g e d r j S D S g g f g D f F F F d d f d w w d f f g D D D S D D D D F D D D D D D D D D S S D D D D D S S S S D D S D F ",
"D D D D S S D D D D S S D S S S D D S S S A A S S S S S S D D D D D S D D f f f F d f f f f f d f e f w w e w w w w w q q e w q q q q q q q w w w w e e e e r e f e w 0 f e f D f D D D D D D F D D D D D D D D D D D D D F F D D D D D D D S D D D S S D D S S S S D S S S S S S D S S S S S S D D S S S D D D D S S D D D S S g S A D S S D g D D D D g D F F e e e g S D e w e e w e d w f F D D D f e w f h g S S g h g h A D D S F d d d d w w w e h D g D D D D D F D D D D D D D S D D D D D S S S D D S D S S S S D D D ",
"S S S A A A S D D D S S S S S S S S S S A A S A S A S A A A S S S S S S S D g f f d f g f g f e f f f w w e w w w q w q q w q q w w w w w q w w e e e w e r f e e r f t h e f D g S S h S S S D D S D S D D D S S D S D S S S S D D D D D S S S D F D S D D D S S A A S S A S A A S S A S S S S S D D F S D S S D D S g D S S D S D S S D S S g D D S S g S S D e e e g S S r e e e e r f e d F F D D g r f j g S S S g g g S A h g D D f d f d d d d f g g D S S S S S D D D g S S S D D D D D D D D S S S S A S A A A A S S S ",
"S S A S S D S S D F D D S S S D S S S S A A S S S S Z A Z Z Z A Z A S A S S f g f f f f f f g g g e f r e w w q q w w q q q w q q w w w w q w q w w e w w e e e r e f e f f f D D D S A A A S S S S S D S D S S S A S S S S A S D S D D S A S S S S D D D D D A S A A A A A S A A A S S S A A S S D D D S S D S S S A S D S S S S A A S S A A S S S D S D S S g r e e f D g f e r e e r g f f D D D S f e d g g S D S g g g S S S h D D d d f d d d w d h S D D D D S S D D g D D S S D D S S S S D D S S S S S D A A S S D S S ",
"S S S S D D S D D D D S S S D D S S S S A A S S S D S A A A A A Z A A A A S f g f f g f g g f g g r r r e w w w w w q 0 q q w q q w w q w q e w w w w e e r e e r e d f g d f D D S S S A S D S A D D S D D S S S A A S A S S D D D D S S S A S S S S A A S S A S S A A A S S S D D D S S S S Z A S S S S D S A A D S S S S S A h A A A A A A A S D S S D D S g e e e g S D f w e e e r f w d F D S D d d w g g g D D f g g h S S g D D f d f d d d f f S S F S D S D S S S S D F F S S S D S S D S D S S S S S A A S A A S S D ",
"S A S S D S S D S S S S S S S S S D S A A A A S S S A Z Z A Z A Z A A Z Z h g g S f f f f f f f f e e r f w w w w q w q w q w q q w w w q q e e e q w e e e e r w e f f f f f D D g S S S S S D S D D S S S S S D S S S A F D D D D D D D S S S A A S A S D S Z S D A S S S S D S S S S S D F F D S S S S S D D D D D D A A A S S S A A A A A D S S S S S S D S r e e h h h f e e f r r f r g D D S g f e f g g D S D g g g f D g g F G d d d d d d f f f D D S S S F D S D D D F S S S S D D D D S S S S S A A A S S A S A S S ",
"S S S A S S S S A S S A A S S A S S A S S S S S S S A S S A A A A A A A A Z h g S g f d D f g r r r w w r w w w w q q w q q w e q q q w q w w w w q e e w q e f e w f d d f g D D D F F D S S S S S S D S S D D S A S D A D D S S D D D D D D S S S D A A S D S Z S A D D S S S A A A A S A D F D S D D S Z A S S S S S S S A D D S S S A A A D S S D S S A S S r w r g g g r r f e e r r e f g D D g f f g f g F D D g f r f D g g D d d d f d f d d D S D D F F S F D S S F D D D S S D D S S D S D S S S A A S D S D S S D S ",
"S S S A S S S D S S S S S A A S S S S D S S A A A S A S S A S S A A Z A A A g f g g f f D f f e r r r w w w e w w q w q w w e q 9 0 0 w q w e w e q e e w w w r e w f d d S g D D D g D S A A S S D D S S D D D S S S S S D D D S D D S S S S S D S S S S D D F D S S D S S S S S S S S S S S F D D D D D S Z A D D S S A A S D S D S A A D D S S D D D D S A A r w e g g g t r r e r r f r g S S S g g t f f D D D D h f r g g f g S S f f f f d w d f D D D F F D D D D D D S D S S S S S S S S S S A S S S S S S S S S S S S ",
"D S S S S S D D S A S A S A A S A S A Z Z S A A A Z A A A Z A A A A A Z Z A g f f f f f D f d d e e e e w w q w e w q w e w e 0 9 0 q e q w w w w w e e e f f f w w d f g g g D D g D D S S A S S S S C A S A D D A S D D S S D G F D S S D D S S D D D D D F F F S A D D S A D D D D S S D D D S D D D D F F S D D D D S S D D D D S S S S S A S D S D A D F G w w e g g g f e f f f f g r h A A A S t r f f g D D D f f r f g f f D S h g g f f e g g g S S F D S S S g D D D S S S S S D S S S S S D S S S A S A S S S A S S ",
"A S D S A D D S S D S A S A A S S S S A S S S A A A A S A A A A A Z Z A C S f f f f F d d f f e e w e w w q w q w w q q e w e q q w e r w q w e w e e r r e f r w d f f f F f F f f D S S F S D S S S S S D S S S S A A S D D D F D D D S S F D F D S A S D F D D S D D S S S S A A A S S D D S D D D D D D D F F D S S A S D D S D D S S A A A A S A A Z F F F t e r g g g f f f g f g r w f S S S g f e d d f f d f f r e f f d f D f g f d f f f g g S S S D D S S h S D D D S S S S S S S S S S D S D S S S S S A S S S A S ",
"S S D S S D D A A S A A S S A S S S S S A S A A A A Z Z A S A S A A A A A D f f f f F d d f f e t e r w w w w w e e w w w w e w r t y r q q e w e e r e e e e e w d f f g D D D D D D D D D D D S D D D S S S S D D S D D S D D S D D S D D D F D D D D D D F F G D A S A S D D S A A A S S S S D D D S S S S S D D A S A S D D S A S D S S S S g S S S A S D S h r w f f f g f g f d f f e g D S A g e w w d f f g D f d e f f f g g f f g f g g g d f g D S S S S h S S D D D D D D D S S S D D D S D D S A S S S S S S S S S ",
"D D D S S S S A A D S S S A A S A S S S S A A A A A A A A Z A A A Z Z Z Z S g f f g g f f e f g t e r w w e e e e w w w e w w w w e e w q w e e r r r r r e e w w w d g h D D D S D D D D S S D F D D D D D D D D D S D D D F D S F D S D D D D D F F G D D F D F D A Z A S D D S S S D D S A D S S D D S D S D D D A S S S S D S S D F D S S S S S A A Z A A V k r r g g g f r g g f f g r g S S A D r e e f f f D D g r e e f f g D g f f g g e f f f g D S S S D A A A D F D D D S D D S D D D S S D D A S D D D D S S D D D ",
"C Z Z Z Z C Z C C Z Z C Z C Z Z C C C C C C C C C C C V V B V V C C V V V C h h h h j h g y h j j h h y j y t r r r r e r e e e e e e e e e e r r t r y h t t t g r g h h S A A A A A A A Z S h Z Z A Z Z Z Z Z Z Z Z A + Z Z Z Z A A A A A A S A A Z A A Z Z C C Z A Z V V C C Z A S S A A A A A Z A A A S S S S D A A Z A A A S A Z Z Z Z C C C C C C C V B V h y j k l j h h j j j h g g j Z C C k j y h j j j A Z k g t t h h A A j h h k g q w g h A Z A A j A A A A Z Z A A A A A Z Z Z Z Z Z Z A N C Z Z C C Z Z Z C C Z ",
"C C Z A A S A A S S A A A A A A A A A A A A Z C C C C V B V V V C V V C C C h h h h j j h h h h j y t y y t y j j y r t y y y t r t y r r r r h t t r r t r r g f r h h j Z A S A S A A A Z Z A Z Z Z Z Z C C C C V V V C C Z Z Z Z Z A Z A D S A Z Z C Z Z A A A Z Z Z Z A S Z Z A A C Z A A A A Z C Z C Z Z C Z A B C C C Z Z A Z C C Z Z C Z Z Z Z Z C C C C j k k k k j j j k k l j h t j Z Z Z k j y j g h g S S g t t t h j j A A h h k g e r l z j Z Z Z A Z C Z C C Z C Z Z Z Z C C Z Z C C Z C B Z Z Z A Z Z A S A C Z ",
"A A S D D D D S S D D D g S S S S S S S S S S S S A A A Z C C C Z Z Z A A A f f D f f D f f g h t r r r r e r r t r e e r r e e e w w 0 q w w e w e e e r e e f f f f f g D f D D g S S S D g g D D D D S S S S D S A S F D S S D D D D S D G F D D D S S D F D D F F D H ; H G F s F D D S D S D D S S S S D D S A S D D S S D D D S S D S S D D D D D D D S A g r r f g f f g g g g g g e f S S S g d w w 0 g h S S f e w w f f f F f f f g d w f l h D D D D d D S D A A S S A S D D S S D D S S D C A A D D D S S S A D S A ",
"S S D S D D D S S D F D g S D S D S S S S S S S A A D S S S S S S S S D D A g f g g g S h g g j y r r r r e w e e e e e r e e w e w q 0 0 w q q w e w r w q w r d e f g g D f D D g S S S g D D D D F S G G S D S S S S S S A D D S D D D D D D S D F D D F D S D D D S H G D S S F S D S S S S S D D F D D D D S S D S A S D D F D S D F D D D D D F D D D D A g e e g g f r f g h g h g r h S S S g e e e q j h g S g r e e f g f g g g f f g f j z g S D D D F F S S D s Z S S S S S D S D S S D S C S S S S S S S S D D D S ",
"D S S S S S S S A S S S D A S D S S S S S S S S A A S D S S S S A A S A S A S h g h S S g g g g r r r e e e e r e e e e e e e e e w w w e e e w e e w e r e e r g r f g g D f D g g S S S S g D D D F D G D Z D S S S S A A S F D D F D D D S S S S S S D D D S D D S A F D S C V D S S S S D S D S F F D D S S S A A A S S S D D S D D D D D D D D D D S S S S g r r g f f t g S g d f g r g S D D g r e e t h f g D g e e r f f d D g f f g g e r f f D S D D f F S S F D C D D D S D D D D D F D S Z A S S S S S S S S S D S ",
"S S S S S S S A S S A A g D S S A S D S S S S A Z A A S A S S S A Z A A S A h h h h h S g g g f e e r r r e e e e e e e r e w w e w w w w e e w e e t h t r r t g g f w f D D S D f F D D A S D F F D S S C S D S S A S S A D F D F D D S D D D S S S S D D S D S D D D D S Z Z D D S D D S D D S D F F D D S S A S A S D S S D D S S D S D D D D F D D D D D D f r e f g r r g A F d f f e g S S D f e w w e f f g g d w e d d d f f f f f f f d f w f D D D F F F D D D A S F D F F D D A D G F F Z S S S D D D D S S S D S S ",
"S D D D S S S S S S S S S S S S S S S S D S S A A A A A A A D S A A A S A A g h A h h S g g g g r e r r r r e r e e e r t e e e w w e e e e w w w e r r r e r r g g f d f D f D D f D S D A D D D D D F D D S D S S S S S S S D F D S D D D D S S S S S S S S D D D S S D S S D D D S S S S D D S F F F D F F D D S S D A A A D D S S S S D D f D D D S S D D D f f e f g r r g S F F f g r h S S S S f r r e r f g g f e e f d d f D f f f f f f g f f F F D G g D F D D D F F G S C A A Z A F F S Z D D D S D D D S D D D D D ",
"D S D D D D D D D D D D D D S S D D S S D D S S D A A A S S D D D A S h S A h g S h g S g g g g r e e e e e e e w t t t e e e e e e w w w w w w w e r f r r t f g f g g f D g g D F Z D S S S D D F F S S S S S S S S D S S D D D D F F D D D D S S D S D F D D F D D D D D D F D D D S S S S D F F D D D D D D D D A S A A A S S S S D S S D f g D D F F F F F f f d f g e e f D D g d e e f D D S g f r e e e f f g f e r f f f g d f f f f g f d g g D D F F F D D F D G F A S D D f D S A D F D Z D D D D D S D D D D F D S ",
"S S S S D D F D D D D D D D D S S D S D D D D D D S S S S S D D D S D g S S f g g f g g S g f f e e r e e e e w r t w e e w e w e e w e w w e q e e r g e e r g h e f f g f g g S Z A F S g D D D D D D S D S S S S S D S S S S S S S D D D S S S D S S D D D D F D D S S D D D D D S S S A A S D D D S S S D D S S S S A A A S h S S D D D F F d f D D F F F D f d d d f w d f F D f d e w g g D D S f r r e t f f g d e e d f D g f f f f D g r f g h S S D F d F D D D F D S D D D F F D A S F D C D D S S S S D S D D D S S ",
"S S S S S A D A S S S D S A S A S S A S S A A S S S A S S S S S S S S S A D g g g f g S S g g g r w r r e e e w k e e r r e r e e e e w e w e w e e g g r e r f g f g g g g g g g S D S S S D F F D D D S D D F D D D A S S A S S S D D D D D D D S A S S S S D S S S S D D D F D S S S S S S D D D S S S D S S A Z A A Z A A S S h S S S S D F f f F D D D D D f f f g f r e f S S g f e w r h S S S g e r e e d d f f e e f D f f D f e e g g e f g g S D G D h S D D D A S D D D S D D D S D F D Z F F D S S S S D S S D A A ",
"S S A S S A A A A S S S S A A A A A S S S S A A S A A S S D S S S A A D F S g g g f g D g g f e r r r r r r w e r w w e e w e e e e e e e e e e e e r g r r r g g g f g g D k g f F S S S D D D G F D D D S D D D S S D S D D D S S D S S D D D A A S S S D S D D D S A A D S D S A S S S S S S S D D S A S A D S A A S A A A A S h S A S S D D f f D D D S S D f g f f g g g g D S h f e r f h A S A h f r r r r g g f r t g g f g f g e r f g r f g h S S D S A g D S S F D S S D D D D D S F G F F G D A S D S S S A A S S A ",
"A S S S S S A Z D D D o S S A S S A S A D S S S S A A S D S D D S A A D D C D g g g f g g r f f e e r e r r q r r w e e e e e e w e e w e w e w e e e t e e e g f g g g f Z k f A S S D S D g D F D S S S S S D S D D S A D D D S D D S S S S A A A S S S A D D S A S D S A S S S A S S S S D S S S S S S S S S S A A S A A A S h j S g S S D D f D D D S D D A f g g f g f f D D S h r e e f g S S S g g r e e e f f f r f g g g g S g e f g f f f f g S D S S F D D D D D D D D D S S S S S F G F D D A C S S S A A A A A S A ",
"A A S S S D F F f F F D F D S S A S S S S A S D S S S D D D D S S S S D A S D D g g g g f f g g r e w w w w e y w e w w w w e w e w e e w e e w e e e r e r e f f r h f f g D g S D D S S D D F S S D D S S S A S D S S S D A A S S S S A A S A S D S A S D D D D S Z D S A S S S A D S S A A S S S S A S S A A S A A A Z Z Z S g g S S D S D S D g D D S S S S g f r f g f f g D D g f e e f f D D D g f e w w e d f e e e f g g f g d e w f f e e g g A S A D f D D F D D D F D D S S D D D D F D Z A C A D S S A A A A A A A ",
"D D S S A D D D g D D D D D D A A S S D S S D S S D S S S S D D S S D D D D f f g f f f f f f r w q 0 e k l k e e e w w w w w w q w w e e e t w e e f e r t r g h g g f f F D f D S D S S S S F D S S D D D D D S S S A A A A S A S S D S S S D D D S A D F D D D S A S S A S S D A S D S S S A A S D A S S A A A A S A A Z A D f g S S D S S D f f F F D D D D g g r f f f f g S D f r e e f d D D D g f f e e d f f f f g g f f f f d w w d d w e g f S A F D d d F D D D D D D D D D D D D F G F C A D D S S S S A A S A A A ",
"D D F D D D D D F f D F F F D D S D D S D D D S D S S D S S D F D S S D D D f g f f f f f d f w q e j k r e w w w w w w w w w w q w w e e w r e e e f e e e e r g f f g g D D g S S S D D D D F D D S S F D D D A S A Z D D S S S S D S S S S D D A A D D D S S S A Z A Z A A A S A S A S S S S S S S S A A D S S S D A A A S S g g g S S S D D f f D D D D D D f f e f f f f g F D g e 0 q g g D D S f e f e e f f d d e f f D f D D d q w f d d f g h S A D F D f D D S S D S D F D F D D S D G F A D D S S S S A A S S D S S ",
"A A S S D D D D F f D S S D S D S S A A A S A S A A A S S S D D S A A S g D S g g g f g f f f d j k t r e e r r e e e e e e e e w e e w w e e w e r r r e e e e g g g h j A S S D D S D S D D D S A S S D S S D A A A S D F F D D D D S S S S S A S S S D F D D D A S S A Z S S A S S S S A S S S S S D S A A S A S S A A S A S g g g S S S D S D f D D D F D D f e e e f r f f D D g w 0 e h f S S S g r f e e r f d d f f f f g D D f w e f f f f g g S D S A S A A Z Z A A A S D F F D S S S D G S A S S S S S A D D S D S A ",
"C C C Z Z Z Z C C Z C C C C C C C V V V C C V V Z C V V V Z j Z Z C C C k C C C k j j j h j g h z j y h y y y y t y r t y y y y j y y r t y y j j y y y t y y y k k k j j k C k j Z Z C V V V C C V C Z Z C C V B V A Z Z Z Z C C Z A Z V Z Z Z C C C V C Z Z Z V C C C C C C C V C C Z C C C Z C C V C C V V C C Z C C V C C k k C C Z Z C C C Z k Z C C Z Z Z h y t h j h j k C C j h t z x k C C C k j j u h h g j h j j k k Z Z Z k y y y j j k j k C C Z V k C V V V C C V C C C C C V C C Z A Z B C C C V C S A B Z C C C ",
"A S A S S A A Z Z A A Z Z A Z Z A A A A A A Z V C Z C C C Z Z Z Z Z A S h A A s d h h h j h h l h y y h t t h y y r e r r t r t y t t r e r y e e y r r t r h t t y h g h h k C C Z Z A C C Z Z Z C Z Z Z C C Z A S A C Z C Z Z A C Z A A Z A A A Z C C V C Z C C C C C C V C Z Z Z Z C C V V V B V V V C A Z Z Z Z S S A Z Z A S A A Z C Z Z A A A j C C k S S h h h h j j j k C Z h t t j h j Z Z A h h j t j t q j g g h h S S A A A g r t t t g g g A S S Z Z C C Z Z Z Z Z A A Z A A A Z Z C S Z V A A A Z C C N B A Z Z Z ",
"S D D S A S D S S O S S A A S A S D D S S A D D A S S S A A D D D S D D h h A d f k f g g f g t e w e r e r g r e w w e e e e e e e e w e r r 0 e j e e e r g e w e f f f f f g D D D S S A A Z Z S S A S D D F G F D Z Z D D D D D S S D D D D D F D D S D D S A A A A A A S D S D D S A S S S A S D A F s G D A D D S S S S S S A h g S S A S g f D h A g D F d f d e f r e g h g f e e w e g g S g f f f e e r h j f r f f f f D D S f e e r r r g g S S S D S S D D S D D S S S S D D S S S S S D A S D S A A A S S D S S D ",
"D S S S A S O A S A A A A A S S S D D S S D F D S D A A S S S S S S S D h g S h j S f f d f g e e f w e w e e w w e e w w w w w w w e e e w e e k j e r e e f e e d f f f d f d d G F f F G D F D A S D D S D F D D D A D S F F F F F D F F S D S F D S F G F D D D D D D D D D F D D D A S S S A S D S F s D S S F D D F S D S S h h S S S A S h h S S S g D g e e r e e e e f f g r e e e f g f f D f f f e e r f f f f f f f f F D S f e r r r g g g S S S D D D D D S S D S S S S S A A S A S S A A A A A A A A S S A A S S ",
"S S S D S S D S A S S D D D S S S S D A D D D D S S S S F D D S S A A D S S S g f D g g d g r e r g e e w w e w w e w w w e w w w e e e e e e e r e e e r r e w w w f f f f g d f G F F G G D D F D F F S S D S S D F D A A D D D D F F G F A A D S S S S S S S S D D S S S S S D D S S S S S S S S S S D F Z V Z D D F F S S S g S S S D S S D D h S S S g g f e e r w e w e f f f r e e w e g f g D f f f e e e f f f e f f D D D S A g t g t g h g g S S S S D S S S D S S S S S A A S S A A A A A S A A A A A A A A A S S S ",
"D D S S S A S A A A S S A A A A A A A S D S S D D D D D D D D D A S A A S S S S h h h g g g r r r t t e r r e e e t e e e w w w e e e r e w e e r r e e t g r w f d f f g g g F F F F d F D D F D D S S S S D D D D F A S S S D S D F D D D S A A S S D D D S D D D S S D D D D D D S D S S D S S D D S S A A C D F S S S S g g S S h S S S S S S h S S D S D d d w w e e w e d f f e e e w f g f D D g d d e e e r f e f f g g D S S D g r r f t f g g S D D S S g S S A A A S S S S A A A A A A S A S S D S S A A A S S S S S ",
"D D S D D S S A A A S A A S D D D S S S S D S D D D D D D D D D A S S A S g S S S h g g S f f e r r r e e e w w e e e w e w w e w e r r w w e e e t r r t f e e r f f f d s D g D F G G F D D D S D D D S S S S D d D D D D D D S D S F D D D S S A A D F D S A D F D S A D S S S D D F D S S S S A A S S A D D D D F F O S D D S S S S S S A S S S D S D D F F d e e w e w e r f f e w e e f d f g D f f g r r r r f g g f g f D S D g f e r f f f f g D D D D D S S S S S S A S A S S A S S S S D S A S S A A A S D S S D D D ",
"S S A D S S A A A S D D D F D F F F D D D D D D S D S D F D F D Z A D S A h D f F g g f F d d e r e w w w q w e e e w w e w e e w e e q q e e w q e r t e e w w w d f d g f f f S g G G D D S S S S D S S D S D S D D D S S D F D D S D S D F A S A S D D D D F G D S D D D D S D S S S S D D S S A S S A A S S S S S S S Z S A S S h S S D A S D D S S D D D D f e e w r e e r f g e e r e f d d D D f f e r e e d g f e d f f g D D h f e f g g h g g D S D S S S S S D D S S S S S S A A A S S S S S A A F F A S S D D S D S ",
"S S D D S S A S D D D D D D D G D D D D S D D S S D S D D F F F Z A S S S g S d g j f f f g f e e r e e w w e r r r e e e e r e e w q w q q w 9 q w w e w w w w f f f f g f g d D g D D D D D D D D S S g F D D F D D S S S S D D S S D S D F S F D D F D F F F F F S D F D F D F D D S D D D D D S D S S S A D F D D S S S D D D g g S D D S S S S S F D S f f f q e e e w e r f f e w w e f d f D F d f f r e w g f d w e g D D D S g f e f g f f g g S D S A A S S S S S S S S S S A A A S S A A S S A F G S A S S S S D S S ",
"S S S A D D S D A A S S D D D F F D D S S D D D D D D D D D D F F S A S S g S h k h g g f g f w r r e e w e e e w w w w w w w q w q w w w w w q e e w e e e e e f f d d f f g g D D D D D D D F F D D D D S S D D D D D D D D D F G S D D F G D D D D D F F D D D D S D F F F F D D F D D F F D D D D A D S S S D D D D D S S D D D D D D D D D D D S D D D d d w w e e 9 9 e w d d w w w w f f d d F d d f r w w g d d e d g D D D S D d e f g r d f f D F D D D D S S D D S S S S A S S S A S A S S S A D D Z C S S S S S S D ",
"S S S S S S S A S S S D S S S S D D D S D D D D S D D D D D D D D D Z S D S A g g j h g g f f e r r e e r e w w w q q w w q q q q w w q w w w w w w e r r w e w d d f g g f D D D D S D F D D D D D D S D D D S D D D S D S S D D F D D F F G D S F G D D F F F F F F F D D D F D D D D D F D S S S S S S D S S S D D D S D S O F H G F S D D S D g S S D D f f d f e w w r t q q w w w e w w w w d F s s d e w r f g f r f f D D S D D d e f f d e g g S D D D S g S D D D D D S S S D D S S S D D D D D D A C A D S D D S S S ",
"S A S S S D S A D D S S S S S D D D D D S S S S S S S D D D D D D g S A A A A D g f f f g f f r f r r r e w w e w w q q q q q q q w w w q w w w w w w e e w w e f f f g f g g S D g D D D D D S S S Z A S S D D D S D F D A A S F D D D D D D F S D D D D D D F D F F F D D F D D D D D D D D S A S S S S S D D D F g S S D S A G H F A Z S S S D D D S D D D F f d w w w e e e d e w q e r f d w g S g f w d g g f g f r f g D S D D D f f f f f d g g S S S S S S S D D D D S S S S S S S S S D D D D D D S S D D D D D D S S ",
"S S D D D D D S D S S S D D D D D D D D D D D S D D D D F D D D F D F D A S S g g f d d w e g e f r e e w q w e w w q q w q 0 q q q w w 0 q w e q e w e e q e f g d f f f g g g D g D D D D S S D S C Z D D S D D D D D S S A S S S D D D D D D F S D D D D D F D D D D F D F F D F F D D D D D S S S S A S S S S S S S S S D A G d S Z A S D S f g D D D D D D g f e w w w e d e e w q e e f d f h F f f f f g e f f f e e f f D D D D f f f f f d f f D D D D g D D F D D D D D S S S S D S S D D D D S S S S S D D D D D D S ",
"D D D D S S S S D D D S D D D D D D D D D D D D D D D D F F F F F F F F F S S f f f f d d d f e e e e w w q q w q w q q q q q q 0 0 q q q w w w w w w r w w e d f f f f f f f g D D D D F D D D F F D D F F D D D F F S D D S D D D D D D D F D F D D F D F D F D F D F G F F F F F F F F F D D S D D S D S D S S S D S D D D D D A A C k f D D f f F D D D D D D f e w e w w d d e w q w e f d f g D f f d w d e f f D e f f f D D D D f f f f d e d f D F D D D D D D D F D D D D S S D D D D D D D D D D D D D D D D D D D D ",
"D D D D S S S S D D D S S D D D D D D D D D D S S D D D D D F D D D F F F D F d f d f d d d w d w w w w w q q q q w q q w q q 0 q q w q q w q q q w w e q w w w f d d f f F F D f F D D F F F D F F F F D D F D D D D D D D S D D S S S S S D D F F D D D F D F D F F D F G F F D D D D F F F D D D D F F D F D D D F D D D D D S A k Z D D D D D f f D D F D D f f d w w w e d d e q w w d f d d g f d w f f f d w F F f s f f f D D D f f f f d e f f F F F D f f D D D D D D D D D D D D D D D D D F F F D D D D D D D D D D ",
"S S D D D D D S S S S F F D D D D D D D D D F F F D D F G G G G s s D Z A S S h g g g g g g g r t r t r e e e e e e e e w w w w w e e w w e e e w e e e e r r r g g g g g D D g D S S A S S S S S A A S S S A S S A S A S D D S S S S D F D D S A A A A A S S S S S S S S S S A S D S F D S D A S S S S A S S S D D D D D D F D D D D F G s s s s s d F D D D D D g f e e e w s w w q w e d S g d f D g t g r g g f g h g g k g g S S D d s d f d r q 0 S S D S S S S A A S A A S S S S D D D D D S S S S A S S A S S S S S D D ",
"8 8 8 7 8 8 8 8 8 8 8 = - - 8 7 = 8 8 8 8 8 8 7 7 7 8 8 7 7 7 7 8 8 8 8 8 8 8 8 8 8 8 8 8 8 8 8 8 8 8 8 8 8 3 8 8 3 7 3 7 3 8 3 7 3 3 8 3 8 4 8 4 8 9 9 8 8 9 9 8 8 8 8 8 8 8 8 8 : 8 8 8 8 = = = 8 J - 7 7 8 8 8 7 8 8 7 7 8 8 ; J 7 7 8 8 8 7 J a 9 8 8 8 8 8 7 7 7 8 7 8 8 9 8 8 8 7 ; 8 - ; 8 - 9 ; 9 8 8 8 7 8 8 9 9 8 8 8 8 - 7 - 8 9 8 9 8 8 8 - 8 8 9 7 8 8 8 8 8 8 0 8 8 7 7 3 7 8 8 8 7 7 = 8 8 8 8 8 8 8 8 8 8 8 8 7 7 7 7 7 U 8 8 8 8 8 7 8 : 9 8 9 8 8 9 8 8 8 9 - = 8 8 7 U 7 7 7 7 8 8 8 8 8 8 7 7 U 8 8 8 = = 8 ",
"A A Z Z Z A Z Z A Z C V V Z Z Z Z C Z Z Z Z Z A A A A A S S S A C Z S S f F F d d f d d d d d d d w q q q w q w w q q q w w w q w w w e e w q 0 q q q q q q q w w q s s d f D f F D F d F F F D D F D S D D S S A S A A A Z Z Z Z A S S D D A A S A A A A A Z Z A A A A S S S A A S S S S D S S D S D D D A S S D D D S A A A D D D F S g g A A A A h A S S A A A A h r g r g h h g t y g h h h g f S t r e e r r g S S g f f g h A A S h h A h h g h z B A A Z Z A A A A S S A A S S S S S S D S D D S S S S A D F B C S S S A ",
"A A A S S S A A A A A C A A A A S S S S S S S S A A A A A Z C C A S A A A h A S A k j j j j j j h y j j j j y j y r e e t r e r e e r r e r y y y u j y j j j k j j k j j j k A Z V C C C V V C Z C A A Z A A S A A A A S S S A S A C C C Z C V V C Z Z S S S S S S A A S S S S A A S A A A A C C C C C C C Z S S S S A Z Z Z C V C V C C k Z Z A j j C C A A A A Z g t h h g h h k y r h h A h h j A j t r r g t g j Z j k j j A A S g f g S h h h h g S A S S S S S S A D A C C B Z Z Z Z Z C C Z A A S S A A A C V S S Z Z Z ",
"F F D F D D D D D D D D D F F F F D D D D D F D F F F F F S D D D S F F D S g D S h h h g g f f r e e w w w w w w w q 0 q 0 q q 0 q q q 0 q w q q w w w w w w w w w w w w d d d d S F F F F F D F F D F D D F F F F F D F D F D F D F F F D F S S F F D S F D D D F D F F F F F F D F D F F D D D F F F F F F F F F F F F D D D D F F F d d F D f f f D D D D D D F w w w w w d d w w w d d d d w F d q w w w w w d d F d d s s s G F F d w d d d d d d F F F D F F D D D G F Z Z A G F F F F F F F D D D F D F D F D F F F F F ",
"F D D F D D D D D D D D D F D D D F D D D F D F D F D F F D D D D D : : G D F s d f d d e d d d w w w w q q w w w q q 0 q q 0 q q 0 0 0 w q q q q q w w w w w w s w w w d d d d d S D F F F F F S D F F F F F F D F D D D D D D D D D F F F D D D D D F S D F F D F D D F F F F D F F F F D D D D D F F F F F F F F F D D D D D D F D f d f F F f d f D D F F F D F d w w w w d w d w w d d f d w F F q q d d d w w f F F d d d f F G d w d F F d w w e F F F D D F D F D F G F F G F D D D F F F D F D D D D D F F F F f F F F ",
"F F D D F F F D D D D S S D D F F D F F D D D D D F F D F D D D D F H F D A D d d f d d w f d d w w w w w w q w q q w q 0 q q q q q q q q q q w q w w w w w q q s w w w d d d d G D D F D F D D F F F F F F F F D F D D F F D D D D D G S F F F D S D D D S D F F F D D F F F F F F F F D F F D S S D F F F F F D D F F D D D D D D D f d f F f f f f F F f f F D D d w w w w d e w w w d f F d d d d w q q w d w d F F f d d d d F F d d d F F d w w e f F F F F F D F F D F G F F D D F D D D D D D D F D D F F F F F F D F D ",
"F D D D D D D D D D F F F F D F D D F D F D F F D F D D D D F D D D F F S A d d f f d d d d d d w w w w w w q w q q q q q q q q q q q q q q q q q w w w w w q w w w w d f d f F s D S f S S D F F G G F D F F D D F F D F D D D D D D S S D D D D D D D D S D D D D D F F F F F F S D D D D D D D D S D F D D F F F D D D D D D D D f f f f D D g f f D D f D D D D d w w w e d e e e w d d d d s d d w w q q q q w F D F f f f f D F f f f f D f d f f D f D D D F D F F F D D D D D D D F D f F D D F f F F F F D F F F D F F ",
"S S S S S S S S S S A S D D D D S S S S S S S S S S D S S S D D S S D S Z S F g S f g g g f f f r e g e e e w e w w w e e w e w w w e e w q w w w e r r e w e e f f f f f f f g F g Z S A S D D F D S S A S D S D D + A S S S A A A S S S A S S S S A A A A S S S S S S S S S S S S A A S S S S S S S Z S S S S S D A S S S A A A S S S g g S S j g h S S S g S S S r e e r r f t f r r g g D g f g g e e r f d w q F A S f f f g D g g f d f F f f f f S S S S S S S S S S S S S S S S S S g S S S S S S A A S S S D D D S S S ",
"G G G D D D F F F D F G s s H G G G H H H G G G G G s H G G F G H J J H G G G f F d d d s w w q q q q 0 q q 0 q q q 0 0 0 q 0 0 q q q q 0 0 0 q 0 0 e q q q q q q q q a 0 a q d a d A D G G s s G D F G d s G G G G F G G s G G G G G G G G G G G F F G F G F F F F F F F F G F F G G F F G G G G G s G F G G G F F G G H a H G G s 0 9 9 9 ; H a 9 0 a H : a > H a 0 0 q 0 q q q q q q d s a : 0 0 0 0 9 0 0 w q 0 9 H H H 0 0 a H 9 9 9 9 9 9 9 9 0 a H s > H H H H H a > a F F F D D D f D F F F F F D G ; G G F F F F F F F ",
"8 8 - - 8 8 9 - 7 7 8 7 7 7 7 7 8 * & * 7 = 9 8 8 p 9 - 9 ; a ; J J 9 8 8 8 8 8 8 8 8 8 8 8 8 8 8 8 8 8 8 8 8 4 8 4 3 8 2 8 8 8 3 7 2 2 2 7 3 8 2 8 8 4 8 3 8 8 8 7 8 8 7 8 8 8 7 9 s a H 8 8 8 - 8 8 = 7 8 8 8 = 8 K - - - - ; H 8 8 8 8 8 8 - - - 8 7 - - 7 - ; - - - ; - - - - 8 8 ; 9 - 9 9 : ; ; ; : : ; : s H J ; H J a H J 0 9 9 9 9 9 s 9 9 9 ; 9 - 9 9 9 8 8 8 9 9 9 9 8 9 8 8 9 8 8 8 8 8 8 8 8 8 7 8 8 8 8 = 9 8 8 9 9 ; 9 9 9 9 9 9 9 9 9 9 8 = 7 8 = 8 8 8 = 8 8 8 9 8 8 8 8 8 8 8 = = 8 8 8 7 8 : 8 8 = 7 7 8 8 8 ",
"C C V V V B C A A A Z Z Z Z C Z Z Z V V V V B B C C V V V Z Z C V B V V C C V l C l l l l k j j j k k j j y y y t t y y y y y y y y y j t k r r r y h j u k j k k j k l k j j Z A l B V B Z Z C A Z C C C C C C V @ C C V Z D A C B C C C C C C C V V V V V V V V B V V V C C C V V V V V V V V V V V V V V C V V V V V V V V B V z z l l l B B V l V V V V l z z l k j k k k k k l j k l k C k k l l j j h j j k k C V V V z l l V C C l l C C l l z z z V V V V V V V V C C V C C C C C V V V V C C V V B M N C V V V C V V C ",
"D S S A A A D S S D D S D D D S S S S S S S S D D F D D D F D S D F S D D D D F f f f g e d e e e w w w w w q w q w q q w q q q q q e w w e q w w w w w w w e g f r g g f f g S D g C C Z F S S S A A S S S S S D D D F F D S Z Z A F D D D D D D S S A S S S S S S A S D D S A Z Z A S S D S D S S D D D D D F D D D D F F D D D f f f d g S D D D f D D F f f g f e e f r e w w e w w w w d d w d d w q w w e w e D D D S f f f f F f d f f f f f g g D S S S S S D D D f D D D D D D D D D D S S D D D D F F D D S S S A A S ",
"F D D D D G F F F F G F F G F G F F F D F D D F F f F F D D S F H H S D D D F f f f d f f f e d f 0 r w w w w w w w q w w q w q q q q q 0 q q q q e w w q q w d d e f f d d d G d s G S D G F F F F F F F D F D D F D D D D D S S S D D D D F F F F F F F D F F F F D D D D D D D F F D D D D D D D D D D D D D D D D D D D D S D f f F d g f F D D F D D f f f s d w w d w w w e e q q w w F d d d f w q q w w w e f D F D D f D f f f f f D f f f F f F D D D F F F F F F D D f D D F D F F F D F F D D D D D D D F D D D D F ",
"D D D D D F F F F F F F F F F F D D D F D D D F F f F F D D F F G D A D D D F D f f d f f f f f e r r q w w w w w w w w q q q q q q q q q q q q w w w w w w e d w d d f f d d d F g F s s F F D F F F f F F D D F F D D D D D D S S S D F D S S D D D F D D F F D F D D D S D F F F F S S D D D D D D D D D D D D D D D D D D S D f f f f g S D D D f D D f f f f g w w d e e e w w q q w d : d f d f w w w w e e e D S D f f f D f g f g g g g D f f g D D D D o D D D f F D D D D D D D D D D D D D D D D D D D D D D D D D D ",
"D D D S D F F G F G G F F F F D D D D D D S D F F F F F D D D D D A A F D f F F f f f D f f e d d w q q w q w w w w q w w q q q q q q q q q q w q w w e w w w d d w d d d f d d F F g F G G F A F D F F D D D D F F D D D D D S S D S D D D S D D D F F D D F F F F D D S D D F F F F D D D S D D S S D S S D D S D D F D D D S D g D f d g S D D g f D D f d d f d w w d d e w w w w q e w F h e d f w q w w w e e g S F F d f F d f f d f g f d d d f g D D D S D D D D D D D D D D D D D F F F F F D D D F D D D D D D D D D ",
"D D D S F F F F F F F F F F F G F D F F F S D F F F F D D D D F F F F F F F F F f f f g e d d d e w w w w w q q w w w q w q q q q q q q 0 q q w w e e r e e e e e d d g g f f f D f F F D D A D D D D D S A S S F F F S D D F D D F D S D S D F D D F D D F D F G F D D D D D D F F F G F S D F D D D D S D F D D D D D D F D D D f F F f f D D g g f D D f d f f d w w d f e e w w q w e d F d w f f w w w w e e e D F F F d d F d d w w d f f f d f d D D D D S D S S S D D D D S D D D D D S D D D D D D D D D D D D D D D D ",
"C C Z Z A A Z A S A A Z A A Z A Z Z Z Z Z Z Z Z Z Z Z Z C Z Z Z Z Z Z A Z A S A S g g g g h j t t y t h t r w e e e w w w w q q q w e e e e e e e r r r r r r g r g f g h g h g h h A S A A A A Z Z A A C C C Z A S S S S A Z Z Z V A S A A A A S A A Z Z Z A A A Z A C Z A A Z A A A A Z V C C V C C Z Z A A A A A A A A A A A A h j j h j Z Z j j j Z Z j h h h h r r j j t r r e e e r g S g t h j t r t j y w w A A S S g S A g g h g h h S g g g g A C Z A A A A A A A A A A Z Z Z C C Z Z A A A Z Z Z Z Z Z Z Z Z Z Z Z Z ",
"C C A A S A D G F D S A A A S A Z Z A V C C C C Z Z Z C C C C C C V C C Z j Z Z A h h j h j j g t t t t e r r t t r e r r r t t r r r r r e e t r r r r e r t g r g g h j h j j A A Z Z j C C V V V Z V V V V V C C Z Z C C B B C B V A A C Z C C Z Z C @ C C Z Z Z Z Z C Z Z Z A Z Z Z Z C Z C C C C C C Z Z Z C C C Z Z Z C Z Z k k k h g A A j j j j A j j h h h r r h j y r t r r r t h A h g h j t r w e w 0 f k Z A Z j A Z j j h g j A A Z j h j A V C C C C C C C V V C C V C C C C Z Z V C Z C Z Z A A A Z Z A S Z Z C ",
"S S F F D F : a F D S F D D D S Z A D D S S S S D o S S Z C C Z A A S A D D D D g D g g g g r d e e r e e e e e e w w w q w w w w w q w q q q 0 q w w w q w e d d s d f d f f f D F F F D D D D S S S A A A Z Z S S A A S A S S S D D A D S S D S S D D D S D S S S D F D D D F F D D G F D A S S D D S S S S S S S D F D D D D D S g g g f g D g g g g g h g g g f e w f f e w w e e w e d g f e d f w q q q w w f h S D g f D D r f f g g D S S g g g F D S F S S S S A A A A Z Z S D D D F G F A A A Z A A A A D D D A A A S ",
"S S D D D F G F S Z D D F D S S S S S D D S S D S S S S A A S A A D D S S D D D D S g g g g f e e e e e r e e e w q q q q w q q q q w q w w q e e e e e e w e d d d d f f g f f f D D F D S D D D A Z S D A A Z A S Z A S S S A A S D D A F A D D D D D D D F F F D D D D D F F S D D D G F F D Z A A S D S S S S S S S D S D D D f f g g h A A h g h h h h f g g f w w f d w w w e w e r f g f e f f q q q w w w r g F D g g S S r f e w f D S S g g g F F D S S A A A S S S A S S S D S D D D D D Z A D F D D D F F D D S D D ",
"A D D S D D F S S S F D F F D S D S D S D D S D A S S S S S D S S S S f D g S h S S S h g g r r e e r r e r e e e q w w e w q q q q w q w w q q w e w f e w w e e f f f f f d f D D g F D S S S S D F D D D A S D D Z S S A A Z S A S D D S F S S D D D D D D F D D D D D D D D F S D D F F D F D C S G Z Z S S S S S S S S S S D f g g g g S S h g g h S D f f g f e e g f e w w e w w r g f r e f f e w q w e e e f g S S g S A d w e w d f D D f g j g D g S A S A S A A A S A S S S S D D F D F D G G G G F F F D D F F F S ",
"F D D D A D F D S F D S S D D D S S D S D S D S A S D S D D D S S D F d F D g S S D D f g g g e e w e e e e e e e e e e e w q q q q q w q q q q q q w e w w q e e r f g f g f g D D f D D D A S C F s C A A A S S C C Z A A A S S A A S F S D D S S S S S D D F D D D D D D D S D F D D D D D D F S s D V S S D D S S S S S S S D g D g d f S A h f f S S S g f h g e e g g e w e e e w r f f r e e f r e e r e e r h h S S h S A q 0 h e f g D S f f g h g d D A S A A A Z A A A A S S S A S D D D D F D F F D D F F D D D D S ",
"D D D D D D G G D S S S S S D S A S S S D D D A S D S S D D F D S F f d D f d f S g D f r f g e e w w w e e e e w e w w w q q 0 q q q w w w q w w w w w w q w f e d f f f g f D D D D D D S S F A F S Z D D F D S Z F S S S S S A S D D D F C D S A S S S D D D D D D D D D D D D D D G F F D F D D S V C g g g D S S S D S A S D D D D d g D S S f f g S g D g S h e e f g e w w w w w r f g e w e d e e e e w w e d f F f f D g f h y w d d f D f f f f f F D A Z Z Z Z A A Z Z A S A A S D D D S S S D D D D D F F F S S D S ",
"S S S D F G F F S D S D S D D A D S S A A S A Z A S A S S D D F F d d D D G D f S D g g r g g g e w q w w r w q w w q q q q 0 q q w q q q q q w w w w e w w w f e f f f f d f f f F F D S S A S F S Z A D D S A C S D D D D D S A S S D S S S D F S S S S D D D D D D D D D S S D D F D F D D D D F D F D g g D S S S D D D D D D D F F d f D D D f f f D D g g D f r e g f r w w e w e e g g r e e g e e r r r r f f f f f f S S f e e w d d F D g f g g h S A A Z C Z A S A C Z S S S S S S D D S D F F F D D D D S S D D A Z ",
"C C C Z C A A S C Z Z C C Z C C Z Z C C C V B V V C C C C C Z A C Z S Z Z Z Z k k C l l y j j j j r t t y y r r t t e e r r e r r e r w w e t y t t r t t t t h j j j j j j j k k A Z Z C Z C V Z Z V B B B B B V C C C A Z Z Z Z Z Z C C C Z A A V C Z C Z Z Z Z Z A Z Z Z Z Z Z Z A Z Z Z A S A A Z Z Z k k Z C Z Z C Z C Z Z Z C j j h j Z Z Z j j k j Z A j g h h t k k y y y y y r h j j h y h j t y j j j j j k k k k k C Z h g t t h h A A S g j j k k A Z Z C V C C C V C C C Z A Z Z Z Z A A Z A S A S A A Z C C Z C V ",
"Z A A A A D S A Z S A A Z Z C C A A S S C A A C V C C Z C C C C Z Z S S S A S g S A k k j j j h y t y t e r t r r e r e w e e e e e e e e e r y y r r r t t t h h j k j k k j k Z Z Z A Z A Z Z C S D A A A Z C C C Z C C Z A Z Z Z A Z Z A A S D A V C C C Z A Z Z Z A Z Z Z Z C Z Z Z Z C C C V Z Z C C Z Z Z Z A A S S S A A S A A j g g A A D f g k C j h g S j y y k k u t y t r e g g h g t t h t r t t t t h h h S h h A h f r e e w d D D D d d f g h j S Z Z A A A j A A Z Z S S A S S D D D D D D S S S S A A A A A Z ",
"F F F D F F D S D S D D D D S D S D D D D D D D S S D S A S F D D D d D F F F F g D F f e d r e w q w w 0 r r q 0 q w w w w w w w w w e q q e e w e e e w e e e f f f f d f g g D D D D D D D S D S D F G A S S S A S S S D D D D D D F D D F D D F A D S D D D S D F F D D D D D D D F D D F D D F S S A S D S S S S S D D D D D D g g d d A A h f e g g f f d f f e e g g r e e w w w f D F e w e r e w w e w e f f g D g f S f e e e w w d F D D d d f f d f f f f f f f f h S S D D S D F D D D D F F D D D F F F D S S S F ",
"F D F F D A A S S S D D D S D S D D D F F D D D S S D D D D D D D D d S D F F F f f f f f f e d w w e e r t w q q q 0 q q q q q q w q w q q w w w w w e w w e e g D e d f f d f D D F F D D D D D G S S S Z S S D A A S S D D D D D G H D F F D S F D S S D D D F F F G G F F D D D F F F D F D D F D S S D d f D D D D D D D F D D f f d f S S h g r g S f d f f d q w f f e w q w q w f g D e w w e w w w e e f f F D F f g S f d e e w w d F F d d f D F f d f f f F F d d D S S f F f F F F F F D D D D F S D F D G D F D D ",
"D D S S S D S S S S D D D D S S D D D D D D D S S S S S S S D D D D f D D D F F F g g g f g f f e w w q w q q q q q q q q q q q q q q w w w e w e w e e w w w e f f f f f f d f D D D D D D D S D H C S S D S D D A A S D D D D D F F D F F F D D S D S S D D D D F D F D F D D D D D D D D D D D S A A S S g D D D D D D D D D D F F f f h S S h g r g S h h h f d w w f f e q w w w w f g g e w w e w q w e r d f D S S h f H F e w w w w d D D d d F D f f f f f D g D F F F D D D D F f D F D F F D D D D D D F F G F D F F ",
"D D D S D S D S D S D D S S A S D D D f F D D D S D D D D D D F D D f D g D f f D D f g f f f f e q w q w w w q q q q q q 0 0 q q q q q q q w q w w e w w w w w f f d f f d f g D D D D D D D D D A Z D D D D D S D S D D F F F F G F F F F D F F D D D S D D F F F D F F F D F F D F F D S D D D S A S S g g D S D F D D D D F F F d d f g S S g f d g g g g h d d e w f g e q q q q w d f f w q q w q q w e f d f D S S g f s k r w e w w d F F d d d G F f f D f f f D D F F F f D F F F d F f D D D D D D D D D F F F D D F ",
"f F D D D D D D D D F D D D D D D S D D D D D D D S D D F D D D D D f F D F f f F F s F f d d d w q w q q w q q q q 0 q q 0 0 0 q q 0 q q w q q q q w w w w w w d d d d d d d d D D D F D F D D D F F F F F D D D D S D D D F F F F F F F D F F F D D F D D D F D F F F F F F F F D F F F D D F D F S S D g D D D D D D D D D D D D F s g j A S g g f g g g g g d d w w d f e q q q q w e f d w q q q q q q w f f f D D S f d D h w w w w d d f f f d d F D D f D D D F F F F G d F F F F F F F d F F F F F F D F F F F D D D S ",
"S D S D A S A A S F F D D F D D D F F G s H G G F F F F F Z D D D F D D D S g g S S D f g g g g r e e e r r e e e e w q q q q q q q w e w w w w w q w q w w w f f g g f g g f f F F d G s F F D S A S S S S A A A D S D F D D D D D D D S D D D D F D F D D D D S S D D D S S S S S D D D D S S A A A D D D F F G F D G F F G F F D D F d h S A h g d g h S h f f g r e g g r w q w w w f d w 0 0 q w q q w e f f h A S Z g f S D d d d e r g f g f d s G F D F G G F f D D D D D F F F F G F F F D D F D D D S S S S S S S S S ",
"9 9 - = 8 8 9 9 9 9 - 8 = 8 - - 8 8 = 9 9 = 8 - ; 9 8 8 9 J 9 9 8 8 8 9 : : 9 9 : ; 8 8 9 8 8 8 8 8 8 8 8 8 8 3 8 3 7 3 7 3 8 3 7 2 3 8 7 3 7 2 7 3 8 7 8 8 8 8 8 8 8 8 8 8 8 7 7 8 8 9 8 9 - 8 8 - ; ; - - - 9 9 8 9 7 = - 8 8 8 8 8 8 8 - - 8 - 8 8 ; 8 8 7 7 7 7 7 7 8 8 8 - 8 8 8 8 = = 9 9 - J = ; ; - - 8 8 8 8 8 8 8 = = - = 8 8 7 7 8 J : 9 9 9 ; 9 8 7 8 8 7 7 8 8 8 2 2 2 1 U 7 7 7 7 2 7 7 8 3 8 9 9 8 9 ; J : 8 8 - 9 8 8 8 8 8 9 9 9 8 8 8 8 - - - - ; : 9 9 8 - - 8 8 I 8 7 7 8 9 9 8 8 7 8 8 8 8 7 - = 8 H H n - ",
"Z Z Z Z Z A Z + Z A Z Z A A A C C C Z A Z Z A A S S S D D D D S Z Z Z A S D g g g D g g g f f f e w w w w e w w w q q w w w w e e e e w w w q q w q q q w w d d d d d d d f f f D F F D D D D D D D S S D S S A A A A S A Z Z A A S S S S A S A S D S A S A Z Z A A A A S S A A A A A S A S D D D D S A S A A S D D S D S A A S D D D g g f f D V j g f S A j f f f e e f g r w w w e r r f g e e r f e e e t g g j Z Z D f f D g r g f t r f g S D g S A S S D S S S S S A S D g D D D F D F F D F F D D D S S D S S Z Z A A A ",
"A A S S S S O A A S S S A A Z Z A A S D S S S A Z Z C Z Z C Z A A A S D D F f f f g g h k h j h r e e e r r e r e e e e e e e e w w w w w e e e e e w w e e f f f g h h h h h h S A A S A A Z Z A Z Z A A S A A Z Z C C C C C Z A A A A A A A A A A Z C V C Z Z Z C Z Z A S S S S S A A Z Z A Z Z A S C Z Z j A S S D D D D S S S S S h g g h F F j j k V V k g g h t t A j w e e r e r r f g r e t g r r t h j j j A A g g g S g e e r f r f D o D D D S D D g D D S S S A S S S S S D D S D D F F D D F D D F D S S A Z A Z A ",
"S S D D D D D D D D D D D D D D D D F D D F F F F F F F F D F F D F F f F f F f f f f g g f g r w w w w w w w q q q q q 0 0 0 q q q 0 q q q q q q q w w w w d d d d d d d d d d F F F D D F D F D D D F D D D F D D D S D S S D D D F F F F D D G G G F F F F D F d F D D F F F F F F F F D f F D D G D D F d d F F F F F D F D D F F d d d f f s q f A A G s w f f w w F D w r w q q w w d w q q w d w q w e w e g D D g f f F f w e e w w f d D D F D F D d d f D F D F F f D F F F F F D D F F F G G G G G F F G F D S D S A ",
"S S S D D D D D D D F D D D S D D D D D D D F F F D G F F F F F F F d F f f F D D d f f f e f e w w w q q w w 0 q q q q q q q w q q q q q q q q q q w w w w d f d w d d d d d F F F F F D F D F F D D D D F F D D F D D D D D S S S D F F D F F G F G F D D D D D F F F D F G G D F F F F F D F S D G D D F F F F d d F F F F F F G d F d d d F d w q d S G s w f f w w f F e w q q w e e w w q w e f e w w w w w d g D g g f f f e f d d f f d D D F D D D F f D D F D D F D D F F D D F D D D F D F G G G G F D D D F D D D D ",
"F D D D D F D D D F D F D D D D D D D D D D F D D F D F D D F D F f f F D f D g D g g f f r g f e w w w w w q q q q q q w q w w w q q q w w q w w q w w w d s d w w d d d d f f F F D D D D S S D D S S D F F F F D D D D D D S o A D F F D G G F F F F D S F S D D D F D F F F F F F F D D D D D D d D g D F F F D F F D D F D D D d F G s F D G s d F d F g f f f e w F F d q q q w e e w d w q e f w e w w d w d f S h g g D f f f f f f d f F D D S S S D f D S D D S S D D D F F D F F F F F F D F F F F F F F S S D D D F ",
"D D S D D D D D D D F D D D D D D D D D D F F F F F D F F D F F F F f D D f f g f g g f g r f g r r e w e w q 0 0 0 q w q 0 q w q w q w q q q q q q w w w d d d w e f f f d f f G F D S D D D D D D D D D D F G G F D D D D S S S A D F D F G G G b F D F D D S D S D D D D F F F F D D D F D D D D D D D D F G F F F D D D D D S f f F d s F G G s s F D S f d f f e e F D d w w w w e e e e w q d g e q q q q s d f g h g g f f e f f f d f F D S D S S D D f S S D S A D D S D F G F D F D D D D S D F F G G F F F S D D S S ",
"S D S D F G D D F F F F F D D D D D D D G F F F F F G G G F F F G F F F d G s s s f g f f g f f t r e w w w e q q q q 0 0 q q q q w w q 0 q w w w w q q w d s q q s d d s a a s s s G G F S D D S F G D G G G G F F G F D S D S S A F b F F F F F F F F F D D D S S F D D D F F F F F D D F D D D D F G G G F F D F G G F S D D D f f s s f S S D f F G F o f f f f d f D F e 0 0 q q w e e e w q f f q 0 w w e f f F f f f g g f e f g f w d F D D D S S S D D S S S S S F F F G F F D D F D D D F F G F A S D S D F G D S S S ",
"S S D F S Z C V C C A D G G D D D D D F D A Z k C Z Z D G G D D G D D D s s d f f g f s f g g g t t e q r y j y r r r q 9 0 q 0 q w 0 0 r y y u y t t e s q d d d w s s a f f g h g F F G f F D D D F H F Z A Z Z Z Z S G D S S S S F F S C V k k V Z S F G D S S S S D F F D D D G G G F D D D D D F F k l C C C C j F H F D F D F s f h j l Z k j j S G . f d f f w s F D g r w w q q w e w w w f s e r y y k k k k A s d f g f e g f w f g D D D G D S S g g S S D F F D S D D F F X D F F D D G G S V V C Z C C Z D G G S S ",
"D D F Z N B B V V z l k A X . D D D F S C z l l B V C Z A G G F F F F G D f k l l l k g a d g f q w w r y k k j u j u t w 9 0 w w w q y z z l l k u k y r q q f d s a d g k l k l k k Z G s D D F D F A l N B V V V V Z S H G D F G F C l N B l V B Z j A G G D D S F F F F Z A V C A D H F D D D F D z z B V B B B j j S H F D D d h j l l z z k k k A A G m w d s q d Z l k y t t r w 0 q e w q q g u k j u l l z l Z h q w g d d w w j z k l V Z g F s F g D g D F F C l V l l h S G H D D D D G A C B N B V V l C C S G F D ",
"S D D C N M M B B z x V Z A G F D H D V B B x V V C C C A D ; G G F G D C z x z l z l j g a d f w 0 r k x x x z k l u y t e 9 0 q 0 e u z c c z k l k t r d 0 q d q s g k l k l l V Z A D H G D D G A V z B B V B N B C A F H S F F Z C B N M z z V Z S g F J F F D G A A C M C V C V Z D H D D D D z N N $ N B N B l j j F H F G g k x x x x V V z l Z A D : q d w q h z x x i t t t h e 9 w q 0 f l z x z z z x x l j j f q g f w w k x x z B V V l k F H S g D D F Z B N B C V l Z S H H F F X S V z x M N V V B z C Z S G D ",
"D - F N B M # V C N x k S D F H D G Z z B x B V C V V k D D H b F G F l B z x z l x k t g s a f w 0 t l x x c z k l j y e e 0 0 q w j l z c x l k l y r w d 0 0 w q g k x x N k l B A D g s H D F G C V l B B C C V Z A D F H F G A C l N M M V N N Z S D F H F F F D V l M M V Z V x A S H . D F Z N N M M B C B V k h S G H F s j z z x N x V B z j S S S H s d s e l x N N k y u u j r 0 0 q 0 h l l z x z k l x l h h f 9 f g q t z x c i l B C k A S H F D D F S V V B N V B V A S D H G G G A C C z N B Z V B k S D A H G ",
"D H S % M N M B V N x A v F G H F G S z z B B C C C l Z A D J H F G F k x x N k l x k t g s : d w q e z c x c l j l u r w q 9 9 q 0 t z c x z k k z l t e q 8 9 w q h k z z x j j k j A D - G F G D Z V B N N C C V C A S H J F H D Z z M M M l z B A S A H J D F G D V N N x C C z j h D H H D F Z N B N M B C B z k k h J J D G f l z x x N V V l h S D F - q w q w l N N B u y u y g e q 9 w 0 g l z x x z l x x z k j s : f g w t l x c l k N B k D F H D D D D S C V M M V B B Z A F J G D . F Z M M N N V B B z k S F H F ",
"D F A V A D A B V C Z Z Z S J H F G F V S S A z C k f F S D K G G F H h C j j z l l h t h 9 s f e w e j r r y z k y w w t e 8 q w 0 e k t r u z z l t r r w 8 q q q g l l h l l j G H s F - G F G H A B C S V V B h G F Z G H D F F B M C A B x V F H b D D H F F D F V k D Z B B C k k F   F S D F V B C Z B z z h d f g G H D F s l l h h B B l g d f k G 9 w e w w k A A l l i y t y e 9 0 e w d x l t t x x x j h g k s a f f w w k t j x x B j h S G H D D D S F V Z Z V B V k A Z G   D D D F N C A Z N B B g g j k H G D ",
"S F A . H   H V V F H . D A   F F G A F H J G C l H J G G D H F F F F S H H H k k a 0 0 d s s f e w y 0 9 0 w z j 0 8 9 q q 8 q w 0 e 8 9 9 0 l u 0 9 9 0 w 9 w q q s g : ; G z j J K J H f H D F G A F J J F V A H J H H S H D D . C S G G D N j J J H J Z G G D D A D K J D V k G f S S   S S S F V j G s S V h J H H J A H F F g h 9 J J D x j ; 9 H G D a e e w y H H J d l r 0 q f e 9 w w e f h 0 9 9 t x j H H G s g q g g e r w 9 0 r x j H H f j G F F D F Z F   J D B g H F S F J o D F Z D J H H Z B g H H G D G G S ",
"D S B G G   D N B F n K - A F D D D l H H J G V C G K J H S G G D F A A - J G x j s = 0 d h s f e e y 9 0 0 e z k 0 3 8 9 e 0 w w e y 9 9 8 w z y 9 U 9 ; r w q f d h : = 8 : z j G K J D V H F F D Z J J J G B Z H n   H Z G F D D A K J J D N l F J H G C S H D D z D   G C N k J J H D D A S D S Z J H J D z z H L J H j G G s h d 8 - ; g l j : = J H A s w w w k H H H j k e 8 8 a w 0 w w q j s 8 8 9 e x k G n H s j q g h d k 0 9 9 t l A J J G k s F g D G V b H H A B g K J H S b D S D C G   H F V C D J P H G S G S ",
"F S N C A C V D F Z F H X V G G F D N D D A V S H j D F F k f H F G Z N S j N g d j h g h h a f w e l y t t l w w r 0 q q y 0 0 0 e l e r y j e e r q q s y w q f w h f a d l g J S A A N l H G D D B G F S V S H Z Z A C V G . F D C b G S B A G Z A A l l g H D F V N V N V F Z V D F C D D A A Z V H F D z g F d s A k k s : G j h s f h k s D h d d F C G s s f x l C x g 9 e q 9 d e 0 q q q j h 0 q e y w g C S S h z d G F d l y y k j s S C S A C s d f F F M B C k S G S A F D C H D D D M V S V V S G A A F F D Z G D ",
"F D z V V N C . F Z C V # N H G F D x N B B V H G D C A V V H H D G S x z N l G d j k k l s J d w w k l l u r 9 0 r r t l t 9 0 0 e z z l z e 9 q r y h z j 0 0 d q k c x l B H H F k S h w J F F D z B l N C H G S Z A V A J G F D N B V z V H G S j S C k G G F F A V B N A F S l C N z H F S D A M C N N C H G D k C l g ; H s j N x z x f H G k j j B Z H 0 d w h k C B s 0 0 r k z t 9 0 w w j N x u l q 0 b V V k x j a G D s j z z x f d S C A V j J d D D F V B N M D D g k k N j H D D D B N B N B H D D N Z C B A b F ",
"D G D G S V V Z A Z G D A g J G D G A Z A V B A Z Z j S A h J F S S G D F l l l B z g s r m s f w 0 e q r j y r e r q q r e 5 q q 0 r e y x y r r y w r h r 9 w f d f x k k B C k k D H J 0 H D D G C V Z Z Z D A S F G H b J F F F V B C Z V S A C C F H H J F D F H G A M N B V h D j h H D S S D V C l V C D A C B h J H J F s f l j k l j A A z g h A g ; q d s s s Z N l y t w w h e 8 q w w f z l j y t h Z B h g h t 0 D S s s w r z z z V S G H s H g F D D F G A N N N z h g j d . S S F A A S V B D S S A D Z j G H D ",
"S D G G D M M M N Z F   H H H D D F H G H z B M N C S H H H G S D D F F F C x M c t w m 0 s d f d q q 0 q k l x l y q 5 0 9 9 q w q 0 0 e l x M z y e 9 s 9 0 e w d 0 a ; f z M N x j G H 9 G D D G H G H j z V k C S H J   b D D H G F H Z C B B B A F H G J S D D G G A M M M x g J G H D S D D G F F H B l B N V S G H J G d d a F - g z x N V k g J .   H e f d w G Z N c k t w 9 s 9 0 w w w s d 9 e z z x N V A H d : s D D g 9 0 0 l x c z D H H J d g F D F J F A N % c k t H D G S D D D G G H B N B B Z S G J G H G S ",
"D F G F S N N B C S F J F H D A S A D D F V B N B k A H G H D S S g D F A C N x y t w s d d f f d q w w w k z k y e w 8 0 5 w w w w 0 0 q z M x y r w 0 f 9 q q q w s : s s j B k h g G F s F F D D H G H C l k Z k D - H H F F D D H F H Z B N N k j G G G G S D D F Z A V N z j f H F H F D D D D b D J l B z V Z h G G G G F f s s d g N M x z j f J F H f e f d d h Z N l y r e 0 d 0 w w w w d q w w z z c N V C H s a g D D w 9 q t l j h g f H G s f D D A G H S C M x z l h G D G S D D A D S G V B N B Z A H J G H D D ",
"D G G z A B B l h g H G F G S D D S D S S k C k k j g H D H D D S S D D x B z z j t e h d s g f g w d y e y j r r e 9 0 0 0 q q q q q r e z l y t t 0 0 e 0 e f e d d s h g l k g f s b g a G F S D D D S S C V Z h f H D G F D D D F F D S V B l j j F S S G D D S D N $ B V k k f S D G D D S D S D A D A $ V Z A g J D F s F f d s g D V B z k j f H D G g e d d f z V V j t e q e d q w e w w r d r w l l z z V j H g s f D A d 0 z M x t r h g D A s S D S S G G M % N k k h g A D G D D D S F Z S C B C A j S J F G F F F ",
"D F G z z z j h g d G S H F D D D D F l N z Z A h h F D A H D D D D h F C N N h h y g g H F g D h e e k u y u e q 0 0 e 0 9 w q w q w l l j t e e e q e e 0 e d w w s s h x l h d F g F s 8 G G F S F D x V V Z D S D D A H F S D F G F N Z V V C k h D Z X G D D S D D N M Z S A f D H G D D S D D F D B C B A D D F G g H s F d d f l h Z Z k h f s D A H D e f d s h N V f e e w r J q q w w e e d z y u j u j k f f j a f D A f r y N z h w h F F H G S S g D D D A M M k j k j g H D S S D S G C x B V A D S g H A H F S D ",
"D D G F V V S D A S g F J F D D D S D F V N l S S Z S f J H D D F D D D G k B f h y f H f f f f g r w e j x u w e w e w 8 q q w w e 0 r l l y e r y r r 0 q e f f f f f s g k k g g g H - s d F F F G G C B C Z S Z A F H b F D D S S F V N V C S A k h f J v S S S A D D Z S S D G J G D D D D D D D F N N g D F S D f J - G G d d s j l k S f h j f g H H d d d d s H S Z g r e w 9 H w w w w w e w h x l y t g Z D g a a g S S w e q 0 r r w h g b G D S g D D D A F F j h j j d H F A S S S S s S B N V D G A S D F K G D D ",
"D D D H F A S S A F G J G D F D F D D G G C l g D j G J J F F F D S S S a ; s J : 0 s f g f f f f r e 0 w g e w e q 0 3 9 w w w w e w 0 e j t r y u r 0 0 e e f f e f d s 9 a G H J J J F f F F F D S F H D k S F g g H H D D D D D S D F D z l j h h D H F S S S S A A F G H H H H G D D D D D D S S D H S d D A Z f H - G s G d d d s h j A f k k h w J F g f f f f D G H m 0 9 9 q g e w e w q w d s r k j y h Z g s : f g S S f r r 0 0 0 9 H H F A D g g D D D S S G F H H H G D D D S S S F D G S Z A D A C S b J H D G D ",
"D D D D F G H H G J H D S S S S S D D D F G F H H H J H F F D F D f S s a s d d w w g f f g f f r e e e 9 0 9 8 8 8 8 9 q q q q q q q q 0 0 9 8 0 0 9 0 e e w d w w d d d q : ; ; m H H F d F G s F F F H J H J K J J H D S D S D F D S s - F G H J J   G S S D S D S F F D F F G F D D D D D S S D S D G G J F D G - - s f d d d d d s a s F H H f J : F D g d d f f S J G f 0 0 q e g e w w w w e f d q q w q s G J H f f f S S f r f w d w w G F S D D D g g S S S S D D D F F S S D F D S S S D F G G F . . G   J H D S S D ",
"S S S A D F F G G D A D S S S S S S S S S F G F F G D D D D D D D S S d s f k l r t g g g g g r e e g 0 0 q 0 0 9 9 q q q w q q q q 0 q w 0 0 0 9 0 q w e w w d w e s s f s d s d d d G F d D G G F F F F F H H F F G S A A S D S S D S D Z S H G G G D S S S S S A F s F Z S D D D D D D S S S S D A D D D D D D H G d f D D g d d d s s s J J ; a s d g S f w e f f D F A f w w w e F e w e w q e f f e q 0 0 H H G g g f g A S g e r f f d e D S D D D D S g g g D S D S S F D D S S D D S D S F D A D . H J H b G D S S S D ",
"F G D D D D D D D S A D D D D S S S S D D D D D D D D D F D F D D S S h D h A l f r g g f f f f r r g w r h w w q q q q q w q q w e q w e w w w q e w e w w e g e f 0 d f d d d d d G d G s F G F F D D D F F F F D S S D S A S S A S S S A D D D S D A S S S S S A D F Z C D S S D S S S S D S S S D D D S F D F G f D F F d d d d f d s s s s s s d f D F d w w d e D A S d w w w w D w w w w w e f g e e w e d D D D g g h A S f r f f f f w F D D D D D D D g g S S D S S D D f S D D S F D S S D D F F F D F F F D D F F D ",
"a s Z S D D D D D S S S S D D D D D S S D D D D D F D S D D D D D D D g D j Z S f f g g f f d d e r f r t e w w q q w q q q w w w w e e w 0 q q q w w w w r g d w w f h d d d s d d G F F d G s F G F F F F D F F F S D D D S S D A S S S D D D D D D D D S S S S S S Z C A D D D D D S S S S D D D D D D D D D D G s d F F G s d d s s s s s G s d d f g F f e w d f D D F f w w w e D e w w w w e e f e w w w f D D f f f g A A f e f g f e e D F D F D D D D D g S S S S S D S D S D D S S S A S D D D D F F F F F F D S D G ",
"S Z A D F F D F F D S D F D D D D F F F D D D D S D D F F F D D D F D F F D D F f f g D f f f d f e f e q w w w q q q q q w w w q q w w q 0 q q w w w w e e d w q d w w f f f d d F d F G 9 F G F G G F F F D F F F D F D D D D S S A S D D D D D D D D D D D S S S S S D D D D D D D D D D S D S D D S D D D D D D d d G D F F f F d d d s d G G s w f f f d w w d d F F D f w w w w D d w w w w w e f e w w e f D D g g f f S S f f f f f e d D D D D D D D D D g f F D D S S A D D D D D F F D S D D D F F F D S A S D D D D ",
"S S S D D F D D D D A D D S S S S A D F D D D D S S D D F D F D D D F D f F D F f f g D f f e e f e e e e e w q q q w q w w q w q q q q q w q w w e w w w w w w d f f d d f D F d G d f : : S S F F G F F D S S D D D D D D D D D D D D S D D D D D S S S D D S S S D D D D D S S D D D D D D D S S S S S S D S S D D F G F D D f F f F F f f f F d w f g g f r r f f D D D f w q w e S f e e w e e r g e e e e f F G d e w w F D d d f d d e f D D S S S S S S D g f D D D S S D D D D D D D D S S S S D A Z S S D S D D D D S ",
"F F F F D D F G H F S F G G F S A A A S D D D D D S D D D D S D D D D D D D D F f f D S g f e e w w e w w e e w w w w w e w q w w q w q 0 q q 0 0 0 0 0 q w w w e f f f f d s s 0 9 a s G F S G H s F F D D D D D D D F D S S S S S S S D S D D F F F G s s s H G H G G G F D D S S S S S D S S D D F F G H G G F F d F H a s G G d F d s s s s s s q q s d d q q w q G F s 9 9 9 0 9 - q 0 0 0 q e q d q 0 0 0 a a H q q q q s G s w d f f d d F G G F G G G F F g g D D S D D D S S D S D D F G G F F F F F D D D S D D F F F ",
"7 7 7 8 7 8 7 7 7 8 H ; 8 8 7 9 7 8 - ; a 9 8 7 U = & U 7 & U 7 7 U 7 7 7 7 U 7 7 8 7 7 7 7 U U 7 7 2 7 3 7 2 2 1 1 1 2 2 2 U 2 1 1 2 1 < 7 2 U U U 7 U 7 8 7 7 7 8 8 7 7 7 U 7 7 7 7 7 8 8 7 U U U U 8 9 7 7 7 7 7 8 7 7 8 7 7 7 7 7 7 7 - - U U U U 7 7 7 8 9 8 - - = 7 7 7 U 7 7 7 7 7 7 7 7 7 U 8 8 = = = 8 - 7 7 9 7 7 7 7 7 U U U U U 7 U 7 7 8 7 7 8 7 1 7 7 8 7 8 8 8 8 4 8 7 8 9 7 2 U 1 0 q s 7 7 3 8 8 - - 9 9 9 9 9 9 8 8 7 8 8 8 7 U 7 7 7 7 U 7 7 & 7 8 8 9 9 8 7 = - ; 8 7 = = 7 8 7 8 ; J = 7 = 7 7 8 7 7 U 7 7 "
};
