/* XPM */
static char *_08389ab19134453c2c787544786b0e0WnfsCDaH3Eqmw8Bk[] = {
/* columns rows colors chars-per-pixel */
"288 288 18 1 ",
"  c #572028",
". c #713239",
"X c #7C3D41",
"o c #8D5350",
"O c #995E59",
"+ c #AB7368",
"@ c #BC9075",
"# c #C76F8F",
"$ c #E7BB91",
"% c #E18BA9",
"& c #E59AB4",
"* c #ECC5A0",
"= c #EBADC3",
"- c #EFBDCF",
"; c #F8DAC0",
": c #F6D0DD",
"> c #FCE4CF",
", c #FFF6EB",
/* pixels */
":===============================================================================================================================================================================================================================================================================================",
"&:=============================================================================================================================================================================================================================================================================================%",
"&&:===========================================================================================================================================================================================================================================================================================%%",
"&&&::::::::::::::::::::::::::::::::::::::::::::::::::::::::::::::::::::::::::::::::::::::::::::::::::::::::::::::::::::::::::::::::::::::::::::::::::::::::::::::::::::::::::::::::::::::::::::::::::::::::::::::::::::::::::::::::::::::::::::::::::::::::::::::::::::::::::::::::::::::::::%%%",
"&&&:-----------------------------------------------------------------------------------------------------------------------------------------------------------------------------------------------------------------------------------------------------------------------------------------%%%",
"&&&:-----------------------------------------------------------------------------------------------------------------------------------------------------------------------------------------------------------------------------------------------------------------------------------------%%%",
"&&&:-----------------------------------------------------------------------------------------------------------------------------------------------------------------------------------------------------------------------------------------------------------------------------------------%%%",
"&&&:-----------------------------------------------------------------------------------------------------------------------------------------------------------------------------------------------------------------------------------------------------------------------------------------%%%",
"&&&:-----------------------------------------------------------------------------------------------------------------------------------------------------------------------------------------------------------------------------------------------------------------------------------------%%%",
"&&&:-----------------------------------------------------------------------------------------------------------------------------------------------------------------------------------------------------------------------------------------------------------------------------------------%%%",
"&&&:-----------------------------------------------------------------------------------------------------------------------------------------------------------------------------------------------------------------------------------------------------------------------------------------%%%",
"&&&:-----------------------------------------------------------------------------------------------------------------------------------------------------------------------------------------------------------------------------------------------------------------------------------------%%%",
"&&&:-----------------------------------------------------------------------------------------------------------------------------------------------------------------------------------------------------------------------------------------------------------------------------------------%%%",
"&&&:-----------------------------------------------------------------------------------------------------------------------------------------------------------------------------------------------------------------------------------------------------------------------------------------%%%",
"&&&:-----------------------------------------------------------------------------------------------------------------------------------------------------------------------------------------------------------------------------------------------------------------------------------------%%%",
"&&&:-----------------------------------------------------------------------------------------------------------------------------------------------------------------------------------------------------------------------------------------------------------------------------------------%%%",
"&&&:-----------------------------------------------------------------------------------------------------------------------------------------------------------------------------------------------------------------------------------------------------------------------------------------%%%",
"&&&:-----------------------------------------------------------------------------------------------------------------------------------------------------------------------------------------------------------------------------------------------------------------------------------------%%%",
"&&&:-----------------------------------------------------------------------------------------------------------------------------------------------------------------------------------------------------------------------------------------------------------------------------------------%%%",
"&&&:-----------------------------------------------------------------------------------------------------------------------------------------------------------------------------------------------------------------------------------------------------------------------------------------%%%",
"&&&:-----------------------------------------------------------------------------------------------------------------------------------------------------------------------------------------------------------------------------------------------------------------------------------------%%%",
"&&&:-----------------------------------------------------------------------------------------------------------------------------------------------------------------------------------------------------------------------------------------------------------------------------------------%%%",
"&&&:-----------------------------------------------------------------------------------------------------------------------------------------------------------------------------------------------------------------------------------------------------------------------------------------%%%",
"&&&:-----------------------------------------------------------------------------------------------------------------------------------------------------------------------------------------------------------------------------------------------------------------------------------------%%%",
"&&&:-----------------------------------------------------------------------------------------------------------------------------------------------------------------------------------------------------------------------------------------------------------------------------------------%%%",
"&&&:-----------------------------------------------------------------------------------------------------------------------------------------------------------------------------------------------------------------------------------------------------------------------------------------%%%",
"&&&:-----------------------------------------------------------------------------------------------------------------------------------------------------------------------------------------------------------------------------------------------------------------------------------------%%%",
"&&&:-----------------------------------------------------------------------------------------------------------------------------------------------------------------------------------------------------------------------------------------------------------------------------------------%%%",
"&&&:-----------------------------------------------------------------------------------------------------------------------------------------------------------------------------------------------------------------------------------------------------------------------------------------%%%",
"&&=################################################################################################################################:-------------------------################################################################################################################################%%%",
"&=################################################################################################################################&:-------------------------%################################################################################################################################%%",
"=################################################################################################################################&&:-------------------------%%################################################################################################################################%",
"+ooooooooooooooooooooooooooooooooooooooooooooooooooooooooooooooooooooooooooooooooooooooooooooooooooooooooooooooooooooooooooooooo&&&:-------------------------%%%+ooooooooooooooooooooooooooooooooooooooooooooooooooooooooooooooooooooooooooooooooooooooooooooooooooooooooooooooooooooooooooooooo",
"X+ooooooooooooooooooooooooooooooooooooooooooooooooooooooooooooooooooooooooooooooooooooooooooooooooooooooooooooooooooooooooooooo.&&&:-------------------------%%%X+ooooooooooooooooooooooooooooooooooooooooooooooooooooooooooooooooooooooooooooooooooooooooooooooooooooooooooooooooooooooooooooo.",
"XX+ooooooooooooooooooooooooooooooooooooooooooooooooooooooooooooooooooooooooooooooooooooooooooooooooooooooooooooooooooooooooooo..&&&:-------------------------%%%XX+ooooooooooooooooooooooooooooooooooooooooooooooooooooooooooooooooooooooooooooooooooooooooooooooooooooooooooooooooooooooooooo..",
"XXX++++++++++++++++++++++++++++++++++++++++++++++++++++++++++++++++++++++++++++++++++++++++++++++++++++++++++++++++++++++++++...&&&:-------------------------%%%XXX++++++++++++++++++++++++++++++++++++++++++++++++++++++++++++++++++++++++++++++++++++++++++++++++++++++++++++++++++++++++++...",
"XXX+OOOOOOOOOOOOOOOOOOOOOOOOOOOOOOOOOOOOOOOOOOOOOOOOOOOOOOOOOOOOOOOOOOOOOOOOOOOOOOOOOOOOOOOOOOOOOOOOOOOOOOOOOOOOOOOOOOOOOOOOO...&&&:-------------------------%%%XXX+OOOOOOOOOOOOOOOOOOOOOOOOOOOOOOOOOOOOOOOOOOOOOOOOOOOOOOOOOOOOOOOOOOOOOOOOOOOOOOOOOOOOOOOOOOOOOOOOOOOOOOOOOOOOOOOOOOOOOOOOO...",
"XXX+OOOOOOOOOOOOOOOOOOOOOOOOOOOOOOOOOOOOOOOOOOOOOOOOOOOOOOOOOOOOOOOOOOOOOOOOOOOOOOOOOOOOOOOOOOOOOOOOOOOOOOOOOOOOOOOOOOOOOOOOO...&&&:-------------------------%%%XXX+OOOOOOOOOOOOOOOOOOOOOOOOOOOOOOOOOOOOOOOOOOOOOOOOOOOOOOOOOOOOOOOOOOOOOOOOOOOOOOOOOOOOOOOOOOOOOOOOOOOOOOOOOOOOOOOOOOOOOOOOO...",
"XXX+OOOOOOOOOOOOOOOOOOOOOOOOOOOOOOOOOOOOOOOOOOOOOOOOOOOOOOOOOOOOOOOOOOOOOOOOOOOOOOOOOOOOOOOOOOOOOOOOOOOOOOOOOOOOOOOOOOOOOOOOO...&&&:-------------------------%%%XXX+OOOOOOOOOOOOOOOOOOOOOOOOOOOOOOOOOOOOOOOOOOOOOOOOOOOOOOOOOOOOOOOOOOOOOOOOOOOOOOOOOOOOOOOOOOOOOOOOOOOOOOOOOOOOOOOOOOOOOOOOO...",
"XXX+OOOOOOOOOOOOOOOOOOOOOOOOOOOOOOOOOOOOOOOOOOOOOOOOOOOOOOOOOOOOOOOOOOOOOOOOOOOOOOOOOOOOOOOOOOOOOOOOOOOOOOOOOOOOOOOOOOOOOOOOO...&&&:-------------------------%%%XXX+OOOOOOOOOOOOOOOOOOOOOOOOOOOOOOOOOOOOOOOOOOOOOOOOOOOOOOOOOOOOOOOOOOOOOOOOOOOOOOOOOOOOOOOOOOOOOOOOOOOOOOOOOOOOOOOOOOOOOOOOO...",
"XXX+OOOOOOOOOOOOOOOOOOOOOOOOOOOOOOOOOOOOOOOOOOOOOOOOOOOOOOOOOOOOOOOOOOOOOOOOOOOOOOOOOOOOOOOOOOOOOOOOOOOOOOOOOOOOOOOOOOOOOOOOO...&&&:-------------------------%%%XXX+OOOOOOOOOOOOOOOOOOOOOOOOOOOOOOOOOOOOOOOOOOOOOOOOOOOOOOOOOOOOOOOOOOOOOOOOOOOOOOOOOOOOOOOOOOOOOOOOOOOOOOOOOOOOOOOOOOOOOOOOO...",
"XXX+OOOOOOOOOOOOOOOOOOOOOOOOOOOOOOOOOOOOOOOOOOOOOOOOOOOOOOOOOOOOOOOOOOOOOOOOOOOOOOOOOOOOOOOOOOOOOOOOOOOOOOOOOOOOOOOOOOOOOOOOO...&&&:-------------------------%%%XXX+OOOOOOOOOOOOOOOOOOOOOOOOOOOOOOOOOOOOOOOOOOOOOOOOOOOOOOOOOOOOOOOOOOOOOOOOOOOOOOOOOOOOOOOOOOOOOOOOOOOOOOOOOOOOOOOOOOOOOOOOO...",
"XXX+OOOOOOOOOOOOOOOOOOOOOOOOOOOOOOOOOOOOOOOOOOOOOOOOOOOOOOOOOOOOOOOOOOOOOOOOOOOOOOOOOOOOOOOOOOOOOOOOOOOOOOOOOOOOOOOOOOOOOOOOO...&&&:-------------------------%%%XXX+OOOOOOOOOOOOOOOOOOOOOOOOOOOOOOOOOOOOOOOOOOOOOOOOOOOOOOOOOOOOOOOOOOOOOOOOOOOOOOOOOOOOOOOOOOOOOOOOOOOOOOOOOOOOOOOOOOOOOOOOO...",
"XXX+OOOOOOOOOOOOOOOOOOOOOOOOOOOOOOOOOOOOOOOOOOOOOOOOOOOOOOOOOOOOOOOOOOOOOOOOOOOOOOOOOOOOOOOOOOOOOOOOOOOOOOOOOOOOOOOOOOOOOOOOO...&&&:-------------------------%%%XXX+OOOOOOOOOOOOOOOOOOOOOOOOOOOOOOOOOOOOOOOOOOOOOOOOOOOOOOOOOOOOOOOOOOOOOOOOOOOOOOOOOOOOOOOOOOOOOOOOOOOOOOOOOOOOOOOOOOOOOOOOO...",
"XXX+OOOOOOOOOOOOOOOOOOOOOOOOOOOOOOOOOOOOOOOOOOOOOOOOOOOOOOOOOOOOOOOOOOOOOOOOOOOOOOOOOOOOOOOOOOOOOOOOOOOOOOOOOOOOOOOOOOOOOOOOO...&&&:-------------------------%%%XXX+OOOOOOOOOOOOOOOOOOOOOOOOOOOOOOOOOOOOOOOOOOOOOOOOOOOOOOOOOOOOOOOOOOOOOOOOOOOOOOOOOOOOOOOOOOOOOOOOOOOOOOOOOOOOOOOOOOOOOOOOO...",
"XXX+OOOOOOOOOOOOOOOOOOOOOOOOOOOOOOOOOOOOOOOOOOOOOOOOOOOOOOOOOOOOOOOOOOOOOOOOOOOOOOOOOOOOOOOOOOOOOOOOOOOOOOOOOOOOOOOOOOOOOOOOO...&&&:-------------------------%%%XXX+OOOOOOOOOOOOOOOOOOOOOOOOOOOOOOOOOOOOOOOOOOOOOOOOOOOOOOOOOOOOOOOOOOOOOOOOOOOOOOOOOOOOOOOOOOOOOOOOOOOOOOOOOOOOOOOOOOOOOOOOO...",
"XXX+OOOOOOOOOOOOOOOOOOOOOOOOOOOOOOOOOOOOOOOOOOOOOOOOOOOOOOOOOOOOOOOOOOOOOOOOOOOOOOOOOOOOOOOOOOOOOOOOOOOOOOOOOOOOOOOOOOOOOOOOO...&&&:-------------------------%%%XXX+OOOOOOOOOOOOOOOOOOOOOOOOOOOOOOOOOOOOOOOOOOOOOOOOOOOOOOOOOOOOOOOOOOOOOOOOOOOOOOOOOOOOOOOOOOOOOOOOOOOOOOOOOOOOOOOOOOOOOOOOO...",
"XXX+OOOOOOOOOOOOOOOOOOOOOOOOOOOOOOOOOOOOOOOOOOOOOOOOOOOOOOOOOOOOOOOOOOOOOOOOOOOOOOOOOOOOOOOOOOOOOOOOOOOOOOOOOOOOOOOOOOOOOOOOO...&&&:-------------------------%%%XXX+OOOOOOOOOOOOOOOOOOOOOOOOOOOOOOOOOOOOOOOOOOOOOOOOOOOOOOOOOOOOOOOOOOOOOOOOOOOOOOOOOOOOOOOOOOOOOOOOOOOOOOOOOOOOOOOOOOOOOOOOO...",
"XXX+OOOOOOOOOOOOOOOOOOOOOOOOOOOOOOOOOOOOOOOOOOOOOOOOOOOOOOOOOOOOOOOOOOOOOOOOOOOOOOOOOOOOOOOOOOOOOOOOOOOOOOOOOOOOOOOOOOOOOOOOO...&&&:-------------------------%%%XXX+OOOOOOOOOOOOOOOOOOOOOOOOOOOOOOOOOOOOOOOOOOOOOOOOOOOOOOOOOOOOOOOOOOOOOOOOOOOOOOOOOOOOOOOOOOOOOOOOOOOOOOOOOOOOOOOOOOOOOOOOO...",
"XXX+OOOOOOOOOOOOOOOOOOOOOOOOOOOOOOOOOOOOOOOOOOOOOOOOOOOOOOOOOOOOOOOOOOOOOOOOOOOOOOOOOOOOOOOOOOOOOOOOOOOOOOOOOOOOOOOOOOOOOOOOO...&&&:-------------------------%%%XXX+OOOOOOOOOOOOOOOOOOOOOOOOOOOOOOOOOOOOOOOOOOOOOOOOOOOOOOOOOOOOOOOOOOOOOOOOOOOOOOOOOOOOOOOOOOOOOOOOOOOOOOOOOOOOOOOOOOOOOOOOO...",
"XXX+OOOOOOOOOOOOOOOOOOOOOOOOOOOOOOOOOOOOOOOOOOOOOOOOOOOOOOOOOOOOOOOOOOOOOOOOOOOOOOOOOOOOOOOOOOOOOOOOOOOOOOOOOOOOOOOOOOOOOOOOO...&&&:-------------------------%%%XXX+OOOOOOOOOOOOOOOOOOOOOOOOOOOOOOOOOOOOOOOOOOOOOOOOOOOOOOOOOOOOOOOOOOOOOOOOOOOOOOOOOOOOOOOOOOOOOOOOOOOOOOOOOOOOOOOOOOOOOOOOO...",
"XXX+OOOOOOOOOOOOOOOOOOOOOOOOOOOOOOOOOOOOOOOOOOOOOOOOOOOOOOOOOOOOOOOOOOOOOOOOOOOOOOOOOOOOOOOOOOOOOOOOOOOOOOOOOOOOOOOOOOOOOOOOO...&&&:-------------------------%%%XXX+OOOOOOOOOOOOOOOOOOOOOOOOOOOOOOOOOOOOOOOOOOOOOOOOOOOOOOOOOOOOOOOOOOOOOOOOOOOOOOOOOOOOOOOOOOOOOOOOOOOOOOOOOOOOOOOOOOOOOOOOO...",
"XXX+OOOOOOOOOOOOOOOOOOOOOOOOOOOOOOOOOOOOOOOOOOOOOOOOOOOOOOOOOOOOOOOOOOOOOOOOOOOOOOOOOOOOOOOOOOOOOOOOOOOOOOOOOOOOOOOOOOOOOOOOO...&&&:-------------------------%%%XXX+OOOOOOOOOOOOOOOOOOOOOOOOOOOOOOOOOOOOOOOOOOOOOOOOOOOOOOOOOOOOOOOOOOOOOOOOOOOOOOOOOOOOOOOOOOOOOOOOOOOOOOOOOOOOOOOOOOOOOOOOO...",
"XXX+OOOOOOOOOOOOOOOOOOOOOOOOOOOOOOOOOOOOOOOOOOOOOOOOOOOOOOOOOOOOOOOOOOOOOOOOOOOOOOOOOOOOOOOOOOOOOOOOOOOOOOOOOOOOOOOOOOOOOOOOO...&&&:-------------------------%%%XXX+OOOOOOOOOOOOOOOOOOOOOOOOOOOOOOOOOOOOOOOOOOOOOOOOOOOOOOOOOOOOOOOOOOOOOOOOOOOOOOOOOOOOOOOOOOOOOOOOOOOOOOOOOOOOOOOOOOOOOOOOO...",
"XXX+OOOOOOOOOOOOOOOOOOOOOOOOOOOOOOOOOOOOOOOOOOOOOOOOOOOOOOOOOOOOOOOOOOOOOOOOOOOOOOOOOOOOOOOOOOOOOOOOOOOOOOOOOOOOOOOOOOOOOOOOO...&&&:-------------------------%%%XXX+OOOOOOOOOOOOOOOOOOOOOOOOOOOOOOOOOOOOOOOOOOOOOOOOOOOOOOOOOOOOOOOOOOOOOOOOOOOOOOOOOOOOOOOOOOOOOOOOOOOOOOOOOOOOOOOOOOOOOOOOO...",
"XXX+OOOOOOOOOOOOOOOOOOOOOOOOOOOOOOOOOOOOOOOOOOOOOOOOOOOOOOOOOOOOOOOOOOOOOOOOOOOOOOOOOOOOOOOOOOOOOOOOOOOOOOOOOOOOOOOOOOOOOOOOO...&&&:-------------------------%%%XXX+OOOOOOOOOOOOOOOOOOOOOOOOOOOOOOOOOOOOOOOOOOOOOOOOOOOOOOOOOOOOOOOOOOOOOOOOOOOOOOOOOOOOOOOOOOOOOOOOOOOOOOOOOOOOOOOOOOOOOOOOO...",
"XXX+OOOOOOOOOOOOOOOOOOOOOOOOOOOOOOOOOOOOOOOOOOOOOOOOOOOOOOOOOOOOOOOOOOOOOOOOOOOOOOOOOOOOOOOOOOOOOOOOOOOOOOOOOOOOOOOOOOOOOOOOO...&&&:-------------------------%%%XXX+OOOOOOOOOOOOOOOOOOOOOOOOOOOOOOOOOOOOOOOOOOOOOOOOOOOOOOOOOOOOOOOOOOOOOOOOOOOOOOOOOOOOOOOOOOOOOOOOOOOOOOOOOOOOOOOOOOOOOOOOO...",
"XXX+OOOOOOOOOOOOOOOOOOOOOOOOOOOOOOOOOOOOOOOOOOOOOOOOOOOOOOOOOOOOOOOOOOOOOOOOOOOOOOOOOOOOOOOOOOOOOOOOOOOOOOOOOOOOOOOOOOOOOOOOO...&&&:-------------------------%%%XXX+OOOOOOOOOOOOOOOOOOOOOOOOOOOOOOOOOOOOOOOOOOOOOOOOOOOOOOOOOOOOOOOOOOOOOOOOOOOOOOOOOOOOOOOOOOOOOOOOOOOOOOOOOOOOOOOOOOOOOOOOO...",
"XXX+OOOOOOOOOOOOOOOOOOOOOOOOOOOOOOOOOOOOOOOOOOOOOOOOOOOOOOOOOOOOOOOOOOOOOOOOOOOOOOOOOOOOOOOOOOOOOOOOOOOOOOOOOOOOOOOOOOOOOOOOO...&&&:-------------------------%%%XXX+OOOOOOOOOOOOOOOOOOOOOOOOOOOOOOOOOOOOOOOOOOOOOOOOOOOOOOOOOOOOOOOOOOOOOOOOOOOOOOOOOOOOOOOOOOOOOOOOOOOOOOOOOOOOOOOOOOOOOOOOO...",
"XXX+OOOOOOOOOOOOOOOOOOOOOOOOOOOOOOOOOOOOOOOOOOOOOOOOOOOOOOOOOOOOOOOOOOOOOOOOOOOOOOOOOOOOOOOOOOOOOOOOOOOOOOOOOOOOOOOOOOOOOOOOO...&&&:-------------------------%%%XXX+OOOOOOOOOOOOOOOOOOOOOOOOOOOOOOOOOOOOOOOOOOOOOOOOOOOOOOOOOOOOOOOOOOOOOOOOOOOOOOOOOOOOOOOOOOOOOOOOOOOOOOOOOOOOOOOOOOOOOOOOO...",
"XXX+OOOOOOOOOOOOOOOOOOOOOOOOOOOOOOOOOOOOOOOOOOOOOOOOOOOOOOOOOOOOOOOOOOOOOOOOOOOOOOOOOOOOOOOOOOOOOOOOOOOOOOOOOOOOOOOOOOOOOOOOO...&&&:-------------------------%%%XXX+OOOOOOOOOOOOOOOOOOOOOOOOOOOOOOOOOOOOOOOOOOOOOOOOOOOOOOOOOOOOOOOOOOOOOOOOOOOOOOOOOOOOOOOOOOOOOOOOOOOOOOOOOOOOOOOOOOOOOOOOO...",
"XXo                                                                                                +OOOOOOOOOOOOOOOOOOOOOOOOO...&&&:-------------------------%%%XXX+OOOOOOOOOOOOOOOOOOOOOOOOO                                                                                                ...",
"Xo                                                                                                X+OOOOOOOOOOOOOOOOOOOOOOOOO...&&&:-------------------------%%%XXX+OOOOOOOOOOOOOOOOOOOOOOOOO.                                                                                                ..",
"o                                                                                                XX+OOOOOOOOOOOOOOOOOOOOOOOOO...&&&:-------------------------%%%XXX+OOOOOOOOOOOOOOOOOOOOOOOOO..                                                                                                .",
",;;;;;;;;;;;;;;;;;;;;;;;;;;;;;;;;;;;;;;;;;;;;;;;,;;;;;;;;;;;;;;;;;;;;;;;;;;;;;;;;;;;;;;;;;;;;;;;XXX+OOOOOOOOOOOOOOOOOOOOOOOOO...&&&:-------------------------%%%XXX+OOOOOOOOOOOOOOOOOOOOOOOOO...,;;;;;;;;;;;;;;;;;;;;;;;;;;;;;;;;;;;;;;;;;;;;;;;,;;;;;;;;;;;;;;;;;;;;;;;;;;;;;;;;;;;;;;;;;;;;;;;",
"*,;;;;;;;;;;;;;;;;;;;;;;;;;;;;;;;;;;;;;;;;;;;;;$*,;;;;;;;;;;;;;;;;;;;;;;;;;;;;;;;;;;;;;;;;;;;;;$XXX+OOOOOOOOOOOOOOOOOOOOOOOOO...&&&:-------------------------%%%XXX+OOOOOOOOOOOOOOOOOOOOOOOOO...*,;;;;;;;;;;;;;;;;;;;;;;;;;;;;;;;;;;;;;;;;;;;;;$*,;;;;;;;;;;;;;;;;;;;;;;;;;;;;;;;;;;;;;;;;;;;;;$",
"**,;;;;;;;;;;;;;;;;;;;;;;;;;;;;;;;;;;;;;;;;;;;$$**,;;;;;;;;;;;;;;;;;;;;;;;;;;;;;;;;;;;;;;;;;;;$$XXX+OOOOOOOOOOOOOOOOOOOOOOOOO...&&&:-------------------------%%%XXX+OOOOOOOOOOOOOOOOOOOOOOOOO...**,;;;;;;;;;;;;;;;;;;;;;;;;;;;;;;;;;;;;;;;;;;;$$**,;;;;;;;;;;;;;;;;;;;;;;;;;;;;;;;;;;;;;;;;;;;$$",
"***,,,,,,,,,,,,,,,,,,,,,,,,,,,,,,,,,,,,,,,,,,$$$***,,,,,,,,,,,,,,,,,,,,,,,,,,,,,,,,,,,,,,,,,,$$$XXX+OOOOOOOOOOOOOOOOOOOOOOOOO...&&&:-------------------------%%%XXX+OOOOOOOOOOOOOOOOOOOOOOOOO...***,,,,,,,,,,,,,,,,,,,,,,,,,,,,,,,,,,,,,,,,,,$$$***,,,,,,,,,,,,,,,,,,,,,,,,,,,,,,,,,,,,,,,,,,$$$",
"***,>>>>>>>>>>>>>>>>>>>>>>>>>>>>>>>>>>>>>>>>>$$$***,>>>>>>>>>>>>>>>>>>>>>>>>>>>>>>>>>>>>>>>>>$$$XXX+OOOOOOOOOOOOOOOOOOOOOOOOO...&&&:-------------------------%%%XXX+OOOOOOOOOOOOOOOOOOOOOOOOO...***,>>>>>>>>>>>>>>>>>>>>>>>>>>>>>>>>>>>>>>>>>$$$***,>>>>>>>>>>>>>>>>>>>>>>>>>>>>>>>>>>>>>>>>>$$$",
"***,>>>>>>>>>>>>>>>>>>>>>>>>>>>>>>>>>>>>>>>>>$$$***,>>>>>>>>>>>>>>>>>>>>>>>>>>>>>>>>>>>>>>>>>$$$XXX+OOOOOOOOOOOOOOOOOOOOOOOOO...&&&:-------------------------%%%XXX+OOOOOOOOOOOOOOOOOOOOOOOOO...***,>>>>>>>>>>>>>>>>>>>>>>>>>>>>>>>>>>>>>>>>>$$$***,>>>>>>>>>>>>>>>>>>>>>>>>>>>>>>>>>>>>>>>>>$$$",
"***,>>>>>>>>>>>>>>>>>>>>>>>>>>>>>>>>>>>>>>>>>$$$***,>>>>>>>>>>>>>>>>>>>>>>>>>>>>>>>>>>>>>>>>>$$$XXX+OOOOOOOOOOOOOOOOOOOOOOOOO...&&&:-------------------------%%%XXX+OOOOOOOOOOOOOOOOOOOOOOOOO...***,>>>>>>>>>>>>>>>>>>>>>>>>>>>>>>>>>>>>>>>>>$$$***,>>>>>>>>>>>>>>>>>>>>>>>>>>>>>>>>>>>>>>>>>$$$",
"***,>>>>>>>>>>>>>>>>>>>>>>>>>>>>>>>>>>>>>>>>>$$$***,>>>>>>>>>>>>>>>>>>>>>>>>>>>>>>>>>>>>>>>>>$$$XXX+OOOOOOOOOOOOOOOOOOOOOOOOO...&&&:-------------------------%%%XXX+OOOOOOOOOOOOOOOOOOOOOOOOO...***,>>>>>>>>>>>>>>>>>>>>>>>>>>>>>>>>>>>>>>>>>$$$***,>>>>>>>>>>>>>>>>>>>>>>>>>>>>>>>>>>>>>>>>>$$$",
"***,>>>>>>>>>>>>>>>>>>>>>>>>>>>>>>>>>>>>>>>>>$$$***,>>>>>>>>>>>>>>>>>>>>>>>>>>>>>>>>>>>>>>>>>$$$XXX+OOOOOOOOOOOOOOOOOOOOOOOOO...&&&:-------------------------%%%XXX+OOOOOOOOOOOOOOOOOOOOOOOOO...***,>>>>>>>>>>>>>>>>>>>>>>>>>>>>>>>>>>>>>>>>>$$$***,>>>>>>>>>>>>>>>>>>>>>>>>>>>>>>>>>>>>>>>>>$$$",
"***,>>>>>>>>>>>>>>>>>>>>>>>>>>>>>>>>>>>>>>>>>$$$***,>>>>>>>>>>>>>>>>>>>>>>>>>>>>>>>>>>>>>>>>>$$$XXX+OOOOOOOOOOOOOOOOOOOOOOOOO...&&&:-------------------------%%%XXX+OOOOOOOOOOOOOOOOOOOOOOOOO...***,>>>>>>>>>>>>>>>>>>>>>>>>>>>>>>>>>>>>>>>>>$$$***,>>>>>>>>>>>>>>>>>>>>>>>>>>>>>>>>>>>>>>>>>$$$",
"***,>>>>>>>>>>>>>>>>>>>>>>>>>>>>>>>>>>>>>>>>>$$$***,>>>>>>>>>>>>>>>>>>>>>>>>>>>>>>>>>>>>>>>>>$$$XXX+OOOOOOOOOOOOOOOOOOOOOOOOO...&&&:-------------------------%%%XXX+OOOOOOOOOOOOOOOOOOOOOOOOO...***,>>>>>>>>>>>>>>>>>>>>>>>>>>>>>>>>>>>>>>>>>$$$***,>>>>>>>>>>>>>>>>>>>>>>>>>>>>>>>>>>>>>>>>>$$$",
"***,>>>>>>>>>>>>>>>>>>>>>>>>>>>>>>>>>>>>>>>>>$$$***,>>>>>>>>>>>>>>>>>>>>>>>>>>>>>>>>>>>>>>>>>$$$XXX+OOOOOOOOOOOOOOOOOOOOOOOOO...&&&:-------------------------%%%XXX+OOOOOOOOOOOOOOOOOOOOOOOOO...***,>>>>>>>>>>>>>>>>>>>>>>>>>>>>>>>>>>>>>>>>>$$$***,>>>>>>>>>>>>>>>>>>>>>>>>>>>>>>>>>>>>>>>>>$$$",
"***,>>>>>>>>>>>>>>>>>>>>>>>>>>>>>>>>>>>>>>>>>$$$***,>>>>>>>>>>>>>>>>>>>>>>>>>>>>>>>>>>>>>>>>>$$$XXX+OOOOOOOOOOOOOOOOOOOOOOOOO...&&&:-------------------------%%%XXX+OOOOOOOOOOOOOOOOOOOOOOOOO...***,>>>>>>>>>>>>>>>>>>>>>>>>>>>>>>>>>>>>>>>>>$$$***,>>>>>>>>>>>>>>>>>>>>>>>>>>>>>>>>>>>>>>>>>$$$",
"***,>>>>>>>>>>>>>>>>>>>>>>>>>>>>>>>>>>>>>>>>>$$$***,>>>>>>>>>>>>>>>>>>>>>>>>>>>>>>>>>>>>>>>>>$$$XXX+OOOOOOOOOOOOOOOOOOOOOOOOO...&&&:-------------------------%%%XXX+OOOOOOOOOOOOOOOOOOOOOOOOO...***,>>>>>>>>>>>>>>>>>>>>>>>>>>>>>>>>>>>>>>>>>$$$***,>>>>>>>>>>>>>>>>>>>>>>>>>>>>>>>>>>>>>>>>>$$$",
"***,>>>>>>>>>>>>>>>>>>>>>>>>>>>>>>>>>>>>>>>>>$$$***,>>>>>>>>>>>>>>>>>>>>>>>>>>>>>>>>>>>>>>>>>$$$XXX+OOOOOOOOOOOOOOOOOOOOOOOOO...&&&:-------------------------%%%XXX+OOOOOOOOOOOOOOOOOOOOOOOOO...***,>>>>>>>>>>>>>>>>>>>>>>>>>>>>>>>>>>>>>>>>>$$$***,>>>>>>>>>>>>>>>>>>>>>>>>>>>>>>>>>>>>>>>>>$$$",
"***,>>>>>>>>>>>>>>>>>>>>>>>>>>>>>>>>>>>>>>>>>$$$***,>>>>>>>>>>>>>>>>>>>>>>>>>>>>>>>>>>>>>>>>>$$$XXX+OOOOOOOOOOOOOOOOOOOOOOOOO...&&&:-------------------------%%%XXX+OOOOOOOOOOOOOOOOOOOOOOOOO...***,>>>>>>>>>>>>>>>>>>>>>>>>>>>>>>>>>>>>>>>>>$$$***,>>>>>>>>>>>>>>>>>>>>>>>>>>>>>>>>>>>>>>>>>$$$",
"***,>>>>>>>>>>>>>>>>>>>>>>>>>>>>>>>>>>>>>>>>>$$$***,>>>>>>>>>>>>>>>>>>>>>>>>>>>>>>>>>>>>>>>>>$$$XXX+OOOOOOOOOOOOOOOOOOOOOOOOO...&&&:-------------------------%%%XXX+OOOOOOOOOOOOOOOOOOOOOOOOO...***,>>>>>>>>>>>>>>>>>>>>>>>>>>>>>>>>>>>>>>>>>$$$***,>>>>>>>>>>>>>>>>>>>>>>>>>>>>>>>>>>>>>>>>>$$$",
"***,>>>>>>>>>>>>>>>>>>>>>>>>>>>>>>>>>>>>>>>>>$$$***,>>>>>>>>>>>>>>>>>>>>>>>>>>>>>>>>>>>>>>>>>$$$XXX+OOOOOOOOOOOOOOOOOOOOOOOOO...&&&:-------------------------%%%XXX+OOOOOOOOOOOOOOOOOOOOOOOOO...***,>>>>>>>>>>>>>>>>>>>>>>>>>>>>>>>>>>>>>>>>>$$$***,>>>>>>>>>>>>>>>>>>>>>>>>>>>>>>>>>>>>>>>>>$$$",
"***,>>>>>>>>>>>>>>>>>>>>>>>>>>>>>>>>>>>>>>>>>$$$***,>>>>>>>>>>>>>>>>>>>>>>>>>>>>>>>>>>>>>>>>>$$$XXX+OOOOOOOOOOOOOOOOOOOOOOOOO...&&&:-------------------------%%%XXX+OOOOOOOOOOOOOOOOOOOOOOOOO...***,>>>>>>>>>>>>>>>>>>>>>>>>>>>>>>>>>>>>>>>>>$$$***,>>>>>>>>>>>>>>>>>>>>>>>>>>>>>>>>>>>>>>>>>$$$",
"***,>>>>>>>>>>>>>>>>>>>>>>>>>>>>>>>>>>>>>>>>>$$$***,>>>>>>>>>>>>>>>>>>>>>>>>>>>>>>>>>>>>>>>>>$$$XXX+OOOOOOOOOOOOOOOOOOOOOOOOO...&&&:-------------------------%%%XXX+OOOOOOOOOOOOOOOOOOOOOOOOO...***,>>>>>>>>>>>>>>>>>>>>>>>>>>>>>>>>>>>>>>>>>$$$***,>>>>>>>>>>>>>>>>>>>>>>>>>>>>>>>>>>>>>>>>>$$$",
"***,>>>>>>>>>>>>>>>>>>>>>>>>>>>>>>>>>>>>>>>>>$$$***,>>>>>>>>>>>>>>>>>>>>>>>>>>>>>>>>>>>>>>>>>$$$XXX+OOOOOOOOOOOOOOOOOOOOOOOOO...&&&:-------------------------%%%XXX+OOOOOOOOOOOOOOOOOOOOOOOOO...***,>>>>>>>>>>>>>>>>>>>>>>>>>>>>>>>>>>>>>>>>>$$$***,>>>>>>>>>>>>>>>>>>>>>>>>>>>>>>>>>>>>>>>>>$$$",
"***,>>>>>>>>>>>>>>>>>@@>>$$>>>>>>>>>>>>>>>>>>$$$***,>>>>>>>>>>>>>>>>>>>>>>>>>>>>>>>>>>>>>>>>>$$$XXX+OOOOOOOOOOOOOOOOOOOOOOOOO...&&&:-------------------------%%%XXX+OOOOOOOOOOOOOOOOOOOOOOOOO...***,>>>>>>>>>>>>>>>>>@@>>$$>>>>>>>>>>>>>>>>>>$$$***,>>>>>>>>>>>>>>>>>>>>>>>>>>>>>>>>>>>>>>>>>$$$",
"***,>>>>>>>>>>>>>>>>@$$@$**$>>>>>>>>>>>>>>>>>$$$***,>>>>>>>>>>>>>>>>>>>>>>>>>>>>>>>>>>>>>>>>>$$$XXX+OOOOOOOOOOOOOOOOOOOOOOOOO...&&&:-------------------------%%%XXX+OOOOOOOOOOOOOOOOOOOOOOOOO...***,>>>>>>>>>>>>>>>>@$$@$**$>>>>>>>>>>>>>>>>>$$$***,>>>>>>>>>>>>>>>>>>>>>>>>>>>>>>>>>>>>>>>>>$$$",
"***,>>>>>>>>>>>>>>>>@$*****$>>>>>>>>>>>>>>>>>$$$***,>>>>>>>>>>>>>>>>>>>>>>>>>>>>>>>>>>>>>>>>>$$$XXX+OOOOOOOOOOOOOOOOOOOOOOOOO...&&&:-------------------------%%%XXX+OOOOOOOOOOOOOOOOOOOOOOOOO...***,>>>>>>>>>>>>>>>>@$*****$>>>>>>>>>>>>>>>>>$$$***,>>>>>>>>>>>>>>>>>>>>>>>>>>>>>>>>>>>>>>>>>$$$",
"***,>>>>>>>>>>>>>>>>@$*****$>>>>>>>>>>>>>>>>>$$$***,>>>>>>>>>>>>>>>>>>>>>>>>>>>>>>>>>>>>>>>>>$$$XXX+OOOOOOOOOOOOOOOOOOOOOOOOO...&&&:-------------------------%%%XXX+OOOOOOOOOOOOOOOOOOOOOOOOO...***,>>>>>>>>>>>>>>>>@$*****$>>>>>>>>>>>>>>>>>$$$***,>>>>>>>>>>>>>>>>>>>>>>>>>>>>>>>>>>>>>>>>>$$$",
"***,>>>>>>>>>>>>>>>>>@$***$>>>>>>>>>>>>>>>>>>$$$***,>>>>>>>>>>>>>>>>>>>>>>>>>>>>>>>>>>>>>>>>>$$$XXX+OOOOOOOOOOOOOOOOOOOOOOOOO...&&&:-------------------------%%%XXX+OOOOOOOOOOOOOOOOOOOOOOOOO...***,>>>>>>>>>>>>>>>>>@$***$>>>>>>>>>>>>>>>>>>$$$***,>>>>>>>>>>>>>>>>>>>>>>>>>>>>>>>>>>>>>>>>>$$$",
"***,>>>>>>>>>>>>>>>>>>@$*$>>>>>>>>>>>>>>>>>>>$$$***,>>>>>>>>>>>>>>>>>>>>>>>>>>>>>>>>>>>>>>>>>$$$XXX+OOOOOOOOOOOOOOOOOOOOOOOOO...&&&:-------------------------%%%XXX+OOOOOOOOOOOOOOOOOOOOOOOOO...***,>>>>>>>>>>>>>>>>>>@$*$>>>>>>>>>>>>>>>>>>>$$$***,>>>>>>>>>>>>>>>>>>>>>>>>>>>>>>>>>>>>>>>>>$$$",
"***,>>>>>>>>>>>>>>>>>>>@$>>>>>>>>>>>>>>>>>>>>$$$***,>>>>>>>>>>>>>>>>>>>>>>>>>>>>>>>>>>>>>>>>>$$$XXX+OOOOOOOOOOOOOOOOOOOOOOOOO...&&&:-------------------------%%%XXX+OOOOOOOOOOOOOOOOOOOOOOOOO...***,>>>>>>>>>>>>>>>>>>>@$>>>>>>>>>>>>>>>>>>>>$$$***,>>>>>>>>>>>>>>>>>>>>>>>>>>>>>>>>>>>>>>>>>$$$",
"***,>>>>>>>>>>>>>>>>>>>>>>>>>>>>>>>>>>>>>>>>>$$$***,>>>>>>>>>>>>>>>>>>>>>>>>>>>>>>>>>>>>>>>>>$$$XXX+OOOOOOOOOOOOOOOOOOOOOOOOO...&&&:-------------------------%%%XXX+OOOOOOOOOOOOOOOOOOOOOOOOO...***,>>>>>>>>>>>>>>>>>>>>>>>>>>>>>>>>>>>>>>>>>$$$***,>>>>>>>>>>>>>>>>>>>>>>>>>>>>>>>>>>>>>>>>>$$$",
"***,>>>>>>>>>>>>>>>>>>>>>>>>>>>>>>>>>>>>>>>>>$$$***,>>>>>>>>>>>>>>>>>>>>>>>>>>>>>>>>>>>>>>>>>$$$XXX+OOOOOOOOOOOOOOOOOOOOOOOOO...&&&:-------------------------%%%XXX+OOOOOOOOOOOOOOOOOOOOOOOOO...***,>>>>>>>>>>>>>>>>>>>>>>>>>>>>>>>>>>>>>>>>>$$$***,>>>>>>>>>>>>>>>>>>>>>>>>>>>>>>>>>>>>>>>>>$$$",
"***,>>>>>>>>>>>>>>>>>>>>>>>>>>>>>>>>>>>>>>>>>$$$***,>>>>>>>>>>>>>>>>>>>>>>>>>>>>>>>>>>>>>>>>>$$$XXX+OOOOOOOOOOOOOOOOOOOOOOOOO...&&&:-------------------------%%%XXX+OOOOOOOOOOOOOOOOOOOOOOOOO...***,>>>>>>>>>>>>>>>>>>>>>>>>>>>>>>>>>>>>>>>>>$$$***,>>>>>>>>>>>>>>>>>>>>>>>>>>>>>>>>>>>>>>>>>$$$",
"***,>>>>>>>>>>>>>>>>>>>>>>>>>>>>>>>>>>>>>>>>>$$$***,>>>>>>>>>>>>>>>>>>>>>>>>>>>>>>>>>>>>>>>>>$$$XXX+OOOOOOOOOOOOOOOOOOOOOOOOO...&&&:-------------------------%%%XXX+OOOOOOOOOOOOOOOOOOOOOOOOO...***,>>>>>>>>>>>>>>>>>>>>>>>>>>>>>>>>>>>>>>>>>$$$***,>>>>>>>>>>>>>>>>>>>>>>>>>>>>>>>>>>>>>>>>>$$$",
"***,>>>>>>>>>>>>>>>>>>>>>>>>>>>>>>>>>>>>>>>>>$$$***,>>>>>>>>>>>>>>>>>>>>>>>>>>>>>>>>>>>>>>>>>$$$XXX+OOOOOOOOOOOOOOOOOOOOOOOOO...&&&:-------------------------%%%XXX+OOOOOOOOOOOOOOOOOOOOOOOOO...***,>>>>>>>>>>>>>>>>>>>>>>>>>>>>>>>>>>>>>>>>>$$$***,>>>>>>>>>>>>>>>>>>>>>>>>>>>>>>>>>>>>>>>>>$$$",
"***,>>>>>>>>>>>>>>>>>>>>>>>>>>>>>>>>>>>>>>>>>$$$***,>>>>>>>>>>>>>>>>>>>>>>>>>>>>>>>>>>>>>>>>>$$$XXX+OOOOOOOOOOOOOOOOOOOOOOOOO...&&&:-------------------------%%%XXX+OOOOOOOOOOOOOOOOOOOOOOOOO...***,>>>>>>>>>>>>>>>>>>>>>>>>>>>>>>>>>>>>>>>>>$$$***,>>>>>>>>>>>>>>>>>>>>>>>>>>>>>>>>>>>>>>>>>$$$",
"***,>>>>>>>>>>>>>>>>>>>>>>>>>>>>>>>>>>>>>>>>>$$$***,>>>>>>>>>>>>>>>>>>>>>>>>>>>>>>>>>>>>>>>>>$$$XXX+OOOOOOOOOOOOOOOOOOOOOOOOO...&&&:-------------------------%%%XXX+OOOOOOOOOOOOOOOOOOOOOOOOO...***,>>>>>>>>>>>>>>>>>>>>>>>>>>>>>>>>>>>>>>>>>$$$***,>>>>>>>>>>>>>>>>>>>>>>>>>>>>>>>>>>>>>>>>>$$$",
"***,>>>>>>>>>>>>>>>>>>>>>>>>>>>>>>>>>>>>>>>>>$$$***,>>>>>>>>>>>>>>>>>>>>>>>>>>>>>>>>>>>>>>>>>$$$XXX+OOOOOOOOOOOOOOOOOOOOOOOOO...&&&:-------------------------%%%XXX+OOOOOOOOOOOOOOOOOOOOOOOOO...***,>>>>>>>>>>>>>>>>>>>>>>>>>>>>>>>>>>>>>>>>>$$$***,>>>>>>>>>>>>>>>>>>>>>>>>>>>>>>>>>>>>>>>>>$$$",
"***,>>>>>>>>>>>>>>>>>>>>>>>>>>>>>>>>>>>>>>>>>$$$***,>>>>>>>>>>>>>>>>>>>>>>>>>>>>>>>>>>>>>>>>>$$$XXX+OOOOOOOOOOOOOOOOOOOOOOOOO...&&&:-------------------------%%%XXX+OOOOOOOOOOOOOOOOOOOOOOOOO...***,>>>>>>>>>>>>>>>>>>>>>>>>>>>>>>>>>>>>>>>>>$$$***,>>>>>>>>>>>>>>>>>>>>>>>>>>>>>>>>>>>>>>>>>$$$",
"***,>>>>>>>>>>>>>>>>>>>>>>>>>>>>>>>>>>>>>>>>>$$$***,>>>>>>>>>>>>>>>>>@@>>$$>>>>>>>>>>>>>>>>>>$$$XXX+OOOOOOOOOOOOOOOOOOOOOOOOO...&&&:-------------------------%%%XXX+OOOOOOOOOOOOOOOOOOOOOOOOO...***,>>>>>>>>>>>>>>>>>>>>>>>>>>>>>>>>>>>>>>>>>$$$***,>>>>>>>>>>>>>>>>>@@>>$$>>>>>>>>>>>>>>>>>>$$$",
"***,>>>>>>>>>>>>>>>>>>>>>>>>>>>>>>>>>>>>>>>>>$$$***,>>>>>>>>>>>>>>>>@$$@$**$>>>>>>>>>>>>>>>>>$$$XXX+OOOOOOOOOOOOOOOOOOOOOOOOO...&&&:-------------------------%%%XXX+OOOOOOOOOOOOOOOOOOOOOOOOO...***,>>>>>>>>>>>>>>>>>>>>>>>>>>>>>>>>>>>>>>>>>$$$***,>>>>>>>>>>>>>>>>@$$@$**$>>>>>>>>>>>>>>>>>$$$",
"***,>>>>>>>>>>>>>>>>>>>>>>>>>>>>>>>>>>>>>>>>>$$$***,>>>>>>>>>>>>>>>>@$*****$>>>>>>>>>>>>>>>>>$$$XXX+OOOOOOOOOOOOOOOOOOOOOOOOO...&&&:-------------------------%%%XXX+OOOOOOOOOOOOOOOOOOOOOOOOO...***,>>>>>>>>>>>>>>>>>>>>>>>>>>>>>>>>>>>>>>>>>$$$***,>>>>>>>>>>>>>>>>@$*****$>>>>>>>>>>>>>>>>>$$$",
"***,>>>>>>>>>>>>>>>>>>>>>>>>>>>>>>>>>>>>>>>>>$$$***,>>>>>>>>>>>>>>>>@$*****$>>>>>>>>>>>>>>>>>$$$XXX+OOOOOOOOOOOOOOOOOOOOOOOOO...&&&:-------------------------%%%XXX+OOOOOOOOOOOOOOOOOOOOOOOOO...***,>>>>>>>>>>>>>>>>>>>>>>>>>>>>>>>>>>>>>>>>>$$$***,>>>>>>>>>>>>>>>>@$*****$>>>>>>>>>>>>>>>>>$$$",
"***,>>>>>>>>>>>>>>>>>>>>>>>>>>>>>>>>>>>>>>>>>$$$***,>>>>>>>>>>>>>>>>>@$***$>>>>>>>>>>>>>>>>>>$$$XXX+OOOOOOOOOOOOOOOOOOOOOOOOO...&&&:-------------------------%%%XXX+OOOOOOOOOOOOOOOOOOOOOOOOO...***,>>>>>>>>>>>>>>>>>>>>>>>>>>>>>>>>>>>>>>>>>$$$***,>>>>>>>>>>>>>>>>>@$***$>>>>>>>>>>>>>>>>>>$$$",
"***,>>>>>>>>>>>>>>>>>>>>>>>>>>>>>>>>>>>>>>>>>$$$***,>>>>>>>>>>>>>>>>>>@$*$>>>>>>>>>>>>>>>>>>>$$$XXX+OOOOOOOOOOOOOOOOOOOOOOOOO...&&&:-------------------------%%%XXX+OOOOOOOOOOOOOOOOOOOOOOOOO...***,>>>>>>>>>>>>>>>>>>>>>>>>>>>>>>>>>>>>>>>>>$$$***,>>>>>>>>>>>>>>>>>>@$*$>>>>>>>>>>>>>>>>>>>$$$",
"***,>>>>>>>>>>>>>>>>>>>>>>>>>>>>>>>>>>>>>>>>>$$$***,>>>>>>>>>>>>>>>>>>>@$>>>>>>>>>>>>>>>>>>>>$$$XXX+OOOOOOOOOOOOOOOOOOOOOOOOO...&&&:-------------------------%%%XXX+OOOOOOOOOOOOOOOOOOOOOOOOO...***,>>>>>>>>>>>>>>>>>>>>>>>>>>>>>>>>>>>>>>>>>$$$***,>>>>>>>>>>>>>>>>>>>@$>>>>>>>>>>>>>>>>>>>>$$$",
"***,>>>>>>>>>>>>>>>>>>>>>>>>>>>>>>>>>>>>>>>>>$$$***,>>>>>>>>>>>>>>>>>>>>>>>>>>>>>>>>>>>>>>>>>$$$XXX+OOOOOOOOOOOOOOOOOOOOOOOOO...&&&:-------------------------%%%XXX+OOOOOOOOOOOOOOOOOOOOOOOOO...***,>>>>>>>>>>>>>>>>>>>>>>>>>>>>>>>>>>>>>>>>>$$$***,>>>>>>>>>>>>>>>>>>>>>>>>>>>>>>>>>>>>>>>>>$$$",
"***,>>>>>>>>>>>>>>>>>>>>>>>>>>>>>>>>>>>>>>>>>$$$***,>>>>>>>>>>>>>>>>>>>>>>>>>>>>>>>>>>>>>>>>>$$$XXX+OOOOOOOOOOOOOOOOOOOOOOOOO...&&&:-------------------------%%%XXX+OOOOOOOOOOOOOOOOOOOOOOOOO...***,>>>>>>>>>>>>>>>>>>>>>>>>>>>>>>>>>>>>>>>>>$$$***,>>>>>>>>>>>>>>>>>>>>>>>>>>>>>>>>>>>>>>>>>$$$",
"***,>>>>>>>>>>>>>>>>>>>>>>>>>>>>>>>>>>>>>>>>>$$$***,>>>>>>>>>>>>>>>>>>>>>>>>>>>>>>>>>>>>>>>>>$$$XXX+OOOOOOOOOOOOOOOOOOOOOOOOO...&&&:-------------------------%%%XXX+OOOOOOOOOOOOOOOOOOOOOOOOO...***,>>>>>>>>>>>>>>>>>>>>>>>>>>>>>>>>>>>>>>>>>$$$***,>>>>>>>>>>>>>>>>>>>>>>>>>>>>>>>>>>>>>>>>>$$$",
"***,>>>>>>>>>>>>>>>>>>>>>>>>>>>>>>>>>>>>>>>>>$$$***,>>>>>>>>>>>>>>>>>>>>>>>>>>>>>>>>>>>>>>>>>$$$XXX+OOOOOOOOOOOOOOOOOOOOOOOOO...&&&:-------------------------%%%XXX+OOOOOOOOOOOOOOOOOOOOOOOOO...***,>>>>>>>>>>>>>>>>>>>>>>>>>>>>>>>>>>>>>>>>>$$$***,>>>>>>>>>>>>>>>>>>>>>>>>>>>>>>>>>>>>>>>>>$$$",
"***,>>>>>>>>>>>>>>>>>>>>>>>>>>>>>>>>>>>>>>>>>$$$***,>>>>>>>>>>>>>>>>>>>>>>>>>>>>>>>>>>>>>>>>>$$$XXX+OOOOOOOOOOOOOOOOOOOOOOOOO...&&&:-------------------------%%%XXX+OOOOOOOOOOOOOOOOOOOOOOOOO...***,>>>>>>>>>>>>>>>>>>>>>>>>>>>>>>>>>>>>>>>>>$$$***,>>>>>>>>>>>>>>>>>>>>>>>>>>>>>>>>>>>>>>>>>$$$",
"***,>>>>>>>>>>>>>>>>>>>>>>>>>>>>>>>>>>>>>>>>>$$$***,>>>>>>>>>>>>>>>>>>>>>>>>>>>>>>>>>>>>>>>>>$$$XXX+OOOOOOOOOOOOOOOOOOOOOOOOO...&&&:-------------------------%%%XXX+OOOOOOOOOOOOOOOOOOOOOOOOO...***,>>>>>>>>>>>>>>>>>>>>>>>>>>>>>>>>>>>>>>>>>$$$***,>>>>>>>>>>>>>>>>>>>>>>>>>>>>>>>>>>>>>>>>>$$$",
"***,>>>>>>>>>>>>>>>>>>>>>>>>>>>>>>>>>>>>>>>>>$$$***,>>>>>>>>>>>>>>>>>>>>>>>>>>>>>>>>>>>>>>>>>$$$XXX+OOOOOOOOOOOOOOOOOOOOOOOOO...&&&:-------------------------%%%XXX+OOOOOOOOOOOOOOOOOOOOOOOOO...***,>>>>>>>>>>>>>>>>>>>>>>>>>>>>>>>>>>>>>>>>>$$$***,>>>>>>>>>>>>>>>>>>>>>>>>>>>>>>>>>>>>>>>>>$$$",
"***,>>>>>>>>>>>>>>>>>>>>>>>>>>>>>>>>>>>>>>>>>$$$***,>>>>>>>>>>>>>>>>>>>>>>>>>>>>>>>>>>>>>>>>>$$$XXX+OOOOOOOOOOOOOOOOOOOOOOOOO...&&&:-------------------------%%%XXX+OOOOOOOOOOOOOOOOOOOOOOOOO...***,>>>>>>>>>>>>>>>>>>>>>>>>>>>>>>>>>>>>>>>>>$$$***,>>>>>>>>>>>>>>>>>>>>>>>>>>>>>>>>>>>>>>>>>$$$",
"***,>>>>>>>>>>>>>>>>>>>>>>>>>>>>>>>>>>>>>>>>>$$$***,>>>>>>>>>>>>>>>>>>>>>>>>>>>>>>>>>>>>>>>>>$$$XXX+OOOOOOOOOOOOOOOOOOOOOOOOO...&&&:-------------------------%%%XXX+OOOOOOOOOOOOOOOOOOOOOOOOO...***,>>>>>>>>>>>>>>>>>>>>>>>>>>>>>>>>>>>>>>>>>$$$***,>>>>>>>>>>>>>>>>>>>>>>>>>>>>>>>>>>>>>>>>>$$$",
"***,>>>>>>>>>>>>>>>>>@@>>$$>>>>>>>>>>>>>>>>>>$$$***,>>>>>>>>>>>>>>>>>>>>>>>>>>>>>>>>>>>>>>>>>$$$XXX+OOOOOOOOOOOOOOOOOOOOOOOOO...&&&:-------------------------%%%XXX+OOOOOOOOOOOOOOOOOOOOOOOOO...***,>>>>>>>>>>>>>>>>>@@>>$$>>>>>>>>>>>>>>>>>>$$$***,>>>>>>>>>>>>>>>>>>>>>>>>>>>>>>>>>>>>>>>>>$$$",
"***,>>>>>>>>>>>>>>>>@$$@$**$>>>>>>>>>>>>>>>>>$$$***,>>>>>>>>>>>>>>>>>>>>>>>>>>>>>>>>>>>>>>>>>$$$XXX+OOOOOOOOOOOOOOOOOOOOOOOOO...&&&:-------------------------%%%XXX+OOOOOOOOOOOOOOOOOOOOOOOOO...***,>>>>>>>>>>>>>>>>@$$@$**$>>>>>>>>>>>>>>>>>$$$***,>>>>>>>>>>>>>>>>>>>>>>>>>>>>>>>>>>>>>>>>>$$$",
"***,>>>>>>>>>>>>>>>>@$*****$>>>>>>>>>>>>>>>>>$$$***,>>>>>>>>>>>>>>>>>>>>>>>>>>>>>>>>>>>>>>>>>$$$XXX+OOOOOOOOOOOOOOOOOOOOOOOOO...&&&:-------------------------%%%XXX+OOOOOOOOOOOOOOOOOOOOOOOOO...***,>>>>>>>>>>>>>>>>@$*****$>>>>>>>>>>>>>>>>>$$$***,>>>>>>>>>>>>>>>>>>>>>>>>>>>>>>>>>>>>>>>>>$$$",
"***,>>>>>>>>>>>>>>>>@$*****$>>>>>>>>>>>>>>>>>$$$***,>>>>>>>>>>>>>>>>>>>>>>>>>>>>>>>>>>>>>>>>>$$$XXX+OOOOOOOOOOOOOOOOOOOOOOOOO...&&&:-------------------------%%%XXX+OOOOOOOOOOOOOOOOOOOOOOOOO...***,>>>>>>>>>>>>>>>>@$*****$>>>>>>>>>>>>>>>>>$$$***,>>>>>>>>>>>>>>>>>>>>>>>>>>>>>>>>>>>>>>>>>$$$",
"***,>>>>>>>>>>>>>>>>>@$***$>>>>>>>>>>>>>>>>>>$$$***,>>>>>>>>>>>>>>>>>>>>>>>>>>>>>>>>>>>>>>>>>$$$XXX+OOOOOOOOOOOOOOOOOOOOOOOOO...&&&:-------------------------%%%XXX+OOOOOOOOOOOOOOOOOOOOOOOOO...***,>>>>>>>>>>>>>>>>>@$***$>>>>>>>>>>>>>>>>>>$$$***,>>>>>>>>>>>>>>>>>>>>>>>>>>>>>>>>>>>>>>>>>$$$",
"***,>>>>>>>>>>>>>>>>>>@$*$>>>>>>>>>>>>>>>>>>>$$$***,>>>>>>>>>>>>>>>>>>>>>>>>>>>>>>>>>>>>>>>>>$$$XXX+OOOOOOOOOOOOOOOOOOOOOOOOO...&&&:-------------------------%%%XXX+OOOOOOOOOOOOOOOOOOOOOOOOO...***,>>>>>>>>>>>>>>>>>>@$*$>>>>>>>>>>>>>>>>>>>$$$***,>>>>>>>>>>>>>>>>>>>>>>>>>>>>>>>>>>>>>>>>>$$$",
"***,>>>>>>>>>>>>>>>>>>>@$>>>>>>>>>>>>>>>>>>>>$$$***,>>>>>>>>>>>>>>>>>>>>>>>>>>>>>>>>>>>>>>>>>$$$XXX+OOOOOOOOOOOOOOOOOOOOOOOOO...&&&:-------------------------%%%XXX+OOOOOOOOOOOOOOOOOOOOOOOOO...***,>>>>>>>>>>>>>>>>>>>@$>>>>>>>>>>>>>>>>>>>>$$$***,>>>>>>>>>>>>>>>>>>>>>>>>>>>>>>>>>>>>>>>>>$$$",
"***,>>>>>>>>>>>>>>>>>>>>>>>>>>>>>>>>>>>>>>>>>$$$***,>>>>>>>>>>>>>>>>>>>>>>>>>>>>>>>>>>>>>>>>>$$$XXX+OOOOOOOOOOOOOOOOOOOOOOOOO...&&&:-------------------------%%%XXX+OOOOOOOOOOOOOOOOOOOOOOOOO...***,>>>>>>>>>>>>>>>>>>>>>>>>>>>>>>>>>>>>>>>>>$$$***,>>>>>>>>>>>>>>>>>>>>>>>>>>>>>>>>>>>>>>>>>$$$",
"***,>>>>>>>>>>>>>>>>>>>>>>>>>>>>>>>>>>>>>>>>>$$$***,>>>>>>>>>>>>>>>>>>>>>>>>>>>>>>>>>>>>>>>>>$$$XXX+OOOOOOOOOOOOOOOOOOOOOOOOO...&&&:-------------------------%%%XXX+OOOOOOOOOOOOOOOOOOOOOOOOO...***,>>>>>>>>>>>>>>>>>>>>>>>>>>>>>>>>>>>>>>>>>$$$***,>>>>>>>>>>>>>>>>>>>>>>>>>>>>>>>>>>>>>>>>>$$$",
"***,>>>>>>>>>>>>>>>>>>>>>>>>>>>>>>>>>>>>>>>>>$$$***,>>>>>>>>>>>>>>>>>>>>>>>>>>>>>>>>>>>>>>>>>$$$XXX+OOOOOOOOOOOOOOOOOOOOOOOOO...&&&:-------------------------%%%XXX+OOOOOOOOOOOOOOOOOOOOOOOOO...***,>>>>>>>>>>>>>>>>>>>>>>>>>>>>>>>>>>>>>>>>>$$$***,>>>>>>>>>>>>>>>>>>>>>>>>>>>>>>>>>>>>>>>>>$$$",
"***,>>>>>>>>>>>>>>>>>>>>>>>>>>>>>>>>>>>>>>>>>$$$***,>>>>>>>>>>>>>>>>>>>>>>>>>>>>>>>>>>>>>>>>>$$$XXX+OOOOOOOOOOOOOOOOOOOOOOOOO...&&&:-------------------------%%%XXX+OOOOOOOOOOOOOOOOOOOOOOOOO...***,>>>>>>>>>>>>>>>>>>>>>>>>>>>>>>>>>>>>>>>>>$$$***,>>>>>>>>>>>>>>>>>>>>>>>>>>>>>>>>>>>>>>>>>$$$",
"***,>>>>>>>>>>>>>>>>>>>>>>>>>>>>>>>>>>>>>>>>>$$$***,>>>>>>>>>>>>>>>>>>>>>>>>>>>>>>>>>>>>>>>>>$$$XXX+OOOOOOOOOOOOOOOOOOOOOOOOO...&&&:-------------------------%%%XXX+OOOOOOOOOOOOOOOOOOOOOOOOO...***,>>>>>>>>>>>>>>>>>>>>>>>>>>>>>>>>>>>>>>>>>$$$***,>>>>>>>>>>>>>>>>>>>>>>>>>>>>>>>>>>>>>>>>>$$$",
"***,>>>>>>>>>>>>>>>>>>>>>>>>>>>>>>>>>>>>>>>>>$$$***,>>>>>>>>>>>>>>>>>>>>>>>>>>>>>>>>>>>>>>>>>$$$XXX+OOOOOOOOOOOOOOOOOOOOOOOOO...&&&:-------------------------%%%XXX+OOOOOOOOOOOOOOOOOOOOOOOOO...***,>>>>>>>>>>>>>>>>>>>>>>>>>>>>>>>>>>>>>>>>>$$$***,>>>>>>>>>>>>>>>>>>>>>>>>>>>>>>>>>>>>>>>>>$$$",
"***,>>>>>>>>>>>>>>>>>>>>>>>>>>>>>>>>>>>>>>>>>$$$***,>>>>>>>>>>>>>>>>>>>>>>>>>>>>>>>>>>>>>>>>>$$$XXX+OOOOOOOOOOOOOOOOOOOOOOOOO...&&&:-------------------------%%%XXX+OOOOOOOOOOOOOOOOOOOOOOOOO...***,>>>>>>>>>>>>>>>>>>>>>>>>>>>>>>>>>>>>>>>>>$$$***,>>>>>>>>>>>>>>>>>>>>>>>>>>>>>>>>>>>>>>>>>$$$",
"***,>>>>>>>>>>>>>>>>>>>>>>>>>>>>>>>>>>>>>>>>>$$$***,>>>>>>>>>>>>>>>>>>>>>>>>>>>>>>>>>>>>>>>>>$$$XXX+OOOOOOOOOOOOOOOOOOOOOOOOO...&&&:-------------------------%%%XXX+OOOOOOOOOOOOOOOOOOOOOOOOO...***,>>>>>>>>>>>>>>>>>>>>>>>>>>>>>>>>>>>>>>>>>$$$***,>>>>>>>>>>>>>>>>>>>>>>>>>>>>>>>>>>>>>>>>>$$$",
"***,>>>>>>>>>>>>>>>>>>>>>>>>>>>>>>>>>>>>>>>>>$$$***,>>>>>>>>>>>>>>>>>>>>>>>>>>>>>>>>>>>>>>>>>$$$XXX+OOOOOOOOOOOOOOOOOOOOOOOOO...&&&:-------------------------%%%XXX+OOOOOOOOOOOOOOOOOOOOOOOOO...***,>>>>>>>>>>>>>>>>>>>>>>>>>>>>>>>>>>>>>>>>>$$$***,>>>>>>>>>>>>>>>>>>>>>>>>>>>>>>>>>>>>>>>>>$$$",
"***,>>>>>>>>>>>>>>>>>>>>>>>>>>>>>>>>>>>>>>>>>$$$***,>>>>>>>>>>>>>>>>>@@>>$$>>>>>>>>>>>>>>>>>>$$$XXX+OOOOOOOOOOOOOOOOOOOOOOOOO...&&&:-------------------------%%%XXX+OOOOOOOOOOOOOOOOOOOOOOOOO...***,>>>>>>>>>>>>>>>>>>>>>>>>>>>>>>>>>>>>>>>>>$$$***,>>>>>>>>>>>>>>>>>@@>>$$>>>>>>>>>>>>>>>>>>$$$",
"***,>>>>>>>>>>>>>>>>>>>>>>>>>>>>>>>>>>>>>>>>>$$$***,>>>>>>>>>>>>>>>>@$$@$**$>>>>>>>>>>>>>>>>>$$$XXX+OOOOOOOOOOOOOOOOOOOOOOOOO...&&&:-------------------------%%%XXX+OOOOOOOOOOOOOOOOOOOOOOOOO...***,>>>>>>>>>>>>>>>>>>>>>>>>>>>>>>>>>>>>>>>>>$$$***,>>>>>>>>>>>>>>>>@$$@$**$>>>>>>>>>>>>>>>>>$$$",
"***,>>>>>>>>>>>>>>>>>>>>>>>>>>>>>>>>>>>>>>>>>$$$***,>>>>>>>>>>>>>>>>@$*****$>>>>>>>>>>>>>>>>>$$$XXX+OOOOOOOOOOOOOOOOOOOOOOOOO...&&&:-------------------------%%%XXX+OOOOOOOOOOOOOOOOOOOOOOOOO...***,>>>>>>>>>>>>>>>>>>>>>>>>>>>>>>>>>>>>>>>>>$$$***,>>>>>>>>>>>>>>>>@$*****$>>>>>>>>>>>>>>>>>$$$",
"***,>>>>>>>>>>>>>>>>>>>>>>>>>>>>>>>>>>>>>>>>>$$$***,>>>>>>>>>>>>>>>>@$*****$>>>>>>>>>>>>>>>>>$$$XXX+OOOOOOOOOOOOOOOOOOOOOOOOO...&&&:-------------------------%%%XXX+OOOOOOOOOOOOOOOOOOOOOOOOO...***,>>>>>>>>>>>>>>>>>>>>>>>>>>>>>>>>>>>>>>>>>$$$***,>>>>>>>>>>>>>>>>@$*****$>>>>>>>>>>>>>>>>>$$$",
"***,>>>>>>>>>>>>>>>>>>>>>>>>>>>>>>>>>>>>>>>>>$$$***,>>>>>>>>>>>>>>>>>@$***$>>>>>>>>>>>>>>>>>>$$$XXX+OOOOOOOOOOOOOOOOOOOOOOOOO...&&&:-------------------------%%%XXX+OOOOOOOOOOOOOOOOOOOOOOOOO...***,>>>>>>>>>>>>>>>>>>>>>>>>>>>>>>>>>>>>>>>>>$$$***,>>>>>>>>>>>>>>>>>@$***$>>>>>>>>>>>>>>>>>>$$$",
"***,>>>>>>>>>>>>>>>>>>>>>>>>>>>>>>>>>>>>>>>>>$$$***,>>>>>>>>>>>>>>>>>>@$*$>>>>>>>>>>>>>>>>>>>$$$XXX+OOOOOOOOOOOOOOOOOOOOOOOOO...&&&:-------------------------%%%XXX+OOOOOOOOOOOOOOOOOOOOOOOOO...***,>>>>>>>>>>>>>>>>>>>>>>>>>>>>>>>>>>>>>>>>>$$$***,>>>>>>>>>>>>>>>>>>@$*$>>>>>>>>>>>>>>>>>>>$$$",
"***,>>>>>>>>>>>>>>>>>>>>>>>>>>>>>>>>>>>>>>>>>$$$***,>>>>>>>>>>>>>>>>>>>@$>>>>>>>>>>>>>>>>>>>>$$$XXX+OOOOOOOOOOOOOOOOOOOOOOOOO...&&&:-------------------------%%%XXX+OOOOOOOOOOOOOOOOOOOOOOOOO...***,>>>>>>>>>>>>>>>>>>>>>>>>>>>>>>>>>>>>>>>>>$$$***,>>>>>>>>>>>>>>>>>>>@$>>>>>>>>>>>>>>>>>>>>$$$",
"***,>>>>>>>>>>>>>>>>>>>>>>>>>>>>>>>>>>>>>>>>>$$$***,>>>>>>>>>>>>>>>>>>>>>>>>>>>>>>>>>>>>>>>>>$$$XXX+OOOOOOOOOOOOOOOOOOOOOOOOO...&&&:-------------------------%%%XXX+OOOOOOOOOOOOOOOOOOOOOOOOO...***,>>>>>>>>>>>>>>>>>>>>>>>>>>>>>>>>>>>>>>>>>$$$***,>>>>>>>>>>>>>>>>>>>>>>>>>>>>>>>>>>>>>>>>>$$$",
"***,>>>>>>>>>>>>>>>>>>>>>>>>>>>>>>>>>>>>>>>>>$$$***,>>>>>>>>>>>>>>>>>>>>>>>>>>>>>>>>>>>>>>>>>$$$XXX+OOOOOOOOOOOOOOOOOOOOOOOOO...&&&:-------------------------%%%XXX+OOOOOOOOOOOOOOOOOOOOOOOOO...***,>>>>>>>>>>>>>>>>>>>>>>>>>>>>>>>>>>>>>>>>>$$$***,>>>>>>>>>>>>>>>>>>>>>>>>>>>>>>>>>>>>>>>>>$$$",
"***,>>>>>>>>>>>>>>>>>>>>>>>>>>>>>>>>>>>>>>>>>$$$***,>>>>>>>>>>>>>>>>>>>>>>>>>>>>>>>>>>>>>>>>>$$$XXX+OOOOOOOOOOOOOOOOOOOOOOOOO...&&&:-------------------------%%%XXX+OOOOOOOOOOOOOOOOOOOOOOOOO...***,>>>>>>>>>>>>>>>>>>>>>>>>>>>>>>>>>>>>>>>>>$$$***,>>>>>>>>>>>>>>>>>>>>>>>>>>>>>>>>>>>>>>>>>$$$",
"***,>>>>>>>>>>>>>>>>>>>>>>>>>>>>>>>>>>>>>>>>>$$$***,>>>>>>>>>>>>>>>>>>>>>>>>>>>>>>>>>>>>>>>>>$$$XXX+OOOOOOOOOOOOOOOOOOOOOOOOO...&&&:-------------------------%%%XXX+OOOOOOOOOOOOOOOOOOOOOOOOO...***,>>>>>>>>>>>>>>>>>>>>>>>>>>>>>>>>>>>>>>>>>$$$***,>>>>>>>>>>>>>>>>>>>>>>>>>>>>>>>>>>>>>>>>>$$$",
"***,>>>>>>>>>>>>>>>>>>>>>>>>>>>>>>>>>>>>>>>>>$$$***,>>>>>>>>>>>>>>>>>>>>>>>>>>>>>>>>>>>>>>>>>$$$XXX+OOOOOOOOOOOOOOOOOOOOOOOOO...&&&:-------------------------%%%XXX+OOOOOOOOOOOOOOOOOOOOOOOOO...***,>>>>>>>>>>>>>>>>>>>>>>>>>>>>>>>>>>>>>>>>>$$$***,>>>>>>>>>>>>>>>>>>>>>>>>>>>>>>>>>>>>>>>>>$$$",
"***,>>>>>>>>>>>>>>>>>>>>>>>>>>>>>>>>>>>>>>>>>$$$***,>>>>>>>>>>>>>>>>>>>>>>>>>>>>>>>>>>>>>>>>>$$$XXX+OOOOOOOOOOOOOOOOOOOOOOOOO...&&&:-------------------------%%%XXX+OOOOOOOOOOOOOOOOOOOOOOOOO...***,>>>>>>>>>>>>>>>>>>>>>>>>>>>>>>>>>>>>>>>>>$$$***,>>>>>>>>>>>>>>>>>>>>>>>>>>>>>>>>>>>>>>>>>$$$",
"***,>>>>>>>>>>>>>>>>>>>>>>>>>>>>>>>>>>>>>>>>>$$$***,>>>>>>>>>>>>>>>>>>>>>>>>>>>>>>>>>>>>>>>>>$$$XXX+OOOOOOOOOOOOOOOOOOOOOOOOO...&&&:-------------------------%%%XXX+OOOOOOOOOOOOOOOOOOOOOOOOO...***,>>>>>>>>>>>>>>>>>>>>>>>>>>>>>>>>>>>>>>>>>$$$***,>>>>>>>>>>>>>>>>>>>>>>>>>>>>>>>>>>>>>>>>>$$$",
"***,>>>>>>>>>>>>>>>>>>>>>>>>>>>>>>>>>>>>>>>>>$$$***,>>>>>>>>>>>>>>>>>>>>>>>>>>>>>>>>>>>>>>>>>$$$XXX+OOOOOOOOOOOOOOOOOOOOOOOOO...&&&:-------------------------%%%XXX+OOOOOOOOOOOOOOOOOOOOOOOOO...***,>>>>>>>>>>>>>>>>>>>>>>>>>>>>>>>>>>>>>>>>>$$$***,>>>>>>>>>>>>>>>>>>>>>>>>>>>>>>>>>>>>>>>>>$$$",
"***,>>>>>>>>>>>>>>>>>>>>>>>>>>>>>>>>>>>>>>>>>$$$***,>>>>>>>>>>>>>>>>>>>>>>>>>>>>>>>>>>>>>>>>>$$$XXX+OOOOOOOOOOOOOOOOOOOOOOOOO...&&&:-------------------------%%%XXX+OOOOOOOOOOOOOOOOOOOOOOOOO...***,>>>>>>>>>>>>>>>>>>>>>>>>>>>>>>>>>>>>>>>>>$$$***,>>>>>>>>>>>>>>>>>>>>>>>>>>>>>>>>>>>>>>>>>$$$",
"***,>>>>>>>>>>>>>>>>>@@>>$$>>>>>>>>>>>>>>>>>>$$$***,>>>>>>>>>>>>>>>>>>>>>>>>>>>>>>>>>>>>>>>>>$$$XXX+OOOOOOOOOOOOOOOOOOOOOOOOO...&&&:-------------------------%%%XXX+OOOOOOOOOOOOOOOOOOOOOOOOO...***,>>>>>>>>>>>>>>>>>@@>>$$>>>>>>>>>>>>>>>>>>$$$***,>>>>>>>>>>>>>>>>>>>>>>>>>>>>>>>>>>>>>>>>>$$$",
"***,>>>>>>>>>>>>>>>>@$$@$**$>>>>>>>>>>>>>>>>>$$$***,>>>>>>>>>>>>>>>>>>>>>>>>>>>>>>>>>>>>>>>>>$$$XXX+OOOOOOOOOOOOOOOOOOOOOOOOO...&&&:-------------------------%%%XXX+OOOOOOOOOOOOOOOOOOOOOOOOO...***,>>>>>>>>>>>>>>>>@$$@$**$>>>>>>>>>>>>>>>>>$$$***,>>>>>>>>>>>>>>>>>>>>>>>>>>>>>>>>>>>>>>>>>$$$",
"***,>>>>>>>>>>>>>>>>@$*****$>>>>>>>>>>>>>>>>>$$$***,>>>>>>>>>>>>>>>>>>>>>>>>>>>>>>>>>>>>>>>>>$$$XXX+OOOOOOOOOOOOOOOOOOOOOOOOO...&&&:-------------------------%%%XXX+OOOOOOOOOOOOOOOOOOOOOOOOO...***,>>>>>>>>>>>>>>>>@$*****$>>>>>>>>>>>>>>>>>$$$***,>>>>>>>>>>>>>>>>>>>>>>>>>>>>>>>>>>>>>>>>>$$$",
"***,>>>>>>>>>>>>>>>>@$*****$>>>>>>>>>>>>>>>>>$$$***,>>>>>>>>>>>>>>>>>>>>>>>>>>>>>>>>>>>>>>>>>$$$XXX+OOOOOOOOOOOOOOOOOOOOOOOOO...&&&:-------------------------%%%XXX+OOOOOOOOOOOOOOOOOOOOOOOOO...***,>>>>>>>>>>>>>>>>@$*****$>>>>>>>>>>>>>>>>>$$$***,>>>>>>>>>>>>>>>>>>>>>>>>>>>>>>>>>>>>>>>>>$$$",
"***,>>>>>>>>>>>>>>>>>@$***$>>>>>>>>>>>>>>>>>>$$$***,>>>>>>>>>>>>>>>>>>>>>>>>>>>>>>>>>>>>>>>>>$$$XXX+OOOOOOOOOOOOOOOOOOOOOOOOO...&&&:-------------------------%%%XXX+OOOOOOOOOOOOOOOOOOOOOOOOO...***,>>>>>>>>>>>>>>>>>@$***$>>>>>>>>>>>>>>>>>>$$$***,>>>>>>>>>>>>>>>>>>>>>>>>>>>>>>>>>>>>>>>>>$$$",
"***,>>>>>>>>>>>>>>>>>>@$*$>>>>>>>>>>>>>>>>>>>$$$***,>>>>>>>>>>>>>>>>>>>>>>>>>>>>>>>>>>>>>>>>>$$$XXX+OOOOOOOOOOOOOOOOOOOOOOOOO...&&&:-------------------------%%%XXX+OOOOOOOOOOOOOOOOOOOOOOOOO...***,>>>>>>>>>>>>>>>>>>@$*$>>>>>>>>>>>>>>>>>>>$$$***,>>>>>>>>>>>>>>>>>>>>>>>>>>>>>>>>>>>>>>>>>$$$",
"***,>>>>>>>>>>>>>>>>>>>@$>>>>>>>>>>>>>>>>>>>>$$$***,>>>>>>>>>>>>>>>>>>>>>>>>>>>>>>>>>>>>>>>>>$$$XXX+OOOOOOOOOOOOOOOOOOOOOOOOO...&&&:-------------------------%%%XXX+OOOOOOOOOOOOOOOOOOOOOOOOO...***,>>>>>>>>>>>>>>>>>>>@$>>>>>>>>>>>>>>>>>>>>$$$***,>>>>>>>>>>>>>>>>>>>>>>>>>>>>>>>>>>>>>>>>>$$$",
"***,>>>>>>>>>>>>>>>>>>>>>>>>>>>>>>>>>>>>>>>>>$$$***,>>>>>>>>>>>>>>>>>>>>>>>>>>>>>>>>>>>>>>>>>$$$XXX+OOOOOOOOOOOOOOOOOOOOOOOOO...&&&:-------------------------%%%XXX+OOOOOOOOOOOOOOOOOOOOOOOOO...***,>>>>>>>>>>>>>>>>>>>>>>>>>>>>>>>>>>>>>>>>>$$$***,>>>>>>>>>>>>>>>>>>>>>>>>>>>>>>>>>>>>>>>>>$$$",
"***,>>>>>>>>>>>>>>>>>>>>>>>>>>>>>>>>>>>>>>>>>$$$***,>>>>>>>>>>>>>>>>>>>>>>>>>>>>>>>>>>>>>>>>>$$$XXX+OOOOOOOOOOOOOOOOOOOOOOOOO...&&&:-------------------------%%%XXX+OOOOOOOOOOOOOOOOOOOOOOOOO...***,>>>>>>>>>>>>>>>>>>>>>>>>>>>>>>>>>>>>>>>>>$$$***,>>>>>>>>>>>>>>>>>>>>>>>>>>>>>>>>>>>>>>>>>$$$",
"***,>>>>>>>>>>>>>>>>>>>>>>>>>>>>>>>>>>>>>>>>>$$$***,>>>>>>>>>>>>>>>>>>>>>>>>>>>>>>>>>>>>>>>>>$$$XXX+OOOOOOOOOOOOOOOOOOOOOOOOO...&&&:-------------------------%%%XXX+OOOOOOOOOOOOOOOOOOOOOOOOO...***,>>>>>>>>>>>>>>>>>>>>>>>>>>>>>>>>>>>>>>>>>$$$***,>>>>>>>>>>>>>>>>>>>>>>>>>>>>>>>>>>>>>>>>>$$$",
"***,>>>>>>>>>>>>>>>>>>>>>>>>>>>>>>>>>>>>>>>>>$$$***,>>>>>>>>>>>>>>>>>>>>>>>>>>>>>>>>>>>>>>>>>$$$XXX+OOOOOOOOOOOOOOOOOOOOOOOOO...&&&:-------------------------%%%XXX+OOOOOOOOOOOOOOOOOOOOOOOOO...***,>>>>>>>>>>>>>>>>>>>>>>>>>>>>>>>>>>>>>>>>>$$$***,>>>>>>>>>>>>>>>>>>>>>>>>>>>>>>>>>>>>>>>>>$$$",
"***,>>>>>>>>>>>>>>>>>>>>>>>>>>>>>>>>>>>>>>>>>$$$***,>>>>>>>>>>>>>>>>>>>>>>>>>>>>>>>>>>>>>>>>>$$$XXX+OOOOOOOOOOOOOOOOOOOOOOOOO...&&&:-------------------------%%%XXX+OOOOOOOOOOOOOOOOOOOOOOOOO...***,>>>>>>>>>>>>>>>>>>>>>>>>>>>>>>>>>>>>>>>>>$$$***,>>>>>>>>>>>>>>>>>>>>>>>>>>>>>>>>>>>>>>>>>$$$",
"***,>>>>>>>>>>>>>>>>>>>>>>>>>>>>>>>>>>>>>>>>>$$$***,>>>>>>>>>>>>>>>>>>>>>>>>>>>>>>>>>>>>>>>>>$$$XXX+OOOOOOOOOOOOOOOOOOOOOOOOO...&&&:-------------------------%%%XXX+OOOOOOOOOOOOOOOOOOOOOOOOO...***,>>>>>>>>>>>>>>>>>>>>>>>>>>>>>>>>>>>>>>>>>$$$***,>>>>>>>>>>>>>>>>>>>>>>>>>>>>>>>>>>>>>>>>>$$$",
"***,>>>>>>>>>>>>>>>>>>>>>>>>>>>>>>>>>>>>>>>>>$$$***,>>>>>>>>>>>>>>>>>>>>>>>>>>>>>>>>>>>>>>>>>$$$XXX+OOOOOOOOOOOOOOOOOOOOOOOOO...&&&:-------------------------%%%XXX+OOOOOOOOOOOOOOOOOOOOOOOOO...***,>>>>>>>>>>>>>>>>>>>>>>>>>>>>>>>>>>>>>>>>>$$$***,>>>>>>>>>>>>>>>>>>>>>>>>>>>>>>>>>>>>>>>>>$$$",
"***,>>>>>>>>>>>>>>>>>>>>>>>>>>>>>>>>>>>>>>>>>$$$***,>>>>>>>>>>>>>>>>>>>>>>>>>>>>>>>>>>>>>>>>>$$$XXX+OOOOOOOOOOOOOOOOOOOOOOOOO...&&&:-------------------------%%%XXX+OOOOOOOOOOOOOOOOOOOOOOOOO...***,>>>>>>>>>>>>>>>>>>>>>>>>>>>>>>>>>>>>>>>>>$$$***,>>>>>>>>>>>>>>>>>>>>>>>>>>>>>>>>>>>>>>>>>$$$",
"***,>>>>>>>>>>>>>>>>>>>>>>>>>>>>>>>>>>>>>>>>>$$$***,>>>>>>>>>>>>>>>>>>>>>>>>>>>>>>>>>>>>>>>>>$$$XXX+OOOOOOOOOOOOOOOOOOOOOOOOO...&&&:-------------------------%%%XXX+OOOOOOOOOOOOOOOOOOOOOOOOO...***,>>>>>>>>>>>>>>>>>>>>>>>>>>>>>>>>>>>>>>>>>$$$***,>>>>>>>>>>>>>>>>>>>>>>>>>>>>>>>>>>>>>>>>>$$$",
"***,>>>>>>>>>>>>>>>>>>>>>>>>>>>>>>>>>>>>>>>>>$$$***,>>>>>>>>>>>>>>>>>@@>>$$>>>>>>>>>>>>>>>>>>$$$XXX+OOOOOOOOOOOOOOOOOOOOOOOOO...&&&:-------------------------%%%XXX+OOOOOOOOOOOOOOOOOOOOOOOOO...***,>>>>>>>>>>>>>>>>>>>>>>>>>>>>>>>>>>>>>>>>>$$$***,>>>>>>>>>>>>>>>>>@@>>$$>>>>>>>>>>>>>>>>>>$$$",
"***,>>>>>>>>>>>>>>>>>>>>>>>>>>>>>>>>>>>>>>>>>$$$***,>>>>>>>>>>>>>>>>@$$@$**$>>>>>>>>>>>>>>>>>$$$XXX+OOOOOOOOOOOOOOOOOOOOOOOOO...&&&:-------------------------%%%XXX+OOOOOOOOOOOOOOOOOOOOOOOOO...***,>>>>>>>>>>>>>>>>>>>>>>>>>>>>>>>>>>>>>>>>>$$$***,>>>>>>>>>>>>>>>>@$$@$**$>>>>>>>>>>>>>>>>>$$$",
"***,>>>>>>>>>>>>>>>>>>>>>>>>>>>>>>>>>>>>>>>>>$$$***,>>>>>>>>>>>>>>>>@$*****$>>>>>>>>>>>>>>>>>$$$XXX+OOOOOOOOOOOOOOOOOOOOOOOOO...&&&:-------------------------%%%XXX+OOOOOOOOOOOOOOOOOOOOOOOOO...***,>>>>>>>>>>>>>>>>>>>>>>>>>>>>>>>>>>>>>>>>>$$$***,>>>>>>>>>>>>>>>>@$*****$>>>>>>>>>>>>>>>>>$$$",
"***,>>>>>>>>>>>>>>>>>>>>>>>>>>>>>>>>>>>>>>>>>$$$***,>>>>>>>>>>>>>>>>@$*****$>>>>>>>>>>>>>>>>>$$$XXX+OOOOOOOOOOOOOOOOOOOOOOOOO...&&&:-------------------------%%%XXX+OOOOOOOOOOOOOOOOOOOOOOOOO...***,>>>>>>>>>>>>>>>>>>>>>>>>>>>>>>>>>>>>>>>>>$$$***,>>>>>>>>>>>>>>>>@$*****$>>>>>>>>>>>>>>>>>$$$",
"***,>>>>>>>>>>>>>>>>>>>>>>>>>>>>>>>>>>>>>>>>>$$$***,>>>>>>>>>>>>>>>>>@$***$>>>>>>>>>>>>>>>>>>$$$XXX+OOOOOOOOOOOOOOOOOOOOOOOOO...&&&:-------------------------%%%XXX+OOOOOOOOOOOOOOOOOOOOOOOOO...***,>>>>>>>>>>>>>>>>>>>>>>>>>>>>>>>>>>>>>>>>>$$$***,>>>>>>>>>>>>>>>>>@$***$>>>>>>>>>>>>>>>>>>$$$",
"***,>>>>>>>>>>>>>>>>>>>>>>>>>>>>>>>>>>>>>>>>>$$$***,>>>>>>>>>>>>>>>>>>@$*$>>>>>>>>>>>>>>>>>>>$$$XXX+OOOOOOOOOOOOOOOOOOOOOOOOO...&&&:-------------------------%%%XXX+OOOOOOOOOOOOOOOOOOOOOOOOO...***,>>>>>>>>>>>>>>>>>>>>>>>>>>>>>>>>>>>>>>>>>$$$***,>>>>>>>>>>>>>>>>>>@$*$>>>>>>>>>>>>>>>>>>>$$$",
"***,>>>>>>>>>>>>>>>>>>>>>>>>>>>>>>>>>>>>>>>>>$$$***,>>>>>>>>>>>>>>>>>>>@$>>>>>>>>>>>>>>>>>>>>$$$XXX+OOOOOOOOOOOOOOOOOOOOOOOOO...&&&:-------------------------%%%XXX+OOOOOOOOOOOOOOOOOOOOOOOOO...***,>>>>>>>>>>>>>>>>>>>>>>>>>>>>>>>>>>>>>>>>>$$$***,>>>>>>>>>>>>>>>>>>>@$>>>>>>>>>>>>>>>>>>>>$$$",
"***,>>>>>>>>>>>>>>>>>>>>>>>>>>>>>>>>>>>>>>>>>$$$***,>>>>>>>>>>>>>>>>>>>>>>>>>>>>>>>>>>>>>>>>>$$$XXX+OOOOOOOOOOOOOOOOOOOOOOOOO...&&&:-------------------------%%%XXX+OOOOOOOOOOOOOOOOOOOOOOOOO...***,>>>>>>>>>>>>>>>>>>>>>>>>>>>>>>>>>>>>>>>>>$$$***,>>>>>>>>>>>>>>>>>>>>>>>>>>>>>>>>>>>>>>>>>$$$",
"***,>>>>>>>>>>>>>>>>>>>>>>>>>>>>>>>>>>>>>>>>>$$$***,>>>>>>>>>>>>>>>>>>>>>>>>>>>>>>>>>>>>>>>>>$$$XXX+OOOOOOOOOOOOOOOOOOOOOOOOO...&&&:-------------------------%%%XXX+OOOOOOOOOOOOOOOOOOOOOOOOO...***,>>>>>>>>>>>>>>>>>>>>>>>>>>>>>>>>>>>>>>>>>$$$***,>>>>>>>>>>>>>>>>>>>>>>>>>>>>>>>>>>>>>>>>>$$$",
"***,>>>>>>>>>>>>>>>>>>>>>>>>>>>>>>>>>>>>>>>>>$$$***,>>>>>>>>>>>>>>>>>>>>>>>>>>>>>>>>>>>>>>>>>$$$XXX+OOOOOOOOOOOOOOOOOOOOOOOOO...&&&:-------------------------%%%XXX+OOOOOOOOOOOOOOOOOOOOOOOOO...***,>>>>>>>>>>>>>>>>>>>>>>>>>>>>>>>>>>>>>>>>>$$$***,>>>>>>>>>>>>>>>>>>>>>>>>>>>>>>>>>>>>>>>>>$$$",
"***,>>>>>>>>>>>>>>>>>>>>>>>>>>>>>>>>>>>>>>>>>$$$***,>>>>>>>>>>>>>>>>>>>>>>>>>>>>>>>>>>>>>>>>>$$$XXX+OOOOOOOOOOOOOOOOOOOOOOOOO...&&&:-------------------------%%%XXX+OOOOOOOOOOOOOOOOOOOOOOOOO...***,>>>>>>>>>>>>>>>>>>>>>>>>>>>>>>>>>>>>>>>>>$$$***,>>>>>>>>>>>>>>>>>>>>>>>>>>>>>>>>>>>>>>>>>$$$",
"***,>>>>>>>>>>>>>>>>>>>>>>>>>>>>>>>>>>>>>>>>>$$$***,>>>>>>>>>>>>>>>>>>>>>>>>>>>>>>>>>>>>>>>>>$$$XXX+OOOOOOOOOOOOOOOOOOOOOOOOO...&&&:-------------------------%%%XXX+OOOOOOOOOOOOOOOOOOOOOOOOO...***,>>>>>>>>>>>>>>>>>>>>>>>>>>>>>>>>>>>>>>>>>$$$***,>>>>>>>>>>>>>>>>>>>>>>>>>>>>>>>>>>>>>>>>>$$$",
"***,>>>>>>>>>>>>>>>>>>>>>>>>>>>>>>>>>>>>>>>>>$$$***,>>>>>>>>>>>>>>>>>>>>>>>>>>>>>>>>>>>>>>>>>$$$XXX+OOOOOOOOOOOOOOOOOOOOOOOOO...&&&:-------------------------%%%XXX+OOOOOOOOOOOOOOOOOOOOOOOOO...***,>>>>>>>>>>>>>>>>>>>>>>>>>>>>>>>>>>>>>>>>>$$$***,>>>>>>>>>>>>>>>>>>>>>>>>>>>>>>>>>>>>>>>>>$$$",
"***,>>>>>>>>>>>>>>>>>>>>>>>>>>>>>>>>>>>>>>>>>$$$***,>>>>>>>>>>>>>>>>>>>>>>>>>>>>>>>>>>>>>>>>>$$$XXX+OOOOOOOOOOOOOOOOOOOOOOOOO...&&&:-------------------------%%%XXX+OOOOOOOOOOOOOOOOOOOOOOOOO...***,>>>>>>>>>>>>>>>>>>>>>>>>>>>>>>>>>>>>>>>>>$$$***,>>>>>>>>>>>>>>>>>>>>>>>>>>>>>>>>>>>>>>>>>$$$",
"***,>>>>>>>>>>>>>>>>>>>>>>>>>>>>>>>>>>>>>>>>>$$$***,>>>>>>>>>>>>>>>>>>>>>>>>>>>>>>>>>>>>>>>>>$$$XXX+OOOOOOOOOOOOOOOOOOOOOOOOO...&&&:-------------------------%%%XXX+OOOOOOOOOOOOOOOOOOOOOOOOO...***,>>>>>>>>>>>>>>>>>>>>>>>>>>>>>>>>>>>>>>>>>$$$***,>>>>>>>>>>>>>>>>>>>>>>>>>>>>>>>>>>>>>>>>>$$$",
"***,>>>>>>>>>>>>>>>>>>>>>>>>>>>>>>>>>>>>>>>>>$$$***,>>>>>>>>>>>>>>>>>>>>>>>>>>>>>>>>>>>>>>>>>$$$XXX+OOOOOOOOOOOOOOOOOOOOOOOOO...&&&:-------------------------%%%XXX+OOOOOOOOOOOOOOOOOOOOOOOOO...***,>>>>>>>>>>>>>>>>>>>>>>>>>>>>>>>>>>>>>>>>>$$$***,>>>>>>>>>>>>>>>>>>>>>>>>>>>>>>>>>>>>>>>>>$$$",
"***,>>>>>>>>>>>>>>>>>@@>>$$>>>>>>>>>>>>>>>>>>$$$***,>>>>>>>>>>>>>>>>>>>>>>>>>>>>>>>>>>>>>>>>>$$$XXX+OOOOOOOOOOOOOOOOOOOOOOOOO...&&&:-------------------------%%%XXX+OOOOOOOOOOOOOOOOOOOOOOOOO...***,>>>>>>>>>>>>>>>>>@@>>$$>>>>>>>>>>>>>>>>>>$$$***,>>>>>>>>>>>>>>>>>>>>>>>>>>>>>>>>>>>>>>>>>$$$",
"***,>>>>>>>>>>>>>>>>@$$@$**$>>>>>>>>>>>>>>>>>$$$***,>>>>>>>>>>>>>>>>>>>>>>>>>>>>>>>>>>>>>>>>>$$$XXX+OOOOOOOOOOOOOOOOOOOOOOOOO...&&&:-------------------------%%%XXX+OOOOOOOOOOOOOOOOOOOOOOOOO...***,>>>>>>>>>>>>>>>>@$$@$**$>>>>>>>>>>>>>>>>>$$$***,>>>>>>>>>>>>>>>>>>>>>>>>>>>>>>>>>>>>>>>>>$$$",
"***,>>>>>>>>>>>>>>>>@$*****$>>>>>>>>>>>>>>>>>$$$***,>>>>>>>>>>>>>>>>>>>>>>>>>>>>>>>>>>>>>>>>>$$$XXX+OOOOOOOOOOOOOOOOOOOOOOOOO...&&&:-------------------------%%%XXX+OOOOOOOOOOOOOOOOOOOOOOOOO...***,>>>>>>>>>>>>>>>>@$*****$>>>>>>>>>>>>>>>>>$$$***,>>>>>>>>>>>>>>>>>>>>>>>>>>>>>>>>>>>>>>>>>$$$",
"***,>>>>>>>>>>>>>>>>@$*****$>>>>>>>>>>>>>>>>>$$$***,>>>>>>>>>>>>>>>>>>>>>>>>>>>>>>>>>>>>>>>>>$$$XXX+OOOOOOOOOOOOOOOOOOOOOOOOO...&&&:-------------------------%%%XXX+OOOOOOOOOOOOOOOOOOOOOOOOO...***,>>>>>>>>>>>>>>>>@$*****$>>>>>>>>>>>>>>>>>$$$***,>>>>>>>>>>>>>>>>>>>>>>>>>>>>>>>>>>>>>>>>>$$$",
"***,>>>>>>>>>>>>>>>>>@$***$>>>>>>>>>>>>>>>>>>$$$***,>>>>>>>>>>>>>>>>>>>>>>>>>>>>>>>>>>>>>>>>>$$$XXX+OOOOOOOOOOOOOOOOOOOOOOOOO...&&&:-------------------------%%%XXX+OOOOOOOOOOOOOOOOOOOOOOOOO...***,>>>>>>>>>>>>>>>>>@$***$>>>>>>>>>>>>>>>>>>$$$***,>>>>>>>>>>>>>>>>>>>>>>>>>>>>>>>>>>>>>>>>>$$$",
"***,>>>>>>>>>>>>>>>>>>@$*$>>>>>>>>>>>>>>>>>>>$$$***,>>>>>>>>>>>>>>>>>>>>>>>>>>>>>>>>>>>>>>>>>$$$XXX+OOOOOOOOOOOOOOOOOOOOOOOOO...&&&:-------------------------%%%XXX+OOOOOOOOOOOOOOOOOOOOOOOOO...***,>>>>>>>>>>>>>>>>>>@$*$>>>>>>>>>>>>>>>>>>>$$$***,>>>>>>>>>>>>>>>>>>>>>>>>>>>>>>>>>>>>>>>>>$$$",
"***,>>>>>>>>>>>>>>>>>>>@$>>>>>>>>>>>>>>>>>>>>$$$***,>>>>>>>>>>>>>>>>>>>>>>>>>>>>>>>>>>>>>>>>>$$$XXX+OOOOOOOOOOOOOOOOOOOOOOOOO...&&&:-------------------------%%%XXX+OOOOOOOOOOOOOOOOOOOOOOOOO...***,>>>>>>>>>>>>>>>>>>>@$>>>>>>>>>>>>>>>>>>>>$$$***,>>>>>>>>>>>>>>>>>>>>>>>>>>>>>>>>>>>>>>>>>$$$",
"***,>>>>>>>>>>>>>>>>>>>>>>>>>>>>>>>>>>>>>>>>>$$$***,>>>>>>>>>>>>>>>>>>>>>>>>>>>>>>>>>>>>>>>>>$$$XXX+OOOOOOOOOOOOOOOOOOOOOOOOO...&&&:-------------------------%%%XXX+OOOOOOOOOOOOOOOOOOOOOOOOO...***,>>>>>>>>>>>>>>>>>>>>>>>>>>>>>>>>>>>>>>>>>$$$***,>>>>>>>>>>>>>>>>>>>>>>>>>>>>>>>>>>>>>>>>>$$$",
"***,>>>>>>>>>>>>>>>>>>>>>>>>>>>>>>>>>>>>>>>>>$$$***,>>>>>>>>>>>>>>>>>>>>>>>>>>>>>>>>>>>>>>>>>$$$XXX+OOOOOOOOOOOOOOOOOOOOOOOOO...&&&:-------------------------%%%XXX+OOOOOOOOOOOOOOOOOOOOOOOOO...***,>>>>>>>>>>>>>>>>>>>>>>>>>>>>>>>>>>>>>>>>>$$$***,>>>>>>>>>>>>>>>>>>>>>>>>>>>>>>>>>>>>>>>>>$$$",
"***,>>>>>>>>>>>>>>>>>>>>>>>>>>>>>>>>>>>>>>>>>$$$***,>>>>>>>>>>>>>>>>>>>>>>>>>>>>>>>>>>>>>>>>>$$$XXX+OOOOOOOOOOOOOOOOOOOOOOOOO...&&&:-------------------------%%%XXX+OOOOOOOOOOOOOOOOOOOOOOOOO...***,>>>>>>>>>>>>>>>>>>>>>>>>>>>>>>>>>>>>>>>>>$$$***,>>>>>>>>>>>>>>>>>>>>>>>>>>>>>>>>>>>>>>>>>$$$",
"***,>>>>>>>>>>>>>>>>>>>>>>>>>>>>>>>>>>>>>>>>>$$$***,>>>>>>>>>>>>>>>>>>>>>>>>>>>>>>>>>>>>>>>>>$$$XXX+OOOOOOOOOOOOOOOOOOOOOOOOO...&&&:-------------------------%%%XXX+OOOOOOOOOOOOOOOOOOOOOOOOO...***,>>>>>>>>>>>>>>>>>>>>>>>>>>>>>>>>>>>>>>>>>$$$***,>>>>>>>>>>>>>>>>>>>>>>>>>>>>>>>>>>>>>>>>>$$$",
"***,>>>>>>>>>>>>>>>>>>>>>>>>>>>>>>>>>>>>>>>>>$$$***,>>>>>>>>>>>>>>>>>>>>>>>>>>>>>>>>>>>>>>>>>$$$XXX+OOOOOOOOOOOOOOOOOOOOOOOOO...&&&:-------------------------%%%XXX+OOOOOOOOOOOOOOOOOOOOOOOOO...***,>>>>>>>>>>>>>>>>>>>>>>>>>>>>>>>>>>>>>>>>>$$$***,>>>>>>>>>>>>>>>>>>>>>>>>>>>>>>>>>>>>>>>>>$$$",
"***,>>>>>>>>>>>>>>>>>>>>>>>>>>>>>>>>>>>>>>>>>$$$***,>>>>>>>>>>>>>>>>>>>>>>>>>>>>>>>>>>>>>>>>>$$$XXX+OOOOOOOOOOOOOOOOOOOOOOOOO...&&&:-------------------------%%%XXX+OOOOOOOOOOOOOOOOOOOOOOOOO...***,>>>>>>>>>>>>>>>>>>>>>>>>>>>>>>>>>>>>>>>>>$$$***,>>>>>>>>>>>>>>>>>>>>>>>>>>>>>>>>>>>>>>>>>$$$",
"***,>>>>>>>>>>>>>>>>>>>>>>>>>>>>>>>>>>>>>>>>>$$$***,>>>>>>>>>>>>>>>>>>>>>>>>>>>>>>>>>>>>>>>>>$$$XXX+OOOOOOOOOOOOOOOOOOOOOOOOO...&&&:-------------------------%%%XXX+OOOOOOOOOOOOOOOOOOOOOOOOO...***,>>>>>>>>>>>>>>>>>>>>>>>>>>>>>>>>>>>>>>>>>$$$***,>>>>>>>>>>>>>>>>>>>>>>>>>>>>>>>>>>>>>>>>>$$$",
"***,>>>>>>>>>>>>>>>>>>>>>>>>>>>>>>>>>>>>>>>>>$$$***,>>>>>>>>>>>>>>>>>>>>>>>>>>>>>>>>>>>>>>>>>$$$XXX+OOOOOOOOOOOOOOOOOOOOOOOOO...&&&:-------------------------%%%XXX+OOOOOOOOOOOOOOOOOOOOOOOOO...***,>>>>>>>>>>>>>>>>>>>>>>>>>>>>>>>>>>>>>>>>>$$$***,>>>>>>>>>>>>>>>>>>>>>>>>>>>>>>>>>>>>>>>>>$$$",
"***,>>>>>>>>>>>>>>>>>>>>>>>>>>>>>>>>>>>>>>>>>$$$***,>>>>>>>>>>>>>>>>>>>>>>>>>>>>>>>>>>>>>>>>>$$$XXX+OOOOOOOOOOOOOOOOOOOOOOOOO...&&&:-------------------------%%%XXX+OOOOOOOOOOOOOOOOOOOOOOOOO...***,>>>>>>>>>>>>>>>>>>>>>>>>>>>>>>>>>>>>>>>>>$$$***,>>>>>>>>>>>>>>>>>>>>>>>>>>>>>>>>>>>>>>>>>$$$",
"***,>>>>>>>>>>>>>>>>>>>>>>>>>>>>>>>>>>>>>>>>>$$$***,>>>>>>>>>>>>>>>>>@@>>$$>>>>>>>>>>>>>>>>>>$$$XXX+OOOOOOOOOOOOOOOOOOOOOOOOO...&&&:-------------------------%%%XXX+OOOOOOOOOOOOOOOOOOOOOOOOO...***,>>>>>>>>>>>>>>>>>>>>>>>>>>>>>>>>>>>>>>>>>$$$***,>>>>>>>>>>>>>>>>>@@>>$$>>>>>>>>>>>>>>>>>>$$$",
"***,>>>>>>>>>>>>>>>>>>>>>>>>>>>>>>>>>>>>>>>>>$$$***,>>>>>>>>>>>>>>>>@$$@$**$>>>>>>>>>>>>>>>>>$$$XXX+OOOOOOOOOOOOOOOOOOOOOOOOO...&&&:-------------------------%%%XXX+OOOOOOOOOOOOOOOOOOOOOOOOO...***,>>>>>>>>>>>>>>>>>>>>>>>>>>>>>>>>>>>>>>>>>$$$***,>>>>>>>>>>>>>>>>@$$@$**$>>>>>>>>>>>>>>>>>$$$",
"***,>>>>>>>>>>>>>>>>>>>>>>>>>>>>>>>>>>>>>>>>>$$$***,>>>>>>>>>>>>>>>>@$*****$>>>>>>>>>>>>>>>>>$$$XXX+OOOOOOOOOOOOOOOOOOOOOOOOO...&&&:-------------------------%%%XXX+OOOOOOOOOOOOOOOOOOOOOOOOO...***,>>>>>>>>>>>>>>>>>>>>>>>>>>>>>>>>>>>>>>>>>$$$***,>>>>>>>>>>>>>>>>@$*****$>>>>>>>>>>>>>>>>>$$$",
"***,>>>>>>>>>>>>>>>>>>>>>>>>>>>>>>>>>>>>>>>>>$$$***,>>>>>>>>>>>>>>>>@$*****$>>>>>>>>>>>>>>>>>$$$XXX+OOOOOOOOOOOOOOOOOOOOOOOOO...&&&:-------------------------%%%XXX+OOOOOOOOOOOOOOOOOOOOOOOOO...***,>>>>>>>>>>>>>>>>>>>>>>>>>>>>>>>>>>>>>>>>>$$$***,>>>>>>>>>>>>>>>>@$*****$>>>>>>>>>>>>>>>>>$$$",
"***,>>>>>>>>>>>>>>>>>>>>>>>>>>>>>>>>>>>>>>>>>$$$***,>>>>>>>>>>>>>>>>>@$***$>>>>>>>>>>>>>>>>>>$$$XXX+OOOOOOOOOOOOOOOOOOOOOOOOO...&&&:-------------------------%%%XXX+OOOOOOOOOOOOOOOOOOOOOOOOO...***,>>>>>>>>>>>>>>>>>>>>>>>>>>>>>>>>>>>>>>>>>$$$***,>>>>>>>>>>>>>>>>>@$***$>>>>>>>>>>>>>>>>>>$$$",
"***,>>>>>>>>>>>>>>>>>>>>>>>>>>>>>>>>>>>>>>>>>$$$***,>>>>>>>>>>>>>>>>>>@$*$>>>>>>>>>>>>>>>>>>>$$$XXX+OOOOOOOOOOOOOOOOOOOOOOOOO...&&&:-------------------------%%%XXX+OOOOOOOOOOOOOOOOOOOOOOOOO...***,>>>>>>>>>>>>>>>>>>>>>>>>>>>>>>>>>>>>>>>>>$$$***,>>>>>>>>>>>>>>>>>>@$*$>>>>>>>>>>>>>>>>>>>$$$",
"***,>>>>>>>>>>>>>>>>>>>>>>>>>>>>>>>>>>>>>>>>>$$$***,>>>>>>>>>>>>>>>>>>>@$>>>>>>>>>>>>>>>>>>>>$$$XXX+OOOOOOOOOOOOOOOOOOOOOOOOO...&&&:-------------------------%%%XXX+OOOOOOOOOOOOOOOOOOOOOOOOO...***,>>>>>>>>>>>>>>>>>>>>>>>>>>>>>>>>>>>>>>>>>$$$***,>>>>>>>>>>>>>>>>>>>@$>>>>>>>>>>>>>>>>>>>>$$$",
"***,>>>>>>>>>>>>>>>>>>>>>>>>>>>>>>>>>>>>>>>>>$$$***,>>>>>>>>>>>>>>>>>>>>>>>>>>>>>>>>>>>>>>>>>$$$XXX+OOOOOOOOOOOOOOOOOOOOOOOOO...&&&:-------------------------%%%XXX+OOOOOOOOOOOOOOOOOOOOOOOOO...***,>>>>>>>>>>>>>>>>>>>>>>>>>>>>>>>>>>>>>>>>>$$$***,>>>>>>>>>>>>>>>>>>>>>>>>>>>>>>>>>>>>>>>>>$$$",
"***,>>>>>>>>>>>>>>>>>>>>>>>>>>>>>>>>>>>>>>>>>$$$***,>>>>>>>>>>>>>>>>>>>>>>>>>>>>>>>>>>>>>>>>>$$$XXX+OOOOOOOOOOOOOOOOOOOOOOOOO...&&&:-------------------------%%%XXX+OOOOOOOOOOOOOOOOOOOOOOOOO...***,>>>>>>>>>>>>>>>>>>>>>>>>>>>>>>>>>>>>>>>>>$$$***,>>>>>>>>>>>>>>>>>>>>>>>>>>>>>>>>>>>>>>>>>$$$",
"***,>>>>>>>>>>>>>>>>>>>>>>>>>>>>>>>>>>>>>>>>>$$$***,>>>>>>>>>>>>>>>>>>>>>>>>>>>>>>>>>>>>>>>>>$$$XXX+OOOOOOOOOOOOOOOOOOOOOOOOO...&&&:-------------------------%%%XXX+OOOOOOOOOOOOOOOOOOOOOOOOO...***,>>>>>>>>>>>>>>>>>>>>>>>>>>>>>>>>>>>>>>>>>$$$***,>>>>>>>>>>>>>>>>>>>>>>>>>>>>>>>>>>>>>>>>>$$$",
"***,>>>>>>>>>>>>>>>>>>>>>>>>>>>>>>>>>>>>>>>>>$$$***,>>>>>>>>>>>>>>>>>>>>>>>>>>>>>>>>>>>>>>>>>$$$XXX+OOOOOOOOOOOOOOOOOOOOOOOOO...&&&:-------------------------%%%XXX+OOOOOOOOOOOOOOOOOOOOOOOOO...***,>>>>>>>>>>>>>>>>>>>>>>>>>>>>>>>>>>>>>>>>>$$$***,>>>>>>>>>>>>>>>>>>>>>>>>>>>>>>>>>>>>>>>>>$$$",
"***,>>>>>>>>>>>>>>>>>>>>>>>>>>>>>>>>>>>>>>>>>$$$***,>>>>>>>>>>>>>>>>>>>>>>>>>>>>>>>>>>>>>>>>>$$$XXX+OOOOOOOOOOOOOOOOOOOOOOOOO...&&&:-------------------------%%%XXX+OOOOOOOOOOOOOOOOOOOOOOOOO...***,>>>>>>>>>>>>>>>>>>>>>>>>>>>>>>>>>>>>>>>>>$$$***,>>>>>>>>>>>>>>>>>>>>>>>>>>>>>>>>>>>>>>>>>$$$",
"***,>>>>>>>>>>>>>>>>>>>>>>>>>>>>>>>>>>>>>>>>>$$$***,>>>>>>>>>>>>>>>>>>>>>>>>>>>>>>>>>>>>>>>>>$$$XXX+OOOOOOOOOOOOOOOOOOOOOOOOO...&&&:-------------------------%%%XXX+OOOOOOOOOOOOOOOOOOOOOOOOO...***,>>>>>>>>>>>>>>>>>>>>>>>>>>>>>>>>>>>>>>>>>$$$***,>>>>>>>>>>>>>>>>>>>>>>>>>>>>>>>>>>>>>>>>>$$$",
"***,>>>>>>>>>>>>>>>>>>>>>>>>>>>>>>>>>>>>>>>>>$$$***,>>>>>>>>>>>>>>>>>>>>>>>>>>>>>>>>>>>>>>>>>$$$XXX+OOOOOOOOOOOOOOOOOOOOOOOOO...&&&:-------------------------%%%XXX+OOOOOOOOOOOOOOOOOOOOOOOOO...***,>>>>>>>>>>>>>>>>>>>>>>>>>>>>>>>>>>>>>>>>>$$$***,>>>>>>>>>>>>>>>>>>>>>>>>>>>>>>>>>>>>>>>>>$$$",
"***,>>>>>>>>>>>>>>>>>>>>>>>>>>>>>>>>>>>>>>>>>$$$***,>>>>>>>>>>>>>>>>>>>>>>>>>>>>>>>>>>>>>>>>>$$$XXX+OOOOOOOOOOOOOOOOOOOOOOOOO...&&&:-------------------------%%%XXX+OOOOOOOOOOOOOOOOOOOOOOOOO...***,>>>>>>>>>>>>>>>>>>>>>>>>>>>>>>>>>>>>>>>>>$$$***,>>>>>>>>>>>>>>>>>>>>>>>>>>>>>>>>>>>>>>>>>$$$",
"***,>>>>>>>>>>>>>>>>>>>>>>>>>>>>>>>>>>>>>>>>>$$$***,>>>>>>>>>>>>>>>>>>>>>>>>>>>>>>>>>>>>>>>>>$$$XXX+OOOOOOOOOOOOOOOOOOOOOOOOO...&&&:-------------------------%%%XXX+OOOOOOOOOOOOOOOOOOOOOOOOO...***,>>>>>>>>>>>>>>>>>>>>>>>>>>>>>>>>>>>>>>>>>$$$***,>>>>>>>>>>>>>>>>>>>>>>>>>>>>>>>>>>>>>>>>>$$$",
"***,>>>>>>>>>>>>>>>>>>>>>>>>>>>>>>>>>>>>>>>>>$$$***,>>>>>>>>>>>>>>>>>>>>>>>>>>>>>>>>>>>>>>>>>$$$XXX+OOOOOOOOOOOOOOOOOOOOOOOOO...&&&:-------------------------%%%XXX+OOOOOOOOOOOOOOOOOOOOOOOOO...***,>>>>>>>>>>>>>>>>>>>>>>>>>>>>>>>>>>>>>>>>>$$$***,>>>>>>>>>>>>>>>>>>>>>>>>>>>>>>>>>>>>>>>>>$$$",
"***,>>>>>>>>>>>>>>>>>>>>>>>>>>>>>>>>>>>>>>>>>$$$***,>>>>>>>>>>>>>>>>>>>>>>>>>>>>>>>>>>>>>>>>>$$$XXX+OOOOOOOOOOOOOOOOOOOOOOOOO...&&&:-------------------------%%%XXX+OOOOOOOOOOOOOOOOOOOOOOOOO...***,>>>>>>>>>>>>>>>>>>>>>>>>>>>>>>>>>>>>>>>>>$$$***,>>>>>>>>>>>>>>>>>>>>>>>>>>>>>>>>>>>>>>>>>$$$",
"***,>>>>>>>>>>>>>>>>>>>>>>>>>>>>>>>>>>>>>>>>>$$$***,>>>>>>>>>>>>>>>>>>>>>>>>>>>>>>>>>>>>>>>>>$$$XXX+OOOOOOOOOOOOOOOOOOOOOOOOO...&&&:-------------------------%%%XXX+OOOOOOOOOOOOOOOOOOOOOOOOO...***,>>>>>>>>>>>>>>>>>>>>>>>>>>>>>>>>>>>>>>>>>$$$***,>>>>>>>>>>>>>>>>>>>>>>>>>>>>>>>>>>>>>>>>>$$$",
"***,>>>>>>>>>>>>>>>>>>>>>>>>>>>>>>>>>>>>>>>>>$$$***,>>>>>>>>>>>>>>>>>>>>>>>>>>>>>>>>>>>>>>>>>$$$XXX+OOOOOOOOOOOOOOOOOOOOOOOOO...&&&:-------------------------%%%XXX+OOOOOOOOOOOOOOOOOOOOOOOOO...***,>>>>>>>>>>>>>>>>>>>>>>>>>>>>>>>>>>>>>>>>>$$$***,>>>>>>>>>>>>>>>>>>>>>>>>>>>>>>>>>>>>>>>>>$$$",
"***,>>>>>>>>>>>>>>>>>>>>>>>>>>>>>>>>>>>>>>>>>$$$***,>>>>>>>>>>>>>>>>>>>>>>>>>>>>>>>>>>>>>>>>>$$$XXX+OOOOOOOOOOOOOOOOOOOOOOOOO...&&&:-------------------------%%%XXX+OOOOOOOOOOOOOOOOOOOOOOOOO...***,>>>>>>>>>>>>>>>>>>>>>>>>>>>>>>>>>>>>>>>>>$$$***,>>>>>>>>>>>>>>>>>>>>>>>>>>>>>>>>>>>>>>>>>$$$",
"***,>>>>>>>>>>>>>>>>>>>>>>>>>>>>>>>>>>>>>>>>>$$$***,>>>>>>>>>>>>>>>>>>>>>>>>>>>>>>>>>>>>>>>>>$$$XXX+OOOOOOOOOOOOOOOOOOOOOOOOO...&&&:-------------------------%%%XXX+OOOOOOOOOOOOOOOOOOOOOOOOO...***,>>>>>>>>>>>>>>>>>>>>>>>>>>>>>>>>>>>>>>>>>$$$***,>>>>>>>>>>>>>>>>>>>>>>>>>>>>>>>>>>>>>>>>>$$$",
"***,>>>>>>>>>>>>>>>>>>>>>>>>>>>>>>>>>>>>>>>>>$$$***,>>>>>>>>>>>>>>>>>>>>>>>>>>>>>>>>>>>>>>>>>$$$XXX+OOOOOOOOOOOOOOOOOOOOOOOOO...&&&:-------------------------%%%XXX+OOOOOOOOOOOOOOOOOOOOOOOOO...***,>>>>>>>>>>>>>>>>>>>>>>>>>>>>>>>>>>>>>>>>>$$$***,>>>>>>>>>>>>>>>>>>>>>>>>>>>>>>>>>>>>>>>>>$$$",
"***,>>>>>>>>>>>>>>>>>>>>>>>>>>>>>>>>>>>>>>>>>$$$***,>>>>>>>>>>>>>>>>>>>>>>>>>>>>>>>>>>>>>>>>>$$$XXX+OOOOOOOOOOOOOOOOOOOOOOOOO...&&&:-------------------------%%%XXX+OOOOOOOOOOOOOOOOOOOOOOOOO...***,>>>>>>>>>>>>>>>>>>>>>>>>>>>>>>>>>>>>>>>>>$$$***,>>>>>>>>>>>>>>>>>>>>>>>>>>>>>>>>>>>>>>>>>$$$",
"**;@@@@@@@@@@@@@@@@@@@@@@@@@@@@@@@@@@@@@@@@@@$$$**;@@@@@@@@@@@@@@@@@@@@@@@@@@@@@@@@@@@@@@@@@@$$$XXX+OOOOOOOOOOOOOOOOOOOOOOOOO...&&&:-------------------------%%%XXX+OOOOOOOOOOOOOOOOOOOOOOOOO...**;@@@@@@@@@@@@@@@@@@@@@@@@@@@@@@@@@@@@@@@@@@$$$**;@@@@@@@@@@@@@@@@@@@@@@@@@@@@@@@@@@@@@@@@@@$$$",
"*;@@@@@@@@@@@@@@@@@@@@@@@@@@@@@@@@@@@@@@@@@@@@$$*;@@@@@@@@@@@@@@@@@@@@@@@@@@@@@@@@@@@@@@@@@@@@$$XXX+OOOOOOOOOOOOOOOOOOOOOOOOO...&&&:-------------------------%%%XXX+OOOOOOOOOOOOOOOOOOOOOOOOO...*;@@@@@@@@@@@@@@@@@@@@@@@@@@@@@@@@@@@@@@@@@@@@$$*;@@@@@@@@@@@@@@@@@@@@@@@@@@@@@@@@@@@@@@@@@@@@$$",
";@@@@@@@@@@@@@@@@@@@@@@@@@@@@@@@@@@@@@@@@@@@@@@$;@@@@@@@@@@@@@@@@@@@@@@@@@@@@@@@@@@@@@@@@@@@@@@$XXX+OOOOOOOOOOOOOOOOOOOOOOOOO...&&&:-------------------------%%%XXX+OOOOOOOOOOOOOOOOOOOOOOOOO...;@@@@@@@@@@@@@@@@@@@@@@@@@@@@@@@@@@@@@@@@@@@@@@$;@@@@@@@@@@@@@@@@@@@@@@@@@@@@@@@@@@@@@@@@@@@@@@$",
"+oooooooooooooooooooooooooooooooooooooooooooooooooooooooooooooooooooooooooooooooooooooooooooooooXXX+OOOOOOOOOOOOOOOOOOOOOOOOO...&&&:-------------------------%%%XXX+OOOOOOOOOOOOOOOOOOOOOOOOO...oooooooooooooooooooooooooooooooooooooooooooooooooooooooooooooooooooooooooooooooooooooooooooooooo",
"X+oooooooooooooooooooooooooooooooooooooooooooooooooooooooooooooooooooooooooooooooooooooooooooooooXX+OOOOOOOOOOOOOOOOOOOOOOOOO...&&&:-------------------------%%%XXX+OOOOOOOOOOOOOOOOOOOOOOOOO..oooooooooooooooooooooooooooooooooooooooooooooooooooooooooooooooooooooooooooooooooooooooooooooooo.",
"XX+oooooooooooooooooooooooooooooooooooooooooooooooooooooooooooooooooooooooooooooooooooooooooooooooX+OOOOOOOOOOOOOOOOOOOOOOOOO...&&&:-------------------------%%%XXX+OOOOOOOOOOOOOOOOOOOOOOOOO.oooooooooooooooooooooooooooooooooooooooooooooooooooooooooooooooooooooooooooooooooooooooooooooooo..",
"XXX+++++++++++++++++++++++++++++++++++++++++++++++++++++++++++++++++++++++++++++++++++++++++++++++++OOOOOOOOOOOOOOOOOOOOOOOOO...&&&:-------------------------%%%XXX+OOOOOOOOOOOOOOOOOOOOOOOOO++++++++++++++++++++++++++++++++++++++++++++++++++++++++++++++++++++++++++++++++++++++++++++++++...",
"XXX+OOOOOOOOOOOOOOOOOOOOOOOOOOOOOOOOOOOOOOOOOOOOOOOOOOOOOOOOOOOOOOOOOOOOOOOOOOOOOOOOOOOOOOOOOOOOOOOOOOOOOOOOOOOOOOOOOOOOOOOOO...&&&:-------------------------%%%XXX+OOOOOOOOOOOOOOOOOOOOOOOOOOOOOOOOOOOOOOOOOOOOOOOOOOOOOOOOOOOOOOOOOOOOOOOOOOOOOOOOOOOOOOOOOOOOOOOOOOOOOOOOOOOOOOOOOOOOOOOOO...",
"XXX+OOOOOOOOOOOOOOOOOOOOOOOOOOOOOOOOOOOOOOOOOOOOOOOOOOOOOOOOOOOOOOOOOOOOOOOOOOOOOOOOOOOOOOOOOOOOOOOOOOOOOOOOOOOOOOOOOOOOOOOOO...&&&:-------------------------%%%XXX+OOOOOOOOOOOOOOOOOOOOOOOOOOOOOOOOOOOOOOOOOOOOOOOOOOOOOOOOOOOOOOOOOOOOOOOOOOOOOOOOOOOOOOOOOOOOOOOOOOOOOOOOOOOOOOOOOOOOOOOOO...",
"XXX+OOOOOOOOOOOOOOOOOOOOOOOOOOOOOOOOOOOOOOOOOOOOOOOOOOOOOOOOOOOOOOOOOOOOOOOOOOOOOOOOOOOOOOOOOOOOOOOOOOOOOOOOOOOOOOOOOOOOOOOOO...&&&:-------------------------%%%XXX+OOOOOOOOOOOOOOOOOOOOOOOOOOOOOOOOOOOOOOOOOOOOOOOOOOOOOOOOOOOOOOOOOOOOOOOOOOOOOOOOOOOOOOOOOOOOOOOOOOOOOOOOOOOOOOOOOOOOOOOOO...",
"XXX+OOOOOOOOOOOOOOOOOOOOOOOOOOOOOOOOOOOOOOOOOOOOOOOOOOOOOOOOOOOOOOOOOOOOOOOOOOOOOOOOOOOOOOOOOOOOOOOOOOOOOOOOOOOOOOOOOOOOOOOOO...&&&:-------------------------%%%XXX+OOOOOOOOOOOOOOOOOOOOOOOOOOOOOOOOOOOOOOOOOOOOOOOOOOOOOOOOOOOOOOOOOOOOOOOOOOOOOOOOOOOOOOOOOOOOOOOOOOOOOOOOOOOOOOOOOOOOOOOOO...",
"XXX+OOOOOOOOOOOOOOOOOOOOOOOOOOOOOOOOOOOOOOOOOOOOOOOOOOOOOOOOOOOOOOOOOOOOOOOOOOOOOOOOOOOOOOOOOOOOOOOOOOOOOOOOOOOOOOOOOOOOOOOOO...&&&:-------------------------%%%XXX+OOOOOOOOOOOOOOOOOOOOOOOOOOOOOOOOOOOOOOOOOOOOOOOOOOOOOOOOOOOOOOOOOOOOOOOOOOOOOOOOOOOOOOOOOOOOOOOOOOOOOOOOOOOOOOOOOOOOOOOOO...",
"XXX+OOOOOOOOOOOOOOOOOOOOOOOOOOOOOOOOOOOOOOOOOOOOOOOOOOOOOOOOOOOOOOOOOOOOOOOOOOOOOOOOOOOOOOOOOOOOOOOOOOOOOOOOOOOOOOOOOOOOOOOOO...&&&:-------------------------%%%XXX+OOOOOOOOOOOOOOOOOOOOOOOOOOOOOOOOOOOOOOOOOOOOOOOOOOOOOOOOOOOOOOOOOOOOOOOOOOOOOOOOOOOOOOOOOOOOOOOOOOOOOOOOOOOOOOOOOOOOOOOOO...",
"XXX+OOOOOOOOOOOOOOOOOOOOOOOOOOOOOOOOOOOOOOOOOOOOOOOOOOOOOOOOOOOOOOOOOOOOOOOOOOOOOOOOOOOOOOOOOOOOOOOOOOOOOOOOOOOOOOOOOOOOOOOOO...&&&:-------------------------%%%XXX+OOOOOOOOOOOOOOOOOOOOOOOOOOOOOOOOOOOOOOOOOOOOOOOOOOOOOOOOOOOOOOOOOOOOOOOOOOOOOOOOOOOOOOOOOOOOOOOOOOOOOOOOOOOOOOOOOOOOOOOOO...",
"XXX+OOOOOOOOOOOOOOOOOOOOOOOOOOOOOOOOOOOOOOOOOOOOOOOOOOOOOOOOOOOOOOOOOOOOOOOOOOOOOOOOOOOOOOOOOOOOOOOOOOOOOOOOOOOOOOOOOOOOOOOOO...&&&:-------------------------%%%XXX+OOOOOOOOOOOOOOOOOOOOOOOOOOOOOOOOOOOOOOOOOOOOOOOOOOOOOOOOOOOOOOOOOOOOOOOOOOOOOOOOOOOOOOOOOOOOOOOOOOOOOOOOOOOOOOOOOOOOOOOOO...",
"XXX+OOOOOOOOOOOOOOOOOOOOOOOOOOOOOOOOOOOOOOOOOOOOOOOOOOOOOOOOOOOOOOOOOOOOOOOOOOOOOOOOOOOOOOOOOOOOOOOOOOOOOOOOOOOOOOOOOOOOOOOOO...&&&:-------------------------%%%XXX+OOOOOOOOOOOOOOOOOOOOOOOOOOOOOOOOOOOOOOOOOOOOOOOOOOOOOOOOOOOOOOOOOOOOOOOOOOOOOOOOOOOOOOOOOOOOOOOOOOOOOOOOOOOOOOOOOOOOOOOOO...",
"XXX+OOOOOOOOOOOOOOOOOOOOOOOOOOOOOOOOOOOOOOOOOOOOOOOOOOOOOOOOOOOOOOOOOOOOOOOOOOOOOOOOOOOOOOOOOOOOOOOOOOOOOOOOOOOOOOOOOOOOOOOOO...&&&:-------------------------%%%XXX+OOOOOOOOOOOOOOOOOOOOOOOOOOOOOOOOOOOOOOOOOOOOOOOOOOOOOOOOOOOOOOOOOOOOOOOOOOOOOOOOOOOOOOOOOOOOOOOOOOOOOOOOOOOOOOOOOOOOOOOOO...",
"XXX+OOOOOOOOOOOOOOOOOOOOOOOOOOOOOOOOOOOOOOOOOOOOOOOOOOOOOOOOOOOOOOOOOOOOOOOOOOOOOOOOOOOOOOOOOOOOOOOOOOOOOOOOOOOOOOOOOOOOOOOOO...&&&:-------------------------%%%XXX+OOOOOOOOOOOOOOOOOOOOOOOOOOOOOOOOOOOOOOOOOOOOOOOOOOOOOOOOOOOOOOOOOOOOOOOOOOOOOOOOOOOOOOOOOOOOOOOOOOOOOOOOOOOOOOOOOOOOOOOOO...",
"XXX+OOOOOOOOOOOOOOOOOOOOOOOOOOOOOOOOOOOOOOOOOOOOOOOOOOOOOOOOOOOOOOOOOOOOOOOOOOOOOOOOOOOOOOOOOOOOOOOOOOOOOOOOOOOOOOOOOOOOOOOOO...&&&:-------------------------%%%XXX+OOOOOOOOOOOOOOOOOOOOOOOOOOOOOOOOOOOOOOOOOOOOOOOOOOOOOOOOOOOOOOOOOOOOOOOOOOOOOOOOOOOOOOOOOOOOOOOOOOOOOOOOOOOOOOOOOOOOOOOOO...",
"XXX+OOOOOOOOOOOOOOOOOOOOOOOOOOOOOOOOOOOOOOOOOOOOOOOOOOOOOOOOOOOOOOOOOOOOOOOOOOOOOOOOOOOOOOOOOOOOOOOOOOOOOOOOOOOOOOOOOOOOOOOOO...&&&:-------------------------%%%XXX+OOOOOOOOOOOOOOOOOOOOOOOOOOOOOOOOOOOOOOOOOOOOOOOOOOOOOOOOOOOOOOOOOOOOOOOOOOOOOOOOOOOOOOOOOOOOOOOOOOOOOOOOOOOOOOOOOOOOOOOOO...",
"XXX+OOOOOOOOOOOOOOOOOOOOOOOOOOOOOOOOOOOOOOOOOOOOOOOOOOOOOOOOOOOOOOOOOOOOOOOOOOOOOOOOOOOOOOOOOOOOOOOOOOOOOOOOOOOOOOOOOOOOOOOOO...&&&:-------------------------%%%XXX+OOOOOOOOOOOOOOOOOOOOOOOOOOOOOOOOOOOOOOOOOOOOOOOOOOOOOOOOOOOOOOOOOOOOOOOOOOOOOOOOOOOOOOOOOOOOOOOOOOOOOOOOOOOOOOOOOOOOOOOOO...",
"XXX+OOOOOOOOOOOOOOOOOOOOOOOOOOOOOOOOOOOOOOOOOOOOOOOOOOOOOOOOOOOOOOOOOOOOOOOOOOOOOOOOOOOOOOOOOOOOOOOOOOOOOOOOOOOOOOOOOOOOOOOOO...&&&:-------------------------%%%XXX+OOOOOOOOOOOOOOOOOOOOOOOOOOOOOOOOOOOOOOOOOOOOOOOOOOOOOOOOOOOOOOOOOOOOOOOOOOOOOOOOOOOOOOOOOOOOOOOOOOOOOOOOOOOOOOOOOOOOOOOOO...",
"XXX+OOOOOOOOOOOOOOOOOOOOOOOOOOOOOOOOOOOOOOOOOOOOOOOOOOOOOOOOOOOOOOOOOOOOOOOOOOOOOOOOOOOOOOOOOOOOOOOOOOOOOOOOOOOOOOOOOOOOOOOOO...&&&:-------------------------%%%XXX+OOOOOOOOOOOOOOOOOOOOOOOOOOOOOOOOOOOOOOOOOOOOOOOOOOOOOOOOOOOOOOOOOOOOOOOOOOOOOOOOOOOOOOOOOOOOOOOOOOOOOOOOOOOOOOOOOOOOOOOOO...",
"XXX+OOOOOOOOOOOOOOOOOOOOOOOOOOOOOOOOOOOOOOOOOOOOOOOOOOOOOOOOOOOOOOOOOOOOOOOOOOOOOOOOOOOOOOOOOOOOOOOOOOOOOOOOOOOOOOOOOOOOOOOOO...&&&:-------------------------%%%XXX+OOOOOOOOOOOOOOOOOOOOOOOOOOOOOOOOOOOOOOOOOOOOOOOOOOOOOOOOOOOOOOOOOOOOOOOOOOOOOOOOOOOOOOOOOOOOOOOOOOOOOOOOOOOOOOOOOOOOOOOOO...",
"XXX+OOOOOOOOOOOOOOOOOOOOOOOOOOOOOOOOOOOOOOOOOOOOOOOOOOOOOOOOOOOOOOOOOOOOOOOOOOOOOOOOOOOOOOOOOOOOOOOOOOOOOOOOOOOOOOOOOOOOOOOOO...&&&:-------------------------%%%XXX+OOOOOOOOOOOOOOOOOOOOOOOOOOOOOOOOOOOOOOOOOOOOOOOOOOOOOOOOOOOOOOOOOOOOOOOOOOOOOOOOOOOOOOOOOOOOOOOOOOOOOOOOOOOOOOOOOOOOOOOOO...",
"XXX+OOOOOOOOOOOOOOOOOOOOOOOOOOOOOOOOOOOOOOOOOOOOOOOOOOOOOOOOOOOOOOOOOOOOOOOOOOOOOOOOOOOOOOOOOOOOOOOOOOOOOOOOOOOOOOOOOOOOOOOOO...&&&:-------------------------%%%XXX+OOOOOOOOOOOOOOOOOOOOOOOOOOOOOOOOOOOOOOOOOOOOOOOOOOOOOOOOOOOOOOOOOOOOOOOOOOOOOOOOOOOOOOOOOOOOOOOOOOOOOOOOOOOOOOOOOOOOOOOOO...",
"XXX+OOOOOOOOOOOOOOOOOOOOOOOOOOOOOOOOOOOOOOOOOOOOOOOOOOOOOOOOOOOOOOOOOOOOOOOOOOOOOOOOOOOOOOOOOOOOOOOOOOOOOOOOOOOOOOOOOOOOOOOOO...&&&:-------------------------%%%XXX+OOOOOOOOOOOOOOOOOOOOOOOOOOOOOOOOOOOOOOOOOOOOOOOOOOOOOOOOOOOOOOOOOOOOOOOOOOOOOOOOOOOOOOOOOOOOOOOOOOOOOOOOOOOOOOOOOOOOOOOOO...",
"XXX+OOOOOOOOOOOOOOOOOOOOOOOOOOOOOOOOOOOOOOOOOOOOOOOOOOOOOOOOOOOOOOOOOOOOOOOOOOOOOOOOOOOOOOOOOOOOOOOOOOOOOOOOOOOOOOOOOOOOOOOOO...&&&:-------------------------%%%XXX+OOOOOOOOOOOOOOOOOOOOOOOOOOOOOOOOOOOOOOOOOOOOOOOOOOOOOOOOOOOOOOOOOOOOOOOOOOOOOOOOOOOOOOOOOOOOOOOOOOOOOOOOOOOOOOOOOOOOOOOOO...",
"XXX+OOOOOOOOOOOOOOOOOOOOOOOOOOOOOOOOOOOOOOOOOOOOOOOOOOOOOOOOOOOOOOOOOOOOOOOOOOOOOOOOOOOOOOOOOOOOOOOOOOOOOOOOOOOOOOOOOOOOOOOOO...&&&:-------------------------%%%XXX+OOOOOOOOOOOOOOOOOOOOOOOOOOOOOOOOOOOOOOOOOOOOOOOOOOOOOOOOOOOOOOOOOOOOOOOOOOOOOOOOOOOOOOOOOOOOOOOOOOOOOOOOOOOOOOOOOOOOOOOOO...",
"XXX+OOOOOOOOOOOOOOOOOOOOOOOOOOOOOOOOOOOOOOOOOOOOOOOOOOOOOOOOOOOOOOOOOOOOOOOOOOOOOOOOOOOOOOOOOOOOOOOOOOOOOOOOOOOOOOOOOOOOOOOOO...&&&:-------------------------%%%XXX+OOOOOOOOOOOOOOOOOOOOOOOOOOOOOOOOOOOOOOOOOOOOOOOOOOOOOOOOOOOOOOOOOOOOOOOOOOOOOOOOOOOOOOOOOOOOOOOOOOOOOOOOOOOOOOOOOOOOOOOOO...",
"XXX+OOOOOOOOOOOOOOOOOOOOOOOOOOOOOOOOOOOOOOOOOOOOOOOOOOOOOOOOOOOOOOOOOOOOOOOOOOOOOOOOOOOOOOOOOOOOOOOOOOOOOOOOOOOOOOOOOOOOOOOOO...&&&:-------------------------%%%XXX+OOOOOOOOOOOOOOOOOOOOOOOOOOOOOOOOOOOOOOOOOOOOOOOOOOOOOOOOOOOOOOOOOOOOOOOOOOOOOOOOOOOOOOOOOOOOOOOOOOOOOOOOOOOOOOOOOOOOOOOOO...",
"XXX+OOOOOOOOOOOOOOOOOOOOOOOOOOOOOOOOOOOOOOOOOOOOOOOOOOOOOOOOOOOOOOOOOOOOOOOOOOOOOOOOOOOOOOOOOOOOOOOOOOOOOOOOOOOOOOOOOOOOOOOOO...&&&:-------------------------%%%XXX+OOOOOOOOOOOOOOOOOOOOOOOOOOOOOOOOOOOOOOOOOOOOOOOOOOOOOOOOOOOOOOOOOOOOOOOOOOOOOOOOOOOOOOOOOOOOOOOOOOOOOOOOOOOOOOOOOOOOOOOOO...",
"XXo                                                                                                                          ...&&&:-------------------------%%%XXo                                                                                                                          ...",
"Xo                                                                                                                            ..&&&:-------------------------%%%Xo                                                                                                                            ..",
"o                                                                                                                              .&&&:-------------------------%%%o                                                                                                                              .",
":===============================================================================================================================&&&:-------------------------%%%================================================================================================================================",
"&:===============================================================================================================================&&:-------------------------%%================================================================================================================================%",
"&&:===============================================================================================================================&:-------------------------%================================================================================================================================%%",
"&&&:::::::::::::::::::::::::::::::::::::::::::::::::::::::::::::::::::::::::::::::::::::::::::::::::::::::::::::::::::::::::::::::::-------------------------::::::::::::::::::::::::::::::::::::::::::::::::::::::::::::::::::::::::::::::::::::::::::::::::::::::::::::::::::::::::::::::::%%%",
"&&&:-----------------------------------------------------------------------------------------------------------------------------------------------------------------------------------------------------------------------------------------------------------------------------------------%%%",
"&&&:-----------------------------------------------------------------------------------------------------------------------------------------------------------------------------------------------------------------------------------------------------------------------------------------%%%",
"&&&:-----------------------------------------------------------------------------------------------------------------------------------------------------------------------------------------------------------------------------------------------------------------------------------------%%%",
"&&&:-----------------------------------------------------------------------------------------------------------------------------------------------------------------------------------------------------------------------------------------------------------------------------------------%%%",
"&&&:-----------------------------------------------------------------------------------------------------------------------------------------------------------------------------------------------------------------------------------------------------------------------------------------%%%",
"&&&:-----------------------------------------------------------------------------------------------------------------------------------------------------------------------------------------------------------------------------------------------------------------------------------------%%%",
"&&&:-----------------------------------------------------------------------------------------------------------------------------------------------------------------------------------------------------------------------------------------------------------------------------------------%%%",
"&&&:-----------------------------------------------------------------------------------------------------------------------------------------------------------------------------------------------------------------------------------------------------------------------------------------%%%",
"&&&:-----------------------------------------------------------------------------------------------------------------------------------------------------------------------------------------------------------------------------------------------------------------------------------------%%%",
"&&&:-----------------------------------------------------------------------------------------------------------------------------------------------------------------------------------------------------------------------------------------------------------------------------------------%%%",
"&&&:-----------------------------------------------------------------------------------------------------------------------------------------------------------------------------------------------------------------------------------------------------------------------------------------%%%",
"&&&:-----------------------------------------------------------------------------------------------------------------------------------------------------------------------------------------------------------------------------------------------------------------------------------------%%%",
"&&&:-----------------------------------------------------------------------------------------------------------------------------------------------------------------------------------------------------------------------------------------------------------------------------------------%%%",
"&&&:-----------------------------------------------------------------------------------------------------------------------------------------------------------------------------------------------------------------------------------------------------------------------------------------%%%",
"&&&:-----------------------------------------------------------------------------------------------------------------------------------------------------------------------------------------------------------------------------------------------------------------------------------------%%%",
"&&&:-----------------------------------------------------------------------------------------------------------------------------------------------------------------------------------------------------------------------------------------------------------------------------------------%%%",
"&&&:-----------------------------------------------------------------------------------------------------------------------------------------------------------------------------------------------------------------------------------------------------------------------------------------%%%",
"&&&:-----------------------------------------------------------------------------------------------------------------------------------------------------------------------------------------------------------------------------------------------------------------------------------------%%%",
"&&&:-----------------------------------------------------------------------------------------------------------------------------------------------------------------------------------------------------------------------------------------------------------------------------------------%%%",
"&&&:-----------------------------------------------------------------------------------------------------------------------------------------------------------------------------------------------------------------------------------------------------------------------------------------%%%",
"&&&:-----------------------------------------------------------------------------------------------------------------------------------------------------------------------------------------------------------------------------------------------------------------------------------------%%%",
"&&&:-----------------------------------------------------------------------------------------------------------------------------------------------------------------------------------------------------------------------------------------------------------------------------------------%%%",
"&&&:-----------------------------------------------------------------------------------------------------------------------------------------------------------------------------------------------------------------------------------------------------------------------------------------%%%",
"&&&:-----------------------------------------------------------------------------------------------------------------------------------------------------------------------------------------------------------------------------------------------------------------------------------------%%%",
"&&&:-----------------------------------------------------------------------------------------------------------------------------------------------------------------------------------------------------------------------------------------------------------------------------------------%%%",
"&&=##########################################################################################################################################################################################################################################################################################%%%",
"&=############################################################################################################################################################################################################################################################################################%%",
"=##############################################################################################################################################################################################################################################################################################%"
};
