/* XPM */
static char *result[] = {
/* columns rows colors chars-per-pixel */
"256 256 256 2 ",
"   c #32263C",
".  c #2E1E3D",
"X  c #392A47",
"o  c #3C314D",
"O  c #301F42",
"+  c #45354C",
"@  c #483858",
"#  c #493454",
"$  c #4B3A64",
"%  c #533D67",
"&  c #543E73",
"*  c #4B4457",
"=  c #54475C",
"-  c #554E5A",
";  c #544364",
":  c #5B4B64",
">  c #55436B",
",  c #5C4C6C",
"<  c #584768",
"1  c #5B5469",
"2  c #5C4B73",
"3  c #5A4877",
"4  c #5D5475",
"5  c #4D4466",
"6  c #634C6A",
"7  c #64536C",
"8  c #67586B",
"9  c #634D73",
"0  c #654C79",
"q  c #645373",
"w  c #6A5574",
"e  c #6B5B74",
"r  c #64537B",
"t  c #6B557B",
"y  c #6C5B7C",
"u  c #655A76",
"i  c #725C7C",
"p  c #745A77",
"a  c #72556F",
"s  c #6C6379",
"d  c #74637C",
"f  c #77677A",
"g  c #736C75",
"h  c #645A63",
"j  c #41333F",
"k  c #836F7D",
"l  c #805B7D",
"z  c #5D4F84",
"x  c #654D85",
"c  c #6B5483",
"v  c #6C5B83",
"b  c #685788",
"n  c #735C83",
"m  c #735C8B",
"M  c #775A86",
"N  c #6B5A94",
"B  c #755C95",
"V  c #694E8F",
"C  c #6C6486",
"Z  c #746384",
"A  c #7A6484",
"S  c #746B84",
"D  c #7B6B84",
"F  c #74638B",
"G  c #7B648B",
"H  c #7C6B8B",
"J  c #756A8B",
"K  c #7C728C",
"L  c #7A7586",
"P  c #7C6B93",
"I  c #7C6B9B",
"U  c #786596",
"Y  c #7C7497",
"T  c #6D6595",
"R  c #785CA5",
"E  c #7B69A5",
"W  c #7D74A4",
"Q  c #7466AB",
"!  c #836C8C",
"~  c #836988",
"^  c #84738C",
"/  c #87778A",
"(  c #836C93",
")  c #836C9C",
"_  c #876997",
"`  c #847394",
"'  c #8B7494",
"]  c #8C7B94",
"[  c #84739B",
"{  c #8B749B",
"}  c #8C7B9B",
"|  c #847B97",
" . c #937C9C",
".. c #947799",
"X. c #927492",
"o. c #836CA3",
"O. c #876BA8",
"+. c #8473A3",
"@. c #8B74A3",
"#. c #8C7BA4",
"$. c #8B74AB",
"%. c #8C7BAB",
"&. c #8478A7",
"*. c #937CA3",
"=. c #937CAB",
"-. c #9778A7",
";. c #886BB4",
":. c #8B77B4",
">. c #947BB4",
",. c #977AB7",
"<. c #926DAD",
"1. c #A37CAA",
"2. c #A47DB5",
"3. c #886494",
"4. c #987BC5",
"5. c #9173C5",
"6. c #A47CCB",
"7. c #7D8397",
"8. c #8B8498",
"9. c #94839C",
"0. c #97879A",
"q. c #918A91",
"w. c #A38F9B",
"e. c #8C83A7",
"r. c #9483A4",
"t. c #9B84A4",
"y. c #9B8BA4",
"u. c #9483AB",
"i. c #9B84AB",
"p. c #9C8AAC",
"a. c #958AA7",
"s. c #9B93A8",
"d. c #8C85B4",
"f. c #9483B3",
"g. c #9B84B4",
"h. c #9C8BB3",
"j. c #9C83BB",
"k. c #9C8BBB",
"l. c #9488B8",
"z. c #9C93B8",
"x. c #8B95A6",
"c. c #A38CAC",
"v. c #A488A8",
"b. c #A393AC",
"n. c #A796A9",
"m. c #A38CB3",
"M. c #A38CBC",
"N. c #A787B7",
"B. c #B28BBA",
"V. c #A493B3",
"C. c #AB93B4",
"Z. c #A393BB",
"A. c #AB93BB",
"S. c #AA9BB8",
"D. c #B398BA",
"F. c #B498AC",
"G. c #ABA4B9",
"H. c #B5A6BA",
"J. c #AFA7AF",
"K. c #9BA4AE",
"L. c #C3ADBC",
"P. c #9C87C5",
"I. c #9D93C3",
"U. c #9D87D1",
"Y. c #A38CC4",
"T. c #A789C8",
"R. c #B48CC6",
"E. c #A493C4",
"W. c #AB93C3",
"Q. c #AC93CC",
"!. c #AC9BCB",
"~. c #A898C7",
"^. c #B49CC4",
"/. c #B394CC",
"(. c #B49BCC",
"). c #B998C7",
"_. c #A98AD5",
"`. c #B38CD7",
"'. c #AC94D3",
"]. c #AC97D6",
"[. c #B294D3",
"{. c #B39BD4",
"}. c #B393DC",
"|. c #BB9CDB",
" X c #B89AD8",
".X c #ACA3C7",
"XX c #B8A6C8",
"oX c #BBA3D4",
"OX c #BCA3DC",
"+X c #BCABDC",
"@X c #B7A6D5",
"#X c #B8B1CF",
"$X c #BA9AE4",
"%X c #B28FE3",
"&X c #BDA6E4",
"*X c #B7ABE6",
"=X c #C49BD7",
"-X c #C499CC",
";X c #C3A8CA",
":X c #C6B5CA",
">X c #C3A4DC",
",X c #C3ABDC",
"<X c #C6A8D6",
"1X c #C7B5D9",
"2X c #D4B9D9",
"3X c #D2AFD6",
"4X c #C39DE6",
"5X c #C69DF2",
"6X c #C3A4E3",
"7X c #C4ABE3",
"8X c #CBACE4",
"9X c #CBACEB",
"0X c #C6A6EA",
"qX c #D4ABE8",
"wX c #C5B3E4",
"eX c #CBB4E4",
"rX c #CCB4EB",
"tX c #CCBAEC",
"yX c #C9B8E6",
"uX c #D3B4EC",
"iX c #D3BBEC",
"pX c #D6B8E7",
"aX c #CCACF3",
"sX c #C9A6F4",
"dX c #D3ACF7",
"fX c #CDB5F3",
"gX c #D3B4F3",
"hX c #D4BBF3",
"jX c #DBBCF4",
"kX c #DBBCFD",
"lX c #D7B6FA",
"zX c #E2BDFE",
"xX c #E4BAF9",
"cX c #E1B9ED",
"vX c #D1C4DA",
"bX c #D7C5E9",
"nX c #DCC3FC",
"mX c #DAC5F6",
"MX c #CFC8EB",
"NX c #E3C4FE",
"BX c #E4CBFE",
"VX c #EBCCFF",
"CX c #E7C6FA",
"ZX c #F2CCFF",
"AX c #ECD3FF",
"SX c #EAD7FC",
"DX c #F3D4FF",
"FX c #F4DAFF",
"GX c #FBDCFF",
"HX c #F9D6FD",
"JX c #E5CDEA",
"KX c #FEE3FF",
"LX c #FDE9FF",
"PX c #F7EBFF",
"IX c #BEC3D6",
"UX c #87817F",
/* pixels */
"X.....X.X.q.X.B.C.v.c.0...] X.] X.] ' ] ] 8..XoX7X&X7X7X&X7X,X>X>XNXFXBXBXBXNXNXmXjXjXqX3X<X<X<XkXlX&X|.OX{.].'.'.Q.T.j.i d e e q u 8 s s C K / ] ..X.X./ f k f l D f f d ! ` ( ^ [ #.@.%.@.@.O.G w , ..=.*./ ^ ! ! ~ ~ ~ ~ D ^ _ _ ( ( 3.M d p p p a i 0 3.O O O # # 0 6 < @ @ * * 1 L Y L ^ ^ / / ` } *.*. .{ ..* * - - 1 1 1 1 s h 7.o o # + + + + + # @ = b E <.<.o.O.O.E U U O.Z.W.^..XXX(.(.(.{.oX X@XoX@X:.I v b b x r x 4 r 0 q y y / ' } 9.9.} 9. ...-...X._ _ *.y.p.V.S.~.XXXXXX+X1XA._ ` =.c.m.V.Z.S..XXXXXD.A D ~ D ",
"^ v...0.X.0.q.D.C.C.v.v.0.v.v.0. .9.0.v.y.n.lX+X+X<X+X7X8X7X7X,XrXPXKXFXGXDXBXNXNXxXuXuX8X8X<XXXNXfX&XOXOX|.{.].Q.Y.j.N.( X./ ^ D f f L g L k ]  . .../ g k k ~ ~ ~ f K ! ^ ' H ~ ^ ( ` @.{ M e 6 6 , J *.r.*.{ ^ / ^ ~ ~ ~ ~ { { { { _ 3.~ D ~ A A d Z 3.<.X O O O a 0 0 $ $ * 5 * - - 1 L / g / | ' { ..@.{ { { s - - 1 1 1 g s g 7.g g g a = # # @ = = a g +.o.E E O.O.o.R I U k.V.^.^.XX).oXoXoX{.@X XY.o.v x b b x c V b r r u d C Z n S | 9.9.9.y.t.t.0.......X.X.t.y.p.b.V.S.S.oX:X,XeXm......._ *.V.Z.S.^.G.XXL.A D K ^ ",
"| X.0.1.0.....t.C.C.b.n.v.w.b.v.v.n.n.n.n.S.#X<X,X,X1X1X3X8X8X8XnXFXPXKXGXGXDXDXNXjXcXjXuX8X=X).>XfX0X&XOXoX{.Q.Q.W.M.N.N.] ] ] / / / / q.g q.v.t.t.0.X.k / / / / f ^ K ^ ^ ! K ^ ! ! ! n e w w 7 7 7 7 0.*. . .../ X.X._ _ ~ { @.-...{ _ ! ! ! _ ~ ~ _ M 3.# O j O O l + @ @ * * * - - 1 1 4 7.^ / ' ' ' ' X.{ ' X.1 1 1 1 s g C C L J w ~ f k k f k f f d A.E E E I I I o.) I $.z.Z.^.^.XX(.(. XoXoX,.) c c c c c b r b r r 4 u y A S S H n } 9.9.t.y.y.0.v. .1.....v.y.y.c.V.C.^.H.XX+X<X,X . .........X.X.n.G.G.XXXXC.~ ! ^ ",
"` ] / / ..w.0.0.D.D.C.C.b.b.n.n.n.n.C.n.C.MX1X1X1XyX2XuXeXuX2XiXSXFXFXFXHXHXDXDXBXnXNXjXuX3X<X).D.fXrX@X>XoXoX!.(.W.R.W.N.~ q.8.q./ 8./ / 8.q.t.c.v.t./ / / X.k ~ / ^ ^ ^ ^ ^ ^ ! ! ~ i p p e a a 7 a 7 0...0...9. .....X.~ 3._ =.-.-.@.{ ' ' { _ _ M B V 3.# # O O . O X X o : 5 - 1 1 1 4 4 u s 8.X.X.' ' ' ' ! ' g s g 4 1 7.L J C L | ~ / k ~ l f k f f +.o.E ) I E U U U o.~.s.S.S.^..XoXoX(.$.U n c M t c c x b c 4 q u u e d d S K ^ A ' 8.r.y.y.v.v.v.v.v.1.t.v.c.c.V.S.S.D.XXXXXX1Xm.9.t. .*. .....X.X.` z.XX#X;XD K K ",
"/ ] X./ ] 9.0.0.b.D.F.S.C.n.n.C.n.C.n.S.S.1X1X2XpXbXpXbXpXjXpXbXmXSXKXFXFXDXBXnXmXmXmXpXiX3X<X).D.^.uX8X,X>XoX(.(.)././.R.m.8.8.X.q./ / / 8.C.V.m.v.0./ q.f k / / / ^ / ^ / / X.( A A d p p g p i a a 8 8 w.0.0.w.........X.3.3.v.,.=.Y *.*.} *...3.& 3.3.B # O . . . o X X o o * 5 1 4 u u u s u C C P w.' / ! ^ / / s g 4 g 7.J L Y Y | a / k ~ k k f l 8.+.I [ E ) o.O.+.o.$.8.0.S.G.^.XXj.o.Z F M M M M c t b z 3 1 u u s u s S D S ^ ` / ! p.p.p.b.V.C.C.C.C.c.D.b.n.V.S.n.G.G.XXXX#X;Xp.9.v.t.v.1...1...X.X.X...C.<X..~ ^ ",
"^ ` ] ] X.q.0. .0.G.D.F.F.C.C.n.F.C.S.F.H.2XyXpXpXbXbXbXmXJXmXbXmXBXnXnXBXmXmXCXmXJXCXmXcXjXpX<XD.B.1XuX3X,X<XoX<X X).)./.R.] 0.q.8.8.8.q.8.C.C.C.C.q.f k / q./ f ~ / / / X._ ( ! D A A f f f f f l k l p D.v.w.0.1.1.....<.3.3.{ ,.i.] i.i.r.u.3.B 0 3.V 3.# O . . # + o X + * o 5 5 4 u u C C u C C C F T a.X.~ / / g 7.7.C 7.K Y Y Y |  .~ ~ k ~ k ~ k f.@.+.+.[ %.%.=.@.+.Y.q.0.s.a.E J H G G G B m M M M x , < , 4 2 s s s Z J D K ` ` ' G a.s.V.A.A.A.A.V.A.C.n.b.C.V.S.S.D.D.XXXXXXW.v.v.c.v.m.v.1.w...1.....X.....l./ ^ ",
"] X./ ] q...q.0.0.0.D.H.H.D.F.F.S.F.S.C.MXbXbXmXmXJXmXBXCXCXJXMXMXSXCXJXJXJXSXBXCXCXCXJXCXjXpXpX3X-XiXpXuXeX3X+X<X;X).<X)./...0.q.9.8.q.8.b.C.A.C.q.L / q.k q./ / /  . .' { ` ( ^ H ~ ~ ~ k / / / ~ ~ l l L F.v.w.1.1.1.<...X._ _ m.8.m.m.m.p.<.R 3.c O.V x # O O $ + + o o o * o 5 5 5 4 C C C C F F F m b v b C t.7.8.7.C 7.7.7.e.8.[ Y &.~ / / k ~ k / #.#.#.u.>.u.=.=.*.=.8.8.` U H ! ! _ ~ ! U ( 3.3.V 3 3 > 1 2 1 4 s Z S D K P | | 9.9.! ' m.Z.W.W.^.W.^.D.S.n.C.C.S.F.D.D.XXXXXX;Xp.v.c.m.C.C.C.C.v.v.1.w....... .9.t.9.",
"y.0.9.] ..9. .0.9.t.n.C.F.H.F.S.F.S.F.J.iXbXbXmXbXBXBXJXVXSXSXJXFXSXAXAXBXSXSXSXDXSXVXZXCXCXcXpXpX3XuXpXpXpXeX1X<X>X1.<X>X<X/.0.q.8.8.8.8.C.S.b.y./ / / 8.UXq./ q.y.u.t.*.{ ' ' ^ / ^ / / / X./ X.X.X.~ ~ k D.B.B.v.1.1...{ _ 3.G n.n.C.C.C.2.<.<._ 3.O.% 0 X O % # @ @ @ o o o * * 5 5 4 4 z C J J F m m b c r t q 4 T g 7.7.7.e.e.a.e.e.#.~ ~ ~ / k ~ W.u.g.l.f.f.g.l.u.u.%.F Z ^ / ' ' { _ _ _ _ _ B z 3 3 3 > < 1 1 4 u J D K ` | 8.r.8.t.t.! c.m.A.W.Q.!.S.C.n.n.C.S.S.H.G.H.^.;XXX).c.C.m.C.C.A.A.C.D.D.v.v.v...w... .r.y.",
"v.v.v.v.F.v.0.9.9.0.w.C.C.C.C.F.S.F.S.vXvXbXbXJXBXBXAXAXNXBXGXHXFXFXDXAXAXFXAXAXAXFXFXZXZXCXCXcXpX2XCXCXCXrXjX1X8X).2.8X3X<X=X] 0.q.8.8.q.b.b.n.q./ / 8.q.p.p.r.p.p.p.u.} { { ' ] ] / 8.8.q.9.0.w.X.1.k X.~ -XB.F.B.v.1.<.3.3.3.G D.S.D.D.N.2.>.<.<.3.& & 0 # 0 6 % % # # X X o $ $ $ 5 4 z z C b F G F C b C 4 q q : 1 n 3 F e.e.e.a.a.a.d.m./ / k ~ / M.k.M.M.Z.k.h.m.$.V Q K / | } } -.@.<._ o.R z z 3 3 > 1 1 1 1 u u u U K | [ } e.a.r.p.p.X.i.Y.A.W.S.D.D.H.n.S.S.J.H.D.H.;XH.;X;Xn.m.N.m.A.A.A.W.^.^.^.D.F.v.v.w...w.1.w.",
"n.n.n.v.F.H.D.B.v. . .n.F.n.n.v.b.F.D.mXbXmXBXCXSXBXBXnXkXVXGXGXGXFXFXFXFXSXFXFXFXAXVXDXZXZXCXcXjXqXBXVXNXhXeXwX<X Xv.eX8X8X<X1.0.0.9.] 0.b.b.b.8./ 8.y.u.h.e.e.u.h.h.=. ...] ] ] ] q.0.w.0.0.v.w.1.w.1.X.X.k -XB.B.2.1.-.X.3.~ ~ D.;X).).B.D.B.B.B.& 6 6 0 6 0 0 6 6 # + + # o o $ 5 5 5 3 4 z b b B U U m C s u q 8 7 7 $ $ 5 b d.z.z.z.s.m./ / ~ / ] E.W.Z.Z.Z.m.R z o @ S Y 8.&.r.*.-.<.<.<.o.z z 3 5 3 > 5 5 1 1 q u s J Y | &.e.u.u.p.h.z.t. .A.C.C.S.H.D.D.S.D.J.H.H.;X:X:X;X:X;XF.N.B.B.Z.W.W.W.W.^.(.^.-XB.F.v.v.v.w.0.",
"n.n.C.n.C.H.XXL.L.D.n.v.n.C.C.v.v.v.n.bXbXmXSXBXBXmXnXnXBXGXKXGXGXGXDXDXFXFXFXFXFXAXFXDXZXZXZXzXcXjXVXNXVXBXrXrX=XR.=XfXuXeXqX).q.] / ] s.b.b.8./ 8.9.u.u.u.| #.u.h.p.-. . .] 9.9.0.0.n.w.n.F.F.F.1.1.1.1.X.3.=X-XB.2.1.-.X.X.3.A N.oXXX;XB.-XB.2.l l x 0 l ~ p a 6 6 % # + + # o @ $ 5 3 z 4 z b b b U U m C C y e s 8 4 z $ 5 3 3 z U z.Z.S./ ~ X./ c.W.W.~.m.O.> @ @ @ z J Y } &.=.,.,.<.<.;.x & 3 5 5 3 5 1 4 1 4 u y C y [ | #.e.u.l.h.m.Z.V. .y.S.D.H.^.XXF.S.H.H.XX:X:X:X3X:X:XF.B.B.B.T.Y.T.W.R.W./.(.(.).^.D.C.F.v.v.v.",
"n.C.F.B.D.XXXX;X-X).L.D.<X:X;Xn.b.n.J.bXCXBXmXmXmXNXnXBXVXKXGXKXGXGXGXGXGXFXFXFXFXFXAXFXDXZXZXCXxXjXjXmXnXCXgXtX/./.=X0X8X8XiXqX] 8...8.V.z.a.} ] 8.e.u.a.a.} 8.e.p.i.t. .9.9.9.s.w.s.n.F.J.F.F.-XF.B.B.1.1.1.X.-XB.B.1.-._ _ ~ ~ H ,X@X XD.-X2.l V x 3.0 3.3.~ l l a # # # # # @ @ @ $ 5 5 3 z z z V V U J C C s s s g g N $ z 3 3 z 3 b N U f./ k ^ C.T.,.V > > > 5 5 5 Q J Y &.%.,.:.;.;.;.V 3 & 3 5 5 5 < , 1 4 u u d F Z ) #.%.f.f.h.k.M.V.C.v.v.^.).XXoXH.G.H.H.H.:X:X1X:XvX2X2XL.R.R.T.T.T.N.M.W.W.Q.Q.(.).(.XXD.B.F.v.F.",
"v.S.D.D.D.XX;X;X;X;X).H.3X+X1XH.H.XXSXmXBXnXBXnXNXBXBXBXAXKXKXKXGXKXGXGXGXGXFXFXFXFXFXFXDXDXZXVXCXxXpXAXAXVXBXBX=X<X8XtXjXmXjXjX] ] ] ] y.y.9.} ] } e.r.a.a.| } } u.i.t.9.0.0.s.s.n.J.J.J.H.L.L.L.L.B.B.B.1.1.3.<XR.N.2.1...X._ ~ A ,X+X~.R.R.m V l 3.X...3.X.~ 3.l a % # # # # @ @ @ $ > > 3 3 z z z b z T J C g g g g g u 3 4 z b b N U U T s X.X...2.B B B N z 3 2 2 1 T F I W $.;.:.;.;.Q 3 & > > 5 5 : 1 1 1 u u d C J G P &.u.f.f.z.Z.S.S.D.C.C.D.{.{.oXH.H.H.XXXX:X:XvXvXvXvX3X-XR.R.T.N.N.M.N.Y.Y.Y./.(.(.(.(.).D.D.F.D.",
"D.S.^.^.D.XXXX;X;X-XL.-XD.:X<XXXXXH.PXBXBXBXAXAXAXAXVXVXFXKXKXKXKXGXGXGXFXKXFXGXFXDXFXFXHXDXZXVXCXxXVXBXBXBXmXBXqX8X>XmXBXnXBXmX] X.]  .y.a.] ] } 8.8.r.r.a.| } 8.a.v.t.t.t.y.b.s.J.J.J.H.#X:XL.-X3X-X-XB.B.1.1.~.R.N.v.1.<.X._ ~ ~ @X|.{.E.V _ 3.<.2.1...X.3.~ l 3.p @ ; % % # @ @ * @ 5 5 > 3 3 z z z z T C S S g q.g 8.s z b b T I E E o.E s w.1.1.<.;.O.;.E E U b v v T F U W E ;.;.;.;.3 3 3 % ; 5 * : 1 1 u u v Z F J P F %.u.l.V.V.Z.Z.^.XXD.XXD.{.@X#XH.H.H.XX:X:XvX1X2XJXJX2X`.R.T.T.N.N.N.,.N.j.Y.Y.W.Q.!.(.(.).D.D.D.",
"D.p.^.^.^.XXXXXX;X).).XXD.<X<XXXXXH.PXBXSXBXAXVXVXVXDXDXFXLXKXKXKXGXKXKXKXFXKXFXGXFXGXFXGXDXZXVXVXxXCXBXBXBXmXNX3X8XqXAXAXBXVXVXX.]  .] y.8.]  .} } 9.r.a.r.] ] } y.p.t.v.y.b.n.J.J.H.J.:X:XvXvX3X3X3X3X-XB.2.1...R.B.B.1.1...3.~ ~ pXeXwX$.$.) _ 8X2.2.1...X.X.3.l l % : % % # 5 @ @ $ $ % 5 > > 3 3 z 4 z s 7.L L g q.8.T T Y +.+.&.@.$.$.$.g m.N.N.<.4.,.:.:.:.$.$.[ P I v T U Q Q Q R B 3 , 5 : ; : : : 1 u y s Z Z J P U D &.h.z.V.Z..X.XXXXX.X.XXX<X XXXH.XXXX:X:X:X1XvXvXvXJXqX`.R.6.N.M.2.v.j.2.N.N.M.Y.Y.W.W.!.!.^.).D.",
"^.C.^.^.(.XXXXoX<X;X;XD.XXXXn.n.S.G.yXmXnXSXAXAXZXVXZXBXGXLXKXKXKXKXKXGXGXKXGXKXKXGXGXGXFXGXDXZXVXzXcXVXVXNXmXNXqXqX8XSXAXAXnX9X~ i i t ^ ' ] ] } 9.} 8.r.r.] | } p.p.c.b.c.K.J.J.H.IXvXvXvXvXvXcX3X3X3X-X-XB.1.-.@XR.B.v.1...X.X.~ >X9X,.:.<.;._ 8XB.B.t.1...X.3.l a a a 6 % = 5 * ; * * ; 5 > 2 2 3 3 4 4 C C S L 8.8.q.Y Y &.#.e.=.$.T * ).P.k.E.Y.4.> < 4.P.,.,.>.%.%.P.m m N B B R R 2 > < : 5 ; 1 , 1 q y y C F F U I I L / z.Z.~.S..X.XXXoX@X@XXX#XoXG.XXXX#X1X1XvXvXMXbXJXbX=XR.6.T.2.2.,.,.i.,.i.,.N.j.M.M.W.W.W.^.^.^.",
"D.D.c.^.W..XXXoXoX).S.S.G.#XS..XXXG.,XnXnXnXBXBXAXVXVXCXCXKXLXKXKXKXKXKXKXKXKXKXGXKXKXGXGXGXFXZXCXxXxXDXVXBXBXBXzXqXCXNXhX9X7X6X0 t t 0 a 3.a t ~ X... .r.r.] ] t.c.c.c.b.K.G.G.J.J.IXvXvXbXJXJXcXcXcXcX3X-X-XB.-.@.).B.m.v.1.X.X.X.B.,.,.<.$.O.*X@X!.D.N.v.1.X.X.~ e e y w 9 : = % : = = ; ; ; 5 5 4 , 2 1 u S L 7.7.9.x.+.e.u.u.+.+ }.&X'.'.E.{.oX!.~.P.P.5.z 1 j.j.f.=.}.U m b b m N b , , , 1 , : 1 1 7 u y C Z F J ( ` H K ` h.S.~..X!.(.{.]..X.X.X*X#XXX#X:X#X1X1X1XvXbXbXcXjX4X`.T.T.N.=.=.=.1.,.=.,.v.v.j.M.N.Z.E.W.^.^.",
"^.D.C.A.W.S..XA.b.J.XX:X<X:X1XXX#XXXXXkXNXBXBXVXBXVXVXCXcXHXKXGXKXKXKXGXKXKXGXGXKXFXKXGXGXFXGXZXZXxXcXDXDXAXAXVXCXjXhXhXuXtXeX|.t M 3.0 0 ~ ~ l ~ 0 i ] t.r.8.] 9.p.p.c.b.G.G.G.IXIXIXvXJXJXJXSXZXZXxXcXcX-X-XB.1...-XD.B.v.1.....X.X.).Y.N.W.Y.@X!.!.).D.B.B.1.-.d i e i a w w 6 6 : ; ; = ; : 1 < < 1 4 1 1 L L L 8.8.8.8.&.I X.}._.T._._.'.Q.@X{.!.{.W P.P.P.P.;.5 e.g.Y.m T m b c b q 7 , , 6 1 7 q q r u v F J U I ` [ L ] } r.W.~.!././.{.~.I.]..X*X#XXXoX+X+XwX1XtXtXpXiXmX4X`.`.2.N.,.=.=.-.-.-.-.-.>.-.i.=.g.h.m.Z.S.^.",
"D.D.D.m.V.c.n.G.XX#X1X,X1X1XiX1X+XXX#XzXBXVXVXAXVXDXFXAXVXAXKXKXGXKXKXKXKXKXKXKXKXKXKXGXGXGXFXGXZXVXZXAXAXbXAXBXCX3XNXjXhXiXiXB.M M M O.3.3.3.~ ~ M t t q ^ t.} y.p.c.c.V.S.G.H.J.vXvXMXJXSXSXFXZXZXxXxXdXqX=XB.1.1.k.D.B.B.v.v.1...X.X./.N.2.!.!.@X.X).D.B.B.N...i i p d i p e a 9 6 - : : = : 1 1 1 1 1 1 8 d L 7.7.8.g @ R.}.U.U.P.U._.].l.{.{.].{.!.Q 5.W P.:.4.5.:.r F %.n b C r r q q q 7 q q w w u y v C J U P P [ [ ^ ] } =.Z.~.!.'.{.[.z.I.I.~.#X#XXXXX#X,X,XyXyXeXrXiXrX%X`.T.,.>.>.-.-.-.-.-.-.-.-.*.-.u.i.v.p.z.V.S.",
"G.^.;Xb.b.n.G.XXXX#X1X1X2X1XhXmX1X+X+XiXBXVXVXAXDXAXDXDXFXFXAXKXKXKXKXKXKXKXKXKXGXKXKXKXFXKXKXFXZXVXAXAXFXAXAXnXNXpXNXNXmXkXjXG M M 3.,.2.3.3.3.M M M p w 9 7 t 9.p.c.c.n.S.G.G.J.IXvXMXMXSXSXSXHXZXZXxXxXqX-X-X2.-. .-X).D.B.N.v.1.1...v.v.*.rX~..X(.oX-XD.D.B.X.~ p d i i i i i a 7 6 6 1 : h h 1 1 1 h h h g L L L I _._._.U.U.P.P.P.P.U.l.!.(.!.{.~.P.W 5.5.:.:.:.:.:.O.U.T.7 v u u w w w w u e u u v v v Z F Y P | [ | [ #.#.u.l.Q././.[.'.d.d.z.6X#X,X+X+XoX+X,X1X8XeXrX9X4X`.T.Y.N.-.-.@.-.*.-.*.@.-...-.-.*.*.u.i.h.V.S.",
";X;X<X3XS.S.XXXX#X1XyX2XyXbXjXmXiX1X1XwXNXVXAXFXDXFXFXFXFXGXGXnXNXGXKXKXKXKXKXKXKXKXKXGXKXGXKXKXDXFXAXFXDXDXNXkXkXjXVXNXNXNX9X( _ 3.-.N.N.3.{ 3.3.3.M p t 0 9 6 @ >  .m.m.S.G.H.IXIXvXMXSXSXSXSXZXHXZXZXxXxX=X-XB.1...B.).).W.N.N.1.1.N.N.v.1.v.~..X~..X-X).).B._ ~ A d d i A p i i e 8 8 8 8 h 8 8 h h g g g k ,.E $.d._.U.6.4.5.P.P.P.P.P.l.Q.{.!.!.E.'.W :.:.:.:.W 5.:.W ;.Q.Q.P.U e y y e y y y y v n v F F J P ) [ [ ` #.#.=.u.g.Q.Q./.`.l.e.u.d.OXoX+X,XoXoX+X1X+X,X7X8XZ.P.Y.,.2.,.*...-.*. .-.@...-.@.-. .*. .r.t.s.s.S.",
"3XqX3XcXXXG.XX#X1X2XpXMXbXNXmXmXNXeXyX1XNXAXAXDXDXDXDXFXFXFXKXBXnXNXnXVXKXKXKXKXKXKXKXKXKXGXGXGXDXDXFXDXFXzXNXnXnXkXNXBXBXNX)._ _ _ ,.M.N.2.<._ 3.~ M M M a q 0 % @ @ $ C b.S.XXL.IXvXMXMXSXPXSXHXHXHXxXxXxX=XR.2.1.1.X./.).R.B.N.N.v.D.B.B.v.v.+XW..XA. X X).-.~ ! ~ A A f f A d d e s g g a g h g g g k q.4.W f.d.d.:.U.6.U.4.P.5.:.5.4.%.Y.Q.Q.Q.].E.'.Q Q 5.;.:.:.Q ;.E Q I.~.T.E.%.E n i n n n n Z Z m F F G P P [ [ [ #.#.u.u.u.M.Q.Q.'.[ | &.[.oX+X+XOXOXoXoX+XoX,X>X4XY.,.,.>.=.@.*.@...{ @...<...{ ..@. .} } 9.9.0.#X2X",
"cXpXpXcXpXXX#X1X1XyXiXbXbXmXnXNXBXmXpXuXhXVXDXDXDXFXFXFXGXFXmXVXDXGXNXnXjXlXDXKXKXKXKXKXDXGXFXDXDXDXFXZXNXzXNXkXkXkXkXBXBXzX@.X._ ,.Y.M.P.j.-...3.3.3.M t p 0 9 , @ $ = 5 ; 4 S.#XIXvXMXSXSXSXSXDXDXZXZXxXdXqX-X2.2.-...[./.R.W.N.N.R.D.D.B.B.1.N.A.W.^.{. X/.*.' ! ! ~ D f f L ~ g g g g g f f g k q./.I E %.:.>.:.:.U.U.4.5.5.5.d.5.:.:.f.P.P.U.~.E.I.E.:.W W :.Q W Q ;.Q Q W '.E.P.d.d.:.E c Z Z A m G F m F G P I [ [ +.#.e.u.u.f.h.Q.Q.T.( [ #.{.oXoXoX=X>X(.oXoXoX|.=XM.>.=.=.$.@.#.{ ..{ ..-.....@..._ ..{ { q.q.J.:XbXJX",
"CXcXCXJXCX#X#X1XyXtXbXbXBXzXnXBXBXBXpXiXiXVXDXDXFXDXGXGXVXBXBXBXFXDXGXFXDXGXFXGXKXKXGXFXFXAXDXVXAXDXDXDXZXVXZXVXVXBXBXVXBXqX-.<.-.M.Y.Y.Y.j.<...<._ 3.~ M 0 9 w w % = = = = : 5 1 e.IXMXBXSXSXSXFXGXxXxXxXqX5X-X-X2.1.*.f./.R.T.T.T.).).R.B.B.N.m..XW.W.^./.Y.{ { ` ^ ! ~ ^ f ~ / / k k k / UXq.w.T.E I +.&.%.%.%.d.W 4.4.U.5.:.:.:.:.:.W P.P.P.P.E.E._.'.E.Q ;.Q :.Q :.W Q B N I._.l.f.>.d.u.%.Y b m J n n F F G J I Y } #.#.=.e.f.g.g.T.T.( I ` _..XoX X X X X|.{.). X X X*.@.@.@.@.{ { _ ..{ { _ _ { X.@...{ ] q.x.#XvXbXCXJX",
"VXCXZXCXZX3X1X1XtXbXmXmXnXnXBXBXBXBXBXbXmXmXDXDXDXGXFXVXVXBXVXVXVXFXFXDXGXGXGXGXKXKXGXGXFXFXAXDXHXpXZXZXZXxXVXDXAXFXAXBXVXN.-.v.B.F.(.Y.M.j.j.-.<.X._ _ M 7 q q q , : = : = 6 : 1 4 q F +XSXSXSXAXAXDXVXxXxXqX=X-XB.2.<.{ Y.T.M.N././.(.^.R.T.N.N.N.D.W.W.Y.i. .{ ' ' ` / ^ ^ / / q./ q.q.w.'.Q Q Y Y W +.&.&.:.:.&.4.5.5.P.Q :.;.:.W 5.&.d.l.P.P.P.I.E.I.E.E E ;.Q E E E E T B E P.d.P.I.P.=.%.$.E P u t F G G P U ( { [ #.#.#.=.u.f.h.j.T.( P ` [./.{.{.{.[.[.`.Q.[.[./.T.@.{ @.[ [ { ' ' { ' ..{ { _ { ] ~ 7.8.K.K.IXIXJXSXSX",
"ZXFXHXHXZXZX1XyXpXbXmXmXnXVXVXBXCXBXAXJXCXcXVXDXDXHXGXVXVXBXBXBXNXFXFXGXGXGXGXGXGXGXGXGXFXFXFXFXDXmXDXDXZXBXZXFXFXAXFXZXNX<X .X.X.^ ^ ! w.Q.j.-...<.3.~ ~ w w e w w - 6 6 6 6 8 7 7 w q u r >.mXAXBXZXVXxXdXdX=X-XR.1.1. .M.M.Y.Y./././.R.R.B.M.2.,.!.^.^.W.-. .} } ] / / / / / 8.q.w.F._.O.b T T T E E E E W W &.W 4.5.5.5.5.Q W ;.;.W :.;.&.z.~.S.S.Z.:.P.P.E Q W Q U Q T T N N d.Y.P.'.'.-.@.m.T.%.U J P v P ( P ( [ @.} #.#.%.u.u.g.j.@.P ( Q.(.(.{.Q././._.T.Y.R.T./.' ) ) ( ` ` ` ` ' ' { _ ..{ ' f f L 8.x.K.IXIXMXSXSXSX",
"DXPXFXHXHXDXeX2XpXmXJX2XbXH.#X1XyXMXmX#XbXbXGXDXFXGXFXKXAXBXBXAXFXFXGXGXGXGXGXGXGXGXGXGXGXDXDXZXHXCXDXZXZXVXVXFXDXAXFXZX3XD.D.X./ ^ ~ ^ ! ~  .F.1.<.@._ p e a s e i 8 8 8 8 8 q w e t u y y y c U 0XVXVXxXxXqX4X`.B.2.<.-.{ N.N.Q.Q.Q.Q.T.T.T.N.2.-.-.W.^.N.r.*.} } ] 8.q.q.q.q.J.OX5.T b C b C C T I E W E W E E 5.5.5.:.5.W W O.W :.l.~.H.XX.XXXXXXXXXXXXXG.[.Q E Q Q Q T T N x I.I.P.P.].'.=.i.{ [ ( ) #.T.@.r F { [ { #.#.#.*.u.f.f.g.G { @.{.(.{./.[.`.`.T.T.N.T.T.Y._ ( ( ( ( ` ! ` ' ' ..{ _ A A L K K 7.x.K.#XIXMXSXSXFX",
"SXKXGXGXGXHXZXpXbXG.y.G.G.H.#X,XyXtXmXmXbXmXBXnXNXDXBXmXAXVXNXVXAXDXGXGXGXGXGXGXGXDXFXGXDXDXDXVXBXZXFXZXZXZXZXFXFXDXVXNX3X;XD.D.X.~ ^ ~ ~ ]  .X./ X..._ p i s f f f f e p p e d d i n n n v n v n v m =.dXxXqX4X-XR.2.1.@.) N.M.Y.T.W.T.Y.T.Y.N.g.,.-.W.A.g.r.*.9.9.0.9.8.0.F.$XQ T z z b b z T T T T I T W E W U ;.;.;.:.Q Q 5.:.3Xq.b.XX.XXXH.H.XXXXXX#X#X#Xy.^ <XQ T T T N N b I.P.I.P.P.[.[.Y.-.@.{ [ { *.` ( N.[ U { { #.#.#.=.=.u.k.<.{ /.(.(.{./.[.R.T.T.6.,.,.Y.` P ! ( ( ! ! ^ ( ' _ ~ ~ G H J H K L 7.q.x.K.IXSXSXAXPX",
"PXPXLXGXGXGXHXXX0.] 8.G.H.XX#X1X1XtXiXmXhXmXBXVXkXhXmXtXnXAXDXDXFXDXDXHXGXGXGXGXFXHXDXDXDXDXZXVXVXCXVXVXVXVXZXFXAXVXVXZXjXpX3X,X3X9.! ! .. . ...X./ ] ] A f f f k l ~ d f A A A A A F G m Z Z n n n n v v U /.4X`.R.2.2.<.3.-.N.Y.Y.T.Y.Y.,.M.,.,.>.@.@.T.v.p.9.9.9.a.n.L.4.;.z z C z z z b N b b N T T T E I I ;.;.;.Q Q W 5.1Xq./ q.XXXXXXXXXX#XXX:X#X#X1X1X3XD D ^ C.T N N b P.P.l.P.E.P.:.U._.>.-.#.*.@.-.{ ` @.[ T.( b _ @.#.u.u.l.$.>.Y.(.{././.'.T.T.T.2.,.,.>.$.( ! P ! ! H ! ! ^ ^ ` ` ( ( G P P K Y Y 7.K.K.IXMXSXSXSX",
"SXPXLXLXGXJX:X;X .9.J.G.XXXX<X1XyXyXtXhXhXhXBXAXnXhXnXnXBXGXGXDXVXNXNXGXGXGXFXFXFXFXFXDXDXDXDXZXZXBXVXVXVXVXDXAXVXVXVXpX3X-X-XD.-X;X~ / ] q.....X.] ] t.c.i.D ~ / / / / ' ! ( ( P ! G G F G F U F F Z n n y y Z <.R.2.<.<.X.2.2.j.j.j.M.Y.,.,.>.,.=.<.@.! -.p.y.y.n.9X4.O.V z z z T z 4 z b b b z C b T T ;.U.%XsX6.;.O.5.+Xq.| / / w.:X:X:X#X#X#X#X1X:X1X1X1X1Xr.H ! ` [ m.N 0 P.P.I.I.I.I.I.4.$XOXi.=.u.*.u.*.*.*.*.u.*.| ( q M *.=.u.=.j.E.oX(.{././.R.T.4.2.,.=.$.[ @.G ! H H ! ^ ^ ` ` [ [ ` ( ( ! K Y 7.8.7.7.K.IXMXMXSXMX",
"SXPXPXSX;XH.H.H.v.0.G.XXXX#X<X1X1XeXrXtXtXhXfXBXVXVXnXnXnXkXnXAXVXVXNXDXGXGXHXHXHXGXHXDXVXVXZXAXAXDXDXAXBXjXnXnXnXnX8XM.N.2.-. .-.-.] ] ] ] -...X.' ] i.h.p.p.p.^ ......X.{ { { _ ` ( ( ( ( G G F G F n n n v v l l M 3.<.R.R.<.g.,.g.,.,.,.>.>.$.<.$.{ F Z i.J._.P.Q N N b x z z b N z z C N Q $X$X*X$X$X$X$XzXzXlXzX;Xw.X.q./ q.q.XX1X:X1X#X1X1X+X1X1X1X2XtXpXpX! ( { { #.#.1XwX&X9X9XOX@X&X&X&X,X<Xc.i.u.c.*.*.-.u.u.=.g.Z.( G w U +.,.m.m. X X/./.Q.T.T.2.,.<.<.@.@.` ) G ! ^ K ` | [ } { { @.[ ( I W Y 7.7.x.x.I.*XMXMXSXMX",
"PXIXK.J.:XH.H.:XD.0.XXXX;X:X,X,X,X8XwXrXtXhXAXFXAXhXhXkXkXnXnXNXNXBXNXVXFXHXGXDXDXFXDXDXDXVXVXAXZXVXAXVXVXVXAXAXVXAXVXqXR.2.-.{ -.R.B.' ] ..-. ...' *.i.i.y.h.h.V.h./ *.*.-.*.*.@.@.[ { ( ( ( ( P G G G Z n n n l V 3.M X.-XR.2.>.>.>.-.:.=.<.$.=.@.O.P ! F.lXU.R R N N N b b b z T d.*XmXmX&XsXsX$X&X$X$X$XsXlXzXZXJX0.w.q.q.q.q.L.yX1X1X1XvX1X1XvX1X1XyXMXpXbXmX{ ` { [ { } :XpXiX*X0X&X*X*X*X&X].9XM.m.i.N.*.t.u.*.-.u.>.+.u._ n i y &.@.h.Q. X/.Q.T.6.,.,.>.$.@.) @.( ! D D K P ` [ | } #.#.#.{ [ ( W W 7.7.7.x.K.IX*XMXIXMX",
"q.K.K.J.H.H.:X1X:XG..X#X#X#X,X,X,XwX7XtXDXDXFXFXFXtXhXlXkXnXnXnXnXkXkXnXDXGXDXDXDXDXDXDXDXVXVXAXVXVXVXAXVXVXBXBXVXBXBXVXjXuX<XC.1.R.Z.' ` ' 1....._ *.-.u.i.y.f.z.z.Z.z./ i.>.-.=.#.@.#.{ { [ ` ` ( H H G F Z A A F [ *.h.i.g.2.k.$.$.=.<.@.$.@.O.+._ pXdX}.}.`.'.;.N dXNXdX&XlXCXlXlXsXaXsX$XsXsX$X$X$X$X$XCXZXCXcX2Xn.w.w.w.w.w.2X2X1XyXtXyXyX1XMXyXtXtXMXhXnXnXQ.[ { { [ *.D.CXjXbXjX&X!.!.@X].@X].OXm.m.M.p.i.g.@._ _ I ) I ) G ( { #.{ } M [./.Q.T.Y.N.,.<.-.O.( D D D f D K | [ | #.#.%.#.*.#.) ` ( ` | } 8.e.I..X*XIXIXIX",
"q.q.K.J.J.#X:X:X2X#XXXXX<X,X,X,X8XjXBXAXFXFXDXFX8XfXfXhXkXkXnXkXkXkXlXkXNXDXFXDXFXDXFXDXDXDXVXBXVXBXBXBXVXVXVXBXBXBXVXNXzXgXqX XB.).B._ ` ` ..-...( [ *.#.e.f.p.p.h.z.Z.S.Z. .i.=.=.=.*.*.#.{ { { ( ( ( ( G H H ` #.i.i.g.h.p.i.=.| -.O.o.@.o.o._ iXdX|.}.|.}.}.}.$X0X%XdXnXzXNXlXlXaXaXlX*X&X*X&X&X*XsXdXZXCXCXCXCX;Xn.w.J.J.J.L.vXyXyXyXtXyXtXtXtXMXtXMXhXhXnXnXnX` ) [ { @.i.mXxXNXNXhXjX@X].@X@X*XP.{.M.A.c.i.v..._ ) U U I =.>.{ *.} { } } r.9 T.Y.4.,.,.=._ ( H D D ^ L ^ ^ ^ ] #.#.e.u.%.%.=.@.{ ` ` | | e.e.x..XMXK.7.7.",
"q.K.K.K.J.IXvX:XxXqXXX#X+X,X*XtXnXSXAXAXAXFXAXXXoX,XfXgXtXhXuXjXgXuX9XuXhXnXNXBXBXNXVXVXNXBXNXNXnXNXBXNXBXBXBXNXBXNXNXNXlXgXoX)./.(.R._ ! ~ -.-.{ ! ! { @.#.e.u.a.u.h.m.Z.Z.y.r.0.g.i.u.=.r.#.*.{ { ' _ ( ( { *.i.p.i.h.p.h.g.m.m.d S 8.{ _ ) 2XlX0X>X4X4X|.}.|.%X].sXaXsXsXlXdXdXlXsXaXlX*X&XsX0XsXdXCXVXpX2X2XpXJXJ.F.F.L.J.L.JXwXyXtXyXtXtXtXtXtXtXtXfXMXmXlXnXnXa.) ` [ { *.NXzXNXNXjXjXlXlX*X+X+X@XP./. Xh.m.m.,.i.g.M.Q.^.(.(.(.u.{ } } #.#.h.M.y N.,.@.( ( H K ^ K ^ ^ ` ` ] ] ] u.=.e.=.=.%.#.{ ) ` ` | 8.e.G.J.x.L UX7.",
"7.q.K.K.J.IX1XvXJXcX<XoX#X,XmXnXBXBXAXAXVXAX^.).XX+XfXgXfXhXhXgXuX9X8XqXhXhXjXkXnXkXnXnXnXgXgXfXhXhXhXnXjXhXhXrXhXjXhXjX8XoX/.^.N.(./...~ F 1...~ ! D ` | #.#.r.u.u.f.z.k.M.M.a.i.i.9.g.u.i.a.=.*. . .{ *.t.i.i.i.i.i.p.p.c.i.m.c.1.Z Z S S.kXaXfX9X0X6X6X4X4X|.$X$XaXaXdXsXlXlXdXaXsX*XdXsX&XsXzXCXZXVXVXpX2XcXcXJXH.H.J.L.L.:XgXyXyXyXtXtXtXtXyXtXyXtXfXfXmXmXnXnXlX[ ( ) ) ) CXJXVXCXpXpXBXNXnXhXfXaXrX{.(.A.m.m.v.m.M.(.(.!.(././.Q.Z.#.} #.u.h.Z.^.m.{ [ ( I / / ^ ] ^ ] ] ] } } } } *.i.=.=.=.=.{ [ ` | | x.K.8.x.UXUX7.UX",
"q.x.K.K.J.IXvXbXCXcXpXoX@XlXmXmXnXBXSXBXVXG.oXXXoXOXwXfXfXgXhXfXuXuX9XrXjXfXjXjXhXlXhXhXkXgXfXhXhXnXhXhXiXiXfXrXuXiXhXgX X/.(.^.N.(.Q.{ _ A _ ..! D ~ L ^ ` } } *.e.r.i.p.h.Z.r.i.t.p.h.y.g.p.p.i.r.i.i.c.i.c.i.c.i.m.p.p.c.p.c.m.N.d s w.OX6XlXfXuX9X0X4X0X4X4X$X|.aXaXaXaXdXlXlX*X}.&X$X*XsXNXCXCXCXZXCXCXCXcXJXCXL.L.L.:X2XHXyXwXwXeXrXtXrXrXyXtXfXtX*XMXMXfXmXlXmX[ ( G ) _ VXJXDXVXcXjXCXNXnXnXmXjXlXaXOXW.C.V.N.A.A.(.(.^.(./.(.W.Q.( *.r.r.a.W.~.h.e.Z ( K ] | ] ] | ] } }  .r.*.*.*.*.*.i.=.=.{ { { u.9.^ 7.8.8.g L L L ",
"UXx.K.K.K.IXvXSXCXcXcX3XfXmXmXmXnXBXBXBX.X.X.XeXhXlXjXlXgXgXfXfXgXuXqXgXhXjXkXhXjXmXhXhXfX9XgXhXgXhXhXgXiXgXuXtXjXgXgX(.^.Q.W.Q.R.W.^.-...X._ ! ^ ~ L ~ ^ ` ` ] } } r.u.u.h.m.h.r.r.a.i.h.m.i.m.c.m.m.p.h.m.g.c.i.p.c.p.p.c.c.h.v.g.v.8.8X7X,X7XfXaXqX9XqX0X0X4X$X6X>X6X$X}.]._.].].I.l.].aXkXnXkXkXzXCXxXCXCXVXCXZX:X:X2X2X2XZXwXwXwXwXyXeXyXyXfXyXwXMXmXfXfXmXmXmXmX]._ _ _ { ZXZXDXNXNXNXjXnXkXkXkXgXtXfXrXI.A.A.A.m.N.^.!.W.!.Q.Q.Q.W.Z.{ r.r.p.z.h.r.h.h.K ] } ] 8.| 9.9.e.r.r.r.u.t.u.r.*.#.*.u.*.r.} ! ^ / 8.8.^ L L g 8.",
"UXx.q.K.J.IXbXVXCXCXCXhXhXhXmXmXmXnXnXMX1X,XeXmXmXmXmXAXBXBX9X6X0X6XsXfXhXhXhXkXkXkXjXfX9X&X7X6X9XhXtXtXtXrX9XfXgXrX/.W.W.W.W.W.W.W.R.-..._ / b.~ / k / / / ] | } } 8.r.t.u.i.g.*.t.t.u.i.g.k.Y.u.m.m.m.c.i.m.i.i.c.i.p.i.p.i.c.c.m.t.0XrX9X9X7X0XgXgXqX9X0X0X4X4X|.T.4.$X$X}.}.I.!.6XlXkXlXlXkXkXkXzXzXzXzXzXzXzXzX2X2X2X2XHX,X7XwXwXyXwXwXtXtX*XtXrX*XfXfXfXMXhXfXmXlX_ B ~ @.FXDXBXNXBXNXNXNXnXkXlXlXgXgXrXrXW.Z.B.m.v.2./.W.W.W.^.E.) I ) G h.p.9.8.p.k.Z.q.9.8.8.9.9.9.9.u.a.u.i.a.i.u.=.*.*.} ~ d i ^ ! ^ L 7.8.d D D L 7.",
"7.UXx.K.G.#XFXZXZXCXcXtXhXMXfXfXmXnXnXpX3XqXmXmXmXmXBXBXBXAXBX7X&X6X&XhXkXkXfXlXlXnXkX9X7X&X&XOX+XlXlXlXlXlXfXfXaXW.W.E.W.E.W.W.M.W.M.X._ ~ l / / / / / ../ ] ] ] ]  . .*.t.u.u.r.*.*.r.u.f.l.Y.Y.Y.f.c.m.m.c.c.c.i.c.i.p.p.i.h.i.i.qX8X8XrXuXeX9XgXgXdXdXqX0X0X4X|.fXgXiXzXkXkXlXkXlXlXkXkXkXzXzXzXzXzXCXVXVXZXZXZXJXJXJXHXHX8XwXwX7XwXwXrXeXwXyXyXrXMX*XMX*XfXmXkXhXfXg.3.B m.DXVXZXDXVXVXVXVXNXnXnXnXCXpXqX<XXXD.Z.B.N.N.-.W.E.W.E.u.( H I n B u.#.8.h.V.0.s.H 9.9.9.u.r.a.a.a.g.i.h.i.g.i.*.^ d d i d s e ! L L D Z S L L L ",
"7.x.x.x.K.IXPXSXZXzXrXtXtXiXmXtXfXmXhX3X7XbXnXmXbXhXmXBXnXnXnXhX0XaX0XsXjXaXfXfXlXnXfX9X&X$XOX&XlXlXfXfXfXaXfXaXOXW.Z.M.Y.Z.M.M.N.M.M.{ _ ~ / ] F./ / q.0.9.] ]  . . .9.*.r.r.*.*.} ` +.#.u.d.l.k.P.P.Y.f.i.m.p.c.i.c.y.i.y.y.y.i.0.qXqXuX6XgXiXuXqXgXgXqXaXsX4X$X$XhXhXhXlXkXlXlXlXlXdXlXzXlXzXlXzXzXCXCXZXCXzXCXZXJXZXDXZXlXrX+XwX8XeXeXeXyXeXyXwXyXyXyXyXtXtXfXlXmX*XOX) M zXVXVXDXDXZXVXVXVXVXnXNXNXNXjXiX8XXX^.^.D.D.N.1.-.M.E.#.e.! G A _ 3.n 9 t.0.w.w.w.w.a.r.y.a.a.y.h.h.h.h.p.p.i./ D A A i d S g g L g Y g C S J L L ",
"7.UXx.x.K.MXSXSXBXzXeXeXtXtXtXmXfXfX7XXX&XiXmXtXtXtXnXmXnXmXhXlX9X0X*X9X0XfXfXlXlXlXrX&XfX7X6XlXaXfXfXaXaXfX6X>X XM.M.M.M.M.M.M.j.M.M.{ ' ] 0.q.m.0.q.v.0.v.]  .9. . .*.*.*.*.} +.+.K P [ +.%.>.l.j.,.j.,.j.>.u.i.v.i.t.i.t.t.r.t.jXjXgXqX4X4X$XhXiXdXdXaXaX0X6X$XfXfXlXlXdXlXaX9XaXqXaXgXgXdXgXzX;XJ.:XJXxXZXZXZXHXHXZXDXAXfXrXwX,XwX1XeX2XyXyXtXyXyXyXyXyXyXtXMXfXfX*X&X@.3.AXVXVXDXDXAXVXDXDXFXBXBXVXNXjXtX8XXXXXXX^.D.oX^.1.-.' } r.H d f { { a d p a.XXH.n.n.] y.s.p.p.h.h.z.m.h.h.] ^ H D f f d d S g L L x.g 1 g d S J L ",
"7.7.7.x.K.SXMXSXVX&X+XwXwXyXtXfXMXmXuXwXrXtXtXrXwXtXmXtXmXfXfXhXtX8X0XaX0XlXgXlXgXfXOX6X7X9XhXfXfXaXaX9XaX&XT.|. XN.M.g.h.h.h.M.g.m.M.} 0.w.y.0.0.S.0.v.v.v.9.*.r.*.*.} } } H I Y I F P I ` [ %.:.:.>.:.$.>.=.%.$.i.v.u.t.t.r.t.t.zXgXaX0X4X4X=X}.4XdXdXaXaX5X4X&XgXlXsXsXaXsXaXsX9XsXqXgXlXgXzXzXzX2XJXxXZXZXZXZXHXHXHXHXVXfX*XwX,XwXyXeXyXyXyXyXyXpXyXyXyXtXtXtXhXwX*X&Xa.( VXVXAXDXDXDXDXGXHXDXDXBXVXNXhXgX9X#X;X;XXXXX).oX,X! k ~ ~ k f l ..{ k k k g f L.:X:XJ.s.z.h.V.z.z.h.m.] ] ^ ~ ^ ~ ~ A f A D S L L q.g L L g S J L ",
"UX7.7.x.IXMXMXSXNX&X+X*XwXwXwXyXtXtX&XwXrXyXtXwXwX7XwX&XrXaXgXfXgXfX6XnXnXnXhXhXhX X'.'.].aXaX9XaX0XsX0X&X|.Y.[./.M.g.g.g.g.g.g.m.g.g.0.0.0.w.s.v.W.F.n.B.D.N.t.*. .} } J F C F J ` ` [ { { { { { { { @.$.$.@.@.o.@.{ t.t.r. .t.CXdXdXqXaX9X0X4X$X|.`.,.6X0X6X0X0X0X&XsXsXsXsXsXaXaXaXaXdXdXlXlXzXzXCXCXZXZXZXZXZXHXHXHXDX9XwXwXwXwXyX1XyXtXyXyXtXtXtXpXtXtXtXtXfXMX&X&X&X@X_ ZXAXVXDXGXGXKXGXGXHXHXBXNXnXhXgXrXXX#XoXXX;X).D.*.Z.Z.! ~ k l k u.-.k f f ^ P ` 6 :X2Xc.h.V.V.V.Z.y.9.] X./ / ^ ^ ^ { { ` ( ` ^ P L C L 7.7.7.g J ",
"7.7.7.7.*XMXMXmX&X@X+X+X+X*X+XyXwX+X+X+XwXyXtX+X&X*X,X+X,XrXgXfXfXgXgXaXnXkXkXjXfXOX'.{.aX9X9X0X&XsX&X&X&X_.T.`.'.j.j.f.i.u.g.f.=.g.i.V.S.S.S.XX).V.oX^.^.D.A.-.*.] d y y d ^ P ( ( ( [ { { ` { [ [ { ( ` ( +.) ) ) ) o.9.v.b.F.xXdXlXdXdXqX0X4X4X$X}.-.<.) |.4X/.D.sXsXsXsX&XsXsXsX0X6XqXqXgXkXzXNXZXZXZXZXJXHXGXHXHXHXVX0X*XwX*X+XyXyXyXpXtXtXiXiXiXiXiXiXtXtXtXrX*X&X*X@Xu.GXGXGXLXKXKXGXGXGXHXGXAXkXfXfXrX&XXX.X#X#X;X;Xv.v.m.Z.Z.h.X.X./ y.e...~ f f D ` P 0.vXpXu.e.h.Z.y.0.9. .] ] / r.*. .} { [ ` ( ( K S C S S 7.7.x.K.",
"#XIXK.x.*XMX*X*XOX{.OX@X#X+X+X*X*X@XOX+X+X*X+X@X+X@X+X,X+X&XfXgXgXgXfXlXaXfXfXaXfX6X&X&X9X9X9X0X6X&X&X&X|.T.j.'.T.f.=.=.=.u.=.=.=.=.s.b.b.b.C.C.D.S.V.).).).^.i.f w w ( ` H ! ( ( ( ( ( { { { { ( ( ( ( ( P ( P _ U _ G ^ y.n.VXxXlXxXdXdXdXaX0X0X$X XT.,.T.fX6X&X X6X4XsX$XsXsXsXsXsX0X9XqX9XjXmXxXZXZXZXHXHXGXGXL.J.KXwX&X+XwXyX1XyXyXtXtXMXiXbXiXiXiXiXtXtXiXtX+X7X+XOX@XE.KXKXGXLXKXKXKXGXGXHXFXBXnXnXjXfXrXoXoX,X<XoX-Xv.v.0.h.m.p...X.X.0.=.' / k f d K 0.y.~ JXt.u.u.a.9.9.9.9.8.a.i.r.u.r.*.#.@.[ ` P H J J S C L 7.L 7.",
"7.7.IXBXBXfXfX*X{.@X@X{.@X@X@X@X+X@X]..X@X@X@X@XOX@X@X+X+X&X7XgXlXgXhXgXrXaXaX9XaX0XaXwXfXfXrXrXrX=X$X}.'.T.j.Y.N.%.=.=.=.%.=.=.=.y.y.s.s.s.s.b.C.C.i.@X(.D.X.f ! { ` ' ( ( ! P ( ( P P { [ { [ { ( ( P ( P H ! / ] 8./ / ^ v.ZXxXxXdXlXdXdXaXqX4X$X|.`.T.eX6X&X7X7X7X$XsXsXsXsXsXsXdXdX8X>X9XkXcXCXJXZXZXHXHXHX2X2XvXGXfXNX+X+X+XwXwXyXrXtXhXMXtXhXhXiXiXhXiXhXtX*X&X@X@XnXKXKXKXKXKXKXKXKXGXGXGXVXBXAXnXnXmXfX1X#X1X,X1X;Xv.F.v.v.9.V.m.t.X.0.*. .k l p f q.b.n.b.8 eXu.a.9.9.r.a.h.p.p.y.h.u.u.=.*.{ { ) ` ( P F C L g 7.7.L ",
"7.K..X*XlXkXNX$X!.{.~..X]..X@X@X.X~.!.~.].].@X{.@X].@X@X@X+X+XfXgXgXgXgXgXrXrXgX9XrX9X&XfX9XrX9X9XrX8X>X).R.i.N.R.g.i.i.u.i.c.m.a.y.a.p.y.s.V.C.A.A.W.Z.0.f V.M.*. . .@.( ( ( ( ( P P ! P { { ` ` ( ( ( H ` ]  .9.0.9.q.s./ <XxXxXxXxXxXdXdXsX0X0X6X}.4XZX>XOX8X8X9X$X&X&X$X$X&XsXsXsXdXdXsXdXjXzXzXVXZXZXZXHX2XvX2XJXHXfXyXtXnX+XwXwXyXtXtXtXtXhXhXhXhXhXtXhXhX&X+X+XBXAXFXFXAXGXFXKXKXKXGXGXFXAXAXAXBXnXnXhXtX1X#X,X1X1XoXv.C.C.m.c.0.c.c.0.t.#.*.] k k 0.0.0.b.n.S.BXa.9.e.a.a.e.e.u.f.h.h.i.i.i.*.@.{ [ ) ) ( H J L C L 7.7.",
"7.7.*X*X*XsXsX{.!.~.Q.~.~..X.X!.Q.E.Q.~.~.!.].!.!.!.].@XOX@X+X9XaXfXhXfXrXgX9XfXrXrX9X0XsXrXwX9XwXeXrX>X).).R.N.N.r.i.g.u.i.i.g.i.a.y.p.p.z.V.Z.(.Z.B.u.A.Z.Z.B.N.#.*.{ { ) [ ( ( G ( G J { { [ [ ( (  . .0.0.0.0.0.0.0.s.K.CXjXzXxXxXlXdXdXaX0X6X4XuX8X^.8X8X7X|.|.|.OX|.&X|.$X&XsXsXsXdXsXdXkXkXNXVXZXZXZXHXL.L.JXGXrXeXrXrXtXtXmXyXwXrXtXtXhXhXhXhXhXhXhXmXtX*XBXSXFXFXFXFXSXFXFXKXKXFXKXGXFXFXAXBXBXBXnXmXtX1X+X;XXX.XZ.V.S.V.V.b.b.w.c.n.t.#.#.#.} 0.w.0.0.0.Z.Z.~ 1Xy.r.u.e.r.u.e.u.e.=.f.g.i.=.*.{ { { ) ( ( J H H K Y 7.",
"7.7.*X*X*X*X].'.E.Q.~.~.E.E.~..XW.E.E.Y.E.~.].E.!.!.!.!.!.!.!.*X*X9XrXfXuXtXtXrXrXaX&X6X*X9XwXwXrXrXuX=X=X)./.<XN.=.r.*.*.=.-.u.u.a.a.p.p.z.Z.V.!.E.Q.a.E.A.T.N.M.=.*.{ { { { [ ) ( P ( ! P { { *.t.c.c.b.v.v.0.0.0.q.0.s.2XkX8XzXsXlXdXdXdX0X0X6XZXHX>X>XOX X X|.&X|.OXOX&XOXOX=X6X$X$X&X0XsXlXdXlXxXNXkX:X;X;X3XHXHXeXrXwXwXtXtXtXiXmXtXtXtXtXtXmXhXfXlXhXnXSXSXSXSXSXFXFXFXLXFXFXKXFXFXFXFXFXAXVXVXBXmXmXhXtXp.../ / q.0.n.S.C.S.C.n.p.n.n.w.| | } H.;XH.H.F.n.n.b.c.JXy.r.t.r.r.e.r.%.=.u.%.%.%.=.=.#.@.@.[ [ ) P G J K Y 7.",
"7.7.].*X*X*XW.Q.Y.Y.I.Y.!.@X!.I.E.Y.Y.E.E.E.!.I.Q.Q.~.Q.!.Q.{..X7X0XwXyXrXrXrXrXrX&X6X6XwXwX9XyXeXuXeX>X X).R.>X|.*.*.*.*.#.*.*.e.u.a.a.a.y.p.W.M.h.h.%.*.Y.W.M.M.g.#.@.@.{ { [ [ ( ` ( G G p.V.S.S.C.C.v.v.v.y.0.0.n.w.n.ZX9X7X9XdXsX4XsX9X9X&XsXHXHXDX>X>X X{. XOXOX|.OXOX&XOX|.6X4X$X$X9XsXdXlXlXy.v.F.;X2XcXjXCXfXrXwXyXyXeXyXiXiXhXrXtXmXmXmXmXmXmXSXSXSXSXSXSXSXFXSXFXFXAXSXFXFXPXFXFXFXFXAXAXBXBXCXmX1XB./ X./ q.q.q.s.J.S.S.S.C.V.J.F.n.e.| :X1X:X;X;X,X^.D.C.n.n.<Xv.y.r.r.r.#.r.#.*.%.#.@.+.[ [ =.#.#.[ ) P H J J Y 7.",
"7.I.I.].]. XQ.Y.Y.I.j.k.I.z.I.P.Y.Y.Y.Y.P.I.~.I.Y.E.E.Q.Q.~.~.~..X7X&XwXrXyXyXtXrX&X&X&XwXwXeXeXeXrX>X=X|.oX/.>X Xm.*.=.*.*.#.@.} r.=.i.f.h.d.k.k.u.f.#.#.Y.Y.Y.M.j.#.@.#.+.[ [ [ ` ( #.p.V.S.~.^.XXF.S.n.b.n.v.b.w.n.n.1XzX7X6X>XlXsX4X4X_.M. XHXGXDXZXZX8XOX X X8X7X7X7X8X8X$X}.4X|.`.0XgX}.4Xc.c.v.D.).pXpXcXNXZX*XwX9XyXtXyXtXMXbXmXmXtXhXMXmXmXAXAXSXSXSXSXSXSXPXSXFXFXFXSXSXSXFXKXFXFXFXSXSXCXmXyX,X).c.0.q.q.q.w.w.w.J.q.J.G.F.J.J.;XL.S.c.3X2X1XeXeXyX3XOX;XD.n.n.BXv.y.t.r.9.r.*.*.} #.@.+.[ [ ) ) I +.{ ) ( P H J K Y ",
"7.].I.U.U..XE.Y.M.j.k.l.l.z.k.f.Y.Y.E.Y.l.I.I.k.E.Y.Y.W.Q.Y.E.E.~.&X+XwXrXwX9XyXrX&X&X*XqXrXwX8XuX8X X X X X|.|. X2.=.=.=.=.#.#.%.*.r.*.*.%.e.f.u.e.=.} | @.P.k.j.j.=.%.#.[ +.[ { u.V.S.V.V.V.G..XG.XXC.C.C.n.n.n.b.n.F.ZX9X6XOXOXoX$X'.T.Y.M.j.DXGXHXHXHXGXqX7X>X8X7X8X8X8X6X}.%X4X}.`.9XuX}.VXZXBXkX-X;X<XcXzXzX0X0XwXwXeXyXtXtXbXbXbXmXtXiXmXmXSXSXAXSXSXSXSXSXSXFXFXSXSXFXSXSXFXSXSXSXSXSXBX#X.X!.S.^.0.b.w.q.w.w.w.J.J.J.w.n.L.J.L.:X3X:XH.:X:XiXiXiXuXrX8X,X>X<XD.D.BXD.v.v.0.9.t. .*.*.#.} [ [ ( I I U U U U ) P P H K Y ",
"d.U.d.I.].].Q.Y.M.M.l.,.d.z.d.P.Y.Q.Y.M.l.z.E.l.M.P.M.Y.Y.E.Y.E.E.+X+X+XwX*XyXrXrX+XOXbXCXcXmXCXzX XN.N.,.v.N.|.W.Y.*.%.@.@.#.@.@.*.*.*.*.} #.u.e.#.*.[ [ [ j.j.j.,.>.@.@.+.#.h.h.a.a.u.*. .} ..p.p.S.D.D.D.F.C.n.C.J.XXxX>X,XoXoXXX0XQ.Y.Y.j.%XFXHXHXGXHXGXGX0X8X9X7X7X0X6X6X X}.=X X}.hXjX$XVXVXVXAXVXCX6XgXlXNX@X@XwXeXyXyXtXtXbXmXmXmXbXiXbXmXBXSXSXAXSXSXSXSXSXSXSXSXFXSXAXFXSXFXSXSXSXnXXX^.S.G.^.D.v.w.w.w.F.J.H.J.J.J.J.J.H.JXvXvXvX2XhXiXpXjXiXiXiXpXqX,X,X,XoX(.3XjXn.v.v.t.t.r.*. .{ { [ @.[ &.+.+.+.) I U C J P P K ",
"7.I.I.d..X!.I.Y.j.j.f.f.%.f.l.~.Y.W.E.P.f.l.z.k.Y.k.k.Y.Y.M.P.I.I..X,X+X+X1X1XpXrX@XMXmXBXBXdXzXdX2.2.=.=.g.N.=XR.j.,.@.@.{ { { [ { -.*.*.[ | e.#.[ ` ` | ` +.l.>.f.>.&.=.f.d.u.a.u.u.a.r.*. .] r.p.y.t.b.H.D.S.S.H.H.CXaXoXoXoXoX(.(.Y.Y.j.l.&XHXHXHXHXHXGXFXHX7XqX0X7X0X0X4X`.`.`. X9XgXjXmXVXVXVXAXDXDXDXZXzXlX].@X+XwXyXyXtXbXMXMXmXmXBXbXmXmXSXAXFXSXAXAXAXSXSXSXSXSXAXAXAXAXAX@XSXnXmXS.D.G.S.D.G.G.n.w.w.2X:X<X,X1X1XvXvX1XuXhXiXCXjXhXjXjXjXpXiXiXiXuXuXqX;X,XOX>X1XNXD.F.m.v.t.t.*. .#.@.+.+.+.+.+.) ) I P U J F v C P ",
"T 7.I.d.].].T.P.j.j.f.f.=.l.k.W.E.W.Y.k.I.z.I.k.Y.M.Y.I.k.I.k.Y.~..XOX|.&XwX*X&XwXeXiXiXiX=XqX8XdXR.T.T.R.T.T.=X[.Y.N.>.+.[ [ { &.@.{ { { ^ K ^ | ( P K H P ` %.:.%.%.u.e.e.%.u.e.u.u.u.r.r.*.} ' c.p.y.9.] y.XXD.XXXXZXoX@X(.XX(.XX(.OXM.j.g.ZXHXHXHXHXGXDXDXGXzXgX8X4X6X4X4X X_.}.$XuXNXjXBXBXVXAXDXDXDXDXHXGX~.@X!.!.wXyXwXtXtXhXmXmXBXBXiXmXmXBXAXSXSXAXAXAXFXSXSXSXSXSXSXAXAXAX#XSXSXyX1X1X1X1X1XXXXXH.J.jX3X1XeXeXeXpXvX:XiXjXjXhXbXCXmXmXnXmXhXmXjXiXuXiXeX,X+X<X).;XVXXXD.C.m.v.t. .*.*.#.{ #.@.[ +.) I P U U U F F F u ",
"S s J .X{.T.T.M.j.,.>.%.%.,.f.W.W.Q.E.E.E.E.~.P.Y.Y.k.P.P.k.j.k.~.!.~.$XOX@X*X&X8XjXpXiXmXqX=X=XT.T.N.,.,.T.T. XR.,.>.=.] Y ` [ @.@.I ' ! H ! ^ L ( D L H H K I &.[ &.&.#.&.#.e.e.e.e.a.a.u.r. . . .c.p.t.0.9.9.y.yXVXaXoX.X(.(.(.^.(.(.M.g.j.NXVXBXBXBXnXBXBXBXzXZXOX$X6X$X$X XT.4XqXgXmXNXBXVXVXVXFXDXDXFXDXzX~.~.E.@XwX1XwXMXmXhXmXmXBXBXBXMXnXBXSXSXAXAXAXAXSXSXSXSXAXAXSXmX1XXXXXSXqX1X1X1X1X1X;XXXL.H.uXjXiXeXrXuXuXuXhXyXmXjXnXmXmXmXmXBXNXmXiXmXxXiXiXgX8X8X7X,X;XXX<XVX(.^.N.v. . .*. .} } &.@.+.) ) ( P U U J F F Z C ",
"S L Y !.Q.Y.T.Y.j.f.>.%.,.,.,.~.Q.Q.T.I.z.I.~.k.Y.k.j.M.j.j.l.l.z.I.I.OX]. X@X>X/.jXMXiXiXqXqX X2.T.2.,.-.-.-.`.T.@.[ 9.0.0.m.-.! ! ~ 9.v.y.0.9.t.^.J D H y.A.-.I Y I W #.+.&.#.e.e.e.e.r.a.r.9. .] } m.c.t.V.S.S.XXNX(.(.(.(.(./.^./.W./.g./.BXZXfXrXaXfXmXnXVXVXZXdXOX$X}. X`.%XlXgXgXkXnXNXVXAXAXAXDXDXFXDX.X!.~.~.~.E.z.&XtXtXMXmXmXBXmXBXMXmXBXmXSXBXAXAXAXSXSXSXSXNX;X;X#X<X;XyXmX:X1X1X1XH.XXL.:X:XjXjXmXjXiXiXiXiXuXiXjXhXnXmXnXmXmXBXmXJXmXCXmXmXmXhXiXeX8X,X>XoX;XXXVX(.D.C.C.v.v.*.*.*.*.*.{ [ [ [ P P P J G F F Z S ",
"L L e.!.Q.Q.Z.l.>.,.=.E.Q.W.E.!.!.{.!.+X+X+X*X~.k.Y.k.j.j.l.l.,.I.l.P.~.[.'.jX=X[.xXMXiXiXqX8XR.,.,.,.@._ @.-.`.-._ q.q.0.0.(.-.~ ! 9.] c.v.t.9.).Z | r.^.).t.9.J Y U Y Y &.| | e.e.e.e.e.y.r.r.9. .} ..W.S.S.S.XX,XdX!.!.^.^.^.W./.Q.R.W.N.nXFXDXDXDXAXSXSXAXAXDX0XxXzX4X6X$X0XgXjXjXuXjXkXNXBXVXAXDXDXFXDXkX~.!.!.~.I.I.f.u.l.~.mXhXmXnXBXBXmXmXmXnXSXBXBXBXBXBXSX,X:X:XL.:X2X:XbXbX2X:X3X:XL.:XL.:X:XmXjXmXnXjXjXjXjXtXhXhXjXmXmXBXnXnXmXBXnXBXBXCXBXmXmXmXhXeX8X3X<X<XXXXXgXiX^.D.A.m.c.i.t.*.*.*.} { [ ` I P H G G F Z Z S ",
"J L @XQ.Y.Y.P._.,.,.j.j.Q.Q.'..X.X!.Q.+X+X+X+Xz.j.j.l.j.g.f.d.&.l.P.k.P.].mXzX6X[.jXyXtXiXqX=X,.>.$.@.O.@._ -.-.*.9.r.s.s.8. Xv.X.] 8.] t.i.t.t.0.V.XXXXa.y.r.r.F J T J P Y Y | Y 8.8.e.e.r.a.r.r.a.y.i.r.V.^.XXXXzX{.^.^.(.W.W.W.W.W.T.Y. XVXZXZXZXZXVXVXAXAXAXAXzX4XZXCX0X9XuXBXNXNXhXrXjXmXNXBXVXAXVXDXDX@X~.~.~.!.!.k.k.h.h.f.l.z.wXmXmXmXmXmXmXnXmXmXBXBXmX1X3X1X:X3X:XvXvXbXpXvX2X:XvXvXL.:X2X2XmXjXmXnXnXnXhXhXnXnXlXhXjXmXmXnXSXBXBXSXSXBXBXVXBXmXnXhXhXuXeX7X>X>XoXXX0.hX X^.D.A.B.v.i.i.r.*.#.} } ` ( H H J F Z J g S ",
"L 7.*XI.Y.Y.!.T.T.T.P.j.P.Y.[.~.!.!.].z.z.z.z.k.M.j.f.,.>.:.>.>.%.%.e.d.8XgXgXsX|.jXyXyXeXqX[.2.,.>.<.=.$.$.( @.] 8.8.9.0.0.@X*./ / / / / t.9..XXX.X8.r.y.y.r.a.i.C C C T K | Y | | 8.8.e.a.u.p.g.i.p.i.y.p.a.!.,XlXW.W.W.W.W.W.^.Y.N.N.M.dXVXZXZXVXVXVXVXBXVXBXVXVX=X0XHXHXgXgXNXNXVXVXmXuXhXjXNXVXVXZXVXzXl.k.I.E.~.~.!.!.f.h.z.Z.h.z.z.~.+XmXnXnXBXmXeX1X2X2X2X2X2X2X:X2XJXJXbXbXvXvX2XJX2X2XvXvXNXjXnXnXnXnXmXhXmXjXnXVXNXmXmXmXhXnXhXmXmXSXAXVXVXVXAXrXrXrXuXuXuXeX+X<XoX(.hX(.(./.D.D.C.m.v.i.*. .} } ' ` ^ H ~ D S Z f S ",
"L K.'.E.I.k..XQ.Y.T.j.j.Y.Y.!.~..X].].&.d.l.z.,.j.j.l.>.%.>.>.$.&.&.&.x.+XnXjXxX=XgXyXyXuX4X,.<.$.$.@.o.) F G U S f D L L L m.! f f L L L ^ ' S.8.9.9.y.p.p.y.h.h.u u C C J Y K Y 7.| e.8.u.u.g.h.h.h.h.p.p.m.V.7X XE.A.E.W.W.M.T.T.Y.N.Y.nXNXVXVXVXVXZXBXNXVXAXBXAXlX8XcXHXgXhXjXNXBXVXVXBXNXjXmXNXBXZXVX{.d.l.k.E.E.E.~.!.oX~.h.k.Z.E.z.Z.S..X#X#X:X#X1X2XvX2X2XvX2X2X2XJXJXJXJXvXJXvX2XL.vXvXvXjXnXnXnXmXnXnXnXhXkXnXnXnXBXBXnXtXfXfXfXmXlXhXAXAXVXAXnXMXrXtXiXpXeX<X<XXXXX X>XiX<XXXD.D.B.m.m.i.t.t. .} ] ] ` / ^ ~ ~ D D L ",
"L ].~.E.I.e.!.T.Y.T.P.j.T.].'.~.!.!.'.$.&.a.u.j.P.j.,.f.%.$.,.&.+.+.e.e.@X9XkXjX=XlXyXrXaXR.@._ _ _ G B Z Z F F Z Z S L ^ L /.H f f L f D D ' 9.9.8.a.a.p.h.p.m.M.@.u s C S K Y K Y Y 8.u.a.p.h.p.g.g.h.h.z.Z.W.lXM.M.M.M.Y.M.T.Y.2.Y.2.$XzXCXVXVXZXZXZXZXHXHXZXGXJXKX,X9XjXuXuXiXjXNXBXVXjXNXVXzXjXNXzXlX%.u.f.h.k.k.I.E.~..X{.+X.XZ.Z.S..X~..XXX;X1XvXvXvXvXvXvXvXJXvXvXJXJXJXJXJXJXvXJXvXL.JXhXmXnXnXmXnXnXnXnXmXmXnXnXnXBXBXBXBXnXtXhXmXmXkXhXAXAXAXBXBXtXhXhXMXuX,X<X<XoX<X+X7XoX<X;X^.W.A.C.m.p.y.t.9.9.] ] / / / / f L L ",
"x.!.~.E.k.8.~.|./.[.'.'.@X+X X.X!..X{.l.e.l.l.M.j.j.,.$.&.O.,.O.o.Y &.&.!.@XdXlX=XgXwXaX$X<.O._ B G G G Z Z Z v y s S s g ^./.{ e s s d s g =.8.8.8.r.s.h.m.z.M.M.N.u 4 s C C L K Y 8.e.r.u.u.f.f.h.g.h.k.V.Z.|.$Xm.M.g.M.M.N.2.2.,.,.M.lXNXzXVXVXZXVXVXZXHXGXGXSXSXKXqX8X8X9XqXuXjXmXNXBXNXmXNXNXzXlXzXW.@.&.u.f.l.z.k.I.E..X@X@X@X+XXXS..X.XXX:X#X:X1XvXvXvXbXJXbXvXJXJXJXGXJXJXHXJXJXJXJXL./ / 8.w.9.9.w.K.S.s.SXBXBXVXBXVXAXSXSXSXSXnXlXhXjXjXmXAXBXnXmXmXfXtXkXmXqX8X,XXX<X X7XwX<X>X).^.^.A.V.c.p.y.0.0.0.9.9.] X./ ~ ~ L ",
"!.~.E.Z.k.8.e.I.[.{./.Q.OX+X&X!.@X].!.l.>.Z.k.P.j.,.$.$.+.o.:.o.P Y Y &..X!.OXaX[.aX,XsX}.,.<.@._ ) U U G F m n v y y u *.] =.1.! s s e g s ..} 8.e.a.p.m.M.M.Z.M.M.i q u s C 7.L 7.8.e.#.r.u.u.g.f.h.h.k.Z.E.dXh.g.g.g.N.g.j.2.,.-.>.'.lXNXVXNXZXZXZXZXHXDXGXGXFXFXGXHX>X8X8X9XrXuXhXjXmXNXuXlXzXzXzX[.[ +.#.#.u.d.f.l.l.Z.!..X.X@XoX1X+X1X.X#X#X1X1XvXJXvXJXMXJXJXJXJXJXJXPXJXKXJXJXJXJXJXJXk / q.q.q.q.s.K.K.w.n.x.PXVXCXAXAXAXSXSXSXAXSXSXmXhXhXnXBXBXBXmXMXhXmXmXmXaX8X<X8X>X7X8X>XOXXXXX^.W.S.C.b.b.b.y.0.0.w.w.X.X./ / ^ ",
".X~.E.Z.#.#.%.~.j. X[.{.+X@X].@X].@X].Y.j.%.%.Y.Y.,.+.O.o.o.:.G J J Y Y ~.!.!.|.T.9XOX4X2.<.<._ _ B G m n v b v v u u r.r.E.n A ! A s e s g ) ^ 8.e.a.h.k.Z.M.W.W.Y.k.u u s s S 7.Y | } e.e.=.u.u.g.f.z.z.Z.!.5Xg.f.g.g.i.,.,.,.,.,.,.dXgXBXVXVXVXZXDXHXHXGXDXPXJXFXKXKX=X8X6X7X8XrXuXgXhXCXzXaXdXlXdX' I [ [ +.&.#.u.u.h.Z.~.!..X@X@XoX+X#X+X1X:X:XvXvXvXMXvXJXJXJXJXJXJXJXKXKXKXLXLXGXJXPXJXJXq./ k / q.w.q.w.w.s.w.K.w.PXAXAXSXSXSXFXSXSXSXBXBXnXmXhXBXBXBXBXhXfXfXhXfXrX,XrX8XOX7X).,X<XoXXX^.S.S.S.n.n.n.n.b.w.v.....X./ ^ ",
"~.E.Z.Z.l.i.i.*.z.k.Q. X@X@X X.X!.!.'.Y.j.=.$.Y.P.:.) o.o.) ) F J J J Y I..X.X.XR.,X&XT.,.<.<.) _ B M n n y y r r u r.u.M.Y.M i e 8 d s p A _ @.e.a.l.h.z.M.Z.E.Q.Y.Y.8 u s s S L 8.| 8.} r.u.=.f.f.h.l.z.Z.9XY.=.>.,.=.,.,.=.,.=.<.l.fXfXVXVXZXVXZXDXHXDXGXJXJXFXGXGXKXzX6X6X7X6X7X7XrXuXgXkXgX0X4Xi.( J ( [ [ } +.#.e.e.Z.Z.~.!..X.X.X#X1X1X1X1XvXbXbXMXJXJXJXJXPXJXJXJXJXLXLXLXKXKXJXLXJXJXPXSXk k q.q.q.q.q.q.w.w.w.w.n.J.KXBXSXSXSXAXSXFXBXnXSXnXhXiXnXBXNXfXtXfXMXrXfXqXtXfX+X&X7X<X<XXXXXXXH.H.S.J.S.F.F.F.n.B.v. . ./ Z.",
"Z.E.z.z.h.h.g.g.@.k.l.&X*XOX&Xz..X[.Q.T.@.[ ) =.j.l.( o.U J P m C S T J I.I.~.E.P.4X,.`.,.<._ U B M n v y u r u q 8.r.M.N.M.M p e e e s 8 @.O._ Y a.a.k.Y.E.Y.E.Y.Y.Y.{ u u s L L 7.e.} #.#.%.u.u.d.h.h.z.E.fX%.=.=.=.=.>.<.=.<.<.=.4XsX9XBXBXmXNXDXHXZXHXD.XX2XFXGXGXKXGX=X=X6X>X6X6X7X9X9X9XdX=X1.{ X.( P ` ` ` [ [ #.e.k.Z.z.Z.S..X.X@X#X<X1X,XyX1XMXvXvXMXJXJXJXJXLXKXJXLXLXLXLXLXLXJXKXFXJXPXKXq.q.q.q.q.q.q.x.x.w.n.n.:XpXFXFXFXFXAXAXSXBXSXnXBXBXmXiXBXVXnXfXfXfX9XwX9XrXtXyX+XwXXX,X;XXXXXXXH.H.H.H.J.H.H.-XB.B.i. .] ~.",
"Z.Z.z.z.h.i.i.i.=.=.(.@X@X.X@X.X].{.Q.g.@.[ ) %.f.f.&.I G F P Z C Z Z K I.Y.k.E.~.k.-.<.|.<.o.3.m m v c e u q 1 s d ` ' ( ( y u u s s b I W > ) $.e.u.l.k.E.E.E.Q.Y.Y.,.e s s L L 8.8.u.} #.%.u.u.f.h.h.z.|.T.@.$.=.$.=.$.$.<.O.o.%.*X+XM.h 8 bXBXVXZXbXH.H.XX:X1XbXGXGXGX0X=X>XOXOX&X6XOX6XsX=XN.-.@...{ H ! I P ` Y [ #.a.i.h.z.Z.~..X.XoXoX+X#X<X1X1X1X#XbXJXJXJXPXPXKXGXKXLXLXLXKXKXFXFXJXSXSXSXSXFXq.q.UXq.q.q.q.w.w.J.eXeXqXLXLXLXLXLXLXLXLXFXGXFXGXFXFXDXAXAXAXBXmXmXmXmXjXuX&X&XwX<X:X#X#X:XH.#XL.H.L.;X=X=XR.R.N.*.0.Z.",
"m.h.h.f.f.a.g.g.i.a.a..X!.*X@X{.!.'.Y.=.{ l.k.l.l.>.o.I F Z U G C C C W &.z.k.l.j.h.h.l._ _.<.<.O.o.I m r c 0 r 2 u C i n t v v b b T U U E E O.> &.u.l.l.P.Y.E.~.T.T.M.y 4 S J L Y | e.a.h.*.u.u.u.d.z.E.&X%.@.@.@.@.$.@.@.O._ $.$Xi.h 8 s g g s W.VXXXD.XX;X,X2XpXmXDXGXHX4X|.|.|. X|.4X XW.,.,.,.>.-.{ ' H G H P H K } r.a.i.p.z.S.~.!.^..X#X+X#X,X1X1XXXH.;XJXPXPXJXGXKXGXLXLXLXLXKXKXSXPXSXSXSXSXSXSXSXq.8.q.q.w.s.J.:X8X7XXXXXDXFXKXGXKXGXKXSXJXJXSXSXVXCXmXVXAXVXAXBXBXmXuXuX&XwX7X:X1X:X:X:X:X:X:XvXqXqX=X=X).R.N.*.(.Z.",
"m.h.p.g.u.g.l.m.h.K L 8.*X+X@X].].Q.j.l.Y.M.j.j.j.l.l.l.z.l.[ T C T T Y Y u.u.f.f.u.f.k.T.6.-.3.3.B B v r x x 4 2 u y n y t v v s b T m T E +.W O.T ; d.l.P.P.P.P.I.Y.I.g.u C L Y Y 8.e.a.u.h.k.f.f.h.l.W.T.@.@.@.@.o.{ O.) O.O.6.8 u s g g g S K ] s y.XXXX:X1XpXpXzXCXCXZX|.}.|.[.6X$XN.,.,.,.,.,.=.-.#.@.F Z Z H H ! } #.r.r.a.l.k.z.E.E..X.XXXXX#X:X1XH.XXH.L.L.JXLXGXHXKXLXLXLXLXKXKXCXJXBXSXSXSXSXSXSXFXKXK.q.0.n.F.oX^..X^..XCXCXAXAXAXAXvX:XvX2X2X2X2X2X1X3XBXFXAXAXAXnXjXuX+X&X*XoX:X2X:X:XvXvXvXpXqXqXqX=X[.R.M.r.XXM.",
"h.g.u.h.u.z.0.p.e.K K L P.@XOX].'.k.T.E.Y.Y.k.j.j.f.l.l.z.z.Z.&.b r C J | e.e.u.u.u.u.Y.N.,.,.@.m V v c B m b V 1 u A Z G y c +.+.b F N B U E W W +.> % 1 f.,.6.P.P.P.P.k.d S J L Y Y e.e.u.f.h.z.k.k.z.$X>.{ [ [ [ ) ) _ O.o.,.r.s s g L / g L ]  .*.f 9.y.<XeXuXjXNXNXNXNX4X=X$XOXM.j.,.2.,.,.-.$.=.$.@.] ~ Z Z A S [ [ } } &.u.u.u.f.l.z.S.XX.XXX#X<X1X:XH.XXH.J.L.L.JXGXJXGXLXLXLXJXVXMXmXBXBXBXSXAXSXFXSXFXPXPX2Xn.b.^.(.(.(.(.mXNXVXBXJXCX2X1X:XvX2X2XvX2XeX;XeXNXBXAXNXhX8X7XwX+X7X7X1XvXvX2XpXiXcXuXgXqX4X4X[.T.M.H.A.M.",
"m.i.g.W.*X#XL s.8.K L L a.k.{.!.E.I.E.~.Y.Y.Y.j.j.f.f.h.z.d.l.e.F Z Z J | | } #.e.u.P &.j.,.>.@._ c 9 9 r b c , u s J P G M G r I m v T T T U W +.o.U % $ # 0 ,.d.P.l.P.j.[ s C J Y Y e.e.e.f.f.l.k.z.E.].) { ) [ _ ) o.;.,.:.`.g s g S L L 8.|  .i.g.^ 9.r.p.A.uXjXzXkXNXDXZXk.g.g.N.,.-.>.>.=.=.$.@.` ` ` ! Z Z n ! ' ` P [ [ +.+.&.e.u.z.Z.G..XG.XX#XXX:XH.H.L.).L.;X;X:XCXZXGXKXGXHXpXpXMXmXmXSXSXSXSXSXSXSXPXKXKXLXFX(.W././.Q.<XmXNXmXmXmXvX1X2XpXbXpXpXjXiXuXeXDXDXCXCXgX7XOXyX+X+XyXoXbXiXiXuXjXgXdXdX0X4X X_.h.a.<XM.M.",
"j.^.yX.X#X#X*X.XL s s S p.l.l.~.z.~.~.!.Q.W.Y.j.j.l.f.&.Y Y 8.e.| J Z H P | #.#.e.Y J I @.>.$.@._ 3.q 3 , < 1 u s g -.( G ( U M 4 C v m m T U I W +.+.& % $ # $ 3 ,.:.l.d.:.u C S J Y W &.e.u.f.l.l.l.Q.Q.=.-._ ) _ 5.4.5.;.4.C.g g L L / ] 9.9.i.g.M.M./ m.M.A.(.|.nXAXFXrX0X=.>.N.,.>.,.<.<.-.@.( ( ` ^ / ^ A Z H ..} ] ` J P I Y Y &.+.s.s.S.G.H.XX#X#X:X2X;XXXL.XX3X;X3XpX2XVXHXGXHXpX2XpXMXMXmXmXSXSXSXPXSXFXKXKXLXFXFXGXoXQ.M. .mXFXFXFXVXAXKXFXFXKXKXLXGXGXFXSXZXAXVXbXcXiXgX#X+XyXbX{.mXmXuXgXgXdXdX0X5X`.T.M.g.s.[.W.M.",
"wXK.K..X.X+X+X| K L Y 7.x.z.z.K..X.X.X!.!.Q.j.j.>.I Z H P | Y e.u.H S J Z &.f.l.f.J T | J [ %.@._ _ M 9 1 7 s C u.u.[ =.Z G G M F M F U F F T Y Y +.+.T % $ $ # o @ 3 :.:.%.T s C C Y Y +.&.%.d.d.f.d.U.N.=.-.$._.6.6.6.,.;.}.L f g L 8.] 8.y.p.N.N.T.R.@.m.E.~.9XlXBXkXrX8X8Xi.=.>.-.=.-.@.<.@._ ! ^ ^ ^ ^ ~ / A ! { ` ' ` ' ' D P P P | x.s.z.z.G.G.H.H.vX:XH.;X;XXXcXcXpXpX2X2XJXHXbX2XyX2XMXMXmXSXMXSXSXPXSXSXPXFXLXFXGXGXLXLXeXu.*.<XFXAXAXLXLXFXAXSXKXKXGXGXHXCXJXFXZXCXCXbXjXhX&XtXmXkX7XjXjXfXaXqX4X}.[._.Y.,.u.+X'.Y.;X",
"K.z.K..X#X#X.XL L L 8.8.x.z.K.G..X.X!.@X{.].P.) ^ ( ( K K K Y Y &.Y | D y n } %.=.F K P Z F } } @._ ~ i q C u K e.&.u s H G P ( ( G G U P U I P +.| &.+.& $ $ # @ o @ o @ $.7.C s C T J I W W &.%.:.l.E.-.=.%X_.%X6.6.5.;.6.XXf 8.^ ] q.9.r.m.N.M.W.Q.R.Q.i.gXnXrXaXfX9X9XkXeX,XO.<.O.@.{ W.,.,.Z { ^ ^ / ^ '  .! ` ( ` ` ` ` ` ` ` D J 8.8.e.a.z.s.G.G.H.H.#X#X3XcXpXpXcXpXpX2X1X1XCXpXbX2XvXvXMXJXJXMXmXSXSXSXSXPXSXKXGXKXLXKXLXLXLXHXf.BXAXKXLXLXFXAXVXSXLXKXGXGXDXbXVXVXJXCXjXBXhXbXtX&XmXE.gXgXqX4X$X}.`.T.Y.N.u.e.8X8X1Xs.",
"s.z.K..X.X@X8.L Y 8.8.x.s.z..X.X.X.X*X@XI.%.| { ' ` ( P H P K | | %.| | Z i i ^ } J J H v Z | ' [ _ ~ M p n S #.e.+.: ; U j.G ( _ G P P G I I P %.&.&.e.J % % # o o o o o * o 5 u C C F U I W W W &.l.P.%X%X%X%X6.6.5.5.O._.p.^ / 8.8.9.0.c.Z.^.^./. X$X4X9XwXrXwX9X0X9X9X7X6X9X{ ) B { M.Y.<.$.y q ^ / / ' ] } ] H ! ! H ! ! ( ^ ( P D | 8.8.e.s.s.S.G.H.H.vXBXpXuXpXqXpXpX3X1X<X1X1XtXtXbXpXvXvXJXbXJXSXSXSXSXSXSXLXKXKXKXKXKXLXLXLXLXLXKXoXr.W.{.KXAXAXAXDXGXGXGXDXVXCXVXpXmXpXmXhXMXtXhXtXyXmX0X6X X[.`.Q.Y.j.=.~.H.G.0.x.s.",
"x.s.z.G..X.XL K / 7.q.x.s.K.G..X#X!.I.W &.&.| #.' ' ( ! H H P K K r.} Y H t e w y w q e a 7 F J P ` o.@.o.{ { ( ( Z : : F Z T l.B _ _ P ( I I Y [ e.e.u.&.9 % # $ o o $ o o o - z.K C J T Y W I Y Y OX%X%X%X6.6.6.5.5.;.5. Xu.u.b.q.y.y.b.Z.W.(. X4X$X:.;.;.wX0X*XwX7X7X7X>X,XoXA.V 3.,.N.N.-.O.e $ ` { ` ` ' ] ,.H H H H ! H G H S D D L Y 8.x.8.s.z.H.MXMXSXSXpXqX3XqX8XqX<X>X#XoX+X1X1X1XyXMXMXbXJXJXJXSXFXJXSXnXKXLXKXKXKXKXKXKXLXLXLXFXFXFXNX/ e s <XVXDXKXHXHXDXCXJXCXpXCXhXhXhXMXtXtXtXtXH.~ ;XzXaX0X4X0XdXL.9...8.9.0.x.",
"x.z.K..X.XL | / | 8.8.x.z.G..XI.l.} Y [ [ | [ | { ` ( H H H J D K e.p.P Y y e w e 8 8 e 7 w n Z C I ) o.) [ { { ( < % t v v F T U E _ m ( ( ` | | e.u.f.i.` % @ $ o * * o * o * a.Z.Z.z.a.a.e.| 7.d.%X%XU.4.5.5.5.5.;.Q _.k.p.h.h.Z.Z.^.A.^.>XsX|.;.5.;.E E %X7X7X7X7X7X,X>XoX<X).b V =.=.,.,.n y % ` ` ^ ` / ` *.^ A A A D A Z n Z Z S S K Y 8.x.G.#X1XMXMXBXSXxX8X>X>X X<X>X<XoX(.@X+X1X1X1XvXMXbXMXMXmXmXmXMXmXBXLXLXKXKXKXKXKXKXKXKXKXAXAXFXSXFXGXM.f f q.FXFXHXZXJXCXbXCXVXmXiXMXtXmXhXtXtX<Xg f D / / ] 9.9.9.] 8.8.0.8.8.",
"0.s.Z.~.z.| ] 8.8.8.x.s.s.I.d.&.| &.[ Y Y | Y | { ) ( H H H S S S e.a.` P J 6 w w w w w 7 7 t i m m U U U ` [ ( w 6 6 w r r b m T T B E o.< ` P | e.a.a.h.z., % * @ * o * + * @ s .XS.S.z.s.a.8.7.].U.U.U.5.5.5.5.;.Q 5.@Xh.z.V.Z.^.W.(.6X].5.:.;.;.;.E E B U 7X7X7X>X,X+XOX<XoX).*.U ) ) o.o.q 7 # ^ ~ D ^ / } } [ d A Z i i i i i u s g S L w.n.J.H.#X1XMXMXmXVX=X=X-X/.^./.(.(.!..XoX#X#X#X1X1XyXvXMXMXMXrXMXyXPXLXLXKXKXKXKXKXKXKXKXFXAXFXSXSXAXFXSXFXjX,.$.g.jXDXVXVXpXiXjXtXhXhXhXtXtXtXfXtXX.f ~ ^ ] 9.0.t.0.9.8.8.q.x.8.",
"0.s.z.Z./ X.] 8.8.8.8.f.g.=.#.[ [ | [ P Y P K Y | ' ( ~ F Z Z S | | #.u.J P e w w w 7 w 7 t t w c c m m B G M t w 9 9 w q r c c b m N T T T E > Z 8.a.p.z.V.' < ; * * * * * * * 5 ~.G.G.S.z.a.e.a.].U.4.4.5.U.5.Q Q ;.4.Z.k.Z.Z.~.@X&XU.d.:.:.%.O.Q R E B B b T.+X,X+X,XoXOXY._.P.+.I I 3.B m , , # F D ^ ^ ^ ' ` ` d y p i t t y t e e UXUXJ.w.J.J.L.L.L.L.vXJXmX4X=X[.R.W.R.Z.M.Z..X.X.XXX#X:X1X1XvXvXMXyX1XyXMXLXLXLXLXLXKXKXGXKXKXGXAXAXVXAXAXAXAXFXFXFXFXZXg.) @.) ) g.S.hXtXmXfXMXMXfXtXtXyX1XD ~ / X.q.0.0.y./ 8.8.q.8.8.",
"8.x.z.z...0. .] 8.V.Y.f.%.@.[ [ Y P P K H H P P P ( ! G A A d Z ` [ #.u.K J Z , C < 6 , 9 7 0 9 q U I ) M M M t t 9 y w w w t 0 c x b b N N T T T 0 s p.s.V.V.6 > = = = - * * * * 8.XXXXG.V.s.s.Z.].U.P.U.5.5.W Q ;.;.*Xk.k.~.@X$XW :.&.:.%.%.:.:.$.o.U B B b b 7X+X,XOX{.&XT.4.,.) U G V 0 t , % # 7 D ~ f ! ^ ! H D w e w e t w q g q.UXUXw.J.J.J.L.L.L.L.vXJXJXzX-XR.T.N.M.N.l.k.Z.W.~.H.XX:X#X1X1X1X2X#X1X#XSXLXLXLXLXLXKXGXGXGXGXFXAXFXAXAXDXHXHXFXDXFXFXFXFXFX<X@.) P J tXfXfXfXfXfXhX*XyXwXfXk ~ / ] 0.w.w.1.7.8.8.8.8.8.",
"8.s.p.] w.*.` !.T.P.,.=.@.@.[ ( H H H J J S D H H ` ( G n A i S ` | [ e.u.Z F < F 2 4 F 2 v q ; , B U m B M M t 0 t i w w 9 t 0 2 r x c b N b N N T m x , s.S.' 6 : : 1 1 1 - = : 1 #XXXG.G.s.s.nXU.U.4.5.P.;.5.;.Q 5.!.k.!.4.W W +.W &.&.:.:.:.:.$.$.@.$.m x r T.+XOX+X@X&XT.Y.M.) U V 9 9 q w ; + % 2 D ~ H F A S D w w w e i k UXUXq.w.J.J.J.J.J.L.L.L.vXvXvXvXJXgXOXN.2.,.g.u.u.h.z.Z.S.XXXX:X:X:X1X:XXX#XXXPXLXLXLXKXKXGXGXGXGXGXAXAXFXKXGXGXHXHXHXFXFXAXFXDXAXAXVXjXb.D [ fXtXtXtXfXrXtXrXwX7X:X/ X.] 0.n.b.] 8.8.8.8.8.8.",
"8.a.s.8.| Y.Y.Y.j.l.>.@.+.[ P P H D A Z A S Z Z D J ! G d i i H H P ` | u.J ; < C , q 0 q t 9 ; ; m r r B M M c 0 p t t w t w 9 9 9 3 0 4 x z b b b b c x 0 < ..7 1 1 1 8 u 1 1 1 : XX#XXXG.S..X].U.U.U.P.5.5.Q ;.O.U.I.&.Q W W W W W :.&.%.&.:.$.$.O.@.o.@.) M c ~.T.@XOX@XY.N.g.g.{ i w e e Z d # , 6 f A A Z d d f i 9 ~ ~ D g UXUXq.UXw.J.J.J.L.L.L.L.vXL.vXcXbXqX9X>X).i.#.e.a.a.h.z.V.G.H.H.:X:XvXXXXXXX<XLXLXLXLXLXGXGXGXHXHXKXPXLXLXKXKXGXGXHXZXDXAXAXVXAXVXVXVXVXBXNXOXmXfXfXtXfX*X*XrXwX7X)./ q.q.0.n.w.K K 8.L 7.7.8.",
"s.XXg.g.j.j.j.P.,.=.$.+.) ( H A Z d d d d d d d Z A ! M n i p D A H H P *.@.; : w r 9 9 9 9 2 % ; , 2 3 m V M c t y t t t w 9 9 9 9 2 2 2 3 0 4 z b b x x 0 & & 9 > 6 u s s s s 8 1 8.:X#XH.G.1X*XU.U.U.U.4.4.;.B o.E E I E T W W W &.:.%.:.&.%.$.@.+.o.) ) ) ) O.P.j.P.I.T.:.$.O.) G t ; , : : 7 % : 6 d Z n d d d / 9.~ A l f k UXq.w.J.J.J.L.L.L.L.vXvXL.vXvX2XcXpX=XoX(.^.n.J.8.y.a.s.z.b.G.J.#X:X#XG.H.H.SXFXLXKXKXKXHXHXHXHXKXLXLXLXLXLXKXGXHXHXHXDXAXVXAXVXVXVXBXNXNXmXmXnXaXrXtXgXrXrXrXrX*XrXv. .0.w.n.| L L 7.L 7.8.8.",
"0.9.-.@.=.>.f.,.$.@.[ ( G ~ A f f d f d d d d d d n Z A i p d f A A H H ` @.= 6 t r 6 2 6 & # @ $ ; 5 3 4 b c x t c v t t t 9 9 9 9 9 > , 2 2 3 4 4 4 c x 0 & % 0 9 9 0 , g f s s s S vX:XH.H.GX$X$X%X]._.:.U O.B N.U E W T W Y E W W W :.%.%.$.$.+.@.o.) ) _ ;.O.:.P.E.E.P.$.O._ ( F Z : ; : : 6 % < 6 n d i y ]  . .9.~ f d f UXUXq.w.J.w.J.L.L.L.2XL.vXvXvXvXpX2X3X-X(.~.S.S.G.H.H.b.p.p.s.S.H.H.XXn.G.G.G.BXPXKXKXKXGXHXHXZXDXLXLXLXLXLXKXGXHXHXHXZXZXVXVXVXVXNXNXNXmXnXmXjXtXwX&X0XgXtXtXhXfXtXtXXX .w.v.n.J L K L L 8.S.@X",
"0.9. ...=.=.$.@.{ ) ( H f f l f d p f f p p f i i y i A i i A i d A A F G { , 9 0 9 > 9 & + # @ @ $ 5 % > x x c v c t r r 0 0 0 9 6 6 3 > , < , 2 2 0 r 0 3 9 % % , 9 9 9 0 $ d g s s 1X1X#X#XnXsXsX_.O.@.O._ 3._ Y Q E T I I Q W W W &.&.%.=.$.$.@.@.o.) U >.d.d.+.j.I.I.P.%.@.) P n n , = ; < : @ ; , i ! ] ] ]  .9.9...f p g UXq.q.w.w.J.J.L.vXL.2X2X2X2X2X2XpXqXqX;XA.Z.s.J.G.G.H.:X#X;XV.s.G.H.H.b.G.b.H.SXAXFXHXHXGXHXZXZXVXLXKXLXKXKXKXGXHXZXZXZXVXNXBXNXNXNXNXkXjXhXhXiXtXNX7X&XwX*X0X&XmXmXhXXXv.v.w.v.g S S 8.S.m.0.9.",
"....{  . .@.@.{ ( ( ! D k f g f p f p a p s e p i i i i i p f f d i Z Z F ) : 9 0 2 > > + # # # @ @ $ $ % 3 x 0 r r 0 r r r 0 0 9 9 & 6 , < > > , 2 0 3 0 9 % = $ < , , 6 9 9 0 9 > 8 H.1X:XyX*Xj.-.>.-.@._ _ B 3.T T T Q T T W W W W &.%.=.$.=.$.O.@.o.) E ;.W ;.o.:.d.l.P.@.) _ G t t % % = @ = 9 % 6 u ` ] ] ] ] ]  . .d d k q.q.w.w.J.J.J.L.L.vX2X2X2X2X2X2X3X3X<X<Xm.m.n.n.n.H.H.#X:X;X1X2X2XXXs.b.s.s..XmXAXGXHXHXHXZXCXBXZXLXPXKXKXKXGXGXHXZXZXZXBXBXnXnXnXnXkXjXhXuXtXrXeXtX&XwX&X0X6X6X&X$X XgXB.D.).-.e.~.N.v.t.v.0.0.",
"0.....X._ _ _ ( ! G D ~ d f f a f a d a p a e a e e e w i d f M i M i n n U G 2 0 & & $ # $ $ O @ @ $ $ $ & & V 4 4 x r 4 0 0 4 0 3 9 & > 6 ; > > 6 3 9 & 3 % % % % > 6 & 9 9 0 0 0 t : 9 t 6 2.,.-.@.<._ _ 3.m ) T T T T T T W Y W W e.%.%.>.=.=.<.o.) :.:.;.;.;.Q E :.$.:.=.-.-.@.M G r q u r 6 y q @ @ = K ` ` ] ] } ../ g UXq.q.w.s.J.H.XX:XvXvX2XpX2X2XpX3X3X<X<X;XC.t.n.K.S.H.H.XXXX;X:X1X2XbX:X2X:XvXmXAXDXZXZXZXZXZXxXzXHXFXPXFXGXGXGXHXHXZXZXxXNXNXnXnXnXkXjXgXuXeX8X8X1X9X&X7X&X&X&X&X6X$X$X_.-XL.).v.y.c.v.t.0.t.0...",
"....-.X.X._ ! ! H ~ f f p f g l a g a g a e a 8 e w w 7 i f A i i M i i i m U 0 % & # X X O $ $ # @ $ X O $ & & 2 3 3 0 0 3 9 9 3 9 3 6 6 > 6 > > 6 > 9 9 & ; @ @ 9 ; > 6 6 & 3 0 0 0 = p t 9 ,.-.-.@._ U _ B M B T T Q W T W T W Y W d.e.%.=.>.=.$.o.$.&.;.:.E +.E ;.+.O._ -.-.-.{ n n q 7 1 q , e Z u n A A H ^ ` ' ] ] } g k 8.q.q.b.J.H.XX;XL.2X2X2XpXpXpXqX<X3X=X-X^.b.s.S.S.G.H.H.#X<X<X<X1X:X:X:X:X2XmXAXBXBXzXVXCXxXzXgXZXFXFXFXFXHXDXZXZXCXCXzXkXnXnXkXjXjXgXqX8X8X8X<X>X,X+X+X+X+XOX&X|.|.$X_.3X;X:Xc.r.t.t.t.*.9.0. .",
"] X...X._ ! ! ~ ~ f f f k p f a f a a a e e 8 a w a 7 7 p A d i i t p t t v m m 0 % $ # $ X O $ o o $ $ $ $ & & 2 2 2 3 3 2 2 3 3 9 2 9 > 6 % > < % 6 & & 6 % % = > ; > % 6 6 3 3 9 0 = t n 9 >.$.@.o._ 3.3.M c m T T T T T T Y Y W 7.:.u.=.>.=.:.o.W W :.;.W O.E E E O.) G <.<._ _ c t , , 4 , > r y e y Z Z H D P ` ^ ` ' / L k q.y.b.V.G.XX#X2X2X2X2X2XqX3X3X<X<X-X;XD.n.b.b.S.J.G.XXXX;X<X,X1XH.#X:X2X1XmXnXzXzXzXzXzXlXlX0XVXAXAXFXFXZXZXZXZXxXzXzXkXhXhXgXfXhXuXeX8X<X<XoXoX>X+X+X+X*X+XOX&X|.$X`.;X1X<Xv... . . . .] X.X.",
"/ X.-..._ ! ! ~ f l f k f p f g g a g a a 8 a a 7 7 7 6 e A i M i t t t t c c r a % $ $ X $ & O o # O $ O o $ & > > 2 3 2 3 3 2 > > > > > > > < < > & 6 % % % % % > > % 6 & 3 9 9 3 9 0 b r J R.-.@.@.) U B m M m E T T T Y Y T Y 7.7.d.f.=.g.,.:.W W :.W &.O.E E I o.m V c M M M 0 9 2 > 5 ; < = ; = $ @ = @ 7 S H H ( ( H ^ ^ / 8.t.s.V.A.(.XXL.:X3X2X8X8X8X8X<X<X).).C.C.s.s.V.b.S.XX).oXoXoXD.H.XX1XyXtXmXhXlXkXlXdXdXdXsX6XkXAXAXAXZXVXZXZXCXzXkXkXlXlXtXtXtXtXrX8X>X<X>X(.oX9X#X+X+X,X,XwX7X$X_.M.>XT.T.S.0. ...{ ' ' X./ ",
"~ ~ 1.@.X.~ ! A f f l f l l g g p f a a a 8 6 6 8 7 7 7 e n n i p t t t 0 0 0 9 9 % # # O $ O $ $ O O $ o O $ $ , > > > > > 3 > 3 6 > > > & > > % > 6 % % % = $ % ; , > 6 % % % : 7 8 1 s u s s r v O.) ) _ U G 3.E %.:.T Y Q Y Y e.e.e.f.f.&.+.&.W W &.&.O.O.E O.I V M M x M M c 2 > 3 5 5 5 5 ; < , @ @ @ # @ @ y H H J H H L L ] 9.a.z.Z.W..X.XoX+X+X,X,X>X<X<X-X).).C.C.a.p.V.V.S.^.^.(.{.,XwXyX1XyX2XtXmXnXnXkXgXsXsX0X$X%X$XBXVXVXVXVXCXzXzXzXkXgXgXrXrXrXiXpXuX8X3X=X-X).).9X,X+XyXwX7X}.!.NXzX4X4 1 1 s vXIXJXJ./ ` ! ^ ",
"A ~ ..X.~ ~ ~ D f k f f g g l l f a a a a a h a 6 6 6 e e w n t t t 0 0 9 9 9 & & % # $ & O $ O O $ O o O $ $ O > > > > > > > > % > % , > 6 % < < ; % & % % % = @ 6 , > % % 6 6 : : 1 1 8 h 1 K m b b b x o._ ) ) W T f.P.W Y Y W W &.I.l.f.&.&.W W :.&.:.&.&.o.E U m m c x c x 0 > > > @ @ @ @ @ @ 5 @ = @ % # # # @ Z A S S ~ K ] } r.i.h.Z.Z.(..XoXoXOX<X>X>X|.).^.m.C.V.b.y.h.s.M.Z./.#X#XoXoX+X+X1X1X1X1XhXhXlXlXlXaX4X}.[.'.nXBXBXBXNXNXNXzXlXgXgXrX9XeXyXyXyXyX8X8X<X=X;X).nXtXMX7X|.CXNXNXzXzXm u 1 ; 1 IXIXL.J.H.2X0.~ ",
"F./ ( { ~ ~ f A k f g l k a g a f f a a 6 h a 6 6 : 6 a w w t t t 0 9 9 9 6 & 6 % % % # $ O O $ O O o O O o O o $ ; > > > ; % ; % > ; % ; % < % : % % = % % % $ % % % 6 6 % < : : : 5 s h 1 1 E.b b z b x V V N c W T U 7.W Y Q Y Y W W d.W W W Y W &.&.&.O.$.@.m _ B c 0 0 x x 0 & $ $ o 5 * $ 5 @ ; ; ; > < < ; ; % = y d d f S ` [ #.r.u.h.V.Z.W.(.(.{.oX X).).(.W.N.m.m.m.a.y.h.A.~..X.XXX.X.XXX@X<X<X#X<XtXfXfXfXfXdX0X6X'.T.fXnXnXNXnXNXkXlXgXgXrXwX8XwXyXyXyXyX2X3X<X;X).<XhXeXoXNXNXNXNXCXNXzX2 u 1 1 * J.IXIXJ.K.J.#X2X",
"2XpX3Xw.! ~ ~ f p k k g k k k l a a f h a a h 6 : h w w e w w t 0 9 9 9 6 > 6 & 6 % & $ $ & O O $ O O O O X O O o ; % ; > ; ; ; % ; % < ; < ; ; % < % % % % @ @ % : = % : = % = ; ; - u h 1 - 1 4 b b b x z z x x x U T T 7.W T Y W W 7.W 7.Y W e.e.&.&.%.%.@.@.B O.B c c 0 c 0 0 % 5 @ $ @ @ @ $ @ $ * $ > ; > > > > e y e s s H H ` { #.#.=.g.k.k.E.W.Q.Q.(././.R.A.m.p.c.p.g.V.V.V.S.S.G.W.W.^.~.!..XXXXX;XmX&X0X0X0X0X4X$X$X X{.nXkXkXkXkXkXlXjXqXeXeXeX1XyXyX2XuXuX3X<X<XcXZXbXNXBXCXBXCXNXxXzXzXu 4 1 1 * 7.vXIXIX#X#X#X:X",
"bXpXiXs C 1Xf f ~ f k k f f k f l g a a a 8 a 6 : h a a e w q 9 9 9 , > 6 % % % 6 3 & % # # O X X O O O O   X X X 5 ; ; ; ; ; ; ; ; ; ; ; ; ; % ; % % % # + 9 r < ; ; ; = % @ = % = = 8 1 - - 1 7.z z z z z & z z & N W :.b W W W Y 7.7.d.&.W 7.e.e.W e.h.f.,.,.c O.B _ x 0 M 0 3 % $ # # # $ o $ $ o $ % $ % ; % % h 8 ^ k g s g H H ( [ { #.*.u.l.h.M.E.W.Y.W.R.W.i.c.i.C.H.D.c.c.V.V.V.Z.Z.k.*.| &.S.XXXXXXXX&X&X&X&X$X$X X X[./.mXAXnXlXlXhXiXiXuX2X2XpXpXpX2XpXpXpXCXZX4X..HXCXNXBXCXBXCXzXzXzX<.e 8 1 : ; 5 vXvXIXIX#XIXIX",
"MXbXmX.Xs C L *Xw.k f k k l l l p l a a a h 6 h 6 6 a 7 7 w 7 w w 6 6 < < > % 9 6 > 6 % $ # # X O X O O .       X + ; $ ; ; ; 5 ; ; ; = = % ; : = % # 6 0 2 1 , > ; ; ; = $ % = @ @ s h 1 - - - 7.z 3 4 z & & z & z z Q &.:.E T Y W &.e.e.e.W 7.d.e.7.e.l.j.g.,.M _ B 3.M x V 0 & % # X X # o $ $ o o $ @ # @ $ $ : 6 e g ~ k / k f F H P [ [ { #.u.g.g.g.M.M.M.M.M.i.S.S.H.G.H.c.c.p.p.V.Y K K | l.z.l.z.D.S.XX&X|.$X|. X{.{.[.Q.W.&XSXSXAXSXiXiXpXpXpXbXpXvX2XbXbXHXZXB.9...4XVXCXVXVXVXBXVXzXNXCXe s q 1 : ; = IXIXvXvXIXIXIX",
"MXmXNXmXs C J Y e.].XX/ k k k f f p p p a a 8 6 6 e w w w 7 q 7 6 6 > < 6 % % 6 & 6 & < $ # # O O O   . .       X X ; ; 5 ; ; ; ; = ; ; % ; < % % 0 t w 9 1 9 > > % $ $ % @ $ @ * * s h 1 - - - 5 2 5 3 & & & & & N N N U I Y U U E &.%.d.e.W e.d.d.:.d.P.j.j.,.3.<.M B 3.M M 3 $ $ # o X o # o # # $ % @ % % = e g f ~ f k / k ] X.' S F P ( [ [ } #.u.i.g.g.N.N.m.V.V.V.J.H.S.S.t.i.y.b.#.J K %.a.z.~.u.S.S.D.#X X].{.{.{.!.Q.Q.W.E.NXAXSXFXFXKXAXbXcXpXbXbXZXGXHX).B.m.1.1.GXVXBXVXVXCXCXCXCXzXxXZ s u 7 : ; = s MXvXMXMXvXIX",
"mXmXNXxX.Xs J Y &.h.E.].|...k ~ k l l p a a 7 6 8 8 w 8 w w q 7 6 6 : < % % 9 3 6 % % % & $ X # O X . . .       X X @ ; ; ; ; ; ; ; : ; < 9 c t a a 9 9 , , , > $ $ $ $ # # @ @ @ 1 h 1 1 - * * - W 5 $ $ $ $ $ N Q N N U U I ) b Q T z Q e.W W W d.W W d.j.j.l.B <.3.3.V M V 0 $ $ X o X # # X o % p p f 8 6 h 8 8 g p / k k / / / ^ X.] ' H ( [ { @.#.=.=.m.C.N.b.b.V.n.S.S.S.D.t.r.*.y.H.H.r.h.e.e.z.!.p.S.S.G.].'.{.!.Q.Q.W.W.W.A.OXAXFXFXFXGXKXGXGXJXGXGXCX3X=X).).B.v.=XDXVXBXVXVXVXCXCXzXNXd S d s 7 : : ; - vXMXMXMXvXMX",
"mXSXBXnXmXC J Y W e.I.I.!.]. Xg.~ f f p p a a 6 8 a 8 e w w 8 w 9 6 6 % 6 % 9 6 6 6 % = $ $ # + X O               o o ; ; ; ; : : < < 0 B M p 0 q 9 6 , , < > > $ $ $ $ $ @ @ $ o s h 1 1 - * * * 1 $ @ @ $ @ $ N V V x b o.I +.>.U z z x V V E W :.W W :.d.d.d.3.<.R 3.3.3.V & $ # X X X + X + + - a a f k 8 = 8 8 s ~ g f k k / / ../ ' ] ..} ( ` ` r.c.m.m.N.N.s.c.s.b.S.V.S.V.p. .#.} H.H.H.d.e.e.a.I.z.z.V.S.iX!.!.Q.(.^.^.^.W.).).VXFXGXGXGXKXLXLXLXuXuXuX<X<X;X).C.B.GXVXVXVXVXVXVXCXCXCXVXA D g e 7 6 : : : x.MXMXMXMXMX",
"mXnXBXBXnX.XT K Y &.P.I.~.].].].].M.~ p p a 7 a w w 8 w 8 w q w 6 6 6 6 6 w 9 6 % % 6 % % $ # + + X         o     X X - ; : < : q m _ M M i t t 9 2 , , : > % % $ $ # # @ @ o # * 1 * o o o X o * * b @ @ # # V & & z z 3 o.+.%.%.>.0 & 3 0 B m z b E N N Q Q W 3.;.V ;.R V V x $ + o o o +   j = 6 g a g f k a f k ~ ~ a g f / / / X./ ` ' ] } } S.K.s.p.c.c.N.t.y.y.b.b.s.y.y.b.m. . .]  .:X1XXXa.l.z.#Xe.e.V.Z.Z.~.W.~.(.^.!.;XoX<X;X1XFXGXGXKXLXHXnXgX9X7X>X<X<X;X).D.8XDXVXVXVXVXCXCXVXBXCX-.^ ] | } f.=.P q - : MXMXMXSXMX",
"mXBXBXmXnXnXY T Y W d.I.I.].].].].].].Q.G p w e e e 8 w w q 8 8 w 9 6 6 6 9 6 6 6 6 : = % = # # + X         X   o   o + 1 ; 1 $.@.O._ 3.M M 0 9 , , < ; ; > % $ $ # # $ o $ # X o z C T C T T T C z T @ # # & 3 & & x 0 3 B [ &.%.>.O.> & x m V V x m > z N Q Q R ;.x & x & & & * # # # $ = + * # = 8 a d f f f d k ~ / h a g f ~ / X./ ! (  .V.S.G.H.#X;Xb.v.v.y.t.y.a.y.r.s.y.b.V.@.] { ' ` XXS.XXe.e.Y Y W } 8.u.oX~.~..XoXoX<X<X<X<XoXHXKXLXNXNXNXkXgXeX,X,XXX).XX).).HXVXVXCXVXVXVXVXVXBXCX' Q.(.).oX|.=X=X}.`.j.#XMXMXMXmX",
"mXmXmXmXnXmX.XY Y &.&.P.I.I.!.!.'.!.'.'.'.T.{ i e a w e 8 q q q w w w 6 t w a 9 6 6 : : = % % % + + j +   j   X o o + * u %.=.@.) _ _ B m c > % > ; ; < % & % $ $ $ o # o X & 1 4 C b b T C C T C C C <X9X+ @ N x x V R 3 > &.[ >.,.<.B & 0 V V x > c 0 3 0 z Q R V & V x x & % + # # # = 6 - + @ - 6 h a e f g d k / h a a a f f f ^ '  .t.y.s.s.J.G.H.#X:X2Xv.9.9.8.8.0.0.r.s.p.b.p.{ ' ! Z n v C J C Y Y Y W | d.!.f.^.oX<X<X>X<X>XjXZXLXVXBXNXNXkXlXuXeX,X<XoX<XXX).oXCXCXVXVXVXCXVXBXzXpX+XZ.W.(.^./. X X`.`.`.P.q.s MXMXmX",
"mXnXnXnXmXmXmXK Y &.&.l.I.I.'.'.'.'.'.'.U.E.Y.$.( e w e 8 w 8 q q 7 w p i t w w 6 6 6 6 : = = 6 + + +     + X + o @ P >.>.-.<.@.O.3.3.B M V % % % $ $ @ & & % $ $ # o @ c M G r 4 z 4 T 4 4 4 7.C C C T <X=XxXV N x V E B 3 E Y >.:.>.O.m b I B m v ) G U ) U G # $ $ & > 3 @ @ # @ @ : - : 1 h # = h 6 7 a k k k ~ / h a a g g k / F.v... .t.a.s.K.G.H.#X1X2X-X^.b.9.8.8.9.t.y.p.p.8.! Z y v i y C C C C K Y Y W d.z.z.f.u./.8X8XNXHXCXzXpXVXNXNXkXkXgXrX1X,X<X<X<XXX).BXzXzXzXVXBXBXzXpXAXVX=XZ.Y.E.W./.`.`.`.R.T.,.u.8 6 8 2X",
"e 1XmXjXlXmXfX~.Y Y &.e.I.I.'.I.!.'.I.].'.T.>.:.@.[ I p q e e q e 7 7 d p p p a 9 a 7 6 6 6 : = - # + + X + + - %.%.u.=.$.$.@.O.) 3.B B m M c % @ % $ @ @ & % # o @ M M ~ A , 3 z 4 z z 4 7.4 4 C C v Y <X<X<XCXV N N R E U T &.>.>.:.:.E b E m m m I U ) ) ( G V p w & = 1 7 d Z d = - : : 7 1 h @ h 6 7 k k k X...8 8 a 8 g / v.n.v.F.-.X.] 8.s.s.K.G.H.XX:X;X).D.D.S.9.9.8.a.i.] Z Z y y y y y y y v C T Y W 7.e.d.+Xg.f.-XqXGXZXZXzXjX8XGXNXNXnXhXhXeX8X,XxXmXuXeXuXzXxXlXlXzXkXiXDXAXFXjXW.l.k.k.Y.Y.T.T.T.4.,.=.%.w.7 h h ",
"a e f 3XmXfXlXfXP I W e.P.I.I.'.U.~.'.Q.T.T.:.$.@.o.I I P t q e q w e i d i p i a t a 6 6 : : 6 6 - @ o + Z %.%.%.%.%.%.$.$.O._ o.B B M B m c 0 = @ @ @ # % $ & D ~ ~ ~ G ~ 1 2 4 z z 4 4 4 4 C C C J T :.=X/.=.*Xz x B Q B O.f.e.:.:.:.:.U B m m b U _ o.) G F Z w w ! L g 8 d M i : - 1 1 1 8 g a = # j   . j j   + + g q.w.w.v.F.F.F.C.` ` | 8.a.s.K.J.#X>X).^.^.S.C.S.S.b.` S Z C C y y n y y t v v C T Y Y d.d.d.z.OXlXZXxXzXxXxXxXiXuX3XNXnXjXjXuXeXVXGXCXjXjXpXZXxXlXkXgXiXmXmXNXBXBXuX$.>.f.j.j.j.P.j.,.,.$.@.| q.h h a ",
"a a p i Z XXjXgXz.Y Y &.e.I.I.I.'.E.I.Y.I.P.:.$.+.I U P G F Z n ; 8 d d A A A n p p a 7 a a 8 h 7 = = ) [ +.+.&.&.$.@.$.@.O.o.O.R 3.B B M V 0 0 @ @ @ @ # & 3.~ ! ! ~ ~ ~ M 2 0 4 4 4 5 5 4 4 4 C C P J V N.v.=.=.c x m B B E W &.E O.O.O.U N B m b U E o.F F v v w 7 D k / 8.y.H n = : : 1 1 8 8 + + X X O . j + + * h 8 a  .w.v.C.B.B.B.! ^ | 8.8.x.K.G..X X/.^.A.S.A.V.r.}  .} n y s y y y t t n v v C C T T 7.x.+XZXZXCXxXxXxXlXaX6XuXpX<XDXmXhXiXGXGXHXxXxXxXqXqXZXlXgXtXMXbXmXmXmXmXCX`.U &.$.$.>.:.:.>.$.@.{ { | / k a a ",
"a a d f p p l D.fXJ Y [ &.k.I.I.E.Y.E.Q.Y.,.$.O.) U U U F F n m v q % : ~ ~ A f d p p i a 7 7 6 u u.u.%.+.W +.+.+.+.@.O.o.o.) o.B B m b V 0 0 & @ @ # # $ ! ' ^ ! ' ! ~ P 1 4 3 5 5 4 5 5 1 4 4 u 4 C T +.@.i.=.*.o.c B B m O.E 1 &.;.;.R N b b x 0 b U M c 0 0 9 ; 1 s e g L ^ / ] < = @ = = - X   +   j .   j # # % : a 8 a f 1.1.B.B.N.-.H K Y 8.8.s.z.@X(.^.W.A.N.*...] } ' ` ! ! S d y n n v v y b C s C 7.).DXDXDXZXxXxXxXlXdX>XOX)./.<X;XjXHXGXFXGXxXxXxXdXqXxXHXyX1X*XMXMXmXmXBXBXSX) 3.F F I O.O.&.O.&.[ Y Y K / J.i a ",
"p p a p l p i p p 1XY Y W d.z.P.I.Y.Y.U.Y.,.$.o.I U J F C F v b c r 9 9 $ 6 A D A A d p 8 : d =.u.f.d.u.[ +.I [ [ +.o.o.o.o.B B B m B V x x 3 & @ % r 7 M ( ' ' / ' ' ( ( < 5 5 4 5 5 5 5 1 1 - 4 C T T E < g.i.*.$X_ _ ) G ) O.o.s W W E m b c r 3 B b x 0 0 0 9 * - 7 1 - s d S H 6 6 : * * X o o X + j j = = = = = = h a p p p ~ v.N.N.m.S J K 7.e.a.z.Q.Q.E.A.=.-.-.{ ' ! ' ( ! ! L ` P m n v y r r 4 7.+XBXZXZXZXZXZXdXdXdXdX6X|./.(.W.A.-.BXHXDXDXHXxXxXxX5XdXCXzX#X1XIXMXmXmXBXBXBXlX~ 3.n M n v U I I I I P K L L q.~ f ",
"l p p p M l i l i M <X&XW e.d.k.P.I.Y.P.,.>.<.) U U F F T m v b c r 0 3 > # # > ! ~ A q S P %.e.%.%.f.%.&.&.+.E I ) I I _ B B u B m m c x 0 0 9 V ' m.i.v.] ] ] ' X.' _ 6 ; 5 4 4 5 5 4 - * - 1 4 C J Y I O.-.i.i.M.$.>.=.<.<.$.$.o.O.E E c x 0 3 3 x 0 6 3 3 & > o + @ # * - d H ! ! G A i ..+ +   X + # = - = : 6 = = 8 7 a a l p p ~ -.v.^ Z L K Y e.h.Y.Y.M.,.N.-...' ! ( { ( ! ` ` | #.( H c t r S <XVXAXVXZXCXVXVXZXxX4X%X5X X[./.W.A.N.gXdXxXVXHXZXxXxXdXdXxXlXlX#XIXMXMXMXmXSXSXSX6.~ M M i u y u y Z U J J S L L q.;X~ ",
"~ ~ ~ l ~ p ~ i i p C.).XX0Xd.l.l.I.k.Y.,.<.O.o.U U U m F b m x z 0 9 > & # # o + y 8 ! ( [ %.%.%.%.%.%.%.I W +.o.o.U U U F S K u.-.-.=.1.N.D.).D.D.D.C.D. . .] { ..{ _ q < 5 4 5 5 5 * * * 1 1 u C T Y E O.7 i.i.Z.Q.Y.Y.M.,.=.<.O.O.) B B x 0 9 > 3 > % % % @ # o o X X + , 1 7 Z ! ! ~ A b.y.6 + + + + - - - : h 6 6 6 w a a 0 a M M M M _ Z S J K 7.P.,.P.,.,.=.-.{ _ ( ` ..X.' ! ` ` } I I I F ^ zXNXNXNXNXBXzXCXNXCXNX%X`.6.,.Y.R.M.N.lXNXxXxXZXHXZXZXCXBXdXxXxXzX#X*X*XMXMXBXSXSXBX_ M M i t e e e w u s Z J S L 7.8.G.~ ",
"~ 3.~ M 3.M M p 0 p ~ =X-X).D.>Xl.l.j.Y.,.$.O.o.o.B B m b v b 4 4 3 4 > 5 $ o # o y @.( ` %.&.&.#.%.&.&.%.I I I o.I E ~ D D D | g.c.N.D.XX).).D.D.L.D.D.C.t.r.} ..}  .G 6 , > , 1 5 * * * - 1 s s J Y I W +.U u.t.W.Q.Y.M.,.g.=.<.$.O._ B B c c % 3 3 > & % % # # + X + X 2 2 1 A ..( _ ( ! y.0.v. .+ # * - - 1 h 8 6 a 9 ~ p p 0 0 0 l l 0 l 0 0 A H C ,.,.j.,.,.=.@.{ ) ( -.@._ ` ` ^ ` | [ P ` <XzXkXkXkXkXzXzXkXnXnXnXkX$X_.,.<.<.o.<.dXdXxX5XdXxXZXnXBXNXNXNXkXnXnX#XIX*XMXMXSXAXDX4X_ 3.M p t w 7 7 w w e u S S L 7.q.x.m.",
"3.~ M M M ~ ~ M ~ 0 0 B.<X-X).m.m.oXl.4.,.<.:.O.o.U m b r b b z 3 3 > 3 > & # o s u u @.[ %.%.@.@.&.+.&.@.o.U I ` / / / / ] ^ / A.^.L.;X;X;X;X;XL.).).B.n.S. .r.*.*.@.Z 9 , , < 1 * - - - 1 1 4 C J P W O.$.;.] r.M.M.Y.N.j.,.>.=.O.o.o.B B V 9 6 < 0 3 > ; % @ @ o + X 1 7 2 ! -.N.v.*...uX0.v.D.D.X.* - - 1 1 8 u t a 0 p M M l 0 a & 0 0 0 a t 9 1 s :.:.,.:.,.<.<.) ( ( =.@.{ ( P P P ` [ H (.kXkXkXgXlXlXkXkXkXlXlXkXlXlX4.;.O.o.3.B dX5XdX5X5XlXzXnXnXNXzXnXNXnXnX#X#XIXMXMXmXBXZX_ _ M p M t w w 9 w 7 q 8 u S L K 8.x.tX",
"_ 3.M M M M M M M p 0 ~ ,X<X(.B.N.v.1.v.,.,.<.o.B B b c 4 x 4 3 2 2 5 > > % @ m u q , 1 %.%.&.&.&.+.+.+.+.o.| g g ] / X.8.9.y.n.;XL.;X;X;X;X-XL.).^.).m.m.b.] r.*.*.-.t q 6 6 < - - - 1 1 1 g s J J W &.$.&.:.n ] v.M.N.N.,.v.>.$.@.G O.o.B 9 % 3 2 2 < 9 > % % @ + + * q 7 n 1.B./.).v.1.0.v.C.C.c.v.8 - 1 1 8 s y t t t p M M V l l 0 0 a % % 1 1 4 K @.$.:.;.$.O.o.I U ) $.@.) ( P H K P Y h.sXlXlXlXlXsXsXdX$X_.%X$XaXaXdX,.;.o.3.R 5X%X6.5XdX5XlXkXmXnXnXkXkXnXmX#X#X#XIXMXMXSXDXxX_ _ ~ M t a 9 a w 7 7 7 q 8 s K Y e.a.G.",
"&X_ 3.M M 3.~ M M t p t XX6X>XW.B.D.B.( ! *.;.o.U m b x 4 x 3 3 3 3 > > 5 ; @ q u 1 : r U %.&.@.+.[ W ) } ` / L / / 9.q.0.n.b.n.:XXXXXXX).).).-X).).^.D.m.c.0.i.u.-.F w r q 2 : - - 1 1 s s s 7.7.Y W e.:.:.:.$.9.N.N.T.,.,.,.,.$.{ ( G U x & 0 x 0 0 x % % % % + 1 1 Z ( N.R.).R.>X=XB.v.0.).^.c.c.C.^.1 1 1 u u i M M M V M m l V x 0 & % % % 1 1 4 [ O.o.O.O.O.E I U G o.$.+.) P J H L P #.dXaX0XsXsXaX0X0X5X4X$X_._.].%X&X'.O.3.R 3.5X%X5X5X5X5XdXlXkXmXnXlXkXnXmX*X#XIXIXIXMXMXHX`._ _ ~ M p t w a 7 7 7 7 8 u s C K | x.z.",
"!._ _ M M M M M p t t t ~ 8X,X).;X).D.X.~ ! ~ ] +.m c r 2 x 3 3 *.~ i k % $ 7 7 , 1 r r q +.#.+.+.+.u.0.0.q.q.9.0.w.v.v.y.0.y.b.:X;X;X;X<X3XL.).).D.D.C.c.v.v.i.i.i.A t t q q - - - h h s g J K Y +.&.>.%.,.:.:.g m.N.M.N.,.,.,.@.[ ( ( x c c c x 3 3 x x > % @ 1 h 8 K T././. X).>X>XB.qXm.A.A.C.R.).).X.1 1 u v n M M x c M M 3.0 0 6 % 6 % % 5 1 4 | O.o.3.R E U U U F E +.I U U S H D P |.&X0XsX&XsXsX&X&X$X$XsX[._.].%X%X%X3.R V 3.`.5X%X5X4X%XsXdXgXkXlXlXlXkXkX#X#XMXIXMXMXSXnXu.{ _ M M p p w 7 7 6 7 7 7 8 e s Y e.e.l.",
"I.Y._ M M 3.~ M p t 0 p w <XeX<X<X).B._ X.~ ~ ~ ^ X.I 0 2 $.XXD.m.' X./ y.y.*.r.= q r 4 2 N #.+.p.0.0.w.y.n.w.0.w.0.] q.0.0.0.0.H.D.L.D.XXD.C.D.D.F.B.N.w.n.0.c.g.-.y t t q 1 : - 1 u s S J L Y } #.%.d.>.d.:.&.o.m.m.N.N.=.N.u.=.@.{ , 9 c m b c x 0 x 0 > @ * 1 * d W.|.|./.=X=X9X8X/.9.A.A.m.qX,X=X/.R.1 4 u c v m V c x M V 0 0 0 % 6 % % % 5 5 4 +.o.) o.) B m m F v I I U P J F A F } $X$X$X&X&X$X$X$X&X%X$X$X0X_.%X6.6.%X<.5.`.`.`.6.`.%X4X%X5X5XaXfXsXlXlXlX.X.X*XIXMXMXSXPXsX=.@._ ~ M M p p w 7 a 7 6 8 8 u s g 8.8.z.",
"k.*X_ 3.M _ 3.M M t p M c _ iXeX,X>X).' ! ^ ^ ~ ~ ~ ^  .;X3X3X-Xt. . ...]  . ./ '  .t.t.t.c.y.0.0.0.w.b.n.n.v.9.0./ ] ..8...0.0.L.).XXXXD.C.n.B.N.B.C.D.v.0.0.t.M.! v t u u 1 1 1 s u s s J | | e.%.u.:.(.oXOX7X6XN.,.N.,.=.g.g.=.=.y e w m N m b c 0 x x > @ - 6 - _ N.|.|.|.|.=X0X0X>Xi.B.8X8X,X8X<X>X(.( q r b b m V x c V a a 0 0 & % 6 % % 5 1 5 Q o.o.B B B b b r c T U J H F S A F _.}.}.$X$X$X$X$X&X$X}.%X$X$X'.5.6.6.%X`.`.%X`.`.6.6.6.%X=X5X4XaXsXsXdXmXK..X.X#XIXMXbXnXCX$.$.-._ ~ M M i p a w 7 7 7 8 q e e s Y e.d.",
"l.I.$._ _ _ ! M M p M i i A &X}.{.'.Q.M.i. ./ ^ / ^ ~ A.B.;X3X;XF.n.b.v.t.9.t...^  .t.t.y.0.0.0.0.0.0.v.w.0./ / k / / / q.0.y.b.:X;X,X3X2X;X;X).N.v.A.S.V.v.9.] M.n i y y s 8 h h s s s S L K +..XG.G..X@X+X&XOX|. Xv.M.N.c.g.g.=.( F Z Z M T T m c 0 b 0 3 = - 8 { >.T.T.$X&XaX&X0X9XlX9XqX8X8X8X=X=X>X>X=X4 r b c c V x t 9 w 0 6 a 0 0 p ` s.K..X.XG.c.] s B M m c r r c T C Z S A Z [ _._._._._.].].%X%X%X_.4.T.T.4.U.U.}.}.`.5X`.`.`.6.6.6.5.6.`.4X|.@XoXOX*X.X.X.X#X#XvXMXVXdX_ _ _ ) ~ ~ n p i p p a w a w 8 8 s s S &.a.",
"d.k.].[ ) { 3.M 3.G ( ( ! ! M.{.[.[.Q.j.f.,.u.=.' !  .C.B.C.D.;XB.n.v.v. .v. .' / 9.v.y.y.0.s.q.n.0.y.0.] ] / ~ k / q.0.0.H.H.L.qX1X XXX,X<X,X<XoXm.C.m.c.*.v.v.*.n i i y 8 s 8 s s d S L } S g x.s.G..XXX.XoXOX&X&XM.Y.Z.N.m.g.{ ( H D A G U T m c r b c 2 < 1 t.T.T.R._./.`.0XsXsX0X>X9X0X6X6X>X>X>X>X>X>X~ 4 r x c V b u q w q x q H 8.r.r.u.S.~.G.G.s.s.z.n.0.u t r r q c b Z A H ! Y._._._.U._.U._._._.}._._.4.4.4.4.4._.[.`._.%X`.`.6.6.6.`.`.}.|.|.oXoX>X+X.X#X#X#X#XMXMXxX,.) 3.M c M ~ A A A p f a e a 8 e 8 e s d [ e.",
"e.l.E.$.) _ @.) ) [ ) ( ( ( ` |.[.'.'.g.g.g.f.=.=.M.C.B.v.C.B.v.v.F.F.v.t.t.t.0.0.0.0.0.0.w.w.n.w.w.w.8.] X./ / X.F.J.F.<X!.:X1XoX).). X,X,X,X+X=.$.1.-.*.v.t.' i.n n d s 8 s s g S S 0.L L S L 0.s.S.S.~.!.@X6XOXOX{.^.W.m.g.*.' ` ^ ^ H G U U m F v m n b 1 i.'./.Q.`./.[.`.$X&XsX*XaX0X6X>X4X6X4X>X>X6X6X|.q 4 r 3 c V 7 r 4 s { } } #.#.r.V.z.S.~..Xs.s.s.s.b.S.G.p.u 4 b r u H ^ ( 6.4.4.4.4.6.U._.U._._._.4._.4.4.4.4.,.U.}.%X}.`.4X6.6.6. X`.4X&XOX>XOX,X*XI..X#X*XIXyXmXdXo.3.B M n t i ~ A ~ d p p p p e e e e p d J e.",
"e.d.k.E.>.:.O.O.+.[ ) [ I ` ( g.{.[.[.T.j.f.f.u.u.BXCX;XD.B.D.v.9.w.n.w.v.0.8.0.y.0.w.s.n.n.s.n.w.0.9.8.q.0.9. .n.J.F.,X,X!.XX,X|.).XX,X7X8X,X>.$.,.$.1.-. .{ } ^ Z Z d 8 e s f S g L L L g f L s.V.~.G.(.@X~.~.~.E.u.Y.M.i.a.*. .} ' ` ` ! U U U F F F b C j.].`.'.`.}.}.%X}.$X$X&XaX0X6X6X4X>X=X6X6X4X6X6X0Xy 4 2 2 4 2 e H { } { [ } #.#.e.z.z..X.XI.S.s.s.b.z.S.K.G.XXXXD u y i D >.6.5.4.,.4.P.4.6.4._.T.4.,.6._.4.4.5.,.5.4.`.$X%X6.6.6.=X|.}.$X6X,X>X7X7XyX.X.X#X#XyXMXnX6.) _ G G M n w p ~ A A f d p p a a p p e d Z [ ",
"&.#.d.I.:.:.O.o.o.) ) I ) [ ( ) |.[.[./.g.g.=.=.NXBXNXVXeX,X1X,XB.v.B...] p f b.n.b.w.s.n.n.n.w.n.] 9.w.n.n.w.J.H.J.,X,X1X(.@X<XO.O.O.M.N.M.0 3 3 c $.$.-.*.{ Z d `  .s s s d S H g 8.f f L / | z.z.z.I.~.k.l.z.E.f.%.Z.W.m.p.y.t.9.0.] ` ( ! H P P P T F >.[.}.}.}.].%X}.}.}.$X$X@. X4X4X=X$X6X$X4X>X4X4X8X0X|.> > J #.g.=.i.=.&.{ @.#.#.#.e.z.z.z.S.~.~.p.z.s.n.G.S.XX,X1X1XBX<XZ n 6.4.,.;.,.6.6.4._.6.T.,.$.,.U.U.4.,.,.4.:.5.6.%X%X%X5X5X4X`.4X6X6X0X7X0X9XwXG..X#X#XwXtXmXM x 0 M G A A e 9 p ~ A ~ A f p f p s p i d d Y ",
"Y | e.e.:.O.o.o.o.E I I ) ) ( ( l.[.[.[.>.=.u.g.BXnXNXNXrX1X,X,XXXD.X.v.f ~ f 8.C.n.s.n.J.J.J.y.n.H.XX:X;X#X#XXXXX[ +.=.g.=.#.O.) ) ,.Y.N.& > 5 $ 0 0 $.o.-.' f s 7 1 f / f f L g D S y s d Z Z [ [ #.&.P Y e.&.e.f.&.e.^.V.V.c.p.y.y. .] ` 9.] P Y P U f.P._.}.}.%X}.}.}.}.%X#.@.{ -.=X$X$X$X|.$X$X6X6X0X0X0XfX=.g.Y.Y.l.,.u.,.f.>.=.+.&.W z.I.z.I.z..X~.z.s.V.G.XXXX<X1X1XeXrXnXNXnXO.,.;.[.6.4.4.,.6.6.@.=.$.,.4X6.4.5.;.5.:.5.5.5.6.%X%X%X4X4X4X%X$X$X0X0XsXoXG.XX#XyXyXzX`.M c 0 6 & p ~ i w w M ~ ~ ~ A f l i f p d p d Z ",
"H Y Y e.Q.E E o.I I I U I U U ( [ |. X|.[.i.k.gXNXNXnXNXrXeX1XwXD.m.X.k A ~ f 8.a.S.S.n.G.D.n.q.0.XX;X#X:X<X,X<X+.[ [ +.@.o.@.O.) o.2.M.> > ; = ; 0 3 9 o.P g h 8 8 1 h 8 s 8.Y D D L d d Z Z S K H ( H P #.&.e.e.h.e.Y ^.A.S.S.S.n.b.t. .b.y.y.} [ I %.U.E.}._._._.}.}.%X}.}  .-.-.-.,.$X}.$X$X|.$X$X$X$XfXnXnXzXP.,.j.g.g.g.,.,.>.>.f.f.d.z.x.z.I.I.z.I..X.X.XXXoX#X,X<X8X9XrXnXnXnXhXzX-X>X6.4.4.<.4.<.o.) $.,.5X}.:.5.,.;.;.;.;.R Q 6.5.5.5.6.V _._.'.'.$XfXz.XXXX<XyXiXlXB c t t 0 9 6 % 6 e e w ! ! ! ~ D ~ k l f i d l A ",
"S P | } e.o.E o.I U U I I U J J ( Y.hXrX XW.(.NXnXnXnXBXrX1X,X).XXm./ /  .X./ s.b.S.S.G.^.k.9.] q.XX<X<X+X1X,XY [ Y [ +.@.I F B _ 2.T., 6 , : : = 0 9 , 7 ( s s s e 8 8 8 8 h g s g s s e g s f ! ! F F Z H e.e.a.z.e.P l..X^.^.XXXXS.Z.S.S.n.C.b.| P.P.E.P._.0X&X$X4X4X4Xi.=.-.-.2.1.,.$X}.%X$X}.$X$X&XiXBXmXmXBXP.,.j.l.j.,.,.:.>.>.f.d.f.I.I.z.z.l.I.!..X.X.X@XoX+XoX+X8X9X9XfXkXuXrXqXVXjX`.5.<.5.3.O.) _ ,.<.qX`.`.;.5.Q O.R R V 5.6.6.5.5.z x '.eXeXuXuXuXyXXX<XuXjXlX%Xm c c t 9 9 6 6 6 : # 6 d ! ! ^ ~ ~ f l ~ ! ~ ~ ~ ",
"! K P | e.:.E B B B B U U C F U [ j.rXgX8XQ.!.nXBXnXnXBX8X8X,XXX^.X.X./ X.0./ q.0.S.S.Z.j.h.0.8.q.D.+X<X<X+X[ ( I [ ) [ +.) U G ,./.i G U G G F Z o.) B m D / k / g e g g g g g g g f g g f L ^ / P H J F Z P a.e..XI.E.!.A.XXoXoXXXW.S.XXXXA.S.!.|._.l.P.l._.:.gXaX8X8XN.N.N.N.N.N.v.-.N.}.}.}. XOXiXbXmXbXiXhXnX[.P.P.,.j.,.>.,.,.:.:.:.l.l.z.I.I.I.I.I.~.{.!.!.@XOXOXOX&X7X0X9XmXeX8X8XfXlX4X6.6.B B B B O.;.;.}._.6.4.;.;.R R R R 5.;.5.;.R ;.$X0XrXuXiXgXjXjX#XqXqXlXdX;.c M t t t t 9 6 6 6 % = @ e e a f ~ X.X.X.X./ ~ ~ ",
"! D K | } k.U B B N T F b C v ) >.j.&XrX6X{.W.kXmXkXkXNX8X,XoXXXv.X.X.] 9.v.' ' t.l.i.M.W.G.s.w.w.#X<X<X+XZ.Z.M.Z.Z.Z.W.W.h.G P @.A d d i A A A Z ) _ G Z 8 g / q.k f g g g g / ^ / 8.f L / '  .y.i.y.t.*.} e.z.~.I.I.z.Z.w.A.n.c.t.#.{ ' / ] / :XCXOXT.Q.[.,.:.:.gXdX>XB.R.W.B./.R.B.N.1.}. X2XpXpXmXcXhX3XtXtXmXkXP.,.P.4.>.:.:.<.:.:.&.l.l.I.d.d.l.I.I.I..X.X@X{.OXOX&X&X&X&X&X7X8X>X&XOXrX7X|.@.<.-.<.B <.O.O.`.`.6.,.6.V O.R R R ;.R 5.R R 6.$X5X0XsXaXgXkXkXgXdXgXxXdXb m b y t t t 9 9 9 6 : % = 6 ~ / 0.t...1.X.X.X.X.~ ",
"! ! H Y | #.o.B m m m b u u v Y.=.f.'.9XOXQ.E.jXmXkXjXNX7X+XoXb... .q.9.] ..` n P =.=.>.k.b.s.w.w.XX1X<Xh.m.M.Z.m.M.Z.A.E.{ { g.! A { { { ` d f f ) ( G d 8 g / q.s.L g 7.g q.g q.8.q./ ^ / L 9.p.i.p.p.i.a.p.h.z.k.z.z.k..XZ S.C.u. .r.y.0.8.2XCXVXiXQ.}.`.:.<.$.:.lX)././././. X X).0X$XT.iXiXjXpXcXbXJXpXeXpXpXtXT.,.,.,.4.:.:.:.:.$.d.Y Y Z b s v s C P z.].{. X X|.|.$X$X$X7X_.,X&XOX9X9X6X{./._ <.-.T.T.<.R `.`.6.4.<.R V R V R R ;.R R 5.%XsX0XsXsX5X5XsXkXkXqXlXdX;.c c c y c t t q q q 7 7 6 p ~ v.C.v.v.v.w.....X.X.X.",
"X._ H Y Y e.Y.B b m m b m b C ,XM.,.'.{. XY.E.gXzXjXgXjX>XoXV.b.9.q. .]  . .~ _ 3.q p w e A A ~ f K *.g.h.h.h.m.h.m.A..X-.r.r.H ( H A ] ..' ' / ~ H ( ~ s a f f / n.k g UX/ q.f / q.q./ q.L  .t.t.=.i.h.h.u.h.h.h.l.z.h.d.Z.s.y.h.m.m.y.b.y.pXZXZXVXVX0X_.6.:.$.$.gX|. X X X X XaX&X%X%X%X%XuXjXjXpXjXbXpXyXpXpXpX,XaX4.5.,.:.:.:.;.o.U C C C C C C C C C S S L d.{. X}.}.$X}.*X'.N.*X XOX7X7X{.(.Q.T.<.2.'.T.Y.2.4X[.T.4.<.B m 3 V R O.R V R _.6X5X5X5X5XsXsXsXsXsXlXlX&Xc c c b v c y t r w w Z ~ X.X.X...C.F.F.F.N.1.1.X.X.3.",
"..X.^ K Y 8.u.t V B U b b v b j.7XM.Q.T.Y.M.M. XgXnXjXjXoXV.s.c. .]  . . .! ~ O.3.m c t G ~ ~ ~ ! ! H ^ i.g.h.p.V.W.(.m.u.r.H ' ` ! ! ! ] ] / / /  .' f g g ~ ! ~ S.8.UX8./ q.8.q.g 0.q.q.0.i.v.i.i.r.-.t.a.u.u.a.l.h.h.d.a.CXg V.V.s.b.C.SXZXVXVXZXkX$XT.2.}.<X<X|.>X>X=X4X&X6X].}._.}.}._.P.iXiXjXjXcXpXpXuXpXpX1X<X,.:.,.:.:.$.G u y F F F C F C J S J J L K 8.| a.|.].].].].j.{.].+X&X*X9XW.Q.R.R.B.Y.T.T.Y.,.aX9X4X2.<.B V c & R O.R V ;.%XsX0X0X5X$XsX5XsXsXsXsXdXU b c r c y b y y v S `  .0...X.....D.D.D.B.B.B.1.1.1.X.",
"-.X._ ` | #.e.:.o.) m x r b u b 0X8X6X,.#.g.N.=XuXmXjXlXV.y.y.r... .9.9._ ( ~ _ o.m M _ _ X...X.X.M ~ `  .} y.A.!.^.^.^.N. .t.p.i.t.9.*. .v.9.9.9.-.-.9./ k ~ / / y.q.q.q.| 0.q.0.7.q.q.c.c.v.m.m.h.u.-.*.*.#.i.a.a.a.e.z.Z.~.u 7 p.p.p.VXDXZXZXCXzXnXNXpX>X6X8X6X6X6X0X X_.E.].].%X].}.%X_._.gXjXiXjXuXuXuXpXpX8X3X8X].,.:.$.` d y d J U J U J J P K Y J L Y | r.r.u.m.k.[.'.&X,.].!.].{.4X=Xj.M.j.g.Y.|.4.,.,.<.4X|.$X}.6.~ c V B R R x B _.dXsX5XsX5X5XsX$XsXsXsXaXfXE v b c c b v C S 8.9.0.v.t.v. . ...v.).D.D.D.D.B.2.1.1.",
"v.1.-.` | | | u.R B c c r r 4 u >X7XtXg.[ { ,.>XuXNXjXjXa.y.a.9. . . .! X._ ( ! <.! _ ......v.w.' ( ..' ' r.p.m.b.A.^.Z.] v.p.b.c.v.t.v.t.9.0.9.0.M.j.9.q.0.q.X.' b.0.s.0.| s.0.s.q.8.8.b.b.m.m.V.C.c.i.u.*.#.{ &.e.Z.z.z.u.Y / 7 1 9.yXDXAXZXZXHXA = - y 8 7X9X9X0X[.P.P.I.].].}.%X%X_._._._.P.hXjXjXuXiXuXuXiX8X,XeX9X,.+.H J S Z Z I I U J J Y Y Y K Y Y | 8.u.i.m.M.Y.Y.'.N.Y.&X X'._.|.}.,.,.,.,.T.|.Q.,.<.$.|.|. X'.<.<.T.2.c N V B $X=XdXdXdXsX5X5XsXsX0XsXsXsX4.> x c v n L S K ] 8.t.y.v.c.c.-.1.1.1.).;X-X-XB.B.B.1.B.",
"2.1.1...K K Y 8.o.B 0 4 r 4 4 u [.OX8X8X=.@.@. X8XhXqX9Xt.8.r.t.t. .! ( X.{ X.( *._ O.<.@.>.$.-.-.{ v.n  .p.p.m.V.m.V. .0.m.c.C.C.v.v.c.v.y.9.0.9.N.=.q.q.q.0.v.0.H.P 8.s.9.] s.n.q.q.q.n.C.b.C.m.A.C.i.=.*.*.H F H J [ e.U T u.1 1 1 1 1 1 - : - * * w d w i  XR.j.g.f.j.E.%X].].].%X_._._._.U.uXuXtXrXuXuXrXeXiXuX,.,.P.( ( ( [ I o.I U I I Y Y Y Y &.8.&.8.e.a.k.Y.Q.R.T.T.B !. X{.T.Y.[.`.$.=.>.,.`.[./.Y.<.<.|. X[.,.O._ M -.T.2.c $X=X>XsXdXdXsXsXsXsX0X0XaXaXsXb 2 2 c S ] y.C.Z.p.a.y.p.c.m.m.m.v.1.-.D.;X-X-X-X-XB.B.-X",
"B.N.v.1.^ P | } Y.x x 0 9 4 4 4 ,.[.8X8X0X{ [ g.8XgXqX8X8.9.*. . .~ ' ! -.@. .{ A ) ,.,.<.,.,.,.1.v.N. .] y.c.A.C.V.p.c.c.b.V.A.C.m.c.b.c.v.v.0.u.,.] 0.0.0.w.n.n.XXS.r.[ J } | s.0.w.q.C.F.C.A.A.A.V.g. .` ( P ! ` P U n Z Z T e 1 h 1 1 - - - * * * C ..C.).-XaXM.g.g.l.I._.}.%X}.}._._._.U.U.j.fX9XfXrXgXnX8XN.,.,.4.T.@.{ +.[ @.o.o.+.I W I I W 7.&.e.e.e.f.h.Q.Q.Q.'.'.:.3.'._.E.@X4.'.T.:.O.O.,.T._.T.6.O.O.[.`.`.<.3.m M 0 ,.N.}.>X|.4XdXdXdXdXsXsXsXsXaX*XaXlX2 , 1 q 4 y.c.b.C.S.^.!.z.V.V.D.B.N.v.N.1.;X<X-X-X-X-X-XB.",
"B.B.B.1.X.~ ' } u.0 r 4 9 2 2 4 q /.8X6X=X X{ g. X=X0X8X} 9.r.r.-.( ! ( *.-.-.! ! -.,.,.:.,.P.W.R.D.D.*. . .v.V.V.c.c.c.c.c.n.C.b.c.v.c.c.c.t.0.=.=.0.w.w.y.n.n.V.H.J.H.H.0.| [ ( } 0.0.G.S.A.A.B.Z.V.c.r.{ ' ` ` ` P Z n n v y .X8 1 - - - = * * * H <XcX3X;X-Xm.).Q.m.h.T.Q.Q.T._._._._.U.6.U.4.0X9XfXfX9XT.,.4.,.,.,.;.<.%.$.$.$.O.+.O.E E W W 7.W 7.e.d.h.k.M.E.Q.'.'.Q.3.B _.E.].].Q.'.T.,.;.<.T.Y.T.T.4.<.O._.R.6.<.O.V x 0 ;. X=XOX6X8X4X_.lXlXsXaXaXaXaXlX*Xx 2 u 4 u u u g z.S.A.^.oXoX@XoX^.A.m.N.N.N.R.3XuXqX=X-X-X-X",
"-XB.B.B.1./ ` } r.:.x 9 2 2 1 4 1 T.&X=X|./. X/. X6X[.t.] s.n.N.=.! ! A !  .*.( ( =.R.Y.M.R.(.(.[./.Q.v.0.t.c.b.c.b.c.c.v.b.c.V.m.c.t.i.t. .w.#.{ X.0.w.w.n.S.J.J.H.H.H.#X#Xy.r.*.{ e.0.D.D.D.^.A.m.h.h.i.r.*.} { G F A m n C v C n.q.8 1 = * * / y.xXCXjX3X;X).B.t...=X!.Y._.T.T._.U._.4.4.;.;.;.M.&X&XT.2.6.6.6.,.,.,.<.`.>.=.#.;.O.O.O.W ;.W W W d.d.d.h.k.k.Y.Y.'.'.'.T.o.3.T.P.!.'.'.'._.<.;.<.6.6.T.6.6.O.O._.R.6.;.O.B ;.:. X|. X6X=X4X8XU._._.dXlXfXaX9X&X5.1 4 1 u s u g s C 8.W.W.^.!.@XOX+X*X<X,X<X=X/.uXqX8X<X-X-X-X",
"B.B.R.B.N.` | | e.j.x 0 0 2 9 : , Y. X X[.[.[.=X=X8X8.0.q.0.n.v.1.-.A A ~ ' / ( ..m.<XN.Q.{.(.{.{.{./.*.v.c.v.b.c.c.m.c.v.b.c.c.c.t.*.-..... .) { q.w.w.b.n.F.D.H.H.H.H.#Xn.f f g g L a./ S f L D ^ I P J U U T F F F Z Z m v v y @X] / D = g y./.).xXcXpX3X=X).B.v. .' t.<XOXQ._.T.6.4.4.5.:.;.4.U.'.6.Y.T.6.6.,.,.,.<.<.$.:.>.:.:.O.;.W E W W W d.7.P.h.l.k.Y.P.'._.'.'.<.o._ ].].'.'.Q.'.Q.6.<.6.6.T.T.,.T.4.O.R._.4.;.6.6._.& |.>X=X=X6X4X6X4X_.].}.$XlX0X}.'.3 4 4 u u s s d Z S S D y.!.(.!.@X@X+X,X7X>X>X-X=X8X,X3X<X<X-X",
"-X-X-XB.B.1.` } r.f.O.t r 2 ; = : Y. X X[./.[.=X Xi.9.9.q.J.0.^ -.v.@.A ! ! ' ' *.v.v.T.[.OXoXOX XoX8X).n.b.c.b.c.c.V.C.b.c.b.c.c.t. .9.y.0.) ) 8.y.s.n.b.S.G.H.H.XXG.#Xg g g g 8 s g d q.g d d Z d A I N T T W I q F m v C v v b C 8.D D XX>X^.A.jXCXcXpX<X<X-XA.B. ...0.a.t.R.0X$X0XdXm.p.h.r.4X$X:.6.6.T.T.6.6.,.,.<.:.@.4.,.;.&.;.;.;.E W W W W e.d.l.k.k.E.Q.T.T.'./.O.o.O.~.~.'.!.Q.Q.Q.Y.T.6.R.6.6.4.T.6.,._.`.`.`.`._.& 0 >X6X6X6X4X4X4X4XP.%X$X].;.$X$XP.4 1 u 4 s C s S D S L ! ! ' V.!.{.@X+X+X+X,X<XR.B.8X3X8X<X<X-X",
"-X-X-XR.B.2._ { #.u.l.0 2 5 - 5 m T. X[.[./.[.|.@...' ^ 8.q.0.i n Z A A A D ! ' ..} ] C.2XpXpXpX2X;XH.C.C.v.0.v.r.t.y.y.c.t.{  .}  . .y.y.v.P ( 0.y.b.n.S.D.S.G.XXG.S.f s g g e g g L S g / g g d y u b v v P Y [ e.C F v C b C C u k.S ).8X7X(.W.jXjXgXqX>X<X-X).B.v...t.r.a.y.8.{.0XdXaXi.] D P -.R.4.T._.T.T.6.4.,.,.=.<.j.,.;.&.E W Q W Q W W :.7.U.d.I.P.U.T._.T.U.,.<.) '.].]. X].].{.'._. X[.6.<.6.,.T.6.6.|.=X}.=X}.0 & =X6X7X>X4X4X4X4X4X4X%X$X4.,.<.}.4 2 1 s s s S S L ^ K ^ ' ' ' _ } W.@X@X+XoXoX X^.R.<X3X3X3X>X<X",
"=X-X-X-XB.B.@.[ #.%.f.>.; * = = ,.N.[.[./.R.Q.R.' } ' L q.q.q.' i n n q i H ! *. . ...9.qXpX:X:X:X;XqX<X).S.b.c.9.t.t.t.t.9.t.9.9.t.y.y.t.9.D  .y.b.n.b.D.A.XX^.S.G.V. .f g g / 8.f g g s g ] h q 2 u b r J P K Y Y q m v v v u r b r NX8X<X X).uXkXgXuXqX3X>X-X).A.B.c.y.y.y.y.9.-.-.v.4X0Xg.K K { v.). X_.T.6.T.2.6.,.,.$.@.;.;.;.;.E W Q W W W 7.5.7.d.l.P.T.T.U.T.I.<.o.) [.].].].].{.].{.'. X/.;.;.,.6.`.=X|.>X>X=X`.V & 9 8X8X0X0XqXqX4X4X4X4X`.'.4.T.4.A 4 u u u s s S L K ] | ] } ......{ _ _ p. XXX(.)./.B.T.eXuXeX8X3X",
"=X=X=X-XR.B.-.[ [ &.%.$.q = = ; ,.N.'././.T.Y.N.` ' L q.8.q.q...{ i t , w e A  .*.....] D.L.F.H.F.uXuX<X).D.D.C.r.t.r.t.t.9.t.9.r.t.r.y.t.` r.b.s.b.b.b.^.D.^.S.^.^.A.c.c.8.8.8.L D f s s 1 - g 1 , q y r J T J T Y Y v v v u b b u F &.zX(.A.lXkXgXuXqX8X,X>X<X-X).B.C.b.p.p.p.N.! ~ i i A ..m.g./. X=X$X}.T.T.T.4.,.,.,.>.=.;.;.W E E E I W W W W 7.5.:.P.P.U.U.U.4.'.$.o.T.U.].].@X}. X@X}. X X_.<.,.6.4X8X0X8X7X=X}.V M c c uX9X0XqX4XqX5X4X4X4X_._ _.6.m 2.g e s s S S L K | } 8.r.*.r.*.*...! ~ f l  .oXoXR.B.R.1XeXeXqX3X",
"qX=X=X-X-XB.-.P [ +.$.) U q < : ,.,./.'.Q.Y.N.,.H I g UXg g q.~ ~ w w 1 q p n Z '  .' X.1.D.H.D.qX<X8X3XXXD.D.S.m.r.t.t.t. .t.*.*.t.t.t.r.r.c.c.n.s.b.C.^.^.^.S.Z.S.V. .*.*.g g g s h * * * * * 1 2 4 c u C C C J Y I C r u b u u b [ &.+.lXgXlXlXkXqXqX8X8X>X=X=X).).A.V.c.b.J i B.N.1.-.../ ' W.4X$X$X6X0X6X6.T.T.T.N.,.,.=.,.O.O.E E E E Q W Q W :.7.d.f.P.P.P.P.P.>.<.o.T.U.].OX].@XOX].*X|.=X`.6.4X8X9X8XqX9X9X5X3.3.M x cXuXqXdXaXqXqXqX5XqX X,.,.3.t 2.;.E s d S S L K 8.8.#.9.r.i.i.i...X.X.! ~ ~ i p  .)./.R./.pXuXqXqX",
"qXqX-X=X-X2.<.3.3.3.o.G G U n 1 ,.N.Q.Q.T.T.j.,.! ! f 7.L 8./ ~ ~ t t 7 q y A A G G ( '  .C.XXqXqX<X8X).^.^.D.D.H.c.r.t.t.] i.i.c.m.t.y.s.v.s.y.b.b.n.).^.^.Z.A.Z.S.M.*.*.*.*.s g = * * * * * - - d 1 y r C C S C Y Y C r r C u u U e.W e..XnXfXaXaX9X9X8X6X>X>X>X X).).C.S u q 4 7 B.N.v.i.] } #. .0X_.$XaX0X9X4.T.6.j.j.,.,.g.E W E E I E I E I W W e.d.P.4.P.P.P.j.,.<.) U.U.I.~.].*X@X].&XOX6X0X0XqX9XqX9XqXaXqX) _ B M M jXjXqXgXgXqXqXdX5XsXT.,.o.) B ;.;.,.^ S D L L | 8.e.a.a.a.m.0.9.9...X.X.! ~ l l p p 3.).R.>XpXuXqX",
"qX=X=X=XR.2.1.<.! <.G B B m F G ,.,.Q._.T.N.N.2.G d g g g L L H M t q w w n G ) +.+.@.@.( / ;X).)./.).m.t.t.t.v.c.t.t.u.i. .c.c.m.c.J.S.n.n.b.y.y.F.v.).R.A.Z.Z.m.h.u.} { { ( d - * * + j * * j * 1 y 2 x T T T T J T C b C T W r W e..X#X@X@X*XAXsXfX8X8X8X>X>X>X=X-X_ y : , 1 q r y N.R.B.#.*.' ] v.8XaX[.aXfX0X,.Y.P.Y.,.2.j.;.O.O.E E I W I W W &.&.:.l.l.4.4.4.Y.-.<.P.[.[.].@X].].].*XrXOX>X>X[.|.4X}.0X6X|.6.O._ _ B dXpXmXkXlXlXxXdXdXdX|.@.A _ B M M x 5.o.K ^ ` ] 9.u.a.a.p.s.9.9.0.0.v. .....X.~ ~ ~ p ~ i X.R.uXqX8X",
"qX=X=X-X-X2.1.X.G U M v m n n f.j.j.Y.T.T.Y.,.=.H g g g g L t.G M w w q t P I ) ) o.) ) ) ! ..).)./.(.N.i.*.C.n.S.D.c.c.c.m.v.C.S.F.H.#X#X:Xv.n.s.n.A.W.W.A.m.M.i.u.*.H ! s 7 : : + + +   * + * * - : e b C C T J T Y C r C e.W C .X#X*X*X@X*X@X@X*XVXlX0X6X6X6X>Xv._ i e 6 1 1 8 u v v A  Xt.u.} ' -.<X-X<XdXgX=XqX9XT.T.,.j.,.,.E o.E I I I I W W &.:.:.l.f.4.P.:.N.:.$.'.U.P.I.U.I.].*XhX+X*X6XOX|.[.Q._. X[.[.N.<.) _ ,.eXuXiXCXkXjXlXxXqX4Xv B M m M m V M c x &.| } 9.r.u.y.9.a.0.y.y.v.v.v.v.v.1.X.X.3.~ ~ ~ M f A v.eXqX",
"qX5X=X=XR.2.1.-.~ m m M n n r.*.u.>.g.M.M.2.,.,.S g g L f y.y.G M e t t ( G ( ( P G H A F ! ! -.v.R. XN.*.F.D.2X;XD.v.m.C.D.L.;XXXL.J.n.n.n.y.y.s.y.XX^.B.m.m.m.i.r.[ e : + * + 7 - * * * o * * * 1 8 7 y s T T J I Y C C &.&.d.d..X@X@X@X*X@X*X*X].].lXVXfX8X&X-._ ~ n n w q 7 u u y n u n J J U D ' jXlX<XjXuX-XdXaXaXY.P.P.Y.P.N +.W E W W +.&.W %.%.:.,.l.P.P.I.,.,.>.,.,.2.W 7.d.P.I.@X*X*X&X6X6X0X0X4X9X9X0X=X@._ _ <XuXuXjXkXzXzXlX X) A n m M M M M M M t M > & E r.p.a.a.8.0.s.s.b.b.n.n.v.v.w.1.1.X.X.3.~ ~ M A D ~ 1.",
"3.3.-X-X2.2.1...H G c M c c 9.D.*.i.p.g.m.V.g.=.H D Y / 8.z.~.P ( i y n ! ! ( G A Z A A A ~ ~ ' -.*.v.N.S.H.3X2X2XL.*.*.b.C.C.v.v.c.n.0.8.] H b.b.n.<X^.A.m.m.@.) G Z = ; * + t 7 1 q @ + * * * * h w w r r C F I &.Y T W | e.l.+X+X+X@X@X@X*X@X].].].*XlXaXnX'.1.{ _ ~ M i q q u u r u y C Z U S P | ! lXkXeXkX4XD.qXsXsXY.4.Y.,.,.o.E W W +.W &.+.%.%.f.>.l.,.:.Y.j.f.P.:.$.4.U.d.$X*XaXhXhXfXgXhXhXaXdXaXkXgXdXqX6.g.,X3XuXjXjXzXlX@.O.~ ~ M m n M M M M M t t t 0 # $ $ R e.9.a.x.b.b.S.n.S.D.D.B.F.v.1...X...X.~ ! H H ! ~ ",
"3.3.^ _ <.2.N...H ! c i t i ~ /.W.v.c.m.C.C.C.X.^ ] / / | a.z.~.! n n ~ ! ! H A Z A A H D ! ~ ! -...,...9.3X2XbXcXpX2Xt.0.C.C.v.b.v.v.y.w.8.| L y.<X>X^.A.=.{ ( G Z n 1 = * F c q , q , , 1 1 2 1 Z J G v u u U W W U e.e.&.8..X@XAXAX!.].@X].@X*X}.].].fXfX0X&X9X(.0X_ ! A e w q u u q u C F F S K P [ ` nXkXlXdXdX).;XqX$X4.P.P.4.U &.+.+.&.W &.e.u.f.f.l.j.j.:.P.j.g.f.+.,.P.P.P.j.$XfXkXfXmXhXjXjXjXqXqXlXgXjXgXN.<X<XpXiXNXzX<._ v c M ~ m Z Z Z A p M p p p p l # o & z V W V.s.n.n.G.H.XXH.D.D.D.B.N.1.1.1.X._ ~ ! H ^ ( ",
"X.3.~ { ..( _ ! H ( n t y t t R.W.Z.Z.V.S.!.D.C./ q.q.X.| } u.z./.{ #.j.Y.=.-.` ` ! {  . .i.i.u./.oX3X2XF.XX1XcXuXgXcXXXS.-X;X;X;Xv.v.y.y.b./ | ] ^  .t.{ ( G G G n w 1 5 n M m w q 9 6 q 4 4 0 u T F T G F G ( | Y I e.e.e.W .XVXVXAX.X].].].].].].].I.*X*X$X0X0X7X6X>X0X( y e u y u u y y C d Z J I ` [  .dXdXlXaXdX>XXXoX>XP.P.4.R W +.&.&.d.e.e.d.d.l.j.j.j.Y.Y.k.j.rXaXj.P.Y.Y.I.'.$X*X*X*XyXjXjXkXlXqXxXgXqXgX0X;X1XjX9X,.B c c r m m n Z Z S A n M i p l a l a 0 $ z z N N T I P..XH.XXXX;X;X-X).B.B.B.B.1....._ ` / ` ' ",
"X.3.X._ { *.=.$.Z P H i i p y y.W.Z.V.Z.S.^.S.c.b.0.0.1.0.q.w.z.W.#.M.N.2.>.*.' ` ' } ..c.@...{ #.H.oXZX,XH.;X;X;XpXjX3Xn.c.b.n.v.n.b.v.y.s.0./ 8./ ] H A Z G A y t w ; t A M m y c c t 0 0 x 4 b b T m U U P ( I } Y 7.J W k.mXNXBXAX*XI..X'.].E._.U.P.P.].&XsX&X0X6X|.oX X XR.y s q e s v v s C F H P ) ) [ kX&X&X&X4X$XT.P.;XzXP.5.W %.&.&.&.e.d.f.l.k.k.M.>.E.Y.fXmXNXNXNXOXT.T.~.].*XMXmXhXmXnXkXkXjXlXjXgXdXgXpXVXQ.>.B B m c v c b B x Z S S A A ~ ~ ~ l l l l l $ z x b b N T T W :.oX,X3X<X;X;X-XD.B.B.2.1.-.' ` ' ` { ",
".._ [ [ #.%.f.o.) o.F i p p i ! N.m.h.V.Z.^.S.y.v.0.0.v.w.q.w.n.G.z.M.k.E.Z.V.{ ' '  . .h.Y.t.*.v.3XDXCXzX(.;X;X;XXX;X,X;XD.v.C.C.v.c.c.y.y.t.S.S.] 8.] ..Z e e t i t : , , , M t M M c x 4 2 2 c r c y H ( ( P P P ` | J P mXnXBXBXBXnX].I.Y.I.I.U.U.7.Y ].&X$X&X&X*X|. X X X{./.0XZ y u n s u d F J P I ` ( I *.aXsX$X}.6X<X<X<XoXNXQ &.&.e.d.d.d.d.k.z.I.E..XrXnXNXBXNXNXBXNX9XQ.E.@X{.wXmXmXmXmXkXlXlXlXNX,XaXBX4X<.B 3.B m v c v y c V % x 3.D L ~ ~ / ~ k ~ l l _ t 0 x 3 0 x b N N R Q Q I.yX3X<X-X-X-XR.B.2.1...3.{ { { ",
"} { [ [ } %.$.) ) ) U M m t d p m.g.u.z.Z.Z.v.t.0.0.w.v.n.w.s.K.H.^.!.XXG.V.S.S...] 9.9.y.A.S.H.XX|.DXCXzXjX<X<X<X<X;X<X).D.v.m.C.C.c.c.c.0.! 8.0.L 8.d 4 q e y y c q , 6 6 , 2 : M c c 0 9 2 9 r r r A ! ~ ! ~ G G F e.C .XNXnXBXnXnXlXkXk.k.j.P.I.W C T 5.&X*X&X&X*X$X*X|.OX X{.Q.W.}.i.d u e y Z F J H P U ` I 3XxXjXuXqXqX,X,X<X<X,Xs.@Xk.d.l.l.z.z.~.+X.XnXBXBXBXNXBXNXNXBXNXhX~.{.@X].tXnXMXkXnXkXkXNXNX6X/.@.2.@.) _ B M n n y v c x $ # M ~ L / / / X.~ 3.l ~ X.~ & 0 3 3 0 z z z N N T T Q :.wX3X<X;X).B.B.1.1...X.{ { ",
"#.{ [ [ +.%.@.o.) _ U ( d d d Z &.m.p.h.c.m.V.A.A.D.G.XXH.w.w.H.:XXXXX#X:X#X#XG.S. .t.v.D.XXcXNX^.Q.ZXCXCXcXVXNX<XoXoXXXoXF.C.' X.' ' / ^ D A t.9.K s , , e y y y M , , 9 9 2 2 2 , M M 2 q q c y y d d ^ ^ / _ ! M M F l.+XlXlXnXmXmXfXfXsXk.l.l.f.Y C T T *X$X$X*X$X*X*X]. X@X{.{.(.Q.Q.Y.sXZ s v F F J ( ( P K } zXzXcXgXuXeXeX8X,X,X#Xy.s.p.G..XS.p.| ` z.BXNXBXBXBXBXBXBXNXNXXX/ tXOX!.OXMXmXNX9X^.NX8XT.,.$.<.$.$.{ ) _ M A n n i c % $ % > L / 8.X./ / X.3.X.X.X._ 6 3 & 9 & 3 0 z x x N z N T T W &X3X<X-XB.2.1.*.{ { #.",
"#.%.[ | +.#.) ) ) U ( U y Z Z Z H [ } { [  ./ / ^ / / / 9./ 8.s.| G.XXoX:X1X#XvX2X1XS.).;XqXCX8X>XY.qXVXzXcXVXAXxXXXoXoXXX(.C.C...' ^ ^ ! ! S 9.t.1 , , , y y c v w 9 q 0 2 9 2 2 2 M m q 0 t t t w d X.b.n.C.F.B.v._ ] L &X*XfX*XlXfXsX*XsX].d.f.W 4 z b W U.].$X].].$X}.*X}.$X}.[.{.{./././.R.%Xy.Z H J H K H K K xXzXxXlXuXuX8X8X8X,X7Xy.y.y.p.a.u.9.| } SXnXnXBXBXBXnXBXBXBXmXq.x.s.V.S.V.A.XX8XlX6X,.,.T.2.>.-.O.=.@._ _ ~ ~ A M Z M a # # # f L 8.q.X.X.X.X.X.X.....X.> > > > % % 3 3 3 3 z z z T b T T P.=X-XB.2.-.{ @.} ",
"e.u.[ [ { %.) ) ) P _ U G A S A A ( ' }  .! / ~ ~ ~ ~ / / ] w.8.XX1XwXyXMXMXMXBXSXBXAXjX8XjXqX3X=X-X).BXBXxXVXFXAXxXoX(.(.(.(.(.W.N.' ^ ^ ! D r.q , 1 , 1 1 y v n , q 0 0 0 0 0 r t c m q t t r q w ] H.n.S.F.D.B.B.N.9.V.S.oX&X&X*XrX&X*X$X].U.%.C 2 4 4 W ;.].].].].].].].].].}.]. X].[.{.[./.'._.6.|./ S ^ ^ K } p.zXxXlXdXuX9XrX8X0X,XXXp.s.p.h.a.9.8.z.BXBXmXSXBXBXBXBXBXBX+X0.s.b.S.W.+XmXlX XY.N.,.,.=.N.-.>.{ @.-. .{ _ ( ~ ~ M v i # # @ 6 q.q.0.0.t.v.b.8.8.0.9. .= : % < < 6 6 > 6 h 4 1 4 q y C F J I %./.2.1...@.@.",
"#.#.e.' #.o.) ) ) ) G ) ( F A H H *.k.} ..~ X./ / / / X.0.q.w.yX2XMXtXMXmXmXnXBXnXnXBXnXBXiX,X7X<XD.iXqXNXjXNXDXVXAX3XW.m.H H c h.i...A d d d q 2 4 , , , 1 n n t , 2 r r 0 y n Z Z m B 0 t 0 q e 9.;X;XF.D.D.D.R.B.B.0.C.A.Z.XX@X}.].].].*X_.].>.< , 1 F E E P.U.U.].U.].].].].].].]. X{.{.[.{.[.Q.R.T.6.P.A.` / } } zXzXzXlXgXuX9X8X8X7XOXs.s.s.a.a.e.e.vXnXBXBXmXmXBXnXBXBXnXa.s.G.XXwXMXwX{.'.Q.W.M.M.g. X,.-.*.@._ u.-.*..._ _ ~ F A f l # % # / 0.b.v.C.C.0.0.0.8.0.y.~ : : : 6 % > : = h 1 1 8 8 8 i d F P ) @.%.'.@.@. .",
"[ &.u.[ { [ _ ) ) ( ( ( _ G H H ( N.M.M.@.~ ~ ~ ~ k k ~ f / G.XX#X+XwXtXmXmXmXBXnXBXSXBXgXuXqX0X XY.=X X<X=X0X,X3X,X6XY.H H ! F F n Z Z Z i q q 7 1 2 1 1 1 y n , 7 t n v G M F Z n b x t t w a ..L.;X;XD.D.).R.).R.R.t.p.m.h.m..X*X].P.].$X].%X'.1 , 1 T U U E I.U.U.I.].U.U.].].].].$X X].}.{.[.[.`.T.6.6.,.;._.u.#.V.xXlXxXdXaX9X8X0X0XOXs.z.s.h.a.u.z.mXBXBXmXBXBXmXmXBXBXwXs..XaXyX!.!.].].'.Q.Q.Y.M.M. X=.-.N.( N.-.i.-.-.-._ _ H L ^ ~ = = # l F.n.S.D.J.x.w.s.w.n.n.v.6 = 6 6 = 6 6 h h h h g 8 a g d k S ! ( [ @.:.,._ ",
"$._ [ r.@.) { ) ) ( ( I ( ( ! H *.M.N.i.u./ ^ ^ ^ ^ ~ ~ / XXXX1XyXtXrXtXMXmXmXmXnXnXBXVXNXuXqX>X,X).qX/.6X8XgXmXjXgXV.` ! H ~ H A t ' D Z e w q q 7 1 1 1 1 8 n n U U G U G G Z n i r p } ! ! 0.XXXX;X;XH.D.-X).-X).R.c.A.h.p.h.h.E.].P.d.P.f.d.:.5 , , v F T N d.d.P.P.P.I.U.U.I.U.].@X].}.}.].[.[.`.'.T.T.4.,.B b k.T.xXzXjXdXqX9X7X6X6X>X1Xs.z.p.u.i.#XmXmXmXmXmXmXmXBXnXmX.XrX Xd.I.~.].!.].{.Q.Q.W.Y./.|.m.N.N.i.' r.N.m.1.-.-.X./ / ] X.a % 6 # w.G.XXXXn.s.s.s.n.n.F.F.l 6 6 6 8 6 h h h g g g g k k k ~ / ~ X._ { { =.:.",
"o.o.) 0 m _ { { ) ( ) ( _ { H _ m.M.M.' h.' ' / ' ^ ^ / XX1XeXwXyXrXtXtXMXlXmXmXmXnXnXBXAXmX9X>X).).jXuX<XiXgX<X| [ ` ^ H H H L H Z t A w y w w 7 1 1 1 7 8 G U U G J G G A n n d i d } ] ] *.2XXX;X;X;X^.).-X X).`.R.m.V.m.i.i.a.i.M.f.f.l.%.$.&.7 , c v v m T Q P.W P.P.l.5.P.P.P.].].].].].%X].%X]._._.T.4.<.B B V x 5.$XlXdXaX9X0X>X>X$X Xz.s.h.h.h.mXnXmXmXmXmXmXmXmXMXl.[.l.f.f.l.~.!.].].!.!.!.Q.{.(.OXN.m.N.N.m.) *.N.N.N.=.K q.0.0.w...6 6 6 3..XXX#Xs.s.K.K.J.J.H.H.;X8 8 w 8 8 g g g g g k UXk UXk k X.X.k X.X.X.1.3.",
"3.3.B , 6 > 4 ( { ' ' _ ` { ( *.M.m.M.} Z.^ X.' ] X.] +X+X,XtX7XwXwXtXyXhXMXmXmXmXmXBXBXBXBXmX>X)./.jXuX<XNXBX,Xa.Y P K H H Z ! S Z C r w y q w w 9 9 v m Z D v Z Z Z Z G A A d d i p ' *.V.p.c.2X;X<X=XH.^.).).`.R.N.B.m.m.h.u.r.u.=.%.%.%.o.W E t 1 v v b C b T W 5.W :.:.&.:.P.U.I.U.].].].].]._.'._._.T.6.R N V x x N 3 & <.aX8X>X4X6X>X|.z.s.h.a.z.nXmXmXmXnXnXBX.Xz.I.Y.P.j.l.l.l.'.!.!.!.{.{.!.(.~.XXOXA.m.B.C.B.N./ W.B.N.i.8.0.0.v.v.v.a 6 6 6 H.#XG.s.K.n.J.J.H.:X2X3Xi p a s g g g UXUXUXUXUXq.w.w.w.w.w.1.X.X.X.X.3.",
"3.3.0 % % < > 6 , P ` [ { {  .g.m.M.h.A.W.| ' ' ] 9..XOX@X+X+X+X+X7X+XyX*XtXtXtXfXtXMXmXjXhXhX=XW.M.6X>X).8X+X+X@X*X!.K H Z Z A S S d u y y e w w G m D D f d y f A Z n A A A Z d f p e /  .` ] ] ] f f e d d d ~ p p i Z A J o.:.d.,.&.u.&.U U U v 7 v v b v v b I W W +.E W 5.P.U.U.U.].].].].].].U._._._.4.B N N V z 3 x 3 3 & N $X&X|.|.&X.Xz.z.d.@XmXmXmXmX*X~.h.~..Xu.E.P.Y.k.M.l.z.~.!.!.!.@X.X.X@X~..X^.1.A.C.N.m.-.*.A.B.-.x.s.n.C.D.B.3.a t 9 -.XXz.J.J.G.G.#X1X2XpXcXR.d d f f f q.k UXUXq.w.0.w.w.n.w.w.1.X.1.X.X.3.",
"~ M % % % 6 < : : , 7 u ' ' m.N.N.N.u.W.E.s... .9.!.oX.X@X#X+XXX#X#X#X+X+X#X1X,X1XwX,XwXeX8X8X XN.2. X2.c.M..XXX@X@X@X@X@Xm.K n H S d d f G ) G H D D D D L u e e i A A A A d f d d f d d f w } }  .t.~ f p i d p p t.=.*.*.@.P +.O.&.+.=.#.F J J v r r r v r u b T E W E W P.l.7.U.P.P.U.U.U.U.U.]._.U.T.4.;.N V V x 3 x R x x V x z 3 Q $X4X'.~.z.Z.tXfX*XI.P.z.S.z.z.I.e.E.'.Y.P.k.m.k.!.!.!.@X.X@XXXXX&X,XoXD.D.D.B.C.t.v.i.m.y.s.S.G.XXD.).1.l p p p G.S.G.H.#X#XIXvXbXCXcXcXA D f k L g q.q.q.w.w.n.S.F.F.F.F.F.F.1.1.1.X.",
"3.p % = = 6 6 6 1 6 6 8 q e y Y #.e.} Z.I.~.e.8.~.!.@X{.@X+X,X,X+X+X+X+X+XwX,X,X8XrXeXrXrXrX7X[.N.N.N.N.=.=.h.!.!..X!.].!.!.!.!.@.) ) ) H ! ! ! S D f f L f e e e A n ~ A A A d A f A f A f A A ' r.Z. XC.R.N.B.6.-.c.=.i.N.p.i.r.u.h.h.p.u.P P P c c b u b y r r v U E &.:.:.d.:.P.d.P.U.U.P.U.U.U.U.U.U.5.T N N V x 3 3 Q T N V V V V b V x 3 l.~.!.l.d.h.z.V.Z.S.~..X.Xd.'.].Y.Z.I.k.M.~.!.@X.X.X@XXX+XwXwX#XB.).^.D.B.v.-.B.i.$.t.G.F.-X3X>X-X3.3.l 3.L.A.XX.X#X#X*XMXMXmXNXxX..! ^ ^ / ] 8.q.n.s.S.S.D.^.D.D.D.D.D.F.1.1.X.",
"-.a = = = 6 6 6 6 1 7 8 8 e i Z J H 8.E.I.S.8.(.XXXX{.{.@X+X,XwXwX,X1X+XyXyXyXwX7XrXtXtXtXuX9X/.Y.N.M.,.N.2.a.p.a.~.~.~.~.E.E.Q._ ) _ ! H A ! H D D f D g f e 8 8 D A A A A A f A f D A ~ ~ D ~ D A V.R.' i.R.6.g.v.m.B.C.).S.W.i.t.s.p.y.#.( H Z r r y r u b r u b T :.+.+.O.:.:.:.:.:.d.U.P.P.5.P.P.5.5.;.N T b x 4 2 2 B &.;.O.E E U R B E 4 8.9.0.m.z.z.z.z.z.I.G.~..XP.'.E.Y.Z.Z.z.Z.Z.!..X@X@X#X+X@XXX#X+X<X<X<X<X).m.c.A.c.b.) ) 1.1.L.3X=X3.3.3.1.B.^.(..X#XIXvXtXmXnXNXzXxX! ' / ] 9.9.s.y.S.S..XXX(.XXXX-X).R.B.1.1.1.",
"..6 = : = 6 6 6 6 7 8 8 s p i d S D a.!..Xz.#X1X,X1X8X=X,XjXpXmXjXuX+XwXyXyXrXrXrXtXtXtXrXrX9X^.B.[.R.T.N.2.a.e.a.u.u.z.I.I.I.E.( ( ! H D D Z S Z f S g f d 8 q e 8 D A A A A A A S D H H ! ! ! ! ^ / ` ] } { -.H b.N.A.C.).A.B.t.t.y.a.e.} P S y y b u r c r b b Z v &.E +.+.&.W :.:.:.W P.5.W 5.P.5.5.5.N b z z 4 4 1 1 N P.,.4.4.:.O.;.O.;.C q.9.y.h.h.z.M.Z.Z.S.^..X.XQ.~.E.I.z.Z.E.Z.S.!.XXXXoX#X+X#X+X#X,X<X3X<X3X-X).m.R.m.c.b._ 1.w.1.l -X1.l l X.-X2X).#X#X+XMXMXmXnXBXBXCX/ ] ] 9.9.t.p.V.Z.~.(.@X{.oXoX|.-X[.B.B.1.1.",
"3.6 : - 6 6 8 6 8 8 8 8 e i i d g D r.XX@X@Xs.1X1XeX3X>X>XbXjXCXCXjXuX7XwXrXrXrX9XtXtXfXtX9X9XOX=X X/.T.,.M.#.8.u.e.a.u.e.k.I.Y.( ( ! ! D D d i Z d d d d f e q u e _ A M A G F D D H H ! ! ^ ` ^ ` ' ] {  .-.-.' { C.C.C.).^.^.t.9.y.#.` P G y y y r b r r v v v v F U +.E I +.+.&.:.W 5.W :.5.:.:.5.W Q z z z 4 4 4 8 7 T U.T.T.U._.U.U.,.4.4 } *.g.m.V.z.Z.z.~.S..X.X.X~.E.I.E.Z.S.S.S.A.^..X@X#X#X#X+XwX1XyX3XeXqX3X3X;X).).C.V.b.-XX.w.F.X.1.l X.l ~ =X<X-X.X@X#X*XyXmXnXBXNXCX=X}  . .*.i.h.h.E.W.!.{.{.OXoX|. X-XR.B.B.1.",
"M 6 : 6 6 w 8 w 8 8 e s p f G H K ` e.I.].@X#XH.8X,X>X>X>XiXCXjXjXjXuXqXeXqXtXrX1X1X1XeXrX9X8X0X=X X/.T.N.'.} #.8.e.e.r.l.E.I.Q./ ^ ! ! ` ` H D D d s s d d q u u s G G M A Z Z F H H H ` P ` ` ` ] { } *.*.-.o.*.@.[ [ ` I A./.r.9.} ` P J v c n Z t r v v b y v v v T I I I ) E O.O.o.O.O.O.;.;.;.;.E z 4 3 4 4 1 1 u 8 O.'.'.'.'.'.B., * + . 9 2 9 ;.&XoXA.Z.~..X.X.X#XW.Z.S.z.Z.S.G.D.D.^.XXXX#X+X#X+X+XvXMXqXbXpXpX3X3X3X<XS.G.bXjXbXv.1.-X-Xk 1.! ' qXqXqX.X#X@XwXtXMXmXmXnXBXkX .*.*.i.i.g.M.Y.Y.Q.'.{.]. X}.[.Q._.T.N.2.",
"a 9 6 6 7 w w 8 8 e e e d A A L L ^ / @X@X@X@X@X*XXXoX7X|.pXjXjXjXjXgXpX7XwX+X1XyXyXyXtXrXrX9X7X&X X/.B.N.|.| } #.e.z.E.'.T.T.f.! G ! D ^ ! D Z D d d d d d 1 u q y d G G G M A A H H ^ ( ` ` ] ` ] } } *.-.=.' @.{ ( ( P P P !.r. . .{ J c c c v n v c v u r v v m C m U I I I I o.o.o.o.E o.E O.O.E 3 3 > 4 1 1 u h h 8 U.'.[.].G ; + + + + = 0 , 9 2 &X7X>XOXoXW.XX@X#XXXz.z.G.S.G.H.XXXXXXXXoX#X#XXX1X1XyXMXpXmXpXjXpXqX3XpX<XMXbXmX#XtX-XqXdX../ ....qXqXqX@X@X#X*XrXMXmXmXnXnXlXc.-.1.1.u.i.g.k.M.E.E.Q.{.Q.{.Q.Y.Y.T.2.-.",
"w a a 6 w i e q 8 q e Z A Z S J H K ^ !.@X+X+X+X+X+X+XeX<X8XjXjXjXjXjX&X1XyXwXyXwXMXtXuXtXrX9X7X>X X/.R.M.~.} d.I.E.Q.Q.Q.E.Y...A A Z f A S D S d s y e C s e 6 u u y ( M Z n Z Z H J P P ` ` | } } } #.-.-.,.*.-...' P H P J P ( 9.' F y c c t v n Z v v b b v v v F F U U I ) I ) ) I ) E U U U o.2 > 2 < 1 1 1 1 h s u ].Y.9 ; @ * + * + + 9 9 0 2 3 6X,X7XOXOXOX)..X#X#XZ.z.z.G.H.#XXX;X;X;X<X#X1X1X<XyXtXMXpXJXCXcXpXgXqXpX^.wX9XfX+XfX-XdXaX*.9.*.qXxXqXqXMXXX#X+XwXtXmXmXnXkXkXgXv.1.1.1.,.i.g.j.P.Y.Y.T.Q.Y.P.P.N.j.4.! ",
"p w w w w r 1 7 q e u Z Z A S D H K K z.+X+X+X&XwX+XwXyXOXOXeX3XyX+X1X1XwXwXyXwXwXwXfXtXfXrXrX7X7X|.(.W.{.z.I.].'.E.'.E.E.U.Y.G Z Z Z i y Z d Z 8 p e e e 8 y : 4 u u v A n i n Z Z F ! K ` ` { } } *.*.-.-.{ -.@.{ _ P J G H F F F v c c c t n v Z Z c v v r y v v v v F ) U U I I I I B _ U U B > 2 < < 5 5 - 1 1 1 s * b = = = * + * * * X 0 0 2 2 9 &X7X6X,X,X>X>X|. XXXH.S.G.H.H.XX<X:X;X3X<X:X1X1X<X3XMXbXCXmXmXCXcXcXqX).!.+X*XtX@XaX=XqXfXv.9.*.qXcXxXxXgX@X+X+X+X*XfXhXnXlXlXjXS.1.1.1.=.=.i.,.g.l.j.Y.f.,.g.j.,.N.,.M ",
"p 0 < 5 1 1 4 1 8 u i Z ~ A D L K K ^ ] +XwX7XwXyX*XwXtXrX>XtXuX+X1X1XyXwXyXwX9XwXwXrXtXfXtX9X7X>XOX(.^.>X~.!.I.I.'.'.U.I.Y.>.d d i y y e D D C i e e a 8 7 8 : 7 : u u ~ M n n n Z Z J K | ` | } #.r.-.=.-.t.-.-.{ _ ( J F F F Z c n c t v v c v v F m v v v b v v F m v F T U U U U P _ U U 0 9 , < < - - - - 1 - j j - h - = = = = = = = * 9 9 6 2 6 N ,X7X7X7X6X>XOXOX).,X; T XX#X:X1X3X1X1X3X,X1X,XyX2X1XbXmXmXBXCXCXxX#X#X#X&X&XrX@XrX6X9XaXqXt.v.qX-X-XqXqXmX@X+X+X+XyXrXrXfXhXgX=XN.2.1.1.-.=.=.=.g.=.-.=.=.=.>.,.f.{ i ",
"> = : , 1 1 1 8 u u ~ ~ ~ D J D L ! K K +XwXwXwXyXrXtXtXtXtX,XbX2XpXyXwXrXeXwXwXwXwX*XrXwXrXrX8XoXoXW./.'.E.E.I.E.I.I.T.E.P...d i y e e w Z J J S : 8 w 7 7 6 8 7 6 6 , v M n n n Z F J P Y | [ } } *.=.-.I N.-.-...{ ( G Z A Z Z c t v v v v v v c G _ v c c v b C b m T m I G U U _ U U 0 r 9 6 6 : < = - - j j - h j 1 8 1 - : - : h h = 6 6 3 3 6 , , 8X,X8X,X7X7X>X>X|.oXv < : 3 1X2XpXpXqXeX,X1X1X1XXX@X,X<X1X<X<X-X(.G.J.vXvXmXJXvXaX0X9XxXxXR.xXcX3X-X-X-X3XXXoX+X+X*XwXwXyXrXuXqX).2.1.-.-.-.-.@.@.@.@.@.=.-.=.=.=.! 0 ",
"5 - 5 , , 1 q 8 e ! _ ~ ! Z D D H K ^ ^ a.wXwXwXtXtXfXtXhXtXhX#XtXMXbXnXjXrX7XeX7XwXyX9XeX9XOXQ.Q.W.W.OXE.!.I.'.'.I._.E.Y.P.d p e e e w 7 7 C Z Z S : : a 7 6 : : 7 6 : : G n i v n Z F J P | | } #.*.-.,.*.N.g.-..._ _ A Z Z v n r y t n v v c v v m ( t v v v b v C m m F F G G U m r r r q 9 6 6 6 h - a l k h h h h h 8 h 8 6 h a h 7 + 9 6 6 6 : , > P.8X8X8X8X8X7X<XOXoX9X> 6 < , % ;.iXiXpXqX1X1X^.^..X1X<X<X<X=X).A.J.#X1XvXpXcXxXxXqXdXxXqXB.xXxXqX=X-X-XB.GXtX+X+X+X1XwXwXwXeXqXV.N.1.1.-.@.{ { { @.{ @.*.@.*.' _ > = ",
"= : 1 1 1 1 y y F X._ X._ D D L ^ ^ L | | 7XrXrXtXrXtXtXMXhXmXhXtXnXkXNXnXzXkXqXwXwX9X7X$XQ.Q.W.M.M.M.!.E.E.'.I.I.E.I.Y.U.g.e s e e 7 7 7 7 y s Z C < : = = 6 6 : 6 8 : : , F H F n n C J P K ` } e.*.>.<.M.N.N.-.-._ ( G v y t n y n n n c m c v v v G G v v v u b C b m C m U v r r r q u q q 6 6 h k ..X.w.UXUXk h g a g h a a h a h 7 6 6 6 6 6 6 6 , q 7X9X9X8X8X,X8X>XoX=Xt 6 9 , , > % 3 eXpX^.~.S..X@X1XeXyX3X<X).D.MX#XvXMXuX-XxXqX-XxXxXxXxXxXxXqXqX-XR.B.-XiXmXhX,X,X+XyXyXwXrXqXR.2.<.{ ..{ { _ { { { { ^ / { x * = ",
"- , , 7 v y y y _ X.X._ ! D D K L K ^ ` ] wXeXrXrXtXtXhXhXmXrXwXmXjXkXnXnXkXkXkXlX9X&X[./.Q.Y.M.M.g.[.Q.Q.Q.E.Y.P.E.E.E.M._ p e e e 7 8 8 : 6 s y C y ; : = = = : 6 8 6 = ; p n Z F G Z F J P | | e.u.-.u.W.N.N.>.-._ ~ m y t M n n n m M v m c v c v b ) v v v C v v v C v r r r u r u u u u 8 / y.^.S.C.v.w...X.X.q.g g g g a f a f f = h a 6 7 6 6 6 6 6 9X9X*XrX9X&X7X+X,X}.].2 q 9 9 , > yXH.:XH.H.^.^..XyXyX1XyXpX3X#XmX1X+XMXmXB.qX=X2.=XxXxXZXxXxXxXqXqX-X-XD.SXhXhXnXjXyX,XeXeXeX3X/.2.1.-.3.X.' _ { ^ L ^ _ _ <.< = = ",
"5 , G m Z C y G -.-.{ { D S L K / / | / / } rXiXiXiXhXtX8X7XwX0XrXhXkXkXkXlXlXhXfXtXwX+XQ.E.Y.k.l.N. XQ.Y.T.Y.P.E.E.U.P.M.e s e 8 7 7 7 7 6 6 q u u d = = # = = = # 6 6 6 = 9 t v v Z Z J K K | } #.=.>.h.Z.M.N.=.{ _ 3.M t t F Z Z Z F m M n v t y v v _ n v v v v v q 4 1 4 q u 4 u u q s a.~..X.XXX.XA.C.v.w.0.9.g k g f g f g k g f j a 8 a t i p 8 a 8 r &X*X9X9X*X&XOX].OXOXy t 9 9 S./.S.#X#X1XvX2X;XXX1XmXCXNXzX8X>XwX1XvXMXMXR.cX=X-X=XZXxXxXZXxXxXqX=X-X).).-XfXMXhXMXmXjXyX1X8XqX<XR.1.-...3._ H D D ! ! .._ c @ * ; ",
"q I B F v d d @.-.@.@.( ^ ` 9.0.0.y.y.y.s.8.gXiXuXrX7X8X7XwX0X9X9XkXnXlXjXjXfXfXrXwXwX,X<XoXA.h.i.[././.T.Y.T.Y.Y.P.Y.Y.=.i y y i y u t u 1 ; 6 q u e w = = = % = = + # 6 : = r r y v C F J J [ } #.=.( Y.Y.k.,.,.@.) _ m n G C Z G G M G m n n b v c v Z _ v v v 2 4 4 4 1 1 q u 8 4 L s.!.~..X.X@X!.@XXX).D.B.0.0.L g k k q./ k k k a e ] 0.b.S.^.(.).).c.i &X&X*X$X$X%X].]. X].].( -X-X(.D.S.#X:XvXvXbXpX3XNXxXCXmXjX8X,X+X+XyXyXmXR.cXR.R.qXNXzXzXxXxXdXqXqX-X-X).D.SXtXbXhXtXtXuXuXyX1XqXR.1.1.<.l d f S ! ^ ' { O.2 = : 1 ",
"v G F C v s G 2.<.1.v. .9.9.9.t.y.s.s.S.n.G.1XtXrX8X8X0X9X0X0X0X6XkXfXgXfXfXfXrXwX7XwX+X+X+XXX).A.&X[./.R.Q.Y.N.4.Y.,.P.Z A n n t t t w q r u y L q w a # = = @ @ = = # @ # @ 6 u r u C Z Z F J P [ =.&.Y.h.l.g.=.-.O._ _ M ( S H F G G G m m n v y y v v { q 2 , 1 2 4 4 q q 4 s 8.Z.Q.Q.Q.~.~.~..X@X.XXX).D.B.b.UX8.q.q.q.q.q.q.0.k a 8.0.0.c.S.D.).).).R.R.eXkX_.].%X].].].].].*X-X X/.R.W.S.vXMXmXBXBXBXwXdXgXmXBXuX8X,X<XeX+XyXiX=XqX-X-X5XnXkXzXCXxXcXqX4X=X).^.D.<XtXyX2XyXpXiXpXqXqXeX^.-._ A p d D D H ( ) _ o.; : u 4 ",
"_ G m Z i d @.2.B.F.D.t.0.t.9.y.s.b.b.S.s.S..X8XtXhXqX0X9X9X6XT.j.0XlX9X$XgXrXwXwX+X+X#X+XoX(.).OX|.$X|.[.T.T.T.N.,.j.P.M M e i y w q q 7 q 4 q } } ( u q = @ = @ = = # # # # = 4 u u v d C Z A P P @.&.e.f.l.f.,.-.@.O._ @.J P H F ! _ G B M m v n c y 2 2 v , 2 1 1 4 7 1 u L ~.!.Q.Q.Q.E.E.E.I..X{..X@X(.(.^.G.q.q.q.q.w.w.0.f y t L g 8.q.s.V.A.^./.R.M.N.@X+X1XiX_.U.U.U.U.U.s.E.R.B.M.c.z.z.I.I.].*X*X*XaXsXrXfXaX6X>X<X8X>X+XtX-X4XqX=XqXkXkXkXmXlXgXqX=X-X).R.D.S.BXyXyXtXyXpXpXgXqX-XR._ M A Z A D H H ( _ O.o.r r u q ",
"U m n C d { D.H.D.D.v.v.y.r.y.y.y.s.s.b.S.S..XNXfXtXhXmX6X'.j.>.$.0XaXgX X&X[.&X+X+XoX+XoXXXW.E.6X X X}.[.}._.M.,.l.l.f.A n i w 7 7 7 q 7 6 7 1 C { { @.( @ = # @ # = @ # # # # r u b u r C C Z Z Z o.) I I W d.=.=.@.) _ U J J P ` ) G _ M M m c t 9 , 4 < Z , 1 1 4 - L } z.z.I.!.Q.Q.E.E.I.E..X!..X@XoX@X X.Xq.q.q.s.s.n.S Z n y 8 g g / 8.9.c.A.B.M.M.N.i.a.1X1X2XyXmXU.P.d.%.a.s.M.M.h.p.>.I.P.U.I.].$X*XsXfXwXfXaX9X0X|.4X>X<X7XW.qX4X=XaXhXfXlXkXlXgXqXqX=XR.D.D.G.^.yXyXyXbXbXpX=XT.T.N._ ~ ^ ^ ^ ^ / ] 9. .t.M t q 8 y ",
"G Z Z H @.D.;XD.L.).v.v.t.t.y.y.0.y.y.s.S.G..X#XtXfX6X&X[.[.Y.>.=.9X0XgX&X&X|.Q.&X@X@X{.&X$XW.Q.&X}.}.].[._._.Q.T.,.P.G G i p 8 : h 6 7 1 6 , , 1 { { @.{ ) = # = # @ @ @ = + # , u b u r v y v n Z ) I P U Y J U +.+.o.+.J J P I [ { @._ _ M M t 9 2 , , , 2 u < 1 7.e.l.d.z.I.I.T.~.~.T.I.I.E.I.!..X{.oXoX X!.q.K.K.n.L S n v c c h g g ^ / 8.r.*.i.m.N.,.i.-.nXyX2XMXbXbXMXd.N.r.a.i.m.i.*.=.d.:.l.P.U.$X*X0XsX*X7X0X0XqX>XdX0X.XoX).4X=X=X5XfXfXfXyXfXaXqX6X-X).W.A.G..XmXtXpX3X=X`.T.T.N.,.=.' / / / / ] 9.9.9.<.y y t u G ",
"F ) $.B.-XXXL.L.;XD.v.v.y.9.0.0.y.v.b.V.z.G..XG.6X|.{.[.Q.Q.Y.Q.kXVXBXBXNXNXBXBXBXiXrXrX8XgXfX8X@X X[.].'.'.`._.T.T.O.~ A d e e 8 h 7 6 7 6 6 , , F { { { ) u , 6 # # @ # # + + + 4 r u u u y C C E U J J J C S J P P U U Z C K Y [ @.@.@._ B c t q 0 , < , 1 1 K d.l.d.l.z.l.I.I.Q.~.T.E.P.I.z.I.I.~.!.{.{..Xs.s.n.D F Z v v b v 7 g g g k / X. .*.-.-.-.*.-.*.e.1XyXMXbXmXmXmXN.a.e.e.N.u.k.E.*X*X*X].U.7.d.P.9X@XOX$X&X$X=XaX X~.!.8X8X=X-X4XfXfX|.wXyX1X8X=X=X).A.S.G.H.XX3X|.[._._.6.Y.,.f.=.! ] / ] q.] 9.9.t.) y y e i U ",
",.R.R.T.;X;XL.;X;XN.i.8.q.9.0.y.y.v.b.S.S.S.S.XX9X}.'.'.Q.W.Y./.BXmXBXNXVXCXmXnXnXgXuXeX9XfX9XOX{.!.%.'._.'._._.T.4.( ! A A i 8 8 8 7 8 6 6 h = = 6 _ { ) _ P < 4 2 , @ # # # + # , 4 u u r u v v P G J C C C C C S F r U U F P | [ &.@.) 3.B B c r 9 , : g 8.&.d.d.d.d.I.I.I.I.I.I.I.U.k.k.k.z.z.I.E.!.!.].{.s.S S Z v v v y y r g h k k X.X.X.X.w.X.X. .*. .] } 9XyXMXbXmXmXNXN.a.a.x.h.e.f.j.].].P.P.` ` u.2.Y.!.[.|.|.|.'.sX!.~.!.+XXX+X).6XfX=X/.=XwX1X1XuX8X-X^.V.^.oX[.8X|.`.`.T.T.2.,.=.=. .X.] ] ] 9.9.t.2.n y y y ( @.",
").R.R.-X;XL.;X;X/./ 8.0.0.0.0.b.b.b.c.s.s.G..X#X,XE./.Q.Y.Y.M.NXmXmXmXmXxXCXNXkXkXjXuXuX8X9X+XQ.'.~.Q.I.'._._.T._.,.H F G Z n n e 8 8 8 8 8 6 6 6 = u ( ( ) _ , < > 3 , , # # # + o 2 4 4 u u r B J F Z Z s C C C C C b U G B N r E E o.o.I 3.m m r 1 L e.e.d.d.W d.d.d.7.I.d.I.I.I.I.I.j.l.l.f.z.I.E.~.!.@XS Z Z C C v C y y y s g k k UXk k w.X.X.1.X.X.q.] ] ] { MXpXMXmXJX#.,.8.e.*X'. .{ @.` ` ` G G G B & > 2 B m m b v C Y s.z.1X.X@X+X+X>X X/.=X=XwXeXeXeXqX=XY././.[.).|.`._.T.Y.,.=.=.#.8.' ] 9. .9.r.t.) n i d P N.).",
"/.R.R.<X:X;X).R. .q.8.0.y.v.n.b.b.y.s.V.S..XXXoX+X&XQ.Q.Y.Y.NX,X&X+X&X&X&X8XnXkXgXjXuX9X7X7XQ.E.E.E.'.Q.'._.T.T.T.P A A A n i i e y e e 8 7 a 6 6 : : w y G I F ; > , 3 2 2 @ o + + < 2 4 q q r G F Z C s b s s s s 4 U U V 4 4 4 4 z W o.) B B s S W d.&.d.d.d.7.P.l.d.d.I.l.P.U.I.U.I.z.j.d.u.l.l.P.{.,Xq.C v C v y y u v s s k k UXUXUXX.w.X.w.X.k 1.X.X.X.X.]  .7XiXmXmXnX%.( [ ` ) { ..i...{ ) w e e t < 6 % w 6 c c b b C T &.z.V.XXXX+XoXoX+X=X|. X).=XeX6XR.,.=.*.#.Y.Q.4X[.[.T.N.j.i.u.r.} ( ] } 9.9.*.u.G Z ! _ )./.).",
").`./.-X-X/.R.M.] 8.9.0.y.b.v.y.b.b.n.V.S.XXXX#X,XrXQ.Q.W.9XoXOX@X+X+X+X+XrXhXgXgXgXqX0X>X{.T.Y.Y.T.P.I.P.T.T._.4.H A A n i y y e w q u a a 7 a 6 6 : q q r q C 5 < > > 2 , 5 $ @ # * 1 1 1 q t G J s C s s s u s s c c t 0 0 4 2 4 4 4 b U r i Y Y &.&.d.W d.d.U.7.d.d.d.I.l.I.I.E.~.d.I.u.f.f.u.~.#X1XJ.C y C y y d s s s s g k w.w.w.X.w.X.X.X.X.w.k q.X.q.0.0. .&.tXMXmXmXI.( ` ( ( ( ( *.( ' i y i d p 6 6 6 a 9 6 r r v v C C 8.z.e.+XoX.XXXoXoXoX XR.N.c.R.T.g.=.#.} } } M.[.'.T.T.g.i.u.r.t.9.]  . .9.t.@._ @.,.T.R.-X/.",
"R.' M.)./.R.A.c.8.q.9.0.y.v.b.b.b.C.F.S.G.XX@X+X+X9X{.W.Y.XXNXNXjXhXuXuXkXgXzXgX9XOX|.>X|.W.Y.Y.Y.P.P.P.P.,.U.T.$.H A n n i t w q 9 9 6 , u e w 7 6 : : 7 7 4 r @ @ * ; > , > o o $ 5 u , 1 q v F C d s s s u u S 8.r r r 9 2 2 1 4 4 4 4 P [ Y W W e.e.:.7.g u d.7.7.P.d.I.z.I.I.Y.T.j.z.l.a.Z.+X#X:X1X0.s s u s s s s s g g L F.F.w.w.w.X.w.X.w.w.X.w.X.q.......0. .9XtXfXlXfX' ' ! ! ! ( ..' A A G d Z A w 6 6 p p p 7 t y u u v C +.F J |.!.!.(.{.@XoX/.2.-.h.Z.Z.R.} ] 9.] ] u.u.M.Y.M.k.y.y.r.0.}  . .*.y.N.2.2.,.).).)./.",
"} { W././.R.Z. .8.0.0.v.s.b.n.C.n.S.D.G.XX.XoX+XwXwXtXY.oXxXCXxXzXzXxXkXgXrXgXlX9XgXdX9X0X4X=X$X[.[._.T.P.,.P.P.! F A n i t w w 9 6 6 , : < u w 7 7 6 : , , , 1 , # + + + ; > 5 @ @ @ C v r , F Z d y u 4 e ] 8.8.S r r r 4 4 1 1 1 1 1 P @.o.W W W W W 7.g g 7.7.C g a.I.d.I.I.E.E.E.Y.l..X+X#X#X1X:X:Xu s s s s s g s g g g J.L.F.F.F.w.F.w.w.w.X.w.1.X.w.w...w.0.0.i.*XrXtXfX .' ' ' ~ ( ! G F G G G ~ H p 6 a k k l p p 6 6 6 6 6 v C C J E.!.(.(.oXoXoXW.v.p.N.W.<.T.] q. . .M.%.u.u.a.m.s.s.y.y.}  .0.y.v.N.=.,.2.).R.N.-.",
"}  .^./.^.A.N.9.9.r.0.y.n.F.F.F.D.D.^.XXXXXX#X+XtXBXAXNXZXCXVXBXNXNXjXgXlXqX0XgX7XdXaX9X6X6X$X$X X].Q.T.,.,.T.:.H A A d y e w q 6 , , < ; ; ; w 8 7 7 - : : : 1 6 + # + + X o * o o @ u v C Z U Z C y L / 8.| | | u v u u u 4 1 4 1 1 ( o.o.o.) W W W s J C g e.e.g g L L 7.UXq.I.E.T. XOXH.XX#X1X1X2XK.s s g g g g L L g g 7.L.L.L.F.F.F.1.F.1.w.1.w.w.w.w.w.w.1.w.t...*X*X*XrXO.{ { _ ' ' ( ! H ! ~ ~ ! H i a p / ~ ~ ~ k a 8 8 8 8 8 w C C i E.oX(.XX<XoXoXN.N.j.<.@.:.( *.0.0.y.d.u.a.a.s.s.s.b.n.(.0.t.y.y.>.-.=.W.=.@.@. .",
"} r.R.W.W.N.t.9.0.r.s.n.J.D.H.D.H.H.XXb..XyXyXZ.#XMXhXVXCXzXVXNXnXjXlXlXlXlX7X0X6XqX9X0X0X$X|.`.}.'.T.Y.,.@.P.{ ! A A n t e q 9 6 6 : = ; % * = w 8 7 6 6 : : - 1 # # + + o + o o @ X , y c n I J C L / L L ^ | ] s y v e u u u q 1 s <._ o.) ) Y J g s L L L e.Y 7.x./ 7.7.x.g L g s x.XXXXw.H.eXwXtXs s s g s g g g g 7.g J.:XL.L.-XF.F.F.1.F.F.w.w.v.w.w.w.v.v.v.v.v.Z.@XOX&X+X ...' ( X._ G ( G ! G ( ( m n M ~ ~ ~ l p w e e e e y e d Z i Z T.(. X).|. XR.>.$.@.) @.<.M N.v.0.z.h.h.z.z.s.n.S.).oXt.0.v.m.) P P -.*.*.*.{ ",
" .i.W.B.A.m.r.r.y.y.n.J.F.L.D.;XH.] / V..X+X1Xz.#XwXAXAXNXzXNXNXkXkXgXgXgXgX9XOXOX9X0X|. X`._.T.T.4.6.j.*.} ,.` H H Z d i t w 6 6 ; : % @ = = # 8 8 8 8 6 - - : - # = j j + j + o j + * 7 0 t J J J J u S L K | L d d v s y u s e e [ O._ o.) ) s s s g g L e.e.d.d.d.s.8.q.q.s.s 1 u h e h 8 h g s g s g g g g g g 7.g g 8.3XpX3X<X;X).D.C.C.C.n.v.b.v.b.v.b.b.v.F.C.v.' ~.{.{.|.( ! ! _ ( ! ! ! ! ! ! ! H n v v G M A ~ ~ p p p e s p g p d f f A f./.).|. XT.) @.) _ ) ) ) M <.v.Z.z.Z.V.S.oX6XqX8X<X*.t.i.@.! G -.=.-.*.}  .",
"} m.N.Z.V.p.t.9.0.s.J.L.;XL.L.^ ^ / t.H.#XvXtXG.vXmXVXBXVXnXNXkXlXjXfXrXfX9X9X0X{.6X$X}.`.'._.T.4.4.,.$. .} %.[ ( A A i i e w 7 6 : % = = # + = * 8 8 8 7 6 : = - # # + + j j + o o j * 6 q r J J J J J J s L K L C Z Z C s s s e S @.{ <._ _ C.o.P P Y W &.W W d.d.z.f.s.7.7.g 7.h h s u g g a f g s g g g L UXUX7.g g q.D.pXuXqX>X;X).D.D.B.C.C.m.b.b.b.b.b.b.C.v.C.m.c.E.W.Q.{.m ! ( ( ^ ! ! !  .H ! ! ! t t t M M M i i p f f f f d f f f l A D D %. X/.).) H ( ) G P ) _ ( n { ZXW..X9XxXzXlXuX9X<Xv.9. .{ G H @.=.*.#.#.} ",
"*.i.V.m.m.9.r.r.y.s.L.:X:X8.D ~ ^ 9.H.H.#XvXvXH.bXCXBXBXnXlXnXnXlXfXrX9XrX9X6XOXQ.9X|._._._.T.T.4.4.,.r.}  .' ` ! H A Z i y w 7 6 : = = = # # + + h a e w 7 6 = : # # + # j j X   + + * , 1 q J J J C J J J J C S S S S S S d g d @.@.@.{ { _ ).B.) +.W W Y W &.W e.e.l.s.8.g 7.UX7.h h h g g e f k w.g L g g g 7.UX7.q.q.+XjXqXqX8X<X)./.D.A.C.C.C.C.c.b.b.n.C.C.C.C.B.m.@.M.W.W.u._ ( / ' ' ^ ! ] 9.! ! ^ t w e i i p p t e p f f f f k k f / / / ~ ^ @.`.%.P J ! G G G _ G ( G _ Q.VXNXxXCXzXlXhXuX<X .....( F @.*.#.*.@. .} ",
"} r.c.c.p.0.0.0.s.J.L.:XA Z f L } H.G.H.vXbXbXMXbXMXBXmXhXkXnXkXfXyX9X7X7X7XOXOXM.&X|.|.'.T.4.4.,.,.r. .....` ` H H H Z i y w 7 6 : 6 = # = = + * * 8 s a a h = - # + + X X j + * 8 f.+XwX7XOXZXBXG.S C S T C J Z r K K K D L D A 1.-.<.@._ <.-X(.).) Y W W Y W W d.f.p.s.x.8.L UX7.x.g UX7.8.q.b.H.G.g g L 7.8.7.q.q.8.K.mXlXgXqX>X X).^.D.A.B.N.m.m.b.c.b.V.V.C.D.C.C.N.-.g.M.P.Y.A ' / ' ' / ^ ] 9.r.] ] p w w i p p w w u s y f ~ f ^ / X./ X.X./ / / H $.P S G G M G G G M G *.M.Y.BXCXxXzX<XXXa.a.-.-.-.3.t D ! { { } { { ",
"] } c.c.t.0.0.s.s.:X:X/ n y ] 9.H.H.H.:XbXmXbXpXMX2XmXmXAXNXjXfX9X&X&XOX&XOX X'.M._.{.'.'.4.5.,.,.t.r.} ' ' ' ! ! A F Z d y e w 7 : : = = # * + + + s e e a w = - # + o # % a ;X X@X'.&X7X+XOXVXCXCXzXNXD.Z C C C 3 u C / ^ / | v.2.-.-...<.{ <X=X XR.U &.&.&.e.d.l.z.s.s.s.s.8.UXUX7.q.g 8.G.XX#XXX,X0.K.8.8.K q.x.0.x.OXlXgXuXqX>X).).W.A.B.C.C.m.c.c.s.m.V.V.V.A.A.m.m.m.<.,.,.N.,.P G G F M m n n ! G n b m m V m b B N v C C b C s k D k L k / / ^ ^ / +.+.o.E I _ o.o.) ) _ =.Y.E.BXgX#X8.r.r.i.r.-.-.v.-._ X.X._ D ( ' { ",
"' ' t.y.9.0.9.y.J.L.! S D 9.0.S.S.G.XX2XyXMXmX2X1X:XmXnXBXBXlXgX*X X[.'.'.Q.T.Y.,.,.T.4.6.4.,.;.U F m v ! ' ' ! ~ A A d Z y e w 7 6 : = = - # * * + * a i d e : = # < = 2.=X X X{.{.{.+X7XOXOXnXzXzXzXlXzXlXkXP s 2 u 8 C  .9.] N.2.2.-.1...<.qX>X<X).R.K &.&.d.d.l.z.h.z.z.Z.G.x.L L 7.V.oX+X@XXXXX+X#Xz.z.z.G.q.8.s.b.MXlXfX9X6X<XoX).^.B.B.m.v.m.c.c.c.p.b.V.V.C.A.B.N.N.` $.>.>.,.H G Z Z F F F n n n c o.O.O.) O.O.O.C J Y Y Y Y W u y y Z D ~ H | @.=.u.+.I $.O.) <.<.>.<.t j.Y.g.6X~.A.i.a.y.u.a.-.v.N.m.X.-.........H ! ",
"` ~ 9.9.9.0.0.w.s.L Z Z D K ^ r.9.b.XX;X1X1X#XG..XG.eXeXgXgXtX&X&X{.'.Q.(.!.Q.~.T._.4.4.4.,.:.I U v v G F ! Z ! D A d p u d y u 8 6 6 : - = * + * j * g i y t 8 a f OXOXOX XoX{.{.{.OXhX&X+X@XOXzXzXzXzXkXlXdXdXlXM.u y s d y.B.R.R.N.2.1.<.-.>X8X>X-X).,.( %.f.d.l.z.z.E.~.I..X.X@X#X#X{.{.!..X+X+X#XrXz.I.I.I.I..XG.@XfX9X9X8X,X-X^.^.^.D.B.N.m.c.i.p.y.p.p.s.m.V.Z.N.N.M.i.@.$.I U G U Z n A G Z G y M n b I o.I o.o.E I Y Y | e.&.d.Y F Z F H P Y } j.P.E.U.J o.o.I @.,.<.i p @.w.v.v.F.F.v.v.C.@Xc.1.v.v.D.1...-.1.-...X.{ ",
"' ' ` ! ^ 0.0.A Z A Z d D D ^ 8.n.H.XX#X<X#XXXS..XS.,XwXfXrX9X|. X'.Q.XX,X+X+X+X!.{. XP.T.P.f.=.m v u t Z i y t ! D A d i e y e a 6 h : = = = = j * j g s d ~ oXOX X XOX{.{.{.{.].'.wXhXOX@X].{.zXzXlXlXdXlXlXdXdXsXaXaX9.f L /./.R.R.B.2.1.1.qX>X<XR.B.1.W.&.e.d.l.k.h.s.z.I.~.!.@X#X*XQ.Q.(.@X.X.X@X*XI.I.I.I..XI.!.!.XX9X7X>XoXXX^.R.B.C.N.N.v.c.i.t.i.y.p.p.c.m.m.M.M.2.v...m m m G F n n n v c c c n n 0 9 3 0 ) E T F J T Y W U W I Y C n J J H [ %.f.j.P.l.f ) U <.<.t 9 6 1.w.v.v.J.F.L.v.v.' A ' i.N.m. ...( ' *.0. ...",
"' ' 0.0. . .' A d Z d y S D L p.H.H.XXXXXXXX.XS..XZ.+X7XrX9X&X&X{.~.W.oX+X#X+X!.!.'.'.T.P.P.%.#.+.c q t y e 8 a D D A d p e w e 8 1 1 1 h - - = * - - ] V.eX8XOX X@X{. X].{.{.{.!.!.hXgXrX X].{.lXlXlXlXlXgXdXdXaXaX0X0X0XsXsXB.|.[./.R.B.2.2.gX>X8X-X/.).-X-X[ l.h.k.h.z.Z.z.~.!.@X*X@XQ.E.{.W.E.!.@XI.I.I.I.I.I.~.*X!.~.G..XXXXX).).D.B.D.B.m.v.-.i.t.t.r.r.i.p.p.m.m.g.i.=.r.t t i n n n t c c t c 0 M A w 6 < t 9 U v N F T U I T F r F I i Z f H ! @.%.u.+.P | *.~ ~ 6 a 6 a t.v.F.C.H.H.D.L.1.~ A ~  .B.v. .' D ^ ! { ] ' ",
"^ X.( ' X.9.0.0.] D d e D L 8.D.D.^.).XX^..X^.S.^.V.@XyXrXtX&XwX XZ.m.^..XXX!.Q.P.Q.U.P.U.,.%.+.) ( y w w w e k D A d d s e e s s e e 1 1 - - - g v.9XiXrX7X8X X(.{. X{.{.{.].{.'.7XlXhXrX{.!.'.[.lXlXlXdXdXaXaXaXaXsXsX$XsXaXlXlXsX X[.R.R.2.jXgXdXqXqXqX8X<X=X} d.l.z.M.I.z.E.~..X@X@XY.Q. Xz.Z.E.!.I.z.I.I.I.I..X!.S.Z.S.S.G.H.).D.).D.B.N.v.v.i.t.*. .r.r.r.i.u.i.-.-.*.*.*.X.t t A A n n y t t t t t S ~ a 6 i p 9 r 4 b C B 9 t w e e f k / ] ] y.X.X._ Z Z Y | u.{ 7 6 9 0 1.v.v.B.H.L.;X;X;XA d ~ 1.v.1. .] / ~ ! / / ` ",
"9.0.0.w.n.0.v.v.v.v.9.v.J.K.vXcXD.^.^.A.S.^.~.Z.Z.z.*XwXyX&XOXOXoXXXi.A.~.~.P.P.>.P.P.j.P.P.%.#.@.{ H D w w k h A D d d e s e 8 s s g 8 8 8 0.,XpXpXiXuXuX7XOX!.!.{.].{.{.{.{.{.{.rXkXfXrX&X{.Q._.lXlXdXdXdXaXaX0X0X0X0XsX$XaXlXsX%X5XsX X`.R.sX9XsXsXaXdXgXdXlXkX>.r.N.B.m.R.A.Z..XXX(.W.(.).m.h.k.M.!.I.I.I.I.I.I.A.S.S.S.S.G.XX;X).).B.B.N.N.v.-.i. . . .r.9.r.r.-.t.r.*.*.} V.e w ] d Z p i p p e w e H X.X.p d d l e ; 4 r t 9 w a g f f ~ 0.c.b.n.C.X.~ d g 8.8.| #.9 6 t p ..0.1.A.XXXX;X<X).X.k ~ 0.B.w.v.v.0. .X.0.0.0.",
"t. .0.v.v.w.n.n.n.w.w.0.0.b.pXpX,X+X<X<XoXoXXXoXXXXXyX+X+X7X!.eX#XXX(.N.Z.P.j.l.d.P.j.l.,.f.h.g.i.=. .0./ f g UX^ Z d d s e s 8 1 g 8 f F.tXmXhXiXbXuXrXuX8XoX/.Q.{.{.{.{.{.'.Q.@XlXlXfX0X&X~.'.Q.|.lXdXfXaXaXsX0X0X0X&XsX*XsXsXsX$X].].%X%X4XsX0XsX9XsXdXkXkXkXkXzX-.B.D.N.-X).m..X@X~.^.,XoX).i.v.,X~.I.d.I.d.I.{.V.C.S.G.S.XXXX).;X).).).N.v.v.1. . . . .}  . . .*.*.*.*. .} 8.a a ] ] A d d y p e d ~ ~ *.-.-.9.9.X.X.e , w t a 6 9 D ~ ~ ! X.S.D.H.;X-X~ L / / / 8.9._ w p p ..v.-.A.XX<X<X<XD...X./ v.v.w.w.c.v.w. .0.1.0.",
"0.0...n.F.w.c.b.b.b.v.v.w.w.b.n.D.XXXXoXXXXXoXXXXXXXXX1X,X1XiX8X,X(.(.^.!.~.Y.k.f.P.f.:.>.:.i.f.u.=.9.9.q.q.k w.K D d d s a e 8 8 y.+XkXhXhXhXiXiXiXeXuXrX8X(.!.!./.{.[.{.{.'.{.7XlXgXrX0X&X{.Q.Q.Q.fXdXaXaXaX0X0X0X0X&X$X&XsX&X&X$X%XU.j.4.5.:.5XsX9XaXfXdXkXzXxXxXxX=XR.D.=X-XB.!.@X^.oX,XXXXXh.l.I.I.I.x.I.I.I.^.C.V.S.S.S.G.XX).(.<X).).R.B.1.-.*. ...} }  . . . .@.} } } } 8.^.p ` ] | Z d Z d f / / ' ..-.i.9.r. ._ D p p a a w a ~ ~ ~ ' { H.;XpXgXqXB.! 8.L / q.r.b.{ i p -.c.-.W.XXXX<XXXC... .v.v.v.t.w.F.C.v.v.v.q.w.",
"1...X.w.v.9.c.p.v.p.t. .]  .} c.u.i.c.D.H.H.H.D.D.C.C.C.1X1XeXrXOXXX~.^.Z.Y.j.l.f.>.>.:.:.:.&.u.=.=.G.J.J.L.L.w.D S S S f g UXH.jXkXmXkXhXhXiXtXiXuXuXeX9X@X{././.Q.{.{.{.'.!.{.tX0X@Xf S L K s j.P.0XsXsXaX0X0X0X0X4X6XdXsX$X$X%X_.P.4.>.,.].$X$X5XsXgXlXlXkXzXxXxX5XxX=XR.-X-XA.oX{.!.,X>X<X^.p.#X7.I.I.I.I.7.~.C.C.C.C.S.S.^.).oX).)././.R.M.v.*.t. .} ..] } { .. ...{ { ] } 8.s.i ` } K ] ` ] ' ! X./ ~ @.=.u.[.i.V.V.yXuX/.( N.1.-.B.-X<X=X1.=XqXgXcXgX=X..L / / 8.8.a.u.( p -.-.-.N.^.^.^.C.1.X.~ / 0./ k ~  .n.w.w.v.v. .",
"X.^ ~ 0.0.w.S.C.n.V.v.w.t.0.9.*.` ' { {  .=.C.N.D.C.C.C.C.,XeXeXeXoXA.A.j.j.f.f.%.,.>.$.:.O.+.*.u.H.J.J.J.L.:X:XD S g g n.2XmXmXmXhXkXhXhXiXtXiXiXeXuXeX8XOX{././.Q.Q.{.{.'.Y.M.J S D L K | ] ] 8.u.f.6XaX0X0X0X&X4X0X4X5X$X%XU.P.P.P.5.U.].].$X0X9XaXaXaXkXzXNXxXxXqXxXxX=XgXqX_.{ (.oX+X<X<XA.A.l.I.I.I.I.I.d.(.D.A.C.C.S.^.^..X(./.(./.Z.g.c.i.i.t.t.9. ...' { { { { { ' | | 8.8.i...9.K ] | ]  ...X.' #.#.%.=.M.s.V.eXtXgXrX`.-X=XB.>XqX=X9XT.-XgXxXlXjXqX2.9./ ] 8.0.} e.u.~ ..-...c.c.0. .3.~ ~ f ~ X./ f e i f p / q.X.X.",
"w.w.X.0.0.w.S.C.C.C.C.C.v.b.c.-.r.g.p.c.i.m.m.v.W.D.^.D.S.A.7X,X>XXXW.Z.j.j.>.%.%.:.$.+.$.o.g.) b.H.H.H.L.vXvXvXL 8.XXnXnXnXkXjXhXhXgXjXhXtXiXtXeXuXrXuXOX{.oX{.{.Q.Q.[.Y.s * d H ^ ` ` | ] } e.| p.Z.).) W.5X0X&X0X0XsX4.:._.U.j.:.$X%X].%X_.%X$XaX9XaXdXlXlXkXxXxXdXZXxX4XdXqX/.#.z.~.!.(.(.V.I.d.d.d.I.I.I.K.D.D.B.C.C.Z.S.W.^.(.Q.M.N.h.m.i.i.v.i.*.t.-. . .' X.' { ( ` ` | 8.8.R.D } H ] ] ] 9.-.-.r.r.} } *.=.u.XX,XeXuXgX9XqXR.2. X/. XlXgX=XR.gXxXgXqX-Xv.} ] e.8.t.8.r.*.=.i.u.Y.V.q.t.1.X./ X. .v.v.v./ ~ ^ ~ f ~ 0.b.",
"n.c...w.0.y.S.S.C.F.C.C.n.v.-.r.i.i.i.p.p.p.p.i.p.m.C.D.C.A.^.+XoX(.S.u.f.,.%.%.&.$.$.o.o.=.i.V.a.#XL.:X:XvXJXJX2XBXzXNXkXnXhXhXmXiXtXhXuXtXrXrXeXuXeX8X{.@X{.{.{.W.h.s - = - ` ( | | } } e.u.a.h.u.Z. X ...{ m.6X6X0X_.$.&.:.j.,.].%X%XU.U.U.].%X*XsXdXaXlXlXdXdX%XdXxXxXdXxXqX6.-.g.I.^.(.D.C.P.7.P.I.d.I.I.Y.D.).B.N.m.M.Z.W.k.g.h.g.h.g.h.i.i.i.i.i.*.-. . ...{ _ _ ( ( ` ` 7.8.s.7 F ^ ]  .c.,.-.y.t.9.} } | r..XeXwXeXtXfX9XgXR.,. X/.=XlXhXjX XjXzXlXgX-XN.] ] e.} 9.a.a.t.*.a.g.Z.p.z.A.C.v.v.v.F.D.).D.D.v.0.w.X. ...q.",
" .y.9.0.t.v.D.D.S.D.C.C.c.t.t.r.m.m.m.V.m.V.m.A.m.m.m.i.m.m.A.W.oXY.j.+.O.O.o.I U o.E U ) U a.=.G.0.w.K.J.GXFXHXFXNXNXnXnXkXmXmXjXiXhXiXuXuXrXrXrXrXrXOX{.{.!.[.Y.8 : 7 - : F @.{ #.#.#.u.u.u.h.h.h.M.(.T.-.-.N./.4X0X,.&.[ I %X$X$X%X*X*X%X%X*X*X*X*XsXaXfXsX*X$X5XdXxXxX5XxX5X`.2.g.g.h..X.X&.W d.7.P.d.I.I.+.*.c.m.B.N.h.u.=.=.=.u.u.i.g.i.g.f.i.u.u.t.*.*.*...{ ' _ ( ~ H ^ | K K i.a ..m.N.g.2.XXs.y.a.} 8.| V.+X1XrXuXfX6X=X9X6X,.[.R.R.kXlXnXkX9XxXjXjX<Xv.' ` ] 8.q.0.0.a.l.M.m.p.8.M.g. . .....t.b.F.v.v.F.v.w.t.9.v.0.",
"0.t./ 8.t.y.n.J.n.S.F.m.t.c.t.v.C.A.A.A.A.S.A.A.A.C.A.m.m.m.i.m.k.,.>.+.+.+.E I U o.E I I #.r.r.J.XXvXSXSXDXNXCXBXnXNXnXnXjXhXmXmXbXmXhXfXuXrXeXeXrX8X{.{.'.'./ 8 8 7 8 e 8 +.#.%.%.e.u.u.u.h.h.M.M.W.Q.6X|.=X|. XR.2.T.@.[ [ $X%X%X%X%X%X].U.]._.%X].%X*X$X*X$XdXdXdXdXsX_.6.`.4X6.2.} 8.z.W &.7.d.7.d.d.I.U.#.} 9.v.g.f.{ { #.=.#.=.=.=.u.=.u.u.u.u.=.u.r.*. .} { X._ ! ~ G F K K H Y 6 p T.N.,.+X1XwXeXeX+X,XwX*XXXtXtX9XyXrX|.9X6X=X X/.T.gXgXhXtXhXuXkXzXaX1.' ] ] ] q.q.q.e.g.M.k.k.h.h.t.t. . ...v.C.;X;X).C.B.B.C.t.t.0.",
"*.v.X.9.9.0.S.D.D.D.m.i.i.i.i.c.i.t.c.p.v.A.S.A.A.m.m.c.i.c.v.-.*.h.>.$.o.E I U U I *.*.{ { 8.G.#XSXFXPXAXBXVXVXBXBXNXNXnXnXmXhXiXmXjXjXtXrX9XrX9XrXOX]. X` / ] ^ a d y s P >.%.=.=.f.d.l.h.k.M.Z.W.[.6X6X0X4X4X=X`.=.#.#.O.$X$X].%X].%X%XP.U.U.].U.].].%X*XsXsXsX5XsXdX5X6.5X5X5X=X{ Z.Y W Y Y W 7.d.d.7.I.l.8.} u.g.=.=.u.u.[ ' @.#.#.#.%.=.u.u.u.=.u.#.#.*.#. .X.] _ ! ~ M M m F D L -.6 9 2.1X,XwXeXwXyX+XwXrXrXrX*X&XOXOX X$X7X=X|.=XR.R.uXtXfXhXhXhXgXNXNXqX` '  ./ / L / ^ t.u.u.u.h.s.c.v.t.0.1.w.B.-X-X-XF.D.B.C.y.t.t.",
"/ / ^ / ] ] 9. .v.D.V.b.V.m.C.C.m.c.c.v.c.i.m.C.V.m.m.h.u.i.-.*. .#.r.z.k.@.o.) [ =.@. .[ { G.bXSXPXFXGXFXSXVXVXBXAXVXNXnXmXjXmXmXmXjXjXiXrX9XeXwXOX|.] } } e.r.i.A A A C >.%.>.:.>.f.f.l.k.k.I. X6X4X&X4XsX4X6X=X_. .[ | [ 5X0X$X_._._.5.5.U.'._.U.&XsXmXlXkXlXlXkXlXzXxXdXxXxXdXxXxX6.Y Y Y W W 7.e.e.u.l...<.%.%.=.f.f.#.=.u.=.[ ( ) { @.@.&.#.e.e.%.#.#.e.8.9.9.( ! G ~ A M n n n n k.p a 9 6 6 6 = = 6 [ wXrXrXrXfXrXrX9X9X9X9X=X X>X>XN.gXhXtXfXfXhXtXhXNXzXR.X.X.^ ^ ~ f 8.y.p.y.y.b.c.c.m.C.N.1.1.D.;X-X-XB.v.*.*.0.X.X.",
"X.' ^ / ] ] 0. .t.b.S.C.C.C.C.C.C.C.c.v.c.c.v.V.m.c.c.y.*. ...{ _ { 8.9.8.u.=.[ @.{ m v Z u.AXAXSXSXFXHXHXAXHXVXBXBXAXVXNXmXNXjXjXmXmXjXjXrX7X,XOXk.} e.r.u.i.g.m.@.( ! I ,.>.:.f.d.>.f.l.k. X|.$X$X$X4X$X$XQ.R. X6.{ | | ` ,.4X$X*X%X;.W U._.P.T._.$XfXfXlXlXlXlXlXlXNXxXxXxXxXxXxXxXxX$X&.Y Y Y &.e.e.l.A.<.o.{ @.#.%.=.>.=.#.%.=.=.( ( I I [ [ [ +.7.8.8.8.9.{ ` ( ! ~ A M n M n i y C @.U t 6 6 6 : i } <X=XrXwXfXrXrX9X6X9X7X7X&X=XOX&XOX9XfXfXtXhXfXmXtXmXNXgXpX' ~ ^ / / q.y.y.h.h.h.V.V.C.C.N.-.N.B.<X;X-X;X-Xv.*. .} ] ",
"*.' ^ ^ ` ]  .v.v.c.c.c.C.D.A.A.A.B.m.c.m.c.c.i.m.p.i.{ { { { _ _ ] 0.t.^ r.r.I +.~.%.F J a.SXSXBXSXFXDXHXZXZXZXjXVXCXVXVXBXNXzXkXgX9X8X6X|.-Xv.!.u.e.f.l.h.k.k.M.T.) ) &.:.l.:.>.>.l.l.Q.]. X}.$X$X$X4X4X$X$XR.T._ | | ^ K | $X$X5X6.5.4.4.U.Y.'.].&X$X$X*X$X&XsXkXNXNXZXzXzXzXxXxXxXxXdX%X}.U Y &.e.h.Z.N.<.3.) ) [ [ &.$.%.*.#.@.&.@.@.( H H K Y L 8.8.8.| +.[ ( ( ~ M A M M n M t y y M.O.O.3.6 u ( <X<X XR.<X^.oX@XOXOXR.R.,.|.`.R./.`.R.fX|.jXlXBXAXAXFXFXcX-XD._ ..! L / / | | h.p.b.V.V.m.B.1.1.B.-X:X-X;X;X<XB.m.y.t.9.",
"` ~ ! L ^ ' ..t.t.t.t.c.c.i.p.D.D.A.C.m.C.m.c.p.r.#.} [ ` ` { [ ] / ] t.~ n U T N ) F F F #X1XK ^ XX#Xq./ 0.q./ q.8 h /  ./ ] / / ' ' f 7 - * j + f.l.h.l.M.M.Y.Y.Y.<.o.:.:.:.:.>.:.d._.'.].].|.}.|.$X$X$X$X}.`.O.G J F K K K }.%X%X$X4X$X&XlXnXkXNXkXnXnXkXzXNXlXdXlXlXzXzXzXzXxXdXdXdXdX`.`.}.T.f.g.l.z.<.O.o.U U U I ) [ +.+.@.@.#.[ [ +.+.H J L K Y Y [ | [ ` ( H G ~ M ~ A n i t y s s o.o.o.P =X<X=X-X X). XW.@XoXoXOX/.R.-.T.{ 2._.`.T.fXaXhXjXNXAXmXBXSXFXCXD.X.X.L f f g L p.y.h.a.i.y.0.1..._ -.B.D.D.N.B.B.*.X.' ' ` ",
"d p D f D ! ` ' ^ ' #. .{ } { { } v.c.v.i.*.{ ( ( P P H F G G m Z v v.9.] 2 C T P *.*.n | BXH.G..XXXXX+X0.v.0.q.] q.h f f k 0.9.X.k f h h - - - $.l.l.k.j.I.I.Q.T.T.4.+.:.$.:.>.%.j.E.E.Q.'.].}. X}.$X$X$X$X%X%X) Z Z S S C }.`._.`.`.%X$X$X$X*XaXkXkXkXgXaXsXsXaXsXaXzXdXlXlXxXxXdXdXdXdX5X`.`.,.<.,.j.T.O.3.o.G m J U U P I [ [ [ [ +.+.I [ Y [ J J I Y Y Y ) ( P H G G G M i M i y e y s f.E G eX8X>X). X[.R.R.!.oXOXOXOX XN.-.R.<.3.<.6.R.aXqX9XnXmXbXBXSXSXFXSXCX_ 1...' f f } 8.r.t.i.r.r...X.X.~ _  .v.*...1...! ! ~ D D ",
"A d D d P ( / ( ! ` [ { ' ` [ { [ [ [ } ( P G J U F J Z v Z M n y v.t.B.6 > 3 T +.) U x.bXmXG.x.mXXX@XoX<XC.C.y.v.0.y.^ / g g g g h h h h h h >.=.#.l.k.I.P.Y.Y.T.Q.T.+.$.:.$.:.>.P.U.Q.T.'.'.[.}.$X}.$X$X%X}.4XZ C s C S S }.}.6.6.6.%X}.}.$X}.$XsXaXsXsXsXsX0XsXsXxXlXlXxXlXlXdXdXdXdX5X5X`.2.,.6.5.i.<.o.3.B m v v v m F U U U I ) I I [ I P I [ ) I P Y I I I P ( H ~ G A M M i e e u s d ~.>X>X>X,X)././.R.R.{.oXOX&XOX4XT.2._.<._ -.<._ qXfXgXjXmXmXBXAXBXBXBXFX2.1...' X.L ] ] a.y.u.y.a.-.<.X._ ..-.v.i.-.v.-.~ A F A S ",
"H i D H G G ^ ! ! ! ( ( H ( P ( ( J G n i m m F v Z n c t v c Z D.D.C.C.> > > v.U F U 8.AXtXmXz.#XmX@X@X,X9XW.V.b.V.c.N.k g a g h h g g k k @.:.:.,.l.P.P.Y.Y.T.T.T.U.:.$.$.:.:.P.I.P.Y.T.'.'.'._.}.}.%X%X].%X5XC s d s d s }.%XR.6.R.}.%X}.%X}.$X$X[.[.$X0X0X0XsXdXdXkXzXdXdXdXdXdXdX5X5X5X`.<.,.5.U D.O.3.B m c t t t v n m m T U T U U P U G I I P ! G ( P P P Y P H G G A n i p p e s e J XXaX(.oXoX0XR.R.R.T..XOXOX7X&X=X6.2.`.<.<.<.<.<.;X;X<XhXmXmXBXBXBXSXSXSXBX=X-...' / } ] r.u.a.V.S.1.-..._ -.1.v.2.1.i.1.( G A Z S ",
"A Z Z H H P i d y d H F Z Z Z Z d Z ( @.@.@.[ i u t t q 9 q 9 D D D ' > % > ..] ..m | .X@XyXwXS 8.z.@Xy.(.9X6XS.D.A.V.c.q.g g g g k g g k i.-.=.,.4.l.P.k.P.P.U.T._.P.>.O.:.$.,.j.P.P.P.I._._._.}.}.].}.%X%X%X$XC C s s s 2 }.}.%X6._.`.}.[.}.}.`.}. X}.}.}.$X$X4X0X$XdXkXdXdXdXdX5X5X5X5X5X6.6.<.F x.x._ B m M t 0 0 r r c c b b v m m J U G J n i n P G H F P P H P P ! H ~ A ~ i p e e s | +X&X9X^.|.=X[.6.N.2. XS.!.).(./.T._ 2.M p p p t _ ( ( ' } a.b.XXS.y.S.;X>X8X....' ( | #.e.u.S.S.S.D.-.<._ ..1.v.N.v.1.N._ G A A F ",
"` ! G F G G y e y Z Z Z Z d d t t v v n Z i i y i r r 2 2 r e d i H { $ $ > ` / c.;X^.z.z.mX*X@X8.e.z.yX0X9X&XOXXXS.w.F.F.w.k UXUXq.k / z.f.,.%.>.,.f.P.k.P.Y.T.T.T.j.,.:.O.:.,.,.l.P.P.U.T.T._._.}.%X_.%X%X$X%X;.s 4 4 1 3 _.}.}.}.}.`.`.].}.`.[.`.$X%X|.%X$X$X$XsX`.0XlXdXdXdX5X5X5X5X5X6.6.<.G | e.e.V.m M t q 9 9 9 9 0 0 r t x b C T m n m n i t p n G G G ! G P K ^ ~ ~ ~ l i p p e S ,X+X+X*XrX$X X|.2.6.2.A.V.S.A.^.R.N._ 1.-.9 t p t _ ' ' / '  .r.n.b.V.XXuXqXlX1.-.<.*.H [ 8.x.z.G.D.D.D.-...-.1.m.v.1.N.B.1...! ! ^ ",
"Z Z Z H H H i e d Z S D } ] G t y n v n n v v v c t t > q y.0.e A ( ( $ $ ! v.XXqX3X3XXXe.z.wX*XY 8.].tXjX&XOX~.Z.q.w.q.w./ q.k UXg q.n.b.s.0.u.=.j.P.j.P.j.Y.T.4.l.j.j.:.:.>.,.P.:.4.P.T.T._._._._._.%X_._.%X%X6.4 1 4 1 5 }.}.}.`.}.R.T.[.[.[.[.}.}.}.}.}.}.}.`.'.6.6.aXdXsXsX5X5X5X4X5X6.R 3.! H S 8.8.` r 9 9 6 9 6 9 9 9 3 x r b b v v v m n c t t t t t F F F F H ^ / ~ ~ ~ f f l i Y +X&X*X+X@XOX0X[.T.,.,.] } 9.t.t.1...M M M 3.3.3.~ F.m.c.i.t.c.^.S.n.yXhXnXgXkXT.2.1.-.X.| ] 0.n.V.S.D.^.R._ -.1.B.N.1.1.<._ ( n Z A ",
"Z Z d F G G y i d g / ] } G F q q t r q r r 9 q r 9 4 9 f 9.] n.( ! D @ : :XpXpXpX2XpX8X1XXXMX*XC I.@X*X+X&XXXs.s.n.w.w.w.UXq.q.g k b.J.S.n.b.w.w.9.g.f.P.P.P.T.T.,.,.j.,.;.>.,.P.,.P.,.P.4.U._._._._._._._._.6.%XN 3 < 1 3 }.$X$X=X/./.N.m.B.C.C.N.A./././.R.R.2.2._ M `.aX5X5X5X5X4X5X<.3.3.3.! A A Z J z.0 7 7 6 6 6 6 > 3 3 3 3 c b b v b v c n y t t t t 9 p F A A Z D X./ ~ ~ l k s +X*X*X+X+X+X*X@X@X&X<.} ] 8.r.y.i.-.1.-...<.B.2.2.1.-X).S.D.D.D.G.D.).).>XjXdXjXN.2.-.@.! / 8.8.s.b.V.A.D.B.m.-.-.N.m.1.1..._ ~ Z Z Z ",
"d A y F G U d d f ~ / ] J F v q q 0 0 9 9 9 3 2 , 2 3 D D L f S.H._ : D CXCXCXcXpXpXpXeX3X,X@XPX7.]..XI.!.!.~.W..X!.J.F.J.w.w.w.w.n.n.w.s.w.s.y.0.t.9.9.j.P.4.P.4.l.l.j.P.l.,.:.:.,.:.4.P.4.U.4.6._._.6.6.%X%X%X6.5., 2 1 [.&X).R.C.A.A.B.C.C.S.C.D.D.c.m.C.C.m.2.2._ ( _ 2.4X5X5X4X6.<...3.3.3.H H A Z d C 0.k 6 6 6 6 % > % > 3 r z b r b c c b c c v c n t t 0 9 t A M f p ~ X.X.~ ~ 8.*X#X*X+X@X@X@X@X@X*X{.!.t.a.p.*.' @.1.1.2.@.2.2.6.2.<XXX;X).;X).D.;X6X=X X>X XaXT.N.-. .^ ' ] 8.0.V.S.A.D.D.B.B.B.D.B.B.N.B._ _ A Z Z ",
"! D i y F H ~ ~ / ~ S n v v v q q 0 0 9 9 2 , , , 2 f D ~ ] 9.c.:XAX9.XXVXVXCXmXpXpXpXpXqX3X,XXXy.a.l.I.U.I.I.U..X*XI.*X+XXXXXXX<X<XJ.H.b.w.n.0.w.b.n.n.n.9.T.6.f.j.j.,.P.>.,.:.,.:.4.4.4.4.P.P.4.P.4.4._.%X_._.6.5.> , B 0X<X=X).).D.).).D.H.).;X).^.).-X).). X2.N.<.<._ ) 2.`.d.&.&.#.#.@.[ ` ! G A Z Z i d.8.8.q.e ; ; $ ; 3 3 3 3 3 z 3 z z z z b u v v b y y r 0 9 9 p ~ p l r.t...@X@X*X#X*X@XOX~.~.~.I.!.!.OXOX@Xp.2.-.N.<.R.-.T.2.T.N.oXXXoX<X=XXX;X8X0X>X=X[.R.=X_ <.-.( ~ ] / / y.S.S.^.XX^.R.D.B.).^.B.B.D.B...~ D D ",
"( A Z i f ^ X./ ~ ! t t t t y q w w 9 9 9 9 , , < d f D ] C.XXvX2XbXbXSXAXVXCXCXCXjXcXpXXXr.C.D.r.[ J T d.].I.d.d.*X.X*X*X:X<X:X1X3X8XH.J.n.n.n.J.H.J.S.G.0.0.c.>.l.j.j.,.,.:.,.>.4.,.:.5.,.5.4.4.5.4.U.5.5.5.5.5.6.6.A.A.uX$X3X;X<X;X<X;X).;X<X<X<X<X<X6X<X<X>X2.R.2.2.<.~ B b 4 5 T #.&.} [ [ ( H G A n i Z 9.q.g g g % $ $ % % % > 3 3 3 3 z 3 z z z u b u r t t w t w 6 6 _ X.X.a.9.@X@X@X@X@X.Xk.E.~.!.~..XOX@X].!.OX}.2.,.,.`.,.T.R.R.T.oX<X<X>X<X>X6X8X8X4X=X/.T.$X3.A n Z ! X.^ / ' V..X.X).).).R.).oX^.^.R.).W.<.~ H ! ",
"G A G Z Z A ! ~ D i t i t u t t t r 0 q 9 9 4 2 u 8 g ! c.m.b.c.v.v.H.DX2Xv.~ d i i t p w D 9. .J b C T 7.7.T T 7.d.*X.X7X].1XtXpXjXuXuXXXH.XX#X:XXXH.H.XXF.C.W.~.Y.,.P.,.l.j.:.,.;.:.5.>.:.P.:.5.d.P.5.5.5.;.5.%XdXkX).D.A.dXgX;X;X;XXX<X3X3X3X3XqX8X8XqX8X8X8X2.R.2.6.;.R V > 4 5 5 - = b [ [ ( H G Z Z n v j.L g 4 2 : : : $ % % % % & > 3 3 3 z 4 4 b 4 b u w y e p i ~ l a a ~ ..I..X@X@X@X@Xd.z.I.!.].*X].].OX!.OXOX|.T.R.,.`.T.R.6.N.Y.XXXXoXoXXX).D.B.-X-XR.B.~ -XD S H | | s d d d L .XA.^.D.N.B.(.XX(.).R.).R.{ ! ! H ",
"H ! G A A S ( ! n n n y t t w y t t v c c 9 2 8 s L r.y.D.F.n.C.C.v.b.CXyXA i p e w w 9 d  .} ! e r b Y 7.7.T 4 z T Q *X7X!.@XpXjXjXjXjXeX,X1XwXyX+X+XOX{.H.).!.!.{.!.Y.,.j.,.,.,.:.:.,.:.5.:.5.:.5.:.5.Q 5.U.sXsX&X0XxX).A.gXuXjX3X3X2XqXpXpXpXjXjXjXjXuXgXaX9X2._.;.<.;.O.V 3 1 4 5 5 : u : Z [ U G G Z n i n 4 4 7 8 8 8 7 a 6 # % % $ & & 5 5 5 3 4 4 4 4 u u y ~ ! ! ~ ~ f f s C ~.!..X.X*XI.h.k.I.].!.I.].].@X].@X XQ.T. X[.=X`.`.=XT.B.XXXX;X;X;X<X-X-X>X>X-X).! =XH H P P Y P P Z d d 9.XXB.).N.R./.oX{././.oX)...( ! D ",
"^ / ! G Z A ' F Z n n t t e u c c v v y t c u / 8.a.y.XX1X3X#X;X0.G C.jXXXbXn y y d A / c.t.i.{ ` Z F J K T 7.4 4 4 2 C [..X@X@XnXnXnXkXtXrXwXwXrX&X+X&XOX;XoX(.!.{.!.{.|.E.;.:.:.:.:.,.:.:.:.:.:.5.:.5.U.dXdXaXsXaX6X0XqX-X3XlXgXlXlXcXcXcXNXxXxXzXjXkXzXdX$X$XR 6.R ;.3.R V & - 4 s - 1 u C 4 q P J G G n q q L 1 h h a a g a a a h # $ $ $ $ 5 5 5 4 1 4 4 s P ( ` ` X.( ~ ~ ~ f #.~.I.!..Xz.I.l.k.E.I.]..X].].].@X].].'.Q.[.[.OXOX&X+X7X/.oX#X,X;XeX0X0X=X>XqX4X=X_ R.( n d f S d f D L S | h.!././.-XoX.XoX)./. X/...! X.! ",
"! ` _ P ( U G F F m m n v e y M y y v y D X.' z.G.G.#X2XeX3XXXf A ..c.pXG.S.mXA ..' m.).A.A.N.*.{ ! C v b T T T 2 4 < s Y T 7.U.!.fXlXfX7X,X>XOX8X+XOX,XXX8XOX{.@X].OX|.OXOXOX&X{.:.;.:.:.:.:.;.5.P.0XkXlXdXdXaXsXsX0X0XlXCXNXdXdXlXkXNXzXCXVXBXCXNXlX0X%X%X}.%XR 5.R R V V V & 5 4 4 4 4 u C 4 c n t n r w t q C 1 u s g g f g g l l a a 6 @ @ 5 5 5 5 5 u S J P [ | [ { ' ' ! ~ f P.I.I.~.~.k.M.l.f.l.I.I.I.I.I.!.].].!.Q.T.{.[.|. XOX&X&X7X*X9XrXrX9X9XqX0X=X8X6X4X_ G ,.! d G A H H H H H %.h.p.W.).oX^.~.XX X).<XB.2.-.{ ..",
"' P ( ` { ' ( _ F H S A D S Z y d d '  .] ] ] z.G.H.1XyXyX2XS S K i.m.pX1XS.XXBX .m.XX)./.D.=. .{ ( r 4 z C C T T , 4 4 4 4 b T Y T 0XlXrX8XwX8X7X>X,X<X;X,XoX@XoX{.OXOXOXOXOXOXBXBXBXtX$X|.&X+XOXOXkXlXlXdXdXfXaXaXaX9XdXVXVXVXgXdXlXzXVXZXZXVXBXkX}.$X$X$X5X%XR 5.& V & & & $ 5 4 s 4 5 u s C c c t : y t y t u s 1 g g g k k k l l l a a a 6 5 * * 7 s C C J P | [ [ [ { ' ( ^ ` I.P.U.I.~.~.h.h.h.l.I.I.I.].I.].!.~.'.P.Y.!.'.OX].@XOX&X+X&X*XwXrX9X9X9X0X6X=X4X=XA _ @.-.t c M _ ~ G G H | l.S.^.T./..Xr.S.<X;X<XB.2.1.-.X.",
"( ! ( ( ( ( G ! ! Z D A Z D ` S } 9.'  . .] ] G.G.H.1XyXiXC S S t.A.V.).eXs.mXmXZX).>X)./.M.N.g.-.@.q 4 4 4 z C T 4 1 5 1 4 4 C C 5 W Y.6XiXtXrX7X2X3X1X<X1X>XoXOX@X&XOX&X+XOXOXmXAXnXnXnXhXtX&X+X&XNXlXkXlXgXgXaX9XaXaXaXVXZXZXZXdXgXzXBXZXVXzXkXdX$X4X5X%X5X6.R R & V & & & # @ 4 s C C 1 C C i M n n 1 b v t u E s g L L ^ / X./ ~ ~ l p p a P P U y u s C J U Y [ [ | } { ' _ d.k.k.k.E.E.Q.h.a.h.f.l.I.I.I.~.I.~.~.Q.P.,._.E.].}.].OX+X*X&X&X7X*X7X9X9X0X=X[.4X_ M _ .._ _ i t _ *.A n Z F | z.!.XXR..Xp.c.XXR.-XB.N.1.-.-.",
"H ( ( ( H J ( ! G S A ! ^ v.b.D.} 8...9. . .D.H..XH.1XmXY S J K i.A.m.W.eXBXNXDXBXzX>X)./.M.N.M.-.>.( 2 4 4 4 u C J 5 5 5 4 4 4 4 5 7.7.U.].@XrXpXpXeX3XyXfX*X*XOXOX>X&X+X7XOXOX7XVXBXnXnXhXwX7X7XnXkXlXlXlXdXlXdXaXaXfXkXNXZXZXVXDXdXsXfX0X$X0X5X%X5X%X%X%X6.6.V & & & & & $ o $ 5 z C C 1 4 T i n C J C s b C y 0 s g J Y K 8.{ X.X.3.~ ..) ) ) U U G G F v F J Y Y [ [ | #.} P h.l.k.M.P.k.E.h.p.h.l.l.h.I.I.~.I.~.~.'.,.>.,.U.~.Q.'.@X@X'.].*X*X&X&X*X+X&X|. X~ M M 3.0 a 3.3.3.3.X.X.M n Z P u.z.!.oX~.#.e.#.!.)./.R.2.1.~ ",
"H ( ( H H ` ` ! H /  .C.V.b.C.S.C.} ' '  .D.G.H.#XvXBXL S S L 9.A.A.V.m.VXVXDXBXCXNXkXuX8X>X|. XN.=.P., 1 4 4 u C C 7.5 5 5 5 4 1 5 T Q W P.U.].{.zXiXuXwXfXMX*X,X7X7X7X7X&X7X&XOXBXBXBXnXhX7X7X7XNXlXkXzXkXlXlXlXfXfXaXCXBXZXZXZXVX*X%X$XsX0X%X%X%X$X%X%X_.6.5.V & $ V & # @ o $ $ z C C C 5 z T C J J J Y 5 b v t T g J L | } *.-.@.:.O.O.R ) B G G F U J G H F T Y Y [ [ { @.+.d.l.k.j.P.,.Q.k.h.h.h.h.h.k.z.I.~.~.~.T.:.<.,.$.U.Y.{. X_.'..X@X].{. X[.'.T.Q...M ~ M 3.a 0 3.X.1...B.F.B.M p S Y h.h.~.S.} +.+.r.Y./.R.B._ ! ",
"H P ( H P K [ ] b.A.A.C.C.b. .! p.C.S.C.^.D.S.G.#XMXC S S L 7.Q.A.Z.A.Z.VXZXVXNXNXnXkXkX6XOX|. X[.j.P.b 3 1 2 4 4 7.C 7.5 5 5 5 5 5 T T Q N :.5.T.T.Y.9XtXhXMX*X8X8X7X7X7X7X7X&X&XrXBXBXnXtXeX9XrXkXkXkXkXlXlXlXlXlXgXzXCXBXzXlX6.6.%X%X%X%X%X%X%X6.%X%X_.6.5.5.& $ $ & $ $ $ o o o 5 C C T 5 4 z T z T T T T T v v , C J P Y %.:.Q E ;.E E I I U G G F F F F S J H J Y [ [ { o.d.d.f.j.,.,.,.Y.M.k.l.k.k.k.k.k.E.E.E.~.T.<.o.,.:.>.>.`./.'.P..X.X@X{.].T.T.T.9.1.1.-.<.0 6 0 a <.1.1.B.B.B.2.M u Z u.f.f.z.Y [ [ &.( Z.Y.1.! G ",
"J ( P D K | p.Z.A.S.Z.! Z C Z d Z S S D d ^ P J C g C C J L 7.~.W.A.A.Z.{.>XoX>X8X7X7X XQ.G G _ ! n l.j.2 4 , 4 4 C 4 7.7.4 4 C C 3 N N z V V U.Q.Q.T.P.d.Q.MX*X9X7X8X9X9X7X9X7X7X7XVXNXnXrXrX9XNXkXkXkXlXkXlXlXlXlXlXkXsX;.B 5._.6.$X*XaX$X$X%X%X%X%X%X%X5.5.5.& & & & $ $ o o o o 5 C T T T 4 4 N 4 z z T T 4 v v c x F J T B B E Q E R U B U U B m F F Z F A H D D H ` [ @.Y %.>.d.,.4.,.,.;.i.p.k.k.k.z.k.k.P.E.~.~.Q.O.o.,.$.<.,.R.`.T.Y.I.~.@X{. XOX7X| ' _ ~ ~ 3.3.3.6 6 l ~ l 3.3.~ ~ M q J e.z.Z.h.[ Y | @.I h.M.,.G G ",
"H J ` L | 8.a.p.! G Z Z d Z Z A S D D D K D Z C S J S L K Y  X^.A.Z.V.Z.|. X[. X6X>XOXM.P.Y.( { _ G n Y.w 9 , 4 4 C 4 7.7.z 7.7.7.T Q Q R 5.Q.'.'.Q.T.,.d.d.d.*X@X9XtXrXrX9XwXwX7X7XnXBXhXtXrXtXNXzXkXkXlXkXlXkXlX&XU.U R B E 4.U.4.0XsXaXaXsXsXsX5XdXsX%X%X6.6.V & $ % $ # @ @ 5 5 5 C 7.T T T b z 5 z z z N 5 b v b > z x x N N B N N N B T m m F F C C Z Z J S H K ! ` [ @.[ :.:.,.,.:.5.,.<.#.k.l.k.k.z.k.z.I.I.E.T.T.,.O.,.O.<.,.T.T._.R.~.I..X!.@X@X` ] ' X.' 3.~ l 3.3.0 l 3.~ 3.~ ~ ~ p t q | h.E.~.u.#.e.f.+.W.W.2.~ F ",
"Z 8.e.S | 8.8.J H D A A D A S S H H K ^ ` | ^ S J L J Y 7.8./.A.A.N.M.V. X|.{.`.|.OX{.j.Y.Y.Y.=.@.( M ( U 4 2 1 4 4 4 T 4 7.T T P.P.P.4.I.~.'.'._._._.:.d.d.d.I.W z !.*XrXrX9X9XrX7XrXNXhXhXtXNXNXzXkXkXnXlXaX].B b R Q E ;.;.E 6.U.$X*X0XsXdXsXsX5XsXsX%X%X6.5.x & $ % & % @ $ 5 5 4 z 7.T Y T z N 5 z z N 5 $ r u 4 2 3 4 z x x V V N b b N b b v m v Z C Z S S H D ! ' ` | l.l.l.:.:.:.:.;.f.e.u.d.u.u.f.u.l.k.z.E.Y.T.4.,.:.U <.,.T./.Q.]..X@X@XOX XD / / ^ _ ! 3.t 0 3.3.3.~ 2.-._ 3.M M M i 9 Z u.z.k.u.#.%.u.} E.W.-.~ F ",
"S e.8.S K | J A P H D S S D S ! ^ H ` | | } } 8.S K K 7.| ~.T.N.M.m.m.m.|. X/./.{.8X{.(.(.[././.,.<.) U d.4 4 1 4 4 z 4 T T C 7.OX@X&XOXI.'.].]._._.:.W d.d.d.].I.z z z 5.*XrX9XrX7X9XmXhXhXtXBXNXNXkXkX&XU.N z V z R E Q ;.;.E 5.U.U._._.sXsXsXsX5XsX5X%X%X%X6.& & % 9 & % ; # o 5 o 5 z T T T Q T z z N 5 5 @ 1 2 2 q > 2 3 3 3 3 4 x x V x x b b b b C C C J H K P ` ` ' $.:.:.d.l.,.<.;.;.@.&.&.%.%.&.f.f.d.d.d.l.I.Y.N.<.o.E 4.j.Q.].@XOX*XyX*X@XP K K 8.K ! ~ M a a l 0 a l 1.R.A.m.-.~ p t 6 1 H | h.#.*.#.*.[ M.j.-.n d ",
"s } | C L | F S H ! ! ~ ! ~ ! ^ ^ ` ` ] } 8.8.e.a.| 7.Y 8.OXY.N.N.g.u.,.W.Q.T.M.j.Q.f.j.j.P.j.f.j.*._ _ Y C u 4 4 C 7.x.7.I.x.x.MXhXjXhX*X_._._._.U.:.W 7.d.d.U.U.N z z z N Q U.6X9XyXhXhXhXhXVXzXgX&XE N z N b b N E O.:.O.O.Q Q 4.U._.U.U.sXsX5X5X5X%X%X%XU.6.V 0 & 0 9 % # $ 5 o $ $ 4 z 5 & T z 5 5 o o @ @ 2 2 2 9 : % & & 3 & 3 3 3 3 z 4 4 4 b u v C C J J D ` ` ` [ $.&.:.&.:.:.:.:.<.o.W &.&.&.e.:.d.d.P.l.P.l.P.,.O.,.O.,.Y.T.!./.Q.~.!.{.J S S | K / X.~ M 9 0 0 a 0 a 3.R.N.N.A.T.2.3., 8 Z ` P #.e.#.[ G ..-.( y s ",
"s [ Y g S G Z Z S ] ^ ~ / / / ( ` ] ] } #.8.a.a.s.s.z.8.z./.T.M.m.,.=.,.Q./.T.M.,.Q.j.j.M.P.M.f.l.P.{ { [ ( H a.u.z.r.e.e.d.z.K.hXkXmXjXlXhX|._.U.:.T Q W 7.U.U.U.Q z z z N z N Q Q 4._.[.}.'.P.N N N m b N N b B E :.:.:.:.O.E E _.T._.U.U.U.5X5X5X$X%X_.6.6.4.m L u r 3 @ @ $ $ $ $ $ $ $ $ $ o & o o + # # # % < , , 2 $ % % & & & & & & & & & 0 3 x z C C C J P P ` [ @.&.+.+.:.O.:.$.;.| [ W W &.&.%.d.&.d.d.d.l.k.,.;.) <.,.T.B Q./.Q._.~.{.O.S F J L 8.8.] _ p 0 0 p t 6 6 n N.M.M.Y.M.N.N._ p g ^ L 8 D ^ ] ^ -.-._ p e ",
"d Y Y C d i n Z S K ] ] ' ' ' X.' } } 8.e.a.x.s.s.G.G.G.<XY.B.N././.i.N.[.[.T.,.T.Q.l.k.Y.Y.Y.j.j.Y.Y.@.@.{ ` { a.h.#.e.e.u.x.z.MXmXkXnXkXkXgXgX4.Q m T T Q U.U.U.Q z z N N Q Q N Q Q 5.O.R B R B N N N B N U U $.:.:.:.;.;.;.E E P.U.4.T.P._._.$X$X%X%X_._.U.4.F J J m ; $ $ > $ $ $ O O o o o o o o o + + # # # ; < : , - $ $ $ $ $ $ $ & & & & & 3 2 4 z 4 C C J K I [ E Q E E E &.O.O.Y ) [ Y +.+.&.&.%.d.e.d.d.l.,.:.<.<.,.B I B _.Q.Q.,.!.,.G S S J L K e.9.-.3.p M 3.p 6 7 i 2.p.g.M.N.M.,.{ p f ] ' s ^ ] ] ^ t.-.! y e ",
"y H J Z _ M Z Z S S 9. . ... . .} 9.8.a.a.a.s.s.z.J.G.#X/.r.=.g.$XQ.,.N.[.[.T.N.Q.[.Q.M.Y.Y.Y.k.j.T.4.,.-.*.{ *.} a.e.e.e.e.d.x.mXmXnXnXkXkXjXaX].Q W d.T 7.W 5.Q Q N N Q N N Q Q Q Q 5.O.R V E U E I U E %.>.>.:.:.:.:.:.O.&.E E P.;.E E E R B B E Q _._.U.P.4.G u q , , 3 > 5 $ $ $ $ o O o X o o $ O j # + # @ 6 = : : ; $ $ $ $ $ $ $ $ $ $ $ % 5 > 4 4 4 b C T P Y ) I Q I E E E E [ P [ [ W [ @.+.&.&.&.e.,.d.l.:.,.,.,.N B B B T._.<.O.,.o.G J Z J J K | i.g._ 3.~ 3.p a 8 p 2.g.g.g.N.,.,.{ .. .D K ^ .. .#.{ i.1._ e e ",
"d f D ~ _ _ d d S S | 9.v.0.t.t.t.t.t.r.y.s.s.z.G.G.#XyXu.=.u.u.OX|.,.M.'.[.Y.Y. X[.{.Y.Q.T.T.j.Y.T.T.T.4.=.r.*.r.{  .} 8.e.d.x.hX*X&X&X$X$X$X].I.P.I..X*X].Q Q Q Q z z z Q Q Q Q Q Q 5.O.V V O.+.E :.j.T.Y.P.j.j.:.>.:.:.O.;.;.E B N B N N E B B N E ;.4.P.,.>.r 2 , 3 ; $ $ $ $ $ $ $ o o X X o o o 5 = # + # @ - : ; : ; % @ # # $ # $ # $ # $ $ $ 5 5 5 4 4 u C J U E T T U T E I [ [ [ [ [ [ #.#.#.%.&.%.f.:.d.f.j.,.,.x N m B V T.,.<.C <.O.P F S J J K K #.g._ ~ 3.<.p a p A ,.g.m.g.2.-.-.m.i ~ ^ / / D { { ( [ t._ w u ",
"d D ~ *._ X.p A S S K p.v.c.v.v.v.v.y.p.s.s.z.K.G.G.#XuXu.-.*.#.*.&XQ.T.[.[._.[. X{. X{.Q.Q.Q.I.T.T.T.4.6.,.,.i.*.*. .' ` ` ` Y &X$X&X$X$X%X}.P.I.P.d..X*X5.N T Q z z T N T Q Q Q z $ & $ $ $ V E P.'.'.Q.T.Y.P.P.f.:.:.;.;.O.W B N N N N N N U B B B B B E I 0 2 3 0 2 5 5 5 5 $ $ $ $ o X O @ o o o h g - + = @ = ; - : : - o # # # $ # # # # @ @ @ $ $ 5 < 4 4 C C Y N N N T N B U +.$.%.&.%.&.#.%.%.%.%.%.:.f.d.f.j.j.x 4 N b m b O.<.u /.R.Q.T.:.Q.T.E.Q.U.n 0 ~ 0 0 3.p a 6 ~ -.m.v.1...1.w -.-.i { { } e.' { ( ` ] 1.p f ",
"f D v.-.-.3.3.i S J K | V.b.C.c.m.n.c.V.b.z.J.G.G.#XeXM.g.-.=.*.#.=.}.Q.'. X[. X|.|. X X!././.Q.Q._.T.T.4.P.,.T.i.t.*.} ] ' / | $X].].%X]._.T.l.d.W %.~.U.U.z b z z z z N T & $ $ $ $ & $ $ & ;.P.,.j.,.T.Q.T.Y.Y.Y.:.:.$.&.;.E O.V V x N N N N U B T B T m b 4 9 4 4 3 3 3 3 3 $ & $ $ $ X + + @ o * h g d * + + = = 5 - - : @ # X X # X # # # o + + @ @ * = 5 4 4 C ) b N b b N N +.O.O.&.$.%.$.%.&.%.&.%.%.d.d.e.f.,.V c x B x N , :.[.`./._.T.T.N.,.I.'.Q.! p t 0 6 9 6 % % < ( W.B.B.v.B.X.X.! ~ f / ) [ #.*.( X._ ^ E.^ A ",
"A M v.1.1...3.p S S K | #.S.A.S.S.C.S.C.S.G.J.#X#X#XbXj.i.=.*.#.#.#.|.'.'.'.|.&X>X6X>X7X>X{.'././.'._.T.T.4.T.T.@.r.r.} { P P G r 0 2 2 3 > * = 5 * * @ * 2 4 x 5 4 z z $ @ $ o $ $ $ $ V B O.E T.Y.U.j.j.>.P.Q.Y.T.:.;.;.O.O.W o.E N V V B N N N B U B U B c x 4 z r 4 4 5 & & & & & $ 5 @ @ X + + = = 1 s s * + = : - - 1 1 s # # X # X # + X + + # # # @ * * : 2 u N b z b V b o.@.o.$.O.$.@.&.%.&.%.%.u.u.d.l.d.l.;.c V b B m 4 1 {.[./.T.T.T.T.,.$.P.Q.H M 3.0 a 0 6 % : ; : -.W.A.v.1.1.X.3.3.X.K ] ]  .{ -...~ ! ! f.' D ",
"-.~ ..1.1...-.~ S D K | | e.^.D.D.D.S.S.G.G.J.H.#XIX8Xv.,.-.=.@.#.#.#.}.$X$XjXjXjXjX8X9X9X|.|.{. X[.`.Q._.'._.Q.:.[ [ P ) P _ U 9 0 2 @ @ + j * ; 5 % * * : 2 2 z 5 5 5 o $ o $ o $ Q N Q ;.O.B Q.T.Y.Y.P.j.f.>.f.Y.f.$.$.;.;.O.E E U B N V U B T U U U U B m > o o X X X O X O X o o O d e = - 1 Z s = * 1 1 1 + o * : - - - 1 X X X X # X + + # o X + + @ * * - 1 ( z 4 z 3 z z @.@.$.O.@.%.=.+.O.:.&.%.$.$.&.:.f.o.R B 2 > x 5 , {.[./.[.R.R.2.2.,.=.I K ! ~ 3.l l 0 9 6 < ; w B.m.v.1.1...X.....X./ ] 9.0.t.-.-...~ ~ %.] ! ",
"1...-.y.v.1...X.S H H ` } | #.l.XXXXD.H.H.H.H.#X#XmXT.2.-.-.-.@.#.#.#.6X0X9XgXBXlXjXjXgX9X7X|.|. X|.[.`.'./.'.'.4.[ ` I ( I I U 0 0 * @ * + * * = = = = , , < = 5 5 * * @ @ @ @ z Q :.Q E E R B Y.Q.T.Y.Y.P.j.j.f.>.:.U <.O.O.O.o.I N V x 3 z z B U B B N B V o o X o     o   X X X X 4 C s 4 1 - - - 1 = - 1 - 1 + - 1 1 1 h 1 p + X + +   + X + j + + j * * * * 1 B 0 3 3 3 x c O.E O.O.$.=.=.o.O.E o.O.+.O.o.W U B B B m 3 0 , T.'.[.[./._.T.j.,.*.C J | #.{ 3.l M 0 0 6 6 % ..B.v.v.v.1.1.1.....K ] 9.9.t.a.v.M X...A { ] v.",
"1.1...b.u.m.2.1.f D K ^ | | } e.u.z.XXXXXXXX#X#X1XxXT.,.,.>.-.@.{ @.[ 6XaXeXhX6X&X$X0X6X$X|.$X$X$X|.}.'._._._.'.P.M c 0 0 2 _ U = * = * * * * * 6 6 q 7 : ; : = 5 * * * * 5 9 T I O.E E R E B B &.'.'.T.Y.I.P.j.j.l.f.b N b I E E B x > > , , < ; ; @ @ $ @ # o X X   o j       O X 5 C z C C C C - 1 1 1 - h 1 8 8 o 1 1 8 s 1 e + +   + + X j + + +   j + j * * C 3 9 3 3 & 3 B T U I U W &.%.o.o.B o.o.E o.E B B B N N b b x '.R. X[.R._.T.T.,.C s J P Y } #.<.3.M M a 0 6 6 v.C.F.B.B.v.1.1.1. .^  .9.t.r.p.c.M M A _ m.m.N.",
"2.2.1.1.u.f.j.j.-.D D ^ ` ` | } e.r.u.z.#X#X:X#XJXQ.N.N.N.-.-.@.{ ) @.^.hXbXgX6X&X0X0X0X&X$X&X6X$X|.}.}._.'._.'.O.'.m.m.m.M > % 5 - - - - - - : : 6 , : : 6 : : 5 5 * 5 , r F T U E T U B B B B b Q.Q.E.Y.Y.k.k.j.k.l.$.m N b 0 > > % & < < , < w w a 7 = @ o X X o X j o   o   O 1 4 z 4 C C C C v 4 1 4 u 1 - u s s 1 1 8 8 s i 6 j + + + + + +   + + + + + * - T 3 & & & & 3 F T B U Q D [ >.E B U U o.I I m N T B m m ;.Q.{.[.[.,.[._._.,.t y y s J K Y [ &.-.-.$.! p a a X.F.D.B.F.B.B.1.1.1...] } r.r.p.p.V._ ~ n p _ 1.B.",
"1.B.1.-.Z.u.,.l.,.A D D / ` ] } #.r.a.u.s.z.#XvXAXY.T.N.2.,.-.@.@.m.A.,XbXAX&X0XaXfXlXgXaX9X0X~.aXrX0X$X|.}.[.U.T._.M.C.=.) 6 : = * 1 7 1 7 7 h w w 1 7 7 7 : 6 5 1 4 s v n n m T U m m m m b b b j.Q.T.Y.Y.Y.M.k.j.j.f.z 3 , 2 : 6 6 = , 1 , y i i p A ~ i X X X o o   o j o o 1 < 4 4 C z z C b b 4 1 1 s 1 1 - 8 s 1 4 q s s i ~ # + X j X X + + + j + + + * 1 3 0 3 9 9 & & C m B I E J Y O.U M B G G B m m n +.P.~.!.!.{.[.[.`.T. X,.m c t y C C F J Y [ #.<.-.=.@.O.~ l 6.H.D.D.D.B.F.B.v.v.~ } *.r.u.y.h.V.V.M M A A _ X.",
"~ X.X.1.N.$.%.:.$.) ~ D D D / } } 8.r.a.a.z.z..X0XW.T.M.2.,.-.B.^.).).VXBXBXNXbXpXpXVXZXVXNXBXiXyXgXgXaX&X$XP.U._.U.) @.G G q 7 8 e q 8 8 1 8 e e p 7 w q w 6 7 w t y i t v v Z U Z v m n c c c 0 v Y.W.Y.P.M.P.k.P.%.o.b 1 4 1 w 7 7 6 6 8 A G M M i ~ H G X   o o o o j o * - 1 2 4 2 2 z z b b b < 4 z b b 4 u 1 h o s u s s Z A % # # j j + + + + + + + * * V & 0 0 & & % 0 U G H F m F F F G m M G U m b W.~.~.!..X{.!. X].[._.c 4 v b y y s y Z S J ( +.+.@.@.@.@.@.O.-.A.XXH.).-X-XB.B.B.v./ #.*.r.u.u.s.z.V.~ M A M ~ X.",
"X.X.! ~ X.^.&.O.&.| ! ! ! ! L ~ /  .r.r.a.s.K.yX{././.M.N./. XXX(.).eXBXBXBXCXCXCXpXpXpXVXCXCXBXyXgXdX9X0X'.P.4.:.$.$._ G G Z w y e e 1 1 s s d d y t w w e e i i i i y i d n n y v n v M M c c c 0 j.Y.Y.k.k.g.%.[ U P C 1 4 s y e a w t { [ { ! 3.~ ( ( I # .   o * o o o 5 1 3 , 3 3 2 2 3 i u P K 1 4 b z 1 1 s h * * + s C ~ ~ b # # # # X O + X + + + + = 0 x x & & 0 V o.E @.! J F C F F m F m U E.~.~.!.!.E.!.!.!. X{.P.B x 9 2 r r v y y C Z J ' _ { { +.@.@.@.O.{ p.z.S.~.oX;X-X-XB.B.X.{ } @.*.u.u.h.z.V.B.~ A f ~ ..",
"X.X.X./ / ] -Xl.| Y / ^ ! ! ! ^ ! ^ / 8.s.a.G.fXoX X{. X&XOX|.<X).oXVXBXBXBXNXNXcXiXpXeX3XqXNXkXlX&X$X|.'.Q.P.P.>.%.%.e ! A Z p 8 8 1 u s s d Z G n i i f d f p p d i i y d i n d n ) >.,.>.:.<.U 0 +.N.M.=.{ ( H H H G J y s s n A ~ M n M | @.{ { 3.{ Y Y *   o * o o o 5 4 7.{ d H H K K K ` ` ` P ` { } u 5 1 4 g * * * * - l ~ 3.# # # + + X X + + # # # & x x 3 0 V o.O.o.o.E %.F m b F F m ~.(.(.oX(..X{.].!.!.{.!.O.B x x 4 q 4 4 y r C Z ` ' ' { { ..{ { ) [ o.) =.p.s.Z.S.^.oX;X-X).B./ [ *.i.c.V.S.A.S.S.S.~ ~ A A _ ",
"..X.X.X.X./ D.B.R.f.] ' X./ ' / ' ^ / | | 0.XXoX(.{.7X7X7X>X>XoXR.uXBXCXBXBXBXNXCXjXjXqX,X>XoXBXlX&X].'.Q.E.P.T.'.T.>.=.! A e 7 1 8 u 1 s g S H A D ! ! ~ f f f d d i d d i d P +.%.%.>.=.:.-.$.@.[ P g.{ ` ! ! H H D H H d s S G ~ _ ~ M p ( @.<.O.O.@.7.7.5   o * * * 4 4 o o d D ` ` P H K K ^ ] } } } } } 7.5 1 * * - - 1 - 6 = 3.% # # # X + + + + # # # 0 x x B O.o.o.O.B U E j.W.S.^.^.^.(.(.{.oX{.{.@X!.@X@Xl.O.N x b x 0 4 r r q r d ^ ' ] ] } ..{ ..@.X.{ _ ) o.h.s.V.S.S.~.XXXXXXXX^.] r.y.p.b.V.A.S.G.).)...~ ~ A k "
};
