/* XPM */
static char *result[] = {
/* columns rows colors chars-per-pixel */
"256 256 256 2 ",
"   c #0C0015",
".  c #240019",
"X  c #12002E",
"o  c #270028",
"O  c #280239",
"+  c #370738",
"@  c #35042C",
"#  c #460E3B",
"$  c #13074E",
"%  c #2A0746",
"&  c #380C47",
"*  c #3A1457",
"=  c #331150",
"-  c #341A6C",
";  c #382375",
":  c #1E166A",
">  c #430D48",
",  c #481449",
"<  c #561A4A",
"1  c #471757",
"2  c #551C57",
"3  c #400F50",
"4  c #592459",
"5  c #4D2456",
"6  c #672659",
"7  c #6D2B59",
"8  c #491C65",
"9  c #531E63",
"0  c #441E74",
"q  c #492368",
"w  c #582568",
"e  c #482778",
"r  c #582977",
"t  c #583373",
"y  c #672968",
"u  c #742D67",
"i  c #78336A",
"p  c #662C75",
"a  c #693478",
"s  c #773678",
"d  c #6A336B",
"f  c #621E55",
"g  c #744478",
"h  c #5B4174",
"j  c #863B78",
"k  c #86386D",
"l  c #80315F",
"z  c #8E447A",
"x  c #352A8E",
"c  c #3A37A9",
"v  c #2B1E81",
"b  c #472B87",
"n  c #582D87",
"m  c #583489",
"M  c #493498",
"N  c #573797",
"B  c #4A3090",
"V  c #683788",
"C  c #783B86",
"Z  c #673B96",
"A  c #763D96",
"S  c #622E82",
"D  c #4939A7",
"F  c #573AA7",
"G  c #4E3CB6",
"H  c #673EA5",
"J  c #7A448A",
"K  c #6A439A",
"L  c #784598",
"P  c #6F4B8E",
"I  c #5946B8",
"U  c #5144B0",
"Y  c #6846A9",
"T  c #7749A8",
"R  c #6948B8",
"E  c #764BB6",
"W  c #7953B8",
"Q  c #7454AF",
"!  c #5E489B",
"~  c #5748C7",
"^  c #584CD6",
"/  c #5954D8",
"(  c #4F4AC8",
")  c #674CC5",
"_  c #6954C8",
"`  c #7857C6",
"'  c #6856D8",
"]  c #765BD7",
"[  c #694ECE",
"{  c #7A63DA",
"}  c #7465CE",
"|  c #5C57E6",
" . c #685AE7",
".. c #765DE6",
"X. c #6B5DF4",
"o. c #7965E8",
"O. c #6B66FA",
"+. c #736DFF",
"@. c #7868FA",
"#. c #7572FF",
"$. c #7B74FF",
"%. c #7D7AFF",
"&. c #7973F5",
"*. c #6B65EB",
"=. c #4D3EC2",
"-. c #853D86",
";. c #873F8B",
":. c #884489",
">. c #954789",
",. c #884797",
"<. c #944B9B",
"1. c #974A96",
"2. c #985499",
"3. c #8D5492",
"4. c #A5559A",
"5. c #A25092",
"6. c #884CA6",
"7. c #954DA4",
"8. c #8854AA",
"9. c #9954A8",
"0. c #8856B7",
"q. c #9858B7",
"w. c #854EB3",
"e. c #A759A8",
"r. c #A55BB7",
"t. c #B35DAE",
"y. c #9864BA",
"u. c #9165B1",
"i. c #A964AA",
"p. c #A964B9",
"a. c #B666B8",
"s. c #B46DB1",
"d. c #9C6599",
"f. c #C36DBC",
"g. c #885AC7",
"h. c #975CC6",
"j. c #885CD5",
"k. c #925ED3",
"l. c #A35EC3",
"z. c #8A63C9",
"x. c #9864C9",
"c. c #8864D8",
"v. c #9966D8",
"b. c #9474D4",
"n. c #A866C8",
"m. c #B56AC8",
"M. c #B873CA",
"N. c #A76AD7",
"B. c #B76DD5",
"V. c #A974D9",
"C. c #B775D8",
"Z. c #A874C9",
"A. c #8868E7",
"S. c #986AE6",
"D. c #9974EA",
"F. c #866CFA",
"G. c #976DF5",
"H. c #8474FF",
"J. c #8B74FE",
"K. c #837DFF",
"L. c #8C7CFF",
"P. c #8A73F4",
"I. c #9474FE",
"U. c #9B74FD",
"Y. c #947CFF",
"T. c #9B7BFF",
"R. c #9874F4",
"E. c #8874E9",
"W. c #A56DE7",
"Q. c #A874E9",
"!. c #B778E7",
"~. c #A37CFE",
"^. c #AB7BFE",
"/. c #A775F7",
"(. c #B67BF9",
"). c #A56FED",
"_. c #825FE2",
"`. c #C676C9",
"'. c #C576D9",
"]. c #CC75D0",
"[. c #C67AE6",
"{. c #CA7EEE",
"}. c #B684D8",
"|. c #8582FF",
" X c #8B84FF",
".X c #8D8AFF",
"XX c #8982F5",
"oX c #9483FF",
"OX c #9B84FF",
"+X c #938CFF",
"@X c #9C8BFF",
"#X c #9A82F4",
"$X c #9592FF",
"%X c #9B94FF",
"&X c #9D9AFF",
"*X c #9785EA",
"=X c #A383FF",
"-X c #AB83FF",
";X c #A38CFF",
":X c #AC8BFF",
">X c #A984F3",
",X c #B383FF",
"<X c #B38BFF",
"1X c #BB87FD",
"2X c #A494FF",
"3X c #AB93FF",
"4X c #A39CFF",
"5X c #AB9BFF",
"6X c #AB93F6",
"7X c #B394FF",
"8X c #B39BFF",
"9X c #BB9CFF",
"0X c #BB94FF",
"qX c #B684E8",
"wX c #A5A2FF",
"eX c #AAA5FF",
"rX c #ADA9FF",
"tX c #B4A3FF",
"yX c #BCA3FF",
"uX c #B2ACFF",
"iX c #BBACFF",
"pX c #B5B1FF",
"aX c #BAB4FF",
"sX c #BEB9FF",
"dX c #9C80CC",
"fX c #D983DA",
"gX c #C786D7",
"hX c #C785E9",
"jX c #D886E9",
"kX c #C688FC",
"lX c #D68BF7",
"zX c #C798FF",
"xX c #D697FE",
"cX c #D393EA",
"vX c #E596F9",
"bX c #E893EB",
"nX c #C7A8FF",
"mX c #D7A8FF",
"MX c #C2BCFF",
"NX c #C9B6FF",
"BX c #D6B8FF",
"VX c #DCA4E8",
"CX c #E7A8FF",
"ZX c #F8A8FB",
"AX c #E6B6FF",
"SX c #F8B5FE",
"DX c #F1A4ED",
"FX c #E28ADD",
"GX c #CAC5FF",
"HX c #D7C7FF",
"JX c #D9D3FF",
"KX c #E8C8FF",
"LX c #E6D5FF",
"PX c #F6CDFF",
"IX c #F2E6FF",
"UX c #B985BC",
/* pixels */
"mXkXkX{.{.(.!.!.!.{.kXBXBXBXBXBXBXBXBXBXHXkX(.V.H z.A.G.U.U.U.T.OXT.3X3X2XoX2Xe J n.T x.GXeX.X$X} 4 4.i.fXfXUXFX`.f.`.M.e.7.2.;.;.l.l.!.{.(.(.(.{.(.(.kX{.G.G.G.G.G.U././.~.~.^.(.-X<X<XG.G.U.G./.G.U.U.:X-X-X<X7X=XT...) 8Xr.n.q O.rXGXuXk l 7 j 5.5.e.t.t.{.vXlXkX=X-X<X<X7X7XY.nXN.B.8.R #.GXGX>.j @ f k -.;.;.5.7.7.6.7.6.6.6.,.6.[.).[.).B.W.N.k.l.l.l.l.h.k.(.xXmXmXBXnXNXNXnXBX9X!.(.CXSXSXPXAXAXBXAXBXBXBXNXnX5X@XH.1X3.6.u.C.NXwX&X&XQ d 2.i :.;.1.1.1.1.<.7.<.;.C s 9 n.m.lXlXxXxXxXCXxXxXxXxX{.^.,X1X<X0X0XkXzXzXnXmX",
"nXmXkXlXlXhX{.[.hXC.m.(.mXmXBXAXBXBXBXBXBXBXmXZ n T g.S.G.U.U.T.Y.=X3X;X@XY.K.,.,.A L q.HXrX$X4X+.y z 5.f.f.FXf.f.f.a.e.<.,.;.C s r.[.[.{.{.{.{.{.{.{.{.B.N.W.S.G.).U././.~.~.^.^.(.(.-XG.G.G.G.U./.U.^.<X=X=X-X-XT.J.R 8X:Xy.n.w O.uXMXMXi.k 7 k ;.;.5.4.t.{.vX,X,X-X:X<X7X0X=XyX9Xn.M.6.R %.rXHXZ.z . # u j -.;.1.<.7.9.6.6.6.6.6.6.B.B.B.B.B.B.B.B.l.l.l.l.r.7.l.{.lXmXBXBXmXnXBXnXNXnXxXZXSXSXSXSXAXAXBXBXmXnXnXnX;Xo.o.w 8.L Z.hXsXwX%XwX%.< >.u z >.>.;.1.1.;.;.;.C y 3 & hXlXlXlXlXlXlXCXvXCXlXlXB.(.^.(.1X1X0X0X0XmXnXmX",
"mXNXmXkXjXhX'.'.B.m.m.B.(.xXmXCXmXCXmXBXBXBX7X7X1Xm T g.S.U.U.U.~.T.=X7XL.o.} C q.V A q.HXpX%X#.%.C i >.4.].f.f.s.t.5.1.;.-.p C {.DX{.{.!.[.{.[.{.[.[.B.B.l.N.N.).W.).).U.~.^.^./.(./.).G.G./.U.G./.^.^.-X-X-X-X=XU...F 8X* n.q V O.sXwXGX! k < l j ;.5.t.t.{.{.^.=X-X<X<X0X7XI.nXr Z.8.8.)  X#.HXnXz l @ f k j ;.1.>.7.7.7.7.7.6.,.,.6.B.B.B.B.B.l.l.N.l.l.r.r.l.B.[.{.xXzXmXmXmXnXnXmXnXKXPXZXSXSXSXAXAXmXmXnXzXyXyXOX%XW g u.8.C.kXuXrX$XpX|., i 7 j 5.5.;.5.<.;.;.s y 1 p '.B.bX{.bXvXCXDXvXvXjX[.B.W.W.(.(.(.1X1XkXmXmXmXnX",
"nXmXBXBXkX[.'.B.m.m.B.B.!.{.zXxXmXmXmXmXmXmX:X:X:X<XW R ` A.G.U.T.=X=X;XF.Y.! L n.r T g.HXsXwXpX$X{ 6 z 5.f.t.t.5.5.>.;.s p e.jXFX{.'.[.[.{.[.[.B.B.B.B.l.N.l.k.N.!./.)././.^.^./.(./.G.).G.G./././.U./.^.-X=X-X~.J.) 7X:Xy.n.w J O.pXrXMXMXj j f k -.>.4.t.].{.^.-X-X,X<X0X;X:X9XZ.B.,.q.`  X%.rXHXa.k . > y j -.5.;.r.9.7.6.7.7.,.6.,.l.B.B.l.B.B.l.B.l.l.l.l.m.m.B.{.kXxXxXxXxXnXmXmXmXKXKXKXPXSXSXSXCXBXnXzXzX9X7XoXY.8.L !.0.hXlXrXrX%X.X.X1 6 7 s 4.4.5.5.1.-.j y 2 7.n.m.B.bXbXbXvXbXvXcX{.'.B.N.B.B.)./.(.{.kXxXxXnXBXmX",
"mXBXKXNXmXkXC.'.B.B.B.B.[.(.{.lXxXxXmXmXmXmX^.^.=X=X:XD.E j.S.I.~.~.-XY.A.A.V.u.8 w K w.JXGXrX$XwX#.6 z z 4.4.5.5.;.;.i u m.FXfX{.{.].'.[.'.'.B.B.B.m.l.l.N.N.B.N.W.).!.(.(./././.(.).G.G./.)./././././.(.^.-X~.~.o.F 8X% n.5 t V o.tXpXwXGXN.k < 7 j >.5.1.].{.~.-X,X<X<X7XT.nX/.Z.6.8.q.` |..X#.GX#Xk . @ f l j >.:.s.p.i.9.9.7.<.<.<.1.B.m.m.l.B.B.B.m.l.t.B.m.m.B.!.kXkXkXzXxXxXzXnXmXAXKXKXKXPXSXSXAXmXzXzX0X<XP.A.] V 8.L Z.kXlXwXpX$X%.4X*., z 7 z >.>.;.-.s y j e.9.r.r.l.].bXbXbX{.{.[.'.'.B.B.B.).).{.(.1XxXzXnXmXnXmX",
"nXBXBXnXNXBX{.'.'.B.'.B.B.[.{.kXkXxXxXxXCXmX~.^.=X~.~.T.^.` j.G.U.-X~.A.I.Q L y.* e Z A JXGXsX&X%.|.T 7 z z 5.;.-.j u j fXFXjX].].'.f.'.].B.m.`.m.m.m.m.l.m.l.N.B.W.B.).!.).(./.(./.)././.)././././.^.^.^.^.^.T.I.) 7X;Xp.N.q L V X.wXpXwXsXsXz k f k j 1.5.m.{.~.-X<X<X0X-XF 7XZ.C.,.w.w.c.|..XXXMXGX4.z . < u s -.1.t.e.p.i.u.r.7.7.7.7.7.B.].B.B.B.B.B.B.m.m.m.B.B.[.[.{.kXlXkXxXzXmXPXSXPXAXAXAXKXSXCXmXxX0X<XT.c.Y.T P y.8.C.kXxX%XwX%X#.K.XX, 7 i k >.;.j k u ;.7.7.9.e.r.r.m.{.bX].{.[.'.'.'.'.B.B.[.[.(.{.xXxXxXxXmXnXmX",
"mXBXNXBXNXNXBX[.B.'.'.B.!.[.{.{.kXlXxXxXxX>X/./.~.~.T.T.U.T.G.S.U.^.I.] A.= T 8.* 0 m Z JXGXGXuX$X&XO.# k i j j k u t.].fXfX].].m.m.m.l.m.m.m.m.m.m.m.l.l.B.l.N.N.B.).!.!.).)./.).).)./.)././.)././.(./.^.-X=XU._.U 9Xq n.1 g V S @.%XwXrX/ GX9.k f l j >.>.t.{.^.^.,X<X0XY.8X/.Z.8.L w.6.v.K..X$X#.GXQ k . # 7 i j >.7.<.9.e.9.e.7.e.7.7.7.7.B.m.m.B.B.B.m.B.m.B.m.B.B.!.[.{.{.kXkXzXzXSXSXSXAXAXAXAXAXAXmXxX0X-XA.] ] L K L z.(.lXxX%X$X&X#.#.&XR # z u j -.j u ;.;.7.7.7.7.9.e.7.].{.{.].'.'.B.B.B.B.!.[.!.{.xXlXxXxXxXnXmXmX",
"mXBXNXNXnXBXNXmX{.'.B.'.[.!.{.kXkXlXkXlXW k.S.)./.~.~.T.U.Y.Y.~.G.U.c.R.Y K 0.% * q r N JXJXGXGX&X%..Xm 6 i u k -.`.`.`.`.`.m.t.t.e.1.;.t.m.m.m.m.l.l.m.B.l.B.N.B.W.B.!.!.(.).).).).).)./.(./.(.^.^./.(.^.^.~.U.` <X7Xx.n.q P V L BX.X%XrX%XGXrXk k f k -.>.f.[.^.,X<X0X-X; 7XV.B.A 6.6.L CX5X|..X.XsXMXz z . < u j ;.<.2.<.<.<.7.7.7.1.7.7.7.1.t.m.B.B.B.B.m.B.B.B.B.B.[.(.{.(.kXkXkXSXSXSXSXAXAXAXBXBXmXNXmX1XU.` R.Z t y.T N.kXzXxX$X.X.X#.O.K.|., 7 7 i j >.1.;.1.4.1.<.<.<.1.>.5.].{.].'.'.'.'.[.'.'.!.[.{.xXxXkXxXzXmXmXnX",
"mXBXNXNXnXNXNXBXxXlX[.C.[.{.lX{.{.{.{.n H w.k.k.S.G.G.U.U.T.T.T.:XA.W ` q T 0.% - 0 e S JXJXHXGXuX$XwX+.# u 7 4.`.f.f.f.f.t.t.4.;.1.;.-.C ;.m.m.m.m.l.B.m.l.m.N.N.W.B.!.!.).).).).).(.).(.(.(.).(.^.(.^.-X^.~.A.R :XQ y.8.g V 6.bXCX>X$X&X&XsXMXr.k < k j ;.a.[.~.,X1X<XU.0XQ.n.V.V 6.A 9.ZXBXtX|.|.U GX!.z . # 6 j >.1.1.7.1.7.7.t.1.1.7.7.7.7.7.B.'.[.].B.B.].B.B.B.B.B.[.[.(.{.{.ZXZXSXSXSXAXAXmXCXBXnXnXnX9XS.S.Q P Y T 0.(.zXxXxX+X|..X|.+.( &X' # k 6 k 5.5.5.1.1.1.;.1.;.;.S y f ;.].'.'.'.'.hX'.C.[.xXxXxXxXxXkXxXxXNXmX",
"xXBXnXnXBXNXBXnXBXmXlX[.[.{.xXhXN.3 0 b n Z H g.j.S.G.G.U.U.-XT.T.F.Y.P T z.= * - 0 e n JXJXJXGXGXwX$X.XR # z 4.t.f.t.t.t.5.1.;.;.;.-.s p p a 7.t.l.m.l.m.m.N.B.B.B.W.N.B.).).).!.).).(.(.(.(.(.(.^.(.(.(.~.U.{ <X=Xq.n.a t q.bXDXmX:X=X2X$X.XGX9Xl j 7 k -.f.B./.,X<X-X$ :XK Z.C A V q.n.ZXAXBXpX$X|.HXsXk k @ f u ;.7.4.1.7.1.7.7.7.7.1.7.7.7.7.7.B.{.[.B.B.].B.B.B.B.'.[.[.{.vXZXZXSXSXSXSXZXCXCXmXzXzXzX7X=XyXo.T V b.w.Q.kXxXxXxX@X|.$X.X#.O..X.Xt < 6 u j ;.>.;.1.;.-.;.-.u y 2 3 & & p ].'.'.'.[.[.vXlXjXkXlXkXxXkXmXnXxX",
"[.mXnXNXnXNXBXBXBXBXmXl.1 d g q * * 3 0 r n Z H w.j.S.G.U./.~.T.J.] o.q.0.* = - - 0 e b JXJXJXJXJXsX&X#.|.g l 5.t.t.t.5.5.>.1.-.-.p p y s :.a u S ;.,.7.w.q.q.q.l.h.l.l.l.).).).).).).(.).(.).(.(.(.(.1X,X~.G.W :X0.y.V.y u.bXDXbXCX<X7X7X@X.XpXsX9.k 7 l -.`.'.).<X<XG.nXD.x.C.V S M.m.n.ZXAXKXKXnXK.&XGX!.z @ < u ;.5.1.7.1.1.7.1.7.1.7.7.7.7.7.7.B.B.B.B.].{.{.{.{.{.vXvXvXZXZXZXZXSXSXZXSXZXCXCXmXxXzX0X7XI.{ _ p 0.w.v.kXxXxXxXxX.X|..X.X#.+.O.rX&X< k 6 j >.>.>.;.;.-.j p f 2 > > + O O + + % 1 r DXlXlXlXlXcXlXxXlXmXzXmX",
"[.xXxXnXnXnXnXnXnXmXNX=XL h g t 3 * * 8 r n n H H g.j.S.G.U./.~.A.J.N L l.= * 8 0 n e e JXJXJXJXJXGXrXXX%XK < >.5.4.5.5.>.-.j -.y y y 6 -.3.C a S -.,.7.7.7.7.q.h.l.l.l.l.B.).!.[.).(.).(.).{.).(.(.(.(.(.~.A.=XT.0.n.t 9.bXbXbXbXCX0X9XzXzXH.%.MX5Xl j f k ].B.).<X~.R.9Xn Z.V r M.C.M.Z.ZXAXAXKXAXiX&.JXpXl z # 6 ;.5.1.5.1.7.1.1.1.7.1.7.1.7.7.e.'.B.'.[.].{.{.{.{.{.bX{.vXbXZXZXZXSXSXSXSXSXAXCXmXzXzX1X~.o.Y.Q P w 0.,XkXxXxXxXxX|.K.|.&X.X#.O.4X%X& 7 6 k j z >.-.-.u y f 1 > > + O + + O + & & Z.jXjXlXjXxXvXxXxXlXvXzXvX",
"[.vXvXxXmXnXnXnXnXmXmXI.Y.a d.h 8 * * 8 w r n Z H w.j.k.S.U.^.G.:XA.x.8.& = r - r e 0 b KXHXJXJXJXMXeX.XeX#.< i j >.>.-.-.-.l p y f w d 3.i.;.s -.C ;.6.q.7.q.q.q.q.l.h.l.W.).).).).(.).(.(.).{.(.(.(.(.1XG.z.:Xc.x.}.p.hXbXbXVXFXCX<XzXzXnXzXo.eXaX2.k 7 7 `.C.S.^.D.0XD.x.V.w Z.m.B.m.p.ZXCXAXAXAXBX0X+XGXM.j -.f 1.1.4.1.1.7.1.1.e.1.1.7.1.7.7.7.[.].].{.].{.{.{.{.vX{.bXvXZXZXZXZXZXZXZXZXSXZXSXmXzX0X,XG.` } a i.P 8.!.xXxXmXxXzXH.K.%..X$X.X%.#.wX&.# z 7 j >.j j u y f < > > + + O O O + + & r.7.jXjXcXlXcXvXvXbXlXvXkXvX",
"{.bXvXmXzXmXzXmXnXnXnXI.I.I.P g 9 & * 3 8 e r n A H g.j.S.U.G.j.R.R L y.+ * r V A e 0 b LXJXJXJXsXsXpX&X%.$XP < >.l >.-.k u y f 2 6 y s 3.2.;.p C -.;.,.7.7.q.q.7.l.h.l.l.W.).B.B.(.).(.{.).(.(.(.(.(.{.(.c.~.R.L Z.B.C.gXfXbXbXDXxX<X<X0X7X7X>XnXsXtXu z 7 s.m.c.).A.9Xm n.a p.p.n.m.m.n.ZXmXCXmXmXnXzXnXsXrXi z u >.1.5.1.5.1.7.1.1.1.1.1.7.7.7.7.[.{.{.{.{.{.{.{.{.bXbXvXvXvXZXZXZXZXSXZXSXSXSXPXAXxX1X~.c.G.! P Z.6.p.N.!.xXxXxXzXH.%.%.#.&X|.|.%.|..X5 i 7 l j -.j u f f > # # + @ + @ + O & 6.6.7.jXjXbXVXbXlXbX{.bXxXlXvX",
"jXlXvXxXmXmXmXnXmXmX,XI.I.I.Y.8.8 3 3 * 8 0 r n Z A H k.S.S.c.E c.Z.8.x.% 1 r a Z A n b HXJXLXGXMXsXsXeX@X4X@.> l l l -.l y f f 2 < 6 g g g -.C S ;.;.6.7.q.r.7.q.q.l.q.l.W.W.W.).).(.(.).(.(.(.(.(.1X(.S.z.3X` y.p.m.'.gXfXFXDXbXlX,X0XzX<X>X-Xb.7XrX,.z UX4.y.0.g.:XA.y.n.q.n.y.p.n.B.m.ZXxXmXmXzX1X<X<X9X8Xl.k z l ;.5.1.1.1.1.1.1.1.7.1.7.1.7.7.{.{.{.{.{.{.{.{.bX{.vXvXbXvXvXZXZXZXZXSXZXSXSXSXAXxX,Xv.E.W w.y.8.u.N.!.[.hXlXxXzX#.%.&X&X$X.X|.O.|.&X' < z f l j k y 9 2 > + + + O O O + + e.6.,.6.M.cXbXbXcXjXjXbXlXvXlXxX",
"jXlXvXvXxXxXxXmXmXnXI.F.I.I.I.~.g.* 8 3 8 8 r S Z H w.k.v.z.` D.N T Z.% = * e r S A w.T NXKXLXHXGXGXMXsX4X@.I.H < k f u y f f 2 2 2 6 g d d S C -.;.;.,.7.9.9.q.q.q.q.l.l.N.W.W.).(.B.).(.(.(.(.{.(.(.v.x.Q.D.V L 8.y.gXgXgXFXVXVXlX(.1X,X-X>X>X-XR.>XyXi 4.>.,.T (.U.L 8.9.p.Z.p.p.m.m.`.DXlXxXxXkX,X<X).R.).F.k 5.;.l ;.1.5.1.1.1.1.7.1.1.1.1.7.1.{.{.{.{.{.{.bX{.bXbXbXvXvXbXZXZXZXZXZXSXSXZXSXAXCXxXD.W c.K m Z.6.N.!.{.{.lXlXlXlXL.5X5X&X$X|.|.#.&.|.$X+ 7 5.l l p f f < > # + + + @ + + r.6.7.;.,.9.jXjXcXFXjX{.bXvXxXlXvX",
"FXbXlXvXvXxXxXmXmXmXU.U.I.I.I.I.-Xw.8 8 8 0 r S S T 0.b.u.W R.Q N.0.v.% = 8 0 r S A q.y.N.mXKXLXJXJXGXGXpX&XwX%.4 4 k < 4 f < < < 2 y u p y s s C C ;.;.,.7.q.q.q.q.q.r.l.B.W.W.).!.).(.(.(.(.(.(./.v.x.Q.g.n 5 t J 9.i.'.gXgXfXVX{.1X^./.D.Q.0.-Xb.W W d u 5.p./.x.W r t J 9.q.n.p.r.m.`.ZXzXkXkX<X,X-X/.c.Q Y t i >.:.u g >.1.5.1.1.<.1.<.7.;.7.7.{.{.{.{.vX{.{.{.{.vXvXbXvXvXZXZXZXZXSXZXSXZXSXSXxX1Xv.v.K T T 0.q.!.hXlXlXlXxXbXr.(.mX7X2XoXK.K.|.O.*.&XXX# k g i 7 f < > # # + @ + + & r.<.;.<.,.6.<.[.bXbX].bXbXbXbXvXvXvX",
"{.bXvXvXvXvXxXmXxXkX-X>XT.U.U.I.T.,XA 8 8 8 r V m K Z.y.u.D.0.% E k.= = * 8 8 r V l.q.r.l.h.1XAXJXJXJXGXGXrX%..Xo.# u >., < < < < 2 f s i y p j C -.;.7.6.7.7.l.r.q.r.h.l.W.!.!.).).!.).(.(.(.(.Q.v.v.Q.0.t U = & t J u.m.C.'.].fX!./.Q.v.v.D.>Xb.W N - e J d 9.x.K 9X8 5 h J 9.9.p.r.a.m.DX(.,X/.Q.,XQ.v.W N e = q.u >.>.u j >.>.1.1.4.1.1.1.1.7.1.{.bX{.bX{.bXbXvXbXbXbXbXZXvXZXZXZXZXZXSXZXSXSXCX1XQ.D.Y 1XK N.h.!.kXlXlXvXlX{.<.6.N.N.zX3X.X%.%.%.K.*.$X&Xx < d.z < < < > # # + + + + r.;.<.<.,.<.;.<.m.].{.].bX{.bX{.vXvX{.",
"{.bXvXvXvXvXvXxXxXG.G.G.~.U.U.~.~.U.-XS 8 8 n V ! P dXd.qXu.; W h.* % * - 8 8 V q.M.M.M.n.n.l.l.BXLXJXJXJXGXrXrX|.U # u >.# , < < 2 6 i a p u C A ;.;.6.7.7.7.r.r.r.r.l.l.W.W.W.).!.!.(.(.(.(.W.h.z.Q.w.% R.8X! X , t J 2.a.M.M.].n.v.z.v.v.W.z.Y m - t D.sXP w m =X8X9XX 5 t C 7.9.p.r.a.bXW.v.v.Q.Q.c.Q m ; O >X@X/.7 z >.u s :.>.1.1.1.1.<.7.1.1.{.vX{.{.{.bXvXbX{.bXvXbXbXZXZXZXZXZXZXSXSXZXCXxX(.V.Y 8 K g.b.qXlXvXxXlXlXr.7.,.,.l.l.h.Q.3XH.#.+.%.#.*.wX$Xh z i.f > > , # + + > > 4.;.;.1.<.;.<.,.1.7.].{.bX{.bXbX{.vXvXvX",
"bXbXbXlXCXvXxXCX).S.S.G.G.G.R.R.G.I.U.U.n r r V P g u.yXb.8.` z./.= * - 8 0 V gXgX'.`.`.h.h.l.n.n./.JXJXJXGXsXuXwX#.t # l 5.# > < 2 9 p i p s C -.;.;.7.7.7.7.q.q.l.l.l.l.N.N.W.!.).(.!.).(.W.g.w.V.8.X c.I.9X3X$ . & 4 s 6.7.M.M.8.0.q.Q.v.0.K e * * D.Q.b.uXX :X:X8X8X6X+ O 5 V 3.9.a.t.[.g.x.b.Q.h.T m 8 Q ^.-XS.wX,X7 :.>.i j :.1.1.1.;.1.;.1.e.bX{.vX{.vXbXvX{.vXvXbXvXbXZXbXZXZXZXZXZXZXCXxXkXv.T q Z W b.!.zXmXxXxX{.9.9.7.7.,.n.l.r.l.q.xX$.+.+.%.O.$XwX$X# z 5.# # # # # > < ;.7.;.1.;.7.<.<.<.1.e.t.].].bXbXbXvXlXvXvX",
"nXbXjXvXAXCXvXS.S.S.S.S.G.G.).U.G.G.U.U.~.A S S m a nX}.m v.g.D.- * 0 8 0 7.B.m.m.`.M.`.r.l.l.n.m.m.l.CXJXJXHXpX|.%X#.e > i z # # < y u s u s s ;.;.;.7.7.7.7.r.r.r.n.n.h.hX!.W.).).!.(.Q.N.g.x.x.T = ` 3XyXnX7X3XN   O 5 t :.9.s.L 8.x.y.T m q = ; R./././.NX5X=XzX9XyXyX<X  O 1 d ,.9.2.gX0.x.N.w.K e * = -X-X<X<X;XwX:X6 j 1.g i >.1.1.1.1.1.1.a.].{.{.vXvX{.vX{.bXvXbXbXZXvXZXZXZXZXZXZXvXkXkXV.T e N W Q.Q.kXmXxXxX7.q.9.9.7.<.1.l.l.l.l.r.q.l.:X+.#.|.&.wXwXXX= d >.2.@ + # > 1.;.1.;.1.>.<.1.e.;.7.e.e.e.].{.{.bXbXvX{.ZX",
"zXxXbXbXCXhXh.v.v.W.W.S.S.S.G.G.G.G.G.U.U.G.L t t }.}.e b.g.D.8 * - 0 T ].l.m.m.m.m.m.a.q.r.n.m.m.B.B.m.).LXHXMXpX%.&X#.m # u >.# , < y s s C -.;.;.,.<.7.7.q.7.r.l.n.r.gXgXcX!.).!.).W.x.z.x.x.K X } S.;X9XnX8X7X5XY.e X + y s ,.p.q.T V e = O z./.=X^.=X~.>X8X0X9X9XyX9XyX8XT o & w s 3.p.n.0.L t q q b.:X,X<XzXzX<XwX4X7Xd j 5.g g z ;.1.>.4.a.t.f.{.vX{.vXbXbXvXbXvXZXvXvXZXZXZXZXZXvXxXlXN.x.K e Y W S.S.Q.kXlXB.q.r.e.r.r.i.e.1.n.n.r.l.r.r.q.q.^.O.O.O.&.rX&X$X5 u >.4.@ + -.5.;.1.;.;.1.;.1.;.1.7.1.7.e.t.4.{.{.{.bX{.vX",
"xX^.{.A q.Z.q.h.k.W.W.S.S.S.G.S.G.).G.G./.c.` V.V.0.q c.c.D.e - 0 0 6.r.l.r.m.m.m.f.`.a.q.r.n.m.B.`.m.m.m.m.xXGXpXwX+.$X#.N + 6 :.e.< 2 y s C -.,.<.7.7.7.7.q.r.r.p.r.'.gXgX'.'.[.).B.k.0.v.g.m (.` A.9X9X9XyXyX8X8X5X2Xc.= X + 5 d.r q = % B OX~.-X^.-X-X,X<X3X0X9XzXyXyXyXyXtX9XQ o , d 3.A t 8 = N -X:X<X<X0XzXzXzX5XrX&X8X4 s 4.s i j :.gXs.a.f.t.f.{.bXbXbXbXbXvXZXZXbXbXZXZXZXvX{.lXkXN.0.m W Y W S.c.D.1XlX6.h.r.r.r.r.e.e.9.1.l.l.a.r.r.r.7.7.6.z.;XO.*.XXGXwX$Xq 7 -.e.u i ;.;.1.>.5.;.1.;.7.1.1.7.7.7.5.;.;.C 7.r.{.vX",
"kXS./.9.L ,.0.h.l.k.v.v.S.S.S.S.).G.G.G.S.` Q S.K * c.S.D.b ; e Z r.0.9.7.e.r.t.m.f.`.].7.r.a.m.m.m.m.t.p.p.r.).HXwX&X+..X%.Q + < s 1.2 f y i C ;.7.<.7.q.e.r.r.r.r.M.C.`.C.'.].m.B.h.g.v.8.m Z ` A.>XB b =XyX9X9XyX8X8X5X4X@X= = X O m OX;X3X:X:X-X:X<X,X-X} M $ =XnXyXyXyXyXyXyXuXrXb.% O % m :X3X3X7X7X0X0XzX9XzX>XN *.eX%X7X4 i 4.g i s.s.s.t.t.t.t.f.{.vXbXvXvXvXbXvXvXZXvXvXvX{.{.x.x.L t K Y ` D.z.v./.q.n.l.r.r.e.7.e.2.<.2.>.`.l.r.r.7.<.,.,.,.:.<.G.+.*.XXGXrXoXb 6 j e.u j >.;.>.;.>.;.5.1.1.1.1.1.;.;.;.p S r.e.].vX",
"N.v.S.{.S C ,.w.g.h.k.N.S.S.S.S.S.S.).S.` W >XE Y b.R.<X! e e L 6.,.J J C :.,.2.9.i.i.s.z ,.2.9.9.4.9.2.2.1.2.7.y.=X&X%X+.$X%.O.P + y z 3.d d s s :.,.7.9.r.r.r.r.m.'.'.M.n.9.7.3.:.q.v.Q r z.` v.R.; B b B I 3XyXtX8X8X8X5XeXrXrX@X+X=X;X:X8X8X7X7X:X>X! B B m B B E.E.yXtXyXyXyXiXuXiXpXeX2X3X3X7X7X7X7XnX9XzX-X! ! N N | rX$X2X< s 2.d.>.>.>.1.4.4.e.t.t.bXbXvXZXZXvXbXvXjXhXhXhXx.n.w.V q { R c.D.z.c.v.,.n.q.9.9.,.,.:.:.J s z g 9.3.:.,.C s s y y d d s q.*.*.&.GXrX$XD 6 >.4.d s >.:.>.>.>.>.1.5.5.;.;.;.-.u y 7.7.e.r.B.",
"v.v.v.v.'.p S A w.w.h.N.N.v.N.W.).).Q.v.z.>Xz.* c.D.:X! N t 8.L S w w r m.e.9.9.9.d.s.s.a 2.2.2.2.2.2.2.a.:.J s :.,.z.&X.XO.$X|.#.m + 5 d :.2.a.s s C :.1.9.9.r.m.m.p.9.<.3.3.9.9.8.J C q N W z.V.L N b b e b x B $ 3XyX8XeX8XtXwX%X;X2X3X7X9XyX:XN B b b b b B B B B B B E._ yXyXiXiXaXiXeX2X5X8X8X8X8X<XR.B M B B B N N ;X_ 4XXX.X, y z z 1.>.z j j j >.1.t.DXbX{.jXjXhX[.{.{.x.n.8.A t 0.R ] E./.` ` 0.n.q.q.9.6.3.p.e.e.9.e.4.2.4.m.e.i.e.e.e.i.e.:., < d a g } *.#.uXpXrXP 7 z 7 u j j j >.>.>.;.;.;.;.;.s p 9 y 1.7.7.7.l.",
"h.h.k.v.W.9 p S A w.w.k.k.N.N.).}.nX6X}.nX}.m v.v./.e m 0.T A t B.p.r.7.,.C i d d y 4 d g d y 6 6 4 d g :.2.i.2.s s :.3.R. XO.&X.X%.O.K < 5 d :.2.9.g -.C :.,.9.9.2.<.2.9.<.C d 4 4 O 0Xt O 1 a 8.M.V.b b x e x x x M M M U ~ x iX@.' *.D D D ! M B b x x h B b ! N B x M M M D D U G ~ ' eX&.2Xx M M M M M B B B B m M D.-Xc.c.Q m * 7XO , < 6 u j >.>.j k i :.bX{.[.!.[.Z.x.q.8.V w - _ _ z.A.0X` z.V.n.y.p.n.p.9.6.:.C d d d y y i :.s a s a i s :.1.i.s.s.d d s L ' *.wXpXrXw g 5.7 u j -.;.;.>.-.-.;.1.s f 2 > 1.7.<.7.7.7.",
"6.h.l.k.k.k.9 9 S A 6.w.h.N.v.B.qX}.dXqX}.Y S.b./.B e 0Xq.L n.p.8.J p 5 = R I U ( U I Q -XR c c D I ! K 5 6 d g z <.9.:.:.K K.|.wX$X|.#. .L + 5 y s ,.7.q.:.,.2.7.<.C y 1 4 $ E.@.+.#.4X@X* O 5 J 9.m.x.e x ; b b M M M U U U ~ / ' / I U D M B B b B b m B m g.B ! ! M B x M M D M D D U U M M c M M M M M M B B B M dX-X= D.W N * /.0X$X$X.X X0X+ < 4 u k >.>.;.].[.r.x.0.,.V w q A.] ] { R.W W L h.Z.n.x.p.u.J r q 0.F x x c c ! x Y U U c U ~ ; * 5 g 3.d.i.s.s.s M.O.*.MXpXuX& g 5.7 u k -.j j -.j j j f 1 > -.1.1.1.<.;.-.",
";.w.q.h.h.k.,.8 9 S A w.w.k.k.k.x.u.zX}.T D.S.R.! m A.R.R y.6.V q % _ ' *.&.%.|.%.%.#.O.| O.#.#.#.#.O.| ( ( x t 5 y s 3.e.3.8.} %.| &X.XK.#.] Q.O & 4 a :.,.g d 5 * Q F.*.*.O.#.|.|.5X2X2X2Xo & y ,.Z.n.x.e b x b B M Y R I I ~ ' *. .^ I U G D M M M N ! M z.W.C.B ! ! M M U F F D D D c D G G D D D D F D F F U M z.~.<Xc.z.Y - >XW.~.9XwX&X$X+X|..XL.5X% , < 7 :.8.,.C t q - R.] ] { R.=XR T g.C.!.n.0.8.P q   x c U *.O.#.#.&.+.%.*.+.%.%.%..X|.%.O.| ; & g 3.2.p.,.z.*.&.GXrX&X* i >.7 u k j j -.j z 6 < # # 1.1.5.;.-.-.9 ",
"S A 6.w.h.h.k.1 9 S S ,.7.h.h.w.Q qXZ.K S.D.T.R N N ~.E.c.R q m } ' *.H.$XwX$X$X&X.X.X$X.X$X$X.X.X$X/ wX.X%.O./ Q V.+ d s 2.s.i.L ' %.rX%X.XK.$.' q O + & * = o./ | O.#.K..X$X$.%./ ' rX4X+XoXo 1 s 9.p.p.x.x b x M M F R } _ ' ' @.@. .' ~ G G U U U ! ! W G.Q.q.V.M Q I ! U U F G G D D G [ ~ I G G U G H G F F z.:X-XY S.Q e W v.Q.^.<XM c =.c wX&X$X.X%.#.&.kX% 5 q 1 Y c.c.{ A.D.R.R Y Q V.(.x.0.L P q Y D I ' o.H.uX|.K.%.K.|..X|.K.%.|.|.|..XrXwX&X.X+.U = 6 :.:.,.' #..XGXeX&X1 l z >.f l k k l k < # @ ;.5.4.;.;.-.y s ",
"p V A 6.w.h.h.7.2 9 S ;.6.6.;.A C.x.q A.P.~.W W W nXP.A.A.M W.] &.L.Y.H.#X+X.X&X&X&X$X$X$X&X&X%X&X$X.X.X.X.XrX|.#.| I a # y :.i.s.L ! &.*.rX&X+X%X@X:XN } ~  .+.%..X X$.$.$.$.%.' ~ ~  .5X%X XN O w :.m.p.n.h.B M D F G I [ ] } ' @.@.X. .' [ ) U U R R W T.D.V.9.y.V.F R R Y I G F G G G G [ ^ ~ ~ ~ ~ =.G I I z.:X=X~.c.` M P g.S.Q.:XN N M =.c =.U ( O.wX&X.X|.%.O.U qX,XE.E.Y.R.9XY N 0.1XN.x.T V t Q D I ' %. ...*.*.%.%.|. X|.|.%.|.|.|.|.|.K..X%XM sXwX$X@X, s t.:.}.#.|.&XpXrX4X8 u j >.f f f f # # # f 5.5.;.j j y f 9 ",
"p p S ;.6.q.l.k.9 9 p S S S B.N.8.D.P.Y.:X` } z.F.=XA.F ` = 8.b.o.o.&.H.oXeXeXpXrXrXrXeXrXwXuXrXrXrXrXwX&X$X.X.X/ |.#.| b O , d 2.UXM.L ~ ' U I.K - Q.e Y b.;X@.#.$.$.H.L. XoXX.' / / '  .5XoX Xo & a 9.q.p.n.x.M F D F U I I ' ] @.+.X. .^ [ ~ I I I R oXP.A.V.2.9.r.V.Y R G F G G D D D G ^ ^ ~ ~ ~ ~ ~ I ) _ 7X=XR.=XS.Y - W z.b./.m m N F =.( ( ( ( =.( U ( K.%XK.| A.+ w ,.1XN ! Q 1X1XN.0.L w W ! I { L.] ' ' *.$.%.K. X%X%X&X%X|..X%X%X&X&X$X&X.X|.%.#.pX%XP 6 3.C ,.v.|. X.XtXuX5X..l k z z > < # @ # ;.;.>.-.p f 2 < > ",
"w 9 p C ,.w.h.x.q.1 1 w M.n.q.P I.J.Y.{ c.b.E.F.<XOXA.Y.I 0.q.V.5 F.Y.OX;X;X4XeXeXrXeXeXrX4XrXrXtXrXrXrXeXwX&X$X.X.XrX|.+./ L + w :.i.M.T z.z.T ; t e K } m m m b U :XOX@X@X@.O.X. . .' ' | $XK.2Xo 5 ,.p.9.n.m.k.B F G G H G =.) X.X.X. . .[ ~ I ~ G ~.U.A.A.x.,.3.u.q.N.Y U F F F D M D G ^ ^ ~ ~ ~ ~ ~ ) _ <X-XT.T.] } m % W c.R.m m N H Y R ) ^ ^ ^ ^ ^ ^ ^ ( O.|.#.| oX+ d 3.s 0.kX!.x.8.m q R Y _ A.` [ [ o.@.F.H.H.K.L..X$X$X$XK.|.%X$X%X$X&X$X.X|.%.*.rXwX@X, :.s J 9.@..X.X%.%.pXrX&Xe i j z z @ @ u j j >.l 6 f < # > ",
"w 9 w a A 7.q.q.8.9.M.n.r.T L.J.Y.;XA.A.P.I.R.BX;XP.3X&.b 8.y.= 8 r T.=X3X2X2X2X4XeXeXeX2X2XwXrXrXrXrXrXrXrXwXwX&X.X.X( $X%.*.x @ < g i.gXe { e O ; ! ` B m ! ! N N F F F  . .@.@.O.X.X.| *.wX.X%.= + a a.9.q.n.l.k.b F F G H F G ..X. .' ' ~ ~ G ` ~.U.P.{ - 8.9.:.9.9.q.N.F F F F F D M G ^ ^ ^ ~ ~ ~ ~ ) =X-X~.R.R.D.Y - T 0.N.m m N H Y R ` R R ^ ^ ^ | | | ^ ( ( c #./ :X, d 9.(.N.z.T r Q ! R c.~.[ [ .._.F.F.J.H.L.L.L. X$X$X+XL.|.+X$X$X&X&X$X.X.XO.O.| rX$X& d i.a ,.vXL.&X$X|.K.rXpXrXeXt k z z 5.7 l l k u f < > # , ",
"1 2 w p C ;.,.L C.B.q.! L.L.oX@X&.A.P.T.Y.T.zX;XOXA.M { Q 8.x.% = t e I.;X2X;X2X2XwXwXwX;X2X4XeXwXrXwXwXwXwXwXwXrXwX&X.X.X&XK.O./ o , g d.g._ : * Z ` N N ! Y H Y H F F F  .X.F.@.@.@.+.*. ./ &X.XH.. w ,.9.9.p.l.l.h.n F F F G F  . . .^ ^ ^ G c.J.I.I.A.c.` K :.J J 9.9.9.q.F D M F D F F ^ ^ ~ ^ ~ I G ~.~.~.T.R.F { B V T z.1Xm N K H ) R ` ) ) ^ ^ ^ | | | | ( ( ( x #./ & y 9.b.g.K e -XY _ A.` _ ` A.F.F.I.F.F.F.H.J.L. X%X+X.XL. X+X$X$X$X&X$X.XO.#.O.| %X&XD.6 2.a C q.xX&X&X&X.X|.|.rXpXrXeXc.a l z z f 7 f f , + @ @ ",
"> 1 2 w p S C.B.n.- Y.oX+X%X@.@.H.Y.OX=XT.T.7X;XY.o.) ] x.9.Z.O = q t 0 I.;X;X@X2X4XeX4X@X2X2XeXrXrXwXwXwXwXrXwXrXrXwX&X.X.XG |.+.*.= & g Q I % = Q e N K R R ) R G F F F X.@.@.$.@.$.$.+.*.*.( %X$.O + s 9.<.9.r.r.w.w.n F F F F [  . .^ [ U ] A.F.J.A.o.] R.n p g a :.9.9.6.8.N F M B B F ^ ^ ^ ~ ~ _ G.G.~.~.I.R.` R - K 0.V.m N N Y E R ` E ` H ^ ^ ^ | | X.| | ^ ( ^ .XO.Q 5 L 0.Z q U.Y ` D._ ` ] A.A.G.F.I.J.J.J.H.H.H. X$X+X XJ.L.+X+X$X$X.X|.O.#.O.+.O.v wX2X4 3.a s <.n.J.&X4X4X$X$X|..X|.sXpXtX} j z 5.z # # # # + o ",
"& + , m.'.M.n.8.#XY.OXo.+.@.H.L.OX=X=XOXT.nX;X=XJ.o.' ~ Z.s.% % = 5 t * 8 I.=X@X5X5XaX4XOX3XeXtXwXwXwXwXwXwXwXwXwXwXwXrX&X$X.X=..X+.&.t # a D x.5 6.= * Q ` ` H ) H H G F X.@.H.H.@.H.%.$.+.*.O.eX#.K.o w i.<.7.r.7.q.7.H n B F F ^  .^ ^ G c.o...A.F._.] ! ] q 4 ,.a C ,.7.,.L 6.n N D B F ^ ^ ~ [ _ E.F.I.T.U.P.] A.M O K x.m m N H ` E ) ` ` ) ) =.^ ^ ^ | | | | | | ( / #.W 1 L V t } Y ` D.E W ] A.G._.G._.G.G.J.F.F.J.H.L.2XoX|.L.L.%X X+X.X.XO.O.#.#.#.+.| eXrX4 :.y p L 7.lX%X&X&X&X&X&X$X.X$X$XMXsXrXt >.z 5.4.# # . . ",
"].`.`.`.m.Q =X@X2X;Xo.A.L.Y.@X@X@XOX=XOX8X2X;XOXH.*.@XU u.p.5 + = t w q = * I.=X2XrXpXeXOX3X5XsXrXwXwX4X4XwXwXwXwXwXrXwXrX&X$X|.c |.+.| V h ; X w 8.= 1 - Y g.) ) ) ) H H @.@.H.H.$.H.H.%.#.+.&._ |./ X > ;.,.,.7.r.7.6.,.A n B B [  .[ G ] o.] ....F...] _ R * + g d d C ,.,.A A A n B B G ^ [ ~ ] o.o._.J.Y.I.A.F ` ; t T V.m m K H R ) w.` w.E [ =.=.=.^ ^ | | | X.| ~ / #.D t m - Q R g.R.R Q ] S.G.G.A.F.G.F.F.I.F.F.J.H.J.%X+XK.H.J.oXoX+X.XO.O.O.+.#.#.O.| .X%X+ 3., 4 C 6.q.CX+X%X%X&X&X4XrXwX.X|..XsXpXpXt 5.5.4.t.t.f.",
"m.m.n.J.oXoX@X@Xo.o.A.T.~.+X@XOX@X=XOXT.3X;X@X#X$.@.+XB 2.p.+ = = 4 4 5 5 * 1 @X3XtXeX5XY.;X3XiXrX4X4XwX4X4XwXwXwXrXwXrXrXrX&X$X.Xc |.+. .P $ o t n.& 1 w w b [ [ ) G R R @.F.L.L.%.L.L.L.%.#.%.#..XO.P.O u ;.;.7.7.6.,.A A S V N [ ^ G ] ] ..' ..o...] _ P.D = o y 6 w a C J L A C A S N H [ ) ` } ] ..@.F.I.F.A.[ R T V 0.m m Z T E E E ) g.` [ E =.=.=.^ ^ ^ | .. .' _ %.K.~ o - W Y ` R.W W j.S.S.A.A.G.A.A.A.G.I.F.F.F.F.F.oXL.K.J.J.L. XoXO.O.O.O.O.+.+.O.*.$X&X& :.& 1 a ;.w.h.Y.$X$X%X&X&X&XrX4X$X.X.X&XMXpXrX+Xt 4.4.f.",
"+X+X+X+X%X2Xo.A.F.Y.T.~.~.OXOXOXOXOXY.3X2X;X@X@XH.O.%X; 6.s.@ + 5 t t w * & * q ;X5X5XeXI.;X2X5XrX4X4XuXwXwX4XwXwXwXwXrXwXrXrX&X$X|.c |.O.*.! O a 1 = 1 9 9 9 e H ) ) ) ) @.H.L.L.K.H.K.|.H.%.|.#.U %.( o 9 r.-.;.6.6.;.;.S S S L M [ j.] ] [ ........[ B { ; D.X , 2.w p C C C C V C Z S N G [ ] ] ' ....F.J.F.E.&.B * K N.m K Y E E R ` E g.` ` ) =.=.=.=.^ ^ o... . .~ x  X/ Q Q Q g./.E W z.A.A.S.G.G.A.G.G.A.F.G.F.F.F.J.F. XH.%.J.F.J.L. .X.+.#.#.@.O.+.+.| wX&X& a & 1 p C 6.0.x.oX$X$X%X%X&XrXpXrX&X$X|..X|.sXaXiXuXuXeX",
"%X2X%X@.o.&.P.I.T.=X~.~.T.U.T.OXOXY.;X3X2X2X;XoX#.O.&Xx 3.a.+ & 5 w 4 t w 1 1 8 t J.5XiXI.OX=X@XrXwXwXeXrXwXwXwXwXwXwXrXwXwXrXrXwX$X|.c %.O.&.+ V = & * 8 9 9 r C 0 [ ) ) @.J.oX XL.L.|.L.K.|..X#.#..X/ X + 3.s C 6.;.A C S S p r b } ] ] [ '  ...o...) D ) X :X% O s 2 y s a C C V C V V Z ) ) ] ] ) ' ..F.F.A.D { - 8 6.m m T E w.E E R ` ` z.g.R G G =.=.^ _.o. .] ' ~ ~ +X' T Y g.).H E j.S.S.S.S.S.S.S.G._.A.G._.F.F.F.F.F.L.H.H.F.F.J.' ..@.F.$.$.H.@.H.$.+.rX&X% s & * y C T 8.n.xX$X$X+X$X%X&XrXsXsXeX%X.X|.|.|.rXaXaXsX",
"&.*.&.A.J.OX3X3X:X~.T.U.U.G.G.T.Y.OX5X3X2X2X@X X%.O.wXx :.a.+ , 1 6 d 5 9 9 2 w w r I.5XG.T.OXOX4XrX4XwXrX&XwXwXwXrXrXrXrXrXrXwXeX&X.X|.c %./ . s & & 1 8 9 w t S p 8 F ) H.J.oXoXoXL. X XK. X+XK.#.c O.2Xo s s C ;.;.V S S S r r b } ] _ ' ' ' ..o.' ) R U % 7XO.. d 2 9 p p p S V C S V n _ _ [ ) ^ ' ..@.o...) I r t x.V V T H H E E E W ` ` g.) G G ) [ A...{ o. .' ~ I I ~ 1 g.S.g.E j.k.S.S.G.S.S.G._.G.S.A.G.F.F.G.F.F.F.L.H.$.F.F.] F.F.J.J.F.F.J.L.%XoX%.rXeX& s & & r V A w.n.n.=X+X$X.X.X.X%X&XeXrXrXwX&X$X|.|.|.|.%.",
"o.@.H.I.OX=X;X=X~.~.U./.G.S.A.I.OXiX7X5X5X2X+X X%.&.eXU >.e.< w w d y p p p a C C ,.C 3XA.I.U.U.;X5XwX&XrX&XwXwXrXrXrXwXrXrXwXrXeXrX&X.X|.x O.X < 1 & 3 8 8 w a r r r r n F.I.~.@X XoX X X X|.$X|.|.K.%.U . 4 d u -.-.C p p r r r b ] ] [ [ ' ..o.X.' R &.x O 0X*.  < 2 2 y p p S C C C V N R } [ ~ [ ' ..X.o...I D * g V V A w.w.E E ) E ) ` g.` ) F ] ..] ] o.*.{ { ' _ I ' ! 1 v.` H j.k.W.S.S.S.S.S.S.G.S.S.S.A.G.A._.F.F.F.H.@.@.I.[ ~./.U.U.OX=XT.Y.OX;X3XL.4X2X& J & 3 r V A w.x.N.zXY.%X.X.XoXoX$X%X2X4XwXwXwX&X&X+X|.+.",
"^.^.^./.W.v.k.g.w.T H A Z m n n mX7X:X;XOX@XOX X|.O.*.o.<.9.+ + 3 4 w 1 1 1 1 1 8 9 9 e j.F.J.X.J.4X&X&XwXwXwXwXrXwXwXrXwXwXrXwXwXwXwX&X|..X.X' @ 3.* 1 8 9 r r 9 9 r p w.w.' /.@XoXoX X X X.X$X.X.X|.c / X , a.y s S p p p 9 r 0 b [ [ ^ ^  ..... .' c ] X % 0XO.g.# 7., 9 p p p S S S V m R _ ~ ) ^ ' ..@...' E.; = L V Z H w.w.E E E E E ` ` ) T {.F.] ] ] ] { ' { ' _ *.%.X t W H g.k.S.k.S.S.S.S.W.S.S.S.S.G.S._.A.F.F._.X.O.@.+.) _.......A.F.@.@.H.H.@X X&.2XuX& :.+ 1 w p A 6.9.h.C.CX....o...@.F.J.I.G.OX=X=X:X:X7X<XnX",
"1.9.4.e.e.9.<.<.1.;.;.;.;.-.C ;.{.<X-X=X~.T.I.H.F.o. .~ <.y.O + 1 t h 5 1 * 1 e 8 0 0 e m M F G ~  .oX&XwX&XwXwXrXrXwXrXrXrXwXrXeXwXrXwX$X.XU G . k j 1 8 w t q 0 9 S l.B.[.{.A L.oXoX.X.X X+X$X.X$X|.U +.N @ 3.f p p p p w r 9 9 b [ ^ ' ^ ......X.[ D _ O q R &._ o g < 9 p p p p a V a n _ _ ~ ~ ^ ....X.' D ..K 5 x.V A E T w.E E E ` H g.H ).xXxXxXU.[ ] ] { ] ] { *.I ' o C 8.W z.W.S.S.W.S.W.S.S.W.S.W.S.S.S.A.A.G.[ [ [ ^ X. . . .X.X.X.O.X.@.H.+.O.O.O.| $X%X, z & 1 y a ;.7.r.r.l.{.w.g.g.w.g.g.h.h.l.h.n.N.Z.m.n.p.p.",
"i s j >.>.1.5.1.;.;.;.;.-.C -.9.m.vX-X-XOXT.I.J.@.*.2Xx ,.s.o O 5 4 5 w 5 * 1 q 5 * * * 0 r D G ~  .X.O.wXwXrXrXrXpXrXrXrXwXrXwXeXwXwXwX&XrXc |   7 i ,.r w 8 1 8 C B.'.'.[.{.{.k.L.oXoXoX X%X+X$X&X$X%XK.U . s 2 y p p w r 9 r 0 B [ [ [  ... .X...' I U   t b .X(   d , 2 y p p p p S a B _ I =.~ '  . .*./ U ~ X w A A 6.w.T w.E E E E ) Z vXvXvXxXxXlX^.] [ ' } ' ..Y.' I & 9.0.g.S.W.k.S.S.W.S.W.W.W.).).).).S.S.) ) ] ^ [  .^  .^ ^ '  . ...$.+.$.@.O.+.+. .&X&X% g , , y S ;.,.r.r.lXZ.p.w.W w.w.w.q.w.h.h.l.p.q.8.,.L 3.",
"a.t.4.7 u j -.;.-.-.-.-.s -.1.a.s.a.(.:X=XOXY.J.@.o.%Xx 3.a.o O + , 5 & & & & & * w 1 1 0 8 0 F ~ | X.O.O.rXrXpXpXpXpXrXrXrXrXrXrXeXrXwXrXrX4X%.& # i >.;.9 8 9 r.'.B.B.'.[.{.{.jXlXR OXoX X&X+X$X&X%X%X.XU   y 2 9 p p 9 9 9 9 w b [ ^ [ ' X.X.X.X.'  Xx o J b ( /   < , 2 y w r p p S a B I ( =.[ ' '  .X.' _ U o s P A w.w.T w.w.w.E E {.ZXvXvXvXxXxXxXxXkX_.[ ] [ =XL.' e 5 C h.k.S.W.S.S.W.v.W.S.W.D.Q.)././.).E [ ) j.[ ^ [ [ ' [ ^ [ ^ [ ......X.O.H.L.$.*.eX%X& 3.5 < d C ;.6.r.r.n.Z.n.q.w.w.w.w.0.0.q.9.6.J C s M.`.`.",
"4.4.t.s.t.5.7 u j j j j j s 2.7.i.p.M.<X=X=XOXJ.$.*.oX; ,.a.O + & , & 3 3 > * > * & 1 = 9 8 9 r D ^ X.O.#.%.rXrXrXpXrXrXrXrXrXwXeXeXwXwXwXsXwX&Xx @ >.s 7.p w m.'.B.'.'.[.[.{.].jXjXjXh.K.$X&X+X$X&X4X&Xc / X < 2 2 f p 9 w 9 9 0 b [ ^ | ....X.O.*.{ K.: O q.b c O.O # 2 1 y y p p p a S n I I ~ ^ '  .X.../ oXb & L A ,.w.w.T W T E A vXZXZXCXvXCXvXxXlXlXxXkX^.[ OXOX_ &.O p C h.k.v.k.S.k.v.N.S.W.S.N.W.W.W.W.g.` E ) ` [ [ [ [ [ [ [ [ ' ....A.X.@.@.@.H.oX+.uXrX& g & 5 a C ;.7.h.B.n.n.n.n.w.w.w.w.q.0.6.J A M.'.'.M.M.i.",
"iX@Xq 9.5.5.4.5.7 u l j j 1.5.1.1.e.e.vX;X;X;XY.H.*.oXx ,.t.+ , 3 2 2 9 2 2 9 f 9 9 9 9 9 9 8 1 8 G X.@.+.$.+XtXuXrXrXrXuXrXrXeXeXeXeXeXeXsXrXU I . i i >.e.C.C.B.].].].{.{.{.{.bX{.{.bXcX) 4X%X&X&XwX&Xc *.N + 5 < y 9 9 9 9 9 9 b ^ ^  ...X.X.F.@. .@.X & 4 B #.%.} + 2.< y y y p p S S S I =.~ [ ^ X.X.X.' I.K 5 Z.J w.8.w.6.T Z m.ZXZXZXZXZXvXvXvXxXxXxXzXlXkX<X=XY.U _ O J ;.l.v.v.v.v.v.W.S.W.W.S.N.W.W.S.k.w.g.H ) j.) R ) ) ) j..._.o.F.F.F.F.F.J.J.J.H.o.5XwX& s & 1 a C 6.7.vXq.y.Z.p.p.m.w.0.0.6.L J '.C.gXm.Y #X@XpX",
"MXpXuXrX%Xq 5.z 5.z f l j ;.5.;.;.1.1.e.1X3X2XOXL.O..XD >.e., < f y 9 f p p p S p s S C p 1 9 9 9 9 ~ +.+.+.+.MXrXtXrXtXtXuXuXtXuXeXeXtXrXsXrXc *.X < i z e.C.M.B.].{.{.].].bX].].FXbX{.bXjXg.OXwX&XrXwX&X|._ o 4.5 f 9 9 9 9 9 0 b ^ [ [ X.X.X.F.X.D  .  w w B #..Xc . :.5 y w p p 9 S S n =.=.^ ' ^  .X.X. .F.O w ,.,.q.w.6.,.C bXbXDXbXZXZXZXZXCXvXvXvXxXlXxXkXkXOXY.] ! & p.;.l.W.v.v.v.v.W.N.S.W.N.W.W.W.W.g.H g.) ) H H H R R R G.U.U.U.U.U.U.U.U.T.Y.I.I.&.@X2X, C & 1 a ;.6.m.w.q.y.p.Z.Z.9.r.0.6.L !.'.B.h.=X X.X%X4XsX",
"wX&Xc pXpXeX&XP 5.z 5.7 u j -.>.;.>.;.>.m.:X2X@XL.+..X( 2.2., 2 u C j -.-.-.;.;.;.;.;.;.;.9 9 9 9 1 p  .@.+.+.+.uXuXiXiXaXiXpXaXiXiXuXuXpXsXpX&X.X! @ 5.k 9.B.B.].'.].{.{.{.{.bXbXbXFXbXjXjXjX[.' wXrXrX&X$X! . >., 2 y 9 9 9 9 8 b ^  .X. .X.X.H.#.G ~ . t w M #.c (   s 2 y y p 9 p r S S =.~ [ ' | X.O.X.G X.. t 3.6.q.w.,.gXFXbXDXDXZXbXZXZXZXCXCXvXxXlXlXkXkXkXY.L.&.T w C 6.l.W.v.v.W.v.v.S.N.W.W.W.W.W.w.w.w.E E H H E ) W W zXzX0X,X~.~.~.^.~.=X=X=X=XY.o.8XOX& J 1 q C 6.h.N.8.y.y.y.q.9.8.<.T C.!.B.x.L.@X+X$X.X$.%.wX",
"pXeXwXwXwX#.pXwXuX2.z z 5.>.l k k -.-.-.-.vX3X;XoX#.( / n.>.s.6 j -.;.;.1.;.1.1.1.<.1.7.7.7.2 2 2 9 2 2 @.#.+.+.aXiXaXaXaXaXiXaXpXiXiXiXGXMXaX4Xc x o g u }.m.M.B.B.].{.].{.FX{.bX{.bXjXbXjXFX{.hXD.rXrX&XU x   g , 4 2 9 9 9 9 9 b [ ^ ..X.X.F.H.+.G G o C 2 N #.=./   y 4 y y y 9 p p s n =.~ ^ ^  .X.O.X.U / X a 9.7.q.s ].{.FXbXbXDXDXZXZXZXZXCXZXvXvXlXlXlXkXkXJ.I ' = a J q.m.!.v.v.v.v.W.N.W.W.N.W.W.v.w.H g.w.H A H H w.W zX0X0XzX0X0X(.,X-X,X<X<X:X:XI.F.3X=X* ,.w r ;.7.vX8.0.9.8.6.,.J 3.M.`.C.V.A.$.oX+X@.+.%.|..XrX",
"pXsXsXpXpXwXwX#.uX&XoX2.k z 5.4.7 u i s j -.zX2X%X%.U +.Q :.e.y j ;.1.1.1.1.1.1.e.7.e.e.r.e.7.2 2 2 2 9 9 @.@.+.+.iXiXiXiXiXiXtXiXuXuXiXGXMXsXwXc / o 4 u 9.q.n.B.].[.[.].{.bXbX].bX{.FXFX{.jX{.'.C.B.nX4XU (   u > 9 f 9 9 9 9 9 b ^ [  .X.@.@.L.%.I c + 3.w b %.c |   6 y y y p w p p S V =.~ ^ ^ X.X.O. .G ( + J 2.r.a.`.].fX].FXbXbXbXZXZXZXZXCXvXvXvXxXlXkX{.Q.A.o.u.O 3.J l.B.B.v.v.W.N.N.W.N.W.W.B.W.6.H E w.A K H H A H (.kXkX0X1X1XzX1X<X0X1X<X<X0X<XI.3X;XQ w 8.r C 8.{.w.w.w.6.L C J C.cXa.Z.e { J.Y.] *.+.L.oX+X%XuX",
"pXpXpXsXsXsXrXwXwXrXrX$XoXb.j z 5.5.6 y i C a.:X2XL.c #.v :.5.u p 1.1.5.e.1.t.e.e.e.e.t.e.e.t.r.9 2 2 w w 9 ..@.+.NXaXiXiXuXiXtXtXtXtXtXsXsXMXrX&X%.V # e.3.9.q.l.B.].[.{.{.{.].bX{.FX{.jX{.[.'.B.m.n.y.z.c /   6 > 2 2 2 9 9 2 8 b ^  . .X.@.$.L.L.oXx & d z `.b.*.#.  < y u p y y p 9 p V =.~ ^ | X.X.O. .U ( o ,.d :.t.f.].].].FXFXbXbXDXDXZXZXZXZXCXxXlXkX!.Q.x.o.%.N * P ,.l.m.!.l.k.v.v.W.N.W.W.B.B.W.w.H w.Z L K ,.H H {.(.kX1XkXkXkX1X0X0XkX1X0X0X<X:XE.=XT.& r q.V L q.k.w.0.A V A C.C.}.x.o. X.XL._ ' @.H.Y.oX+X%X$XuX",
"pXrXpXpXpXaXsXpXrXwXrX/ rX%XoXZ.z >.5.6 w u s lX5X XK. X_ u.>.4.l ;.5.e.e.e.t.7.t.e.t.e.e.t.t.t.t.;.d d 2 9 y ..@.H.nXaXiXiXiXtXtXtXtXaXMXsXMXpX%X.Xx o 1.,.6.<.7.l.l.].].'.FX].{.bX{.].{.'.B.Z.n.q.6.,.L y.)   2 # 2 9 2 9 9 9 8 b ^  . .X.+.H.|.K.|.: @ z 4.i.8.q.} X , y d a p 9 r w p Z ~ ~ ^  .X.O.+.| ( x @ j j i j 5.t.a.].FXFXFXbXDXbXZXDXCXvXcXlX!.V.Z.x.x.! { O r A 7.n.B.'.N.v.v.N.v.N.N.W.W.W.w.H w.V L 3.T T 8.kX{.(.kXkX1XkX1X0XkXkXkX0X0XkX<X-XR.:XP.= L V A 8.kX0.8.A A C.!.n.x.` o.H. XK.H.] F.I.Y.Y.oX@X@X+XtX",
"rXpXpXsXsXrXpXpXsXsXpXeXwX/ wX.X|.e.j 5.4.y d s zX@XK.c *.R.:.4.u -.4.t.t.e.e.t.t.t.e.t.t.a.r.s.a.m.a.s 9 2 2 9 [ O.iXiXyXiXtXtXtX8X5XNXLXGXsXMX&Xc G X i n.Z.2.7.7.7.r.l.`.].].].].].].m.p.e.9.<.,.m.9.,.w - X 6 , 2 f 9 9 2 9 9 b '  . .@.+.H. XL.%.U % # f 3.,.p q * w u u s y y p p p S =.^ ^  .X.O.O.| .Xc o + f j j -.>.3.t.f.f.].].[.FX].cXcXcXgXC.C.Z.n.x.n.Q.U O C J 9.m.C.[.jXB.k.l.v.v.W.N.W.W.A 6.V A L T 6.!.kXkXkXkX(.kXkXkXkXkXkXkXzXzXkXzX-XG.:X=XT q 6.L L !.T w.T L !.V.x.m ' &.Y.*.o.$. XL.I.I.Y.L.Y.2X@X+XwX",
"uXuXpXGXpXuXrXwXsXsXsXsXpXwX4XrX$X#.b.z >.4.7 d C ;X Xc #.x 3.>.e.-.d.t.t.e.t.e.e.t.e.e.t.t.a.a.s.M.a.i.7.p 9 2 w [ 8XyXtXtX8X8X7XtXBXBXBXHXLXGXeXx *.* w 9.q.p.m.m.9.9.p.r.p.p.p.p.q.e.9.9.8.m.9.8.g w 0 ` $ x R h < w 2 2 9 9 9 b ^  . .X.@.L.$X|.&X| c x 5 1 * :X: x R a a s p y w p p n =.~ [ X.X.X.O.O.c O.( c O + < u :.>.5.4.e.t.p.Z.m.M.M.gXgXC.C.y.p.Z.q.0.W m & q.:.n.hXfX[.FXjX'.N.N.N.N.B.W.N.A V A V L C.!.hXkXzXkXkX(.kX{.kXkXkXkXzXkXkXzX1X~.D.-XS.= P q.K 8.T T T T !.N.z.Y } J.] ] &.J.oXoX@XI.I.I.I.Y.OX;XoX&X",
"rXrXrXwXpXrXrXpXpXaXpXsXsXpXrX%X=.wX&.R.3.>.4.y y V.oX|.|./ Q.:.4.;.3.4.4.e.e.t.t.e.t.t.t.f.a.s.s.s.a.r.e.9.e.;.w 9  .9X8X8X5X8XNXBXBXBXBXHXBXKXGX&X%.x g L ,.2.7.7.q.r.p.i.p.n.a.n.r.9.9.8.3.g t 5 - * $ x ) [ _ _ e d 9 9 2 9 1 b  . .X.@.$.|.pX$X$X( %.| c : $ x I Y.' [ g.:.p w 9 p 9 n ~ ^ ^ X.X.X.$XwX$X%X$XO.( x ! o + 4 u -.1.<.2.2.9.9.8.y.p.Z.p.u.8.T L V K X q :.r.fX].FX].jXjXFXhXN.k.W.N.W.w.V V A N.C.gXqXqXkXzXhXkX1X(.kX1XkXkXkX1XzXkXkX^.D.=XR.N q L T L /.w.Q x.(.b.}.Y c.R.{ ] F.I.Y.Y.Y.+X@XU.I.I.I.Y.oXoX+X",
"rX4X&X&XwXwX&XsXGXGXpXpXpXpXpXwX$XO.&X%.E.3.5.i.y y ;X|.=.O.x :.5.s.z :.5.e.4.t.e.t.e.t.a.a.a.a.M.s.i.t.e.9.9.7.9.7.A 0X8X8XyXNXBXBXBXBXHXHXKXHXNXiX+XM V a a J ;.A ;.,.L ,.,.,.J J J g a t 4 Q N $ : c ' D ] [ } _ _ F w 2 9 9 9 b '  .X.@.@.uXrXrX&X$X.X( |.| ~ oX' _ ' ] ] S.w.w y p p n ~ ^ ^ X.X.tXrXpXrXwX&X$X&X#./ c x $   + > 2 4 y g h a J J P P h a t q w q O d p.a.fXFXFXfXjXFX{.jXjX[.N.N.N.A l.l.v.n.C.!.!.qX0XhXkX(.{.{.(.{.{.1XkXkXkXkX,XD.e ~.c.= m 0.T 0.T T Q.Q.x.R Y } c.` c.I.G.I.I.Y.Y.Y.2XY.U.U.I.I.I.Y.oX",
"&X$X$X$X%X%XpXpXsXpXrXwXrXuXsXsXuX$X$XwX&.o.5.5.i.6 4 .X|.|./ U >.e.s.i ;.4.e.4.e.e.e.e.a.a.a.a.M.s.r.t.e.7.e.7.7.7.7.6.7XnXBXBXBXBXHXBXKXBXHXKXBXuX|.x m b x % 6.V p a a d p w w w P ! M $ - ; M U o.{ { } j.j.} ` I D M - 9 2 9 b  . .X.9XeXtXuXrXuXwX&X$X+XK._ I _ _ [ ) G G F j.p r y n ~ ^  .%XwXeXrXwXrXrXwX&X&X&X&X%.*.( c v : g.  X o o O O + 5 5 5 % W ! U x o y s.a.].].].FX[.[.[.jXjX{.{.'.w.h.h.l.v.v.B.!.qXhXhXhX1XkX1X(.1X1X1XkX1X1X1X,XD.v.^.b.Q.q L T T T Q Q.(.v.Y ! z.` ` c.I.U.I.I.I.I.Y.Y.Y.@XI.U.I.I.I.I. X",
".X.X$X$X$XeXeXwXeXrXpXeXwXwXeXrXpXwX.X.X&X+.R.3.2.t.4 N. XU O.c q.3.e.i j ;.4.e.e.4.e.e.s.s.i.s.s.s.i.q.e.7.9.9.7.7.6.6.A mXNXBXBXBXHXHXHXBXHXKXNXyX$.- = c x ; ; : : ; ; ; : : : : : ; M ! _ E.&X*X*X*X_._._.[ =.G G B M B v 8 8 x ' H.pXrXrXrXrXrXrXrXrXwX&X#.U I ~ I R R G F F B F w.9 n ~ ^ eX4XwX4XwXwXwXwXwX&X$X|.|.|.( |.+.| ( c c c x x x M x M M x x B M N _ X 4 p.a.].FX].FX].FX{.FXjX[.[.;.l.h.l.l.l.N.C.!.!.}.qXkXqXkX(.(.{.kXkX1XkXkX(.).v.^.D.W * V z.8.z.Y m ^.v.K ! z.W g.j.G.G.G.G.U.I.I.I.I.I.oXoX~.G.I.I.I.J.",
"$X$X$X$X$XwX&X&X&XwXwX&X4X4XwXwXwXeX&X.Xx %X*.D.1.4.a.5 7X|.|.| x -.:.e.j j ;.1.4.e.7.t.s.i.p.s.s.s.e.i.9.9.7.9.7.7.,.6.,.,.mXBXBXBXBXBXAXKXHXKXNXyX@.- 5 _ I U D M c x x x x D ! I _ } XXXXE.E.{ { } *...[ [ G G G B D x x x b = F tXeXeXeXrXrXuXrXrXrXrXrXrX%.I R R R U U M B b x b v N 0 =X;X%X%X&X&X&X&X&X&X&X&X&X$X|.%.#.O.O.U |.O.O.| / ( I I U U U U U I I _ | X 4 a.i.`.FXFX].FX].FX].{.{.j ;.,.h.h.h.l.N.V.}.}.qXhX1XhX!.1XkX(.(.(.1X(.(.D.c.~.D.g.q e W 8.b.Y E ,XD.T m W c.W g.G./.G.U.U.G.U.I.I.F.I.I.Y.I.G.G.I.I.J.",
"+X+X+X@X%X4X&X$X&X&XwX&X&X&X&XwXwXwXwX&X.X/ $X( q.2.e.e.5 .XG #.I ` s >.t.i -.;.7.4.7.i.i.i.i.s.i.i.i.9.e.2.7.7.7.7.6.;.;.,.,.mXBXBXBXBXHXHXKXHXMXx  .  1 b.o.{ { ' ' _ _ ' { &.&.A.P.E.&.E.A.o.o...o...[ [ =.G F F c B B v b v H p.F wXwXeXwXrXrXrXuXrXrXrXrX$.I U F N M b b b v b v v - Z n ~.%X$X%X%X&X%X&X&X&X$X$X.X|.|.#.O.| ^ ( ( ( v .X%.%.&.o.*.{ *.} o.E.%.O.% , 3.t.`.].].FX].FXFX].{.V ;.;.A r.h.h.n.N.Z.C.!.!.qXqXqX(.hX!.1X(.1X,X(.W.z.x.Q.z.Q - T V.Q Z Y -XD.g.t 0.V.u.v.S.).).).).G.G.U.~.I.I.J.J.J.L.U.S.G.G.F.",
"@X@X%XL..X%X$X$X$X$X&X$X&X%X&X&X&X&X&X&X$X.X/ %.U :.2.i., z.|.v O.c W.j 1.t.s j :.5.1.e.i.e.i.p.i.i.i.9.9.7.<.7.,.7.;.;.T ,.,.L BXBXAXHXBXKXHXKXiXx / X 1 y.XXL.o.U OXH.K.P.P.E.F.o.&.o.o.E.F.F.J.F...' [ ) H G F B B B B b b n v.n.a.r wXrXrXeXwXrXrXuXuXrXtX$.M M B x x x v ; v v 0 n ).B.7.N.oX%X$X$X$X$X$X.X.X|.|.|.%.#.O.O.O.| ^ ( ( c U U U U ! x o.x Y.M M ' %.` + :.i.`.fXFX].FX].{.{.j ;.;.A ;.A l.h.x.V.C.C.C.qXqXhX!.qX!.(.(.(.(.(.V.z.g.Q.c.Q * P b.u.0.Y ^.D.b.q K b.z.z.v.).).).).G.S.).G.~.G.G.I.J.J.Y.P.^.).R.=X",
"5X@XL.L.oX$X@X$X$X%X&X%X&X%X%X%X&X&X&X&X%X|.|.$X| _ 3.2.a.> <X|.K./ x 8.J 2.t.d s -.1.e.i.e.i.i.i.d.9.d.9.7.<.<.6.;.;.;.,.,.,.,.A xXBXBXBXKXHXBXiXD ~ q 5 y.c.P.XXJ.P.P.P.P.P.A.&.F.J.I.I.I.I.J.F._...[ [ R F F D D B B b F h.k.k.m.t.t.l.[ {.1XeXeXeXeXeXrXtX@.b b v b v v ; ; v - H !.W.'.e.7.9.M @X+X$XoX.X X|.K.%.#.O.O.X.X.| | | ^ =.c D G ! M M x M M M ! Q : |.M + s a.a.].FX].FX].[.S -.A -.-.C -.6.h.l.N.B.C.C.!.qX!.Q.}.Q.(.>X(.Q.N.z.z.Q.z.W = m b.u.} K c./.b.v.t W H w.v.W.W.W.).W.W.).S.G.R.R.R.G.J.J.J.L.F.S./.<X",
"yX5XJ.J.L.oX+X+X+X&X&X&X$X$X%X%X%X&X&X&X&X$X|.( %.( q.3.e.p., L.U #.( x J C 2.t.d s :.2.i.2.2.i.i.u.9.2.2.<.6.3.9.A 6.A ;.6.,.,.6.,.AXBXKXHXKXHXiX~ I & r & = = m { Y.#XY.Y.Y.I.Y.Y.Y.~.T.I.I.J.F._.[ [ ) G F F B B B B 0 k.h.k.l.B.].t.t.l.h.7XeXeXeXeXeXrX5X&.v v 0 v 0 v - - 0 B.!.).!.[.7.7.7.7.n.J..X X X XK.%.%.#.O.O.X.X.| | ^ ^ ( G D c U U ! ! ! ! ! b b U .XU o s i.`.FX].FXFX].-.-.-.;.A ;.C A -.q.h.B.W.V.V.!.}.!.qX!.!.Q.!.!.x.0.z.Q.z.Q q m y.dXW ! K ~.S.` 8 Y x.6.g.W.W.Q.!.qXqXQ.Q.S.).Q.Q.G.A.F.F.F.F.J.S.(.<X",
"3XY.Y.oX@X@X%X+X+X%X$X$X$X$X$X%X$X&X&X&X&X%X.X%.$XO.v J 2.p.& dXL.U O.U : s :.2.t.y s 3.3.2.9.i.9.i.2.2.2.,.,.,.;.;.;.;.;.,.,.6.;.6.;.mXBXKXKXNXtX~ U O a * = = & = 1 N I.OXOXOX=X=X~.T.U.I.F.G._...[ [ H G F F F n n H w.k.k.k.k.B.].m.m.r.r.7.F 5XtXeXeXeXeX..v 0 v 0 ; v - Z !.W.B.!.(.[.7.4.4.7.7.i.b  XK.K.%.%.#.O.O.O.X.| | ^ =.=.=.=.c G c U U ! M m t b e M &X/   d e.a.].FX].].-.;.-.C C -.A C S -.;.l.N.B.W.W.V.!.}.Q.!.Q.Q.b.x.0.0.qXz.Q e t Q dX0.0.! =XR.c.* r 0.T 6.g.W.W.N.W.W.Q.Q.qXQ.W.>X>XR.S.A.I.T.Y.oXY.!.0X",
":XI.Y.oXoX@X5X4X+X@X+X+X$X$X$X$X$X$X$X&X%X&X$X|.c XX( D.:.9.s.+ :XK..X*.D : a :.2.a.d g 3.3.2.2.2.2.2.9.e.s.e.1.A ,.;.A 6.;.,.,.7.,.7.6.AXBXHXBXyX Xx + ,.= = & % & = * 8 r /.=X~.=X~.T.U.I.G.F._.j.j.) ) H H F B v E w.h.h.N.l.N.].f.t.t.t.t.r.e.0 3XtXtXrXtX' v 0 0 - 0 n T V.Q.B.).).(.{.4.5.1.1.<.1.9.V F.H.%.#.O.O.O.X.| | | =.=.=.=.c D G U M U ! m B b e e t 4X .X 6 e.p.].].].s -.-.C -.-.C -.C -.A -.7.l.B.B.B.}.}.V.V.!.Q.x.y.0.qX>Xz.Q z.t Q b.u.Q Q e =XS.K - T x.8.h.k.N.N.N.v.N.N.V.V.W.N.Q.qX>XQ./.U.=XT.Y.oX=X1X",
"=XY.Y.oXOX%X5X4X2X+X%X$X$X$X@X$X&X$X%X%X%X%X%X X%.( O.x J ,.e.& 1 >X7XL.*.c : a :.2.a.g g g >.e.4.t.1.5.>.5.5.4.:.;.;.6.6.;.,.,.,.,.,.,.6.AXHXNXtXL.B 5 6.C.x.= = % & = 5 q - t S.T.U./.U.I.G.A._.] [ E H H F H ,.H w.w.k.k.k.k.W.].].f.f.m.t.e.9.7.7.F tXtXyX' 0 - - : q z.Z.V.V.C.).(.{.{.7.1.5.1.7.;.1.,.r.M @.$.@.O.X.| | ^ =.=.=.=.G G D F U F N N B e m m t /.=XO.X 2 e.i.].fXl -.C -.-.C C C S -.-.p -.r.l.t.p.n.m.m.!.[.!.x.u.0.1XQ.x.W Y t Q W Z.Z.m ! -XD.g.= m 0.T 8.h.N.k.v.N.v.l.N.v.v.N.N.W.qXQ././.R.T.=XL.oXoX=X",
"=XOXJ.Y.oX@X2XyXeX@X@X@X@X@X%X%X%X%X%X%X%X%X%X+X%.c %.( b.:.9.p.0.!.m.n.x.b.N Q a -.3.4.4.7 6 u k k -.>.1.1.1.4.4.,.,.;.;.,.;.;.;.,.<.<.<.,.KXnX$ H.e 1 N.V.C.n.% & = 5 5 q t 5 8 r v.U.U.I.G.A._.j.E ) H F n Z H w.w.w.w.k.l.k.l.].f.f.f.t.t.e.e.7.7.<.0 8XeX[ - = n H 0.x.V.N.W.W.(.{.{.lX;.1.;.1.1.;.,.<.<.d.n ' @.X. . .^ ^ ( =.=.=.G G G F U H F N m b e e /.Q.v.+.q , s.e.].k -.-.-.-.s -.s -.-.-.-.-.t.m.m.a.m.n.n.a.t.9.<.7.p.N.p.Z.Q X = a 2.2.e.t.,.D.~.c.! - L x.T 8.k.N.N.l.k.l.k.v.l.x.v.N.V.Q.qX>XG.~.U.Y.I.Y.oXY.",
"T.T.I.oXOX@X5XtXtX5X@X@X%X@X%X;X%X%X%X%X%X%X%X%X X%.%XO.: J 3.r.!.v.8.:.L 6.K b - R J i u k z z j 7 u l j >.5.5.4.<.;.;.;.6.,.,.7.;.,.,.,.,.A nXc @.m t x.n.N.B.Z.5 5 h g h g h 9 8 8 9 S.G.G._._.] [ E _.8.Z H w.6.w.w.h.k.h.k.k.].f.].f.f.t.r.e.7.7.,.:.9.] ) * 0 V H z.n.N.N.W.).(.{.{.lXj :.;.>.1.;.,.;.,.<.u.:.N ^ ' ^ ~ ~ =.=.c =.~ H R G H F N m m e r /.D.v.z.] -X# :.e.y s j s -.s -.s C -.S -.p -.l.m.m.m.a.t.9.3.<.r.i.e.:.P V Q c ; K V a a s :.9.~.S.` q t 8.T T 0.k.l.N.l.l.k.l.h.k.h.h.l.V.V.qXqXQ././.I.Y.Y.oXJ.",
"U.I.Y.Y.@X5X5X5X5X8X2X2X2X%X@X%X%X%X;X2X2X4X4X2X+X|./ K.( q J 7.x.0.W x c U I I _ / / c v g.u 7 l k z >.7 u i >.1.e.A ;.;.;.-.C -.C C s s a s s U o.1 w.q.y.y.n.M.C.5 h P d.P g w 8 1 8 8 r W._.j.j.g.0 n Z Z A H w.w.E w.k.k.l.N.].f.f.f.t.t.t.e.7.<.,.,.J A r n Z A w.0.x.N.v.B.(.(.{.lXjXk k -.;.1.;.;.;.:.;.3.u.9.V ^ ^ =.G =.=.=.=.H G F H G N N b b e Q.V.x.0.8.w.F + s f y y 6 y y y u u y u l S k r.m.l.t.7.7.a.i.e.1.C a N x x =./ *.O.| | / ( q 4 z b.c.N * V h.T 8.h.n.k.h.k.l.l.h.h.h.h.h.h.h.N.Q.Q.qX/.~.I.I.I.oXY.",
"G.J.I.Y.3X3X2X3X8XnX4X2X2X2X2X2X2X2X2X2X2X2X2X4X%XL.K.+X .- P T W T Q ] o.&.&.K.L.Y.@X X#.O.( x ; w.i 7 k z >.5.i z s d p d y d p p a.a.s.s.a.s.s.' P 6.8.q.q.p.n.Z.+ * 5 h g t w q 8 8 1 8 8 n b.c.P V m V Z Z A w.w.w.w.h.h.h.q.l.5.t.f.t.t.t.5.4.<.;.;.C C L n n K 8.y.x.x.N.W.(.{.kX(.B.6 u k j -.-.;.-.-.-.;.3.d.3.V N ~ ~ ^ =.R I I I G H F N B b b Q.v.z.Q L K m ! @ i z >.3.2.4.4.e.4 4 4 4 4 w 6 e.9.9.t.r.9.:.s K x v c ( |  .( | ( .X.X|.|.|.%.- w u.c.O t T T L w.h.v.l.h.h.h.h.h.h.h.q.q.h.h.N.W.[.Q.!.).G.U.Y. XT.",
"G.J.Y.OX2X;X3X3X5X5X3X@X2X@X@X;X2X2X5X5X5X5X5X4X4XoXL.*.$.U T 0.Y E ` S.J.&.P.&.o.&.@.$.$X$X( |.+./ c v : 3.u i z 5.i.a.m.a.p.p.e.e.7.<.3.J L J 8.N V Z L L 8.8.9.p.Z.+ , 5 d h w 1 1 1 8 1 3 * * L L n n V Z A H H E w.g.g.h.Q 6.e.>.5.t.t.t.t.4.4.<.<.;.C S ,.n Z T 0.z.x.v.W.!.(.(.!.n.9.# < u k u -.-.-.-.S C C 3.u.3.J m G ) ) =.R ) H H F F M b r S.b.z.T K V P m 0.% X O , 1 4 7 s j :.2.4.4.e.t.s.p.e.3.-.C $ - c U / O.$. X.X X X.XoX$X$X&XO.wX.XK.e a Y * P 0.L T q.l.l.h.h.l.l.h.q.q.w.h.w.q.l.N.B.W.V.V.Q./.G.J.Y.T.",
"/.U.Y.@X;X;X;X3X:X3X3XY.Y.oXOX@X@X2X3X5X5XeXtX5X5X%XL.U  X' $ T W ] b.` z.&.@.@.$.$.H.H.K.&X%X%X%X| .X%. .( x $ 8.s z 2.2.,.3.,.8.Q D.B $ $ x : : $ W T.Y = L L 6.9.y.M., 5 5 w w 4 1 1 1 1 J = 3 L n r n N Z H w.H E w.w.w.T L B.;.k j z 5.e.e.e.7.;.<.C C s J n Z H 0.0.h.v.N.Q.!.N.x.h.p g z > f l j p j j p s C J 3.3.3.m n B ) ) ) ) ) =.F N B b N N.0.T m r 0.*XY ; X Y c c x ; b zXP & 5 y y i g ,.J V I x c G | +.&X|..X X%XoXoXoX+X+X@X&X$X%.| O..X|.M   8 K x.T 6.h.h.h.h.h.l.h.q.h.q.l.q.q.w.l.B.B.N.N.N.N.W.~.T.oXI.",
"v.F.OX;X=X;X:X:X:X3X3XJ.Y.OXOXOX@XOX@X@X2X3X5X5XeX3X+XoX4X#.B W z.S.g.` z.R.L.L. XY.oXoXOX@XwXrXwX&X$X$X$X.X%.O.( x b L m $ : : ! ! _ } E.I U ! ; : H P Y $ : P ,.3.d.u.s.= , 1 1 2 8 1 3 1 3 3 * A 0 n n Z Z Z A w.T w.w.H K dX6.,.f k >.k >.4.5.1.1.;.-.C p A V A 6.w.w.g.N.W.N.x.g.z.e O o 7 l > f u l j p j a a J :.8.P m P n B F ) I H F F B b t v.g.Y m N 0X- ; W   X * t b.| |  ./ / I c x - K K K x U I  .+.|. X X+X%XwXtX@X;X2X2X4X5X5XrX&X| | | *.$X|.- t w.L L 8.h.l.l.l.h.h.q.x.q.h.q.h.7.w.B.N.l.N.n.N.n.N.N.I. XU.",
"v.~.=X-X:X:X:X:X:X3X:XI.Y.Y.OXOXOX@X=X@X;X@X2X2X5X3X+XoXH.L.T u.D.Q.z.z.v.).=XoXOXoX@XOXOX@X=X5XrXpXeX%X$X X XI K.} M e P 0.N / *.|.#.L.M c.} U b ; $ P u.; : $ - J ,.9.p.+ O & 1 1 2 9 3 3 > & 3 n n n n n Z H H H w.A Z K V.8.n x X g i 5.i z 1.1.;.;.-.p p C K L T T E h.v.h.0.0.z.q >Xx v o f k > < y p k p p p s C 3.3.n Z n B n F F F F F b b b.z.Y m 0.$ - B R N X $ - m T w.7XOX.X.XK.%.+.] ) m O e K z.Y c.A.T.2X8XtX8X@X;X;X2X2X5X5X5XpXO.O.| | #.wX%XQ d y.L L 0.l.h.h.l.h.q.n.y.y.r.q.h.7.w.m.l.B.B.m.N.N.m.N./.Y.~.",
"N.kX,X,X<X:X:X:X:X:X3XI.Y.Y.Y.T.OXOX;X@X@X@X;X;X2X2X@XL.o.F.T y.D.g.g.v.)././.OXoXOXoX@X;XOX;X@X2X@X;X;XoXL.L.L.%Xo.U $ a L 9.V.P &.D.#X*XX { W ! e - z.d.Z.x x : $ J :.9.s.+ + > , 1 > 3 3 3 3 3 b n n Z Z Z Z H w.H Z x.b.K X ; +. .: g i >.i j ;.;.-.S j y A V K L H E g.g.w.0.u.8 /.e { | : o # k # 2 f l p u p p s J 3.n m n n n N F F F B e - c.W e = $ - m } Y Q X = e K W z.Q E W Y x _ I.{ Y   % m 8.Y T T W g.k.k.R.;XOX;X;X;X2X3X5X8XO.O.O.O.O. .( wX+X4 2.L T q.h.h.l.h.n.y.x.n.h.q.q.7.7.6.N.m.B.l.N.m.n.n.m.{.^.^.",
"[.kX1X,X,X<X<X<X<X:X:XI.I.Y.T.Y.OXY.OX;X;X;X@X;X;X;XoX] J.{ g q.g.` c.)./././.,X@XoXOX@X@X@X;X;X;X;X;X@XOXOXL.oX} H.) x a L 8.n.t Y >X#X#XY   ' I M : X Q 3.u.I U v $ g 2.s.+ + > , > 3 > 3 & 3 8 b n n n Z Z H H Z V (.V.L X e ) |.%X| : < i >.u k -.-.k p y V K K H H E E T E 0.-   ; Y |.c | v o # k # f 9 u p y p d J 3.r m n F B N n N N b x b.W V * $ ; F c.Q N X $ e Z Q g.z.Q Q Q M b R I.{ U   * V 0.T K T 0.k.k.j.c.U.;X=X;X;X;X3X3XuXO.X.+.+.+.O.O.|. X2 j + 6.h.x.h.l.h.n.n.r.h.q.q.w.q.w.6.B.N.l.m.m.m.m.B.B.{.kX(.",
"{.kX1X1X,X<X<X<X<X:X-XI.I.Y.I.Y.T.OXT.OX=X;X;X2X;X;X@._ @Xz.J n.h.z.W./././.)./.=XOX@XOX=X@X@X;X@X;X@X;X2X;X@XL.U Y.' U V L 8.n.t Z *X>XoXI.I   ' I x : Q J 2.y.' ( U $ >.i.s.+ > > 3 3 3 3 3 3 r n n n n Z Z H Z m 1XN.Y X ; ` g. X.Xc | : f k >.f y u p y 9 -.V ! V H A Z K 0.- X - Q c.&..Xc | v @ # j > f 9 y y y p d P r m n n n N B F b b Q dX! % $ e ! S.` ! % % * n Y g.D.R E W W ; b _ P.} Y X 1 K N.K L w.g.k.g.k.k.v.Y.;X=X;X;X;X;X| X.X.+.@.$.#./ |.+X= u + # q.n.n.l.N.n.h.q.q.q.q.q.7.w.7.B.l.B.B.B.l.B.B.!.{.{.{.",
"{.kX1X1X,X,X,X<X<X<X=XI.I.T.U.T.T.T.OX=XOX=X;X;X;XJ...: @XX J C 6.W./.(.)./.).).(.~.T.=XOX;X2X=X=X@X;X;X3X2X@XH.%.D &.I T J 8.x.V V A.#XY.Y.P.x   ' U c : e J 3.p.&.&.U X 3.2.+ + & , 1 3 3 3 3 Z n n n Z Z Z Z m Q N.T X ; ` ` } &X$X.X&X/ : g j >.4 6 6 y 2 P m V N N m V 0.8 Q - Y c.c.J.&X+Xc | x X 5 z # 4 6 y y y p J r m n n F n N B b b ` Y m X ; Y Q.g.Y m X * B Y ` ` Q W R W z.x ; ) R._ ! X q T K L H w.k.k.g.k.k.j.)./.:X:X;X;X+. . .X.X.X.F.F.( ( &X=X6 d.+ g u.Z.l.l.l.l.l.q.q.q.7.w.7.w.l.m.B.B.n.B.B.B.B.{.{.{.",
"{.kX(.1X,X,X,X,X-X<X~.T.U.I.T.T.T.OXT.OXOX=XOX=XJ.@.] o.L.L 6.J 6.(././.(.).!.).).(.@XOX;X;XOX@X@X@X;X2X5X3XOXL.H...H.[ * P 9.p.V L g.Y.Y.J.I.I.K.X o.~ c : e ,.9.p.K.&.( y 3.p.+ + & 1 1 3 3 3 T n n N N N m ! n D.Q % e W W W z.wXwX$X.X.X/ X z d.5.< 2 9 2 P m m n r n z.; >X= Z g.c.).F.pX&X.Xv / ; . , :.# < w y y y s p N F n F F N B b ) { N   q R D.z.Q N X - b Y z.W W W R W _ F b x _ P.' W O r 8.L K w.w.h.h.g.j.g.k.k.G.=X:X:XOX^ '  .X.X.F.@.F.| ( eX+X4 5., < 3.d.l.h.h.q.h.q.q.q.q.q.q.7.q.n.n.m.m.B.B.B.!.[.{.(.",
"(.{.{.(.,X,X-X-X-X,XT.U.T.T.T.T.T.T.T.=X=XOXOXF.F.F.[ L.A.V 9.L 7./././.).).).).W.W.-X;X@XOX@XOX@X;X2X3X3X2XOXL.H.' Y.{ - P 8.n.L L 8.=XT.Y.J.L.L.L.x #. .U v e 2.2.i.;X*.w J e.+ + 1 3 1 1 1 1 n n N N N N Z n Q.z.  ; T T Y g.` uXrXwX$X.X.X/ X z 5.i.> , 2 g m e e b } e X % N g.g.v./...pXpXwX$X.X( : . 5 >., 2 9 p r p 3.Z n n n F N B b [ _ b X t x.W m m X - m R ` ` W W W ` z.] x x x ) F.] % O p 8.L L w.w.w.h.h.j.h.g.j.k.G.~.-X^ ^ '  .X.@.X.@.@. .~ K..X5 z # 5 g d.7.l.l.h.q.l.q.q.l.7.q.w.7.n.n.B.l.m.B.B.W.{.{.{.",
"kX(.(.1X(.,X(.,X-X-XU.~.T.T.T.U.=XT.~.OXT.OXT.F.F.X.' ;Xz.C p.L 7.W.(.).(.).(.W.W.W./.;X;X;XOXOX@X;X2X3X;X@X@XY.H.$ =X&.$ a 6.x.P L w.~.=XOXY.Y.L.L.H.: |.O.( x = 3.2.9.@.K s 9.a.* 5 & 1 1 1 1 n n Z N N S Z Q.z.* - Y Y Y T E R 5XrXrXwX$X#..Xc * 3.5.> > > P b e e g.m X $ m D.W c.).S.) rXrXrX$X$X%.c X . d f., 2 9 y d L K F F n F m B B R U 0.o r J t Y X - N _ c.{ ` ` ] } c.D.{ M x B [ J._ n O S x.A K w.h.k.k.w.k.g.j.k.j.S.U.J.[ ^ '  ...X.@.@.X.| / |.$X* g # , g d.<.q.q.l.h.q.h.q.q.q.q.q.q.B.N.n.B.B.B.B.[.{.{.(.",
"kX(.(.(.^.(.(.^.(.~.~.U././.U./.~.~.~.=X=X;XI.F.F.*.M OXL L 8.,.q.l.W.N.N.N.k.x.n.x.h.).@XOXOX@X2X2X;X2X;X;X@XY.H.H.;X@.$ V 8.n.A L w.W.:X=XOXoXL.L.L. X Xx #.| c $ ! J L - a 8.p.5 1 , 1 8 1 8 N Z N N n P (.c.Y = ! 0.m K H H Z 2XuXiXrX&X.Xx %.x h 3.e.# & g e e W Y $ % r 0.W g.v.S.v.F rXrXrXwX$X*.O.x X @ s , , w w y s Z n F F n B b H j.Y X O O q c.$ ; Y ) c.{ c.] c.A.S.R.U.D M x B ' |.' O & V A V L w.h.h.w.g.g.g.g.g.k.j.I.R ) [ [ [ ...._...^ ^ / x &XN 7 d., g s.7.:.e.h.l.r.q.r.q.q.q.q.7.B.m.m.B.B.B.'.B.[.{.{.",
"kX{.{.(.{.(.,X1X,X/./.^././.(./.^.^.,X(.^.;XI.F.F.] @.L.P ,.J ,.q.p p w r w w w w 9 9 8 ,X@X@X2X;X;X@XOX@XOX;XoXH.H.;XJ.= V 8.n.L T q.v.7X:X2X;X@XoX XoX|.K.+..X&./ c x : X a ,.p.5 5 * 8 8 9 0 N Z N n m b.D.Q = Z z.m m m V n b :XpXpXsXpX&X$X$X| : g 2.e.+ h ; N Q - O q T Q T k.k.k.v.M eXrXrXpXwX$Xc *.:   , >., < 2 p a n n F F B B B ` [ U $ $ $ : ; x R U.E.P.D.D.T.T.T.=X;X~.c D M x ]  X} $ % C P P ,.w.q.w.h.w.h.w.h.g.g.j.H H H G H R E H E E ) ^ ( ( rX+X4 5.5 d d.4.,.<.r.e.e.7.r.e.7.9.e.e.r.jXM.m.B.B.B.!.{.1XkX",
"kX{.(.(.(.(.{.(./././.U./././.(.^.^.(.,X(.~.J.F.@.' oXH.V 9.L ,.S p r w 9 9 w 9 9 9 9 9 r ;X;X;XOX@XOX@X@X;X@XOXJ.H.3XH.  V 8.B.L 8.h.v.,X;X;X;X;X;X@X@X.X|.%.|.c .X%.| ( c x J Z.Z.* 3 8 9 w Z H N m m t >X} D.m u.m t n b r e q ;XrXpXsXsXpX$X.X%.U X z 3.p.d e W e   * K T T 0.k.h.k.x.b eXrXrXrXrX$X$X|.=.$ . 4 >.1 2 w d n H n F n n n R [ ; ; v M R c.#XOXY.I.=X3X3X:X=X=X;X:X~ D D c M ..oXo.* + C V A L q.w.h.w.h.w.g.g.g.g.E H H H E H H ` H E E ) R ~ ( uX$X2 3., d d.2.;.e.e.e.7.e.t.r.r.e.r.r.p.r.'.m.m.B.B.C.qX{.hX",
"hX!.(.(.(.(.(./././././././././.^.^.^.(.(.,X:XF.o.' 2Xb.J q.J w 9 w w 9 p w w w w 9 9 2 2 H OXOXOXOXOXOXOX@X;XOXL.J.2XJ.e C 8.n.L w.h.N.).:X;X;X@X@X@X%X%X+X|.|.|.%.%.X %.O./ U q.}.5 1 w 8 r L F N m ! :Xb.m r T x.t q e r e - - 2XrXeXrXsXsXrX&Xx O.x d 3.e.t W N $ = b 0.Y T g.h.g.h.x.x tXeXrXrXrXwX.X| O.c * + s <.1 w w r n F n b B ) _.[ } } } _  XY.Y.Y.;X:X8XnX9X3X:X:X7X:XD D G c c X.@X@.  + V A C 6.w.q.w.h.w.g.w.h.g.k.E E E E H R E H ) E E E E R U &..Xq z < d d.C e.e.e.e.7.7.7.7.e.e.r.p.p.e.q.'.m.B.B.B.hXqXhX",
"hX!.!.1X(.(./.(.).)./.)./.(./.)./.^.^.(.^.(.,XS...$ OXK J p.w 5 w t a a d a a d d t y y t d -XoXOXOX@XOX@XOX;XOXL.J.3XJ.e A q.P L 0.l.W.W.(.OX@XOX@X+X@X%X%X$X.X.XK.H.K.L.^ H.@.{ N.t t w w r u.Y N N >XQ.` ; P x.q 8 b 0 0 * - * -XuXtXuXuXpXsXrXwX%X( $ g 3.}.Q - 0.e T Y Z T 0.g.0.0.0.; rXrXrXrXrXrX%X.X: ( x   , :.1 5 w t B m b b B E } B ! Y.E.P.G.P.T.-X7X9XnXyX9X3X:X7X1XX.G c G G c G 4X%.R O J C C T q.q.w.w.w.q.g.w.h.w.E E Q T T R T R E Y T E Y Z N #.+XE s s.d 3.e.4.7.e.1.7.7.7.2.9.e.u.p.i.e.r.r.'.].m.B.[.[.{.",
"hXQ.(.(.(.(.(./.(./.)././.)./././././.^.^.^.(.D.) A.oXr 3.n.5 5 5 y d h s h d t w w 4 w 4 w a oXOXoXOXOX=X;X;X@XL.J.2XJ.V J y.A L 0.v.W.N.).=XOX@XOXOX+X@X%X%X2X%X$X+X XK.H.H.H.U 2XV t q r t R N N % 6Xb.t V u.x.* 8 3 * * = = = -XiXuXuXuXrXrXeX&Xx K.U a :.dXb X * Z 0.A A w.w.w.0.w.w.e uXtXtXrXrXeX4X.XO.#.c X o y 7.4 4 P b B e b b <Xx ] ] { o.A.R.U.=X,X-XnXnXyX7X7X3X9X7Xc =.c =.=.( =.' H.R @ a :.J ,.9.w.0.9.q.w.w.g.H T T T T Q W T E T E E Q T K Z N ` %Xo.d 4.h z 4.e.7.4.7.1.1.1.<.<.<.e.i.i.r.q.r.l.{.f.B.'.(.hX",
"qX(.(.xX{.(.(.).)./.)./.)./././././.(.^.^.^./.v.g.=XL.t ,.p.m.1 , 5 5 w 4 4 4 2 5 1 1 5 5 1 1 q.oXY.OXOXOX;X;X;XL.J.2XF.m ,.Z.A T h.v.v.W.W.,XOXOXOXoXoX+X%X5X4X4X5X%X#XL.L.H.H.F.F.o.S r t A Y F Z >X*X` t Q x.= = = - * = % % % =XiXiXiXuXuXuXrX%X$X%X/ : g y.= K t w.V V 6.w.w.6.8.T T - iXtXtXtXtXtXrX&X.X: ( x   & C 4 4 d t b e b b ! R ) ] { A.R.T.^.-X-X-X-XnX9X7X7X8XyXOXG =.=.=.^ ( =.+..X/ + a J J ,.q.7.9.w.q.w.w.g.T L T T T Q W 8.u.0.0.0.Q Q K P Z.6Xv.$.6 i.i i ;.1.1.7.1.1.1.1.1.<.<.9.p.p.t.r.r.l.m.{.B.B.qXhX",
"hXxXkXkX(.(.(.)./.(.)././.).).)././././././.v.g.(.W.c.w C 3.q.a.& & & , , 1 3 3 , & , & , , 4 4 <XOX=XOX=X;X;X=XI.o.;XE.V 6.x.P T h.N.N.N.).).Y.Y.oXoXoXoX5X5XeX5X2X2X2XOXoXL.J.F.P.E.E.V n 0.Y Y X D.b.dXV 8.u.% % = = = % % % % ~.iXiXaXiXiXiXuXwXoX: *.x t u.X q K h.m V H A 6.T T A H = iXiXiXuXuXuXrX4X+X*.&.c X o 4 9.w w - ; ; B N U R ` ` A.S.U.~.~.^.^.^.~.yX0X8X9XyXyXG G =.=.^ | ^ ( O..X*.. d m.J ,.7.q.6.q.w.7.0.T T Q 8.Q T 8.Q Q Q W 8.Q Q T P qXqXV.u.Y 4 g 2.i i ;.5.;.1.1.1.;.1.1.<.<.i.i.r.r.r.r.m.B.C.bXhXhX",
"xXlX{.(.(.(.(.).).).).).).).).).)./././.).v.g.>XD.g.R.c.g V ,.9.a.+ & + > > , , , > > > > > 1 2 1 :XOXOX;X;X:X;XL.o.OXo.C 0.V L w.l.v.v.S.W.W.^.Y.oXY.oX2X5X5X5X5X2X2X3X3X;X#XY.J.J.F.E.D.L W Y R R.E.` t K g.% O % = % % % % % % -XtXyXiXiXiXiXiXrX@X+X$ c $ Z.Y V 0.t r S A A Z A A Z Z = 7X8XtXiXuXtXuXrX@X+X.X( :   & J u.w 1 ; ; b B F R ` _.A.G.U.~.U.^.U.^.U./.0X8XyX9X=Xc =.=.^ | | | ^ / &X#.  5 2.J 3.q.9.9.w.9.w.A Z P 8.8.u.8.Q 8.T T 8.L P P P 6XqXdXu.Q % } 4 j 4.u u -.;.;.1.>.>.;.1.<.<.7.t.r.e.t.l.m.B.'.[.lXvX",
"xXlXkX{.(.(.(./.(.).).).).).G.).).).).).v.W /.Q.0.m ] ' ; r s :.7.p.a.+ + & > > > > > > > > > > > L =X=X=X;X3X=XJ.F.Y.r L y.V L g.k.v.N.W.W.S.).=XoXY.@X5X2X3X3X2X3X3X;X2X2X3X;X;X@XOX+XY.c.b.Q = S.g.b V 8.x.O % % % % % % O % O -XtX8XyXyXiXNXiXiX4X+Xx ^ : X r K x.e r n Z Z V Z S Z V = 7X5X8X8XyXiXyXyX4X+XU *.x - o w 9.d t = e B F H W ] _.G.).G.U./.G./.).G.G.U.yXnXyX=.=.( ^ | | X.X.| / O.|.E > 3.:.,.e.r.q.9.9.q.A A A V Z Z K T T 8.8.T Q P P 0XqXZ.y.P - ! H.' 6 s 4.y u j ;.>.;.;.;.1.<.;.7.t.e.e.e.r.m.f.'.[.{.xX",
"xXxX{.(.(.(.).(.).).).).).).).).).).).k.W Q.W.z.N Q &.P.&.U N a :.3.e.p.+ + + & , < 2 5 2 2 2 f 4 1 mX=X:X:X:X=XJ.OXoXa ,.x.V T h.k.N.S.W.S.).).-XY.oX8X3X3X3X5X3X5X5X8X8X8X7X:X-X~.Q.y.Q q q Y R.A._ V K 0.% O O % % % $ O O O % ~.8X8X8XyXtXyXiXaXeX+X| O.x ] V w.8.q r S S Z S S V S n = 3X5X8X8X8XtXyXiXeX@X.X%.I ; . 3 J t 5 5 q w r r N R k.S.S.G.S.W.).G.G.S.S.S.3XnXI.=.=.^ ^ | X.X.O.O.O.#.$X/ + s :.3.r.9.r.i.q.V V A L K L A A K A Z m t m C.qXV.y.u.W ; P W E.|.' y j 1.f u j ;.;.>.;.1.;.1.1.7.7.e.r.l.m.m.'.'.{.vX",
"xXzX{.(.[.(.!.).).).).).S.).).S.S.S.k.g.% Q.z.zXQ b.5X%XXX%.*.N p J :.9.t.i.+ + + > , , < , , 1 , 2 y 7X:X:X3XOXL.3XR.V 0.V P 0.l.k.v.N.S.W.).S.).Y.3X3X3X3X3X7X7X7X<X,X,X6XV.T Z n e q 8 1 V.Q.~.j.! V T n.O X % % % % O % O % O ~.8X8X8X8X8XtXyXyX8X&X.X$ I M K q.q q r S S S S S S S n % 7X3X5X3X8X8X8XtX5X%XoX: / x   O a <.m.1 1 1 9 9 y a L 9.q.w.g.g.k.k.k.k.S.v.S.3X=.^ ^ ^ X.X.X.O.+.#.+.%.&X#.. d J :.e.r.r.m.C A A A L A A L L L V n t r !.N.y.T Q z.! Q } b.D.$X|._ y j 4.f u k ;.;.;.;.;.;.1.1.7.7.r.t.l.m.B.[.{.vX",
"xXkX(.(.!.(.).).).).W.W.S.W.S.W.W.k.W w.Q.z.e W b.:XoXU 2X%X XO.' ~.a :.3.4.p.4.+ + , , < < 2 2 2 f f q.:X:X<XY.E.7XdXL x.V L h.k.k.N.N.W.S.W.).G./.9X7X<X>Xv.j.g.` H H w.H H Z n r 0 8 8 !.V.x.x.z.qXK 0.N.X O O % % O O % = O % -X7X7X8X8X8X8XtXtX8X@XoXv / Q 8.x.5 * e t S S p S r S r = 3X3X3X3X8X8X5X8X8X%XoXG *.D Y X 1 d g 3.Z.1 1 2 w y p s J J 3.8.d.u.u.i.u.y.u.N ^ / |  .X.X.O.+.$.%.%.|.%.%.  < 4.J <.r.e.q.A ;.A A A A A Z V t r t C.Z.y.8.P u.M Q b.} D.;Xb.+.$X%.Q 4 z 4.< y s j -.;.;.>.1.1.7.7.e.l.t.m.B.'.[.{.",
"lXkX{.(.(.(.!.).).W.W.W.W.S.W.S.k.W Q Q.k.m W z.D.0.E.$XH.5XeX%X$.O./ g.s :.>.e.t.i.+ # , < 2 2 6 y i s CX7X3X=X;XOXP 8.Z.Z w.x.k.N.W.S.S.W.S.).).zX,X/.S.S.j.g.g.g.w.H H H S n 8 8 q !.V.Z.q.8.6.K P L y.V.O O % O O = * 5 * = % ^.7X7X7X7X8X8X8X9X8X2X X; o.A.0.y.* q r r r r r r r r S % :X:X:X7X3X3X7X8X5X;XoX' %.U ; V o + , h s 3.`.1 1 4 w p a s :.:.,.3.d.u.s.u.s.3.v /  .X.@.+.@.$.%.|..X|.O.$X| + s z 1.t.a.A 6.6.,.6.,.C C a p r C.Z.q.6.K Q B Q } b.E.6X! #XA.c.|.$X%.Y 4 :.4.< 6 s s -.;.;.;.1.4.e.e.t.m.m.m.B.[.vX",
"kX{.(.(.(.).Q.).W.W.W.W.W.S.k.k.w.Q Q.z.T Q b.V.w.8.0.{ +X@X4XuX4X.X&.%.*.Y C g >.4.i.4., , < 2 y u s s s zX=X@X8Xc.L n.L L h.x.k.v.N.S.S.S.).).1X,XR.S.S._.j.` ` H H H H n n e q !.V.x.y.8.T u.$ x B T x.O X O % = 5 5 5 5 5 5 = ~.3X7X7X7X7X7X8X8X8X;XoXY.$.^.q.* 1 8 0 9 r w r r r n n % -X:X:X3X7X3X8X3X8X;XoXL.L.~ h ; : X o o # t s 2.1 , 2 w p p p C :.;.3.3.u.y.s.y.6.' X.@.$.$.H.K. X.X$X$X.XwX%.o 7 s -.e.7.7.7.<.,.J C S a [.Z.n.9.,.L ! ! U } b.D.OX#X#XR.c.` W Q *.4X$.! 7 :.4.< 6 i j -.;.;.1.<.4.7.e.l.m.m.B.].vX",
"kX(.{.(.!.!.W.V.B.W.W.v.S.S.k.w.Q (.z.T Y z.Z.V.8.w.0.0.c.@X2X2X4X( &X.X.X%.+.U m s j >.5.4.4.i < 4 7 u u [.=XD.Y.N u.Z.K w.v.v.k.v.W.v.S.W.S.U.~.G.S.S.k.j.g.g.w.E H H S n 8 q !.N.h.8.L : m D R _ ' o.b.O + + 1 t h t h h 5 5 & ^.:X<X3X7X7X8X7X7X8X2XoXY.J.0Xn.= = 1 8 r 9 0 0 r 9 9 9 * -X:X:X:X<X3X3X7X3X;XY.L.: o.} _ U x x X P . , y :.a., 2 2 y p p s C 3.3.,.d.u.s.p.e @.#.H.H.K. X.X%X&X&X$X+.$X- # >.j e.;.;.-.C s V M.m.p.q.,.C Q B U I } E.*XXX=XT.#XR.c.` W ` Q m <X@X+.e 7 >.4.< f s j -.;.;.;.1.7.t.t.l.m.B.'.vX",
"{.[.C.cXhX}.C.N.n.N.n.n.l.n.w.H /.x.Q T T x.N.V.8.w.0.0.q.D.2X%X%X2X@Xc wX4X%X|.&.*.c ! -.j :.>.1.5.5.>.6 6 Q.=XS.P Z.T T z.N.x.v.N.W.v.W.S././.).G.S.S._.j.g.g.E T H m r e !.V.x.u.T X M I _ o.A.J.I.J.A.* * t h g h g h h = = O g.U.<X:X7X3X7X7X8X8X;XoXY.$ ,Xn.= = 1 8 0 9 9 w 0 9 9 8 h S.-X:X<X:X3X3X7X7X;XY.L.&X{ $X.X%.} ( c : - P o < h 1.< , 4 y i a C C :.,.<.d.u.s.s.x J.L. X X+X$X&X&XwXwX$XwX%.O i 1.z :.gXM.a.i.e.<.,.J b.; D I ' { P.@X#X;X=XOXY.OXP.c.` ` ` E R./.Q.c.$.e 7 >.t.< y k l j j j -.-.5.1.5.f.`.m.bX",
"[.!.cXqXC.}.C.Z.Z.n.h.h.w.,.B.B.Z.Q r u.y.q.y.n.!.8.0.0.h.x.G.5X2X%X%X+X$X.Xx wXwX$X+X|.K.' - 8.d.3.z z z >.t./.Q 0.}.8.8.N.N.k.v.v.v.S.W.S.(.).G.G.S.S.S.k.j.E E E Z r e !.V.z.8.` D R ] F.J.P.o.o.o.o.o.o.1 h g P g h 5 = o % & 8.w.j.<X<X7X<X7X7X7X:XOXJ.: 0XN.& = 3 8 9 8 8 8 8 9 * 3 w E W ~.:X<X:X:X:X3X:XOXoX4X6XwXrXpX( .X*./ c : $ o + 4 :.:.< 9 y s s C -.,.<.8.2.u.y.T ~  X#X+X$X%X&XwXwXwX&X%.|.% , e.i.4.>.3.J L x.Y M U ( ' &..XE.L.@X3X2XOX=X;X:X=Xc.c.` ` W W ^.D.Q.b.b.W t i j j f f u k k k j -.-.1.5.4.t.f.{.",
"C.}.B.m.M.n.n.n.n.q.8.,.8.m.q.w.R ; w.u.u.y.y.p.V.8.8.8.0.x.W.~.eX4X%X%X$X.X.X.X|..XO.rXwXwX.X|.%.K.*.U g.V P Q L y.u.8.x.b.N.v.v.v.v.W.S././.G.).G.S.S.S.j.j.g.W Z m t !.Z.x.u.M R { F.P.{ o.o.o.o.o.F.H.H.J.* d.h w 5 & O 5 = > H E E W ^.(.<X7X7X7X:XOXP.b 9.e.O & * 8 0 8 8 8 3 & 3 & 1 w.E Q c.-X:X:X3X:X;XOX5XeXtXrXpXpXrXrXrX&X#./ c : X o , i s.2 4 i j -.:.:.:.<.2.d.u.p.m +X@X%X2X&X4XwXwXrXeX&XwX+.O 8.z.g.; D / | | *.+.#.K. XoXoXL.oX;X3X3X3X8X9X7XG.A.c.} z.` S.R.D.z.z.u.x.e - d u k z < f u k j k k >.>.5.4.t.FX",
"B.n.n.l.h.r.p.q.6.,.L M.r.,.R I { _ M * 8.d.u.q.x.q.0.0.0.x.N.!.-X8X3X2X2X4X%X+X.X|.|..X|..X$XM wX&X%X%X.X.X|.%._ C.u.z.N.W.v.v.v.W.v.S.S./.G.).).G.G.S.S.S.k.g.T Z m Q.x.0.X I ] P.L.o.o.o.o.o.F.H.Y.L.Y.Y.Y.Y.h 5 = O * 1 , = 3 A H H E T g.kX<X7X7X=XY b g.V 7 >.+ 3 3 3 8 3 & & 3 3 3 * T T T T Y ~.:X<X:X8XyXyXaXaXMXMXsXsXrXwXrXwX/ %./ U ; o @ d 4.6 y -.;.;.:.,.,.1.2.9.e.i.v %X2X%X4X4XwXrXrXsXwX%.&X| *.+.#.K.|..X$X|.#.%.|.L.L. XoX;X3XtX9XtXnXnXnXU.I.R.E.b.z.e -XD.c.g.` u.- M ` O.W i 7 k j < f l j j k j -.5.4.FX",
"l.l.r.q.q.y.8.,.,.M.q.3.{ D / L.F.o.} _ e J L 6.q.B.8.8.q.h.N.!.(.^.2X2X2X2X4X4X&X%X$X+X.X.X.X.X$X&X&X&X4X4X&X$ rXy.z.v.N.W.v.v.v.S.v.S.(.U.G./.).G.G.).).W.S.w.T z.Q.u.Q U ] A.I.{ ] o.A.F.J.Y.Y.Y.Y.OXOXY.OXOX&X% & 9 1 1 3 3 3 V H H 6.H w.H /.~.R N m A.e : z i @ # < 2 > & > 3 3 3 3 3 H H H Z H Z ` ~.nXyXiXnXNXNXHXHXHXHXMXaXuXuX&X&XU %./ x   o 6 >.6 u j ;.>.1.1.;.<.7.7.e.6.~.4X4X4X4XrXrXpXpXrXwX|.%..X.X.X.X|..X|.K.|.|.+X@X2X5X8XyXnXnXnXNXmXNXT.Y.T.#XD.z.z.` T.v.z.W z.; N Y ` E.|.|.U 6 7 k z # l l z l k :.>.FX",
"r.r.q.9.9.3.s p.q.,.B G ' @.' I @XoXL.o.' t A L 0.n.8.0.0.h.N.W.!.Q.~.;X@X@X;X%X&X&X&X&X&X&X&X&X&X&XwXrXrXuXpXrXrX~ x.N.N.W.v.k.v.v.v.^././././.).)./.).G.).k.w.kXQ.q.u.R { A.{ ] { F.J.J.Y.OXY.Y.OXT.OXY.OXOXY.$XwX8 1 1 1 1 3 3 S H H A H H H Y R H m ` K L D : # k @ # < 1 > & 3 > 3 3 3 Z Z Z Z Z Z Z 1XyXyXiXnXnXNXMXHXHXJXJXHXsXsXuXwX&XeX&X&.c   o < >.7 s >.>.1.1.1.1.7.7.4.9.N 2X4X4XwXrXrXpXpXMXsX.X$X$X%X%X&X4X&X&XwX4XeXtXtXuXiXNXNXNXnXNXNXBXT.T.T.=X#Xb.} } c.R.c.W W q N Q ` c.R.OX&X$X.X_ i 7 z >.k i 7 l k j fX",
"r.7.,.V p.n.9.,.E.I | #.$.oXoXoX' 2X@XH.&.B r J 6.p.6.8.8.h.N.W.Q.Q.Q.T.@XoX+XoX+X+X@X%X%X%X&X4XwXwXwXrXrXpXsXsXsXGXG.v.W.v.v.v.v.S.S.^.U./.U./././././.^.S.g.{.V.0.N _ c.U.{ { A.H.I.Y.Y.Y.OXOXOXY.OXY.OXOXOXOX$X6X%Xw 2 1 1 3 3 S Z Z H H A H Y H N m W e Z *.I ! < z @ # 4 & 3 3 3 3 3 1 n Z V Z Z n Z S.U.nXnXnXnXMXNXHXHXJXJXGXGXMXGXpXeXeXwX%.#.( ; . < >.u j >.1.5.1.1.1.7.;.<.<.x 2X5XeXeXrXpXpXMXrXrXpXpXpXpXpXuXrXrXtXuXuXiXiXnXNXNXNXNXBXBXBX;XT.Y.;X7X*X{ _ ` c.P.` W X m Y ` c.R.E.D.oX&XpX&X$X' J 7 z 5.7 7 7 l fX",
"A s m.s.9.T ] (  .&.%.%.L.@X+X@X2X&.2X@XL.$.m a L q.p.6.8.h.N.W.N.Q.Q.).Y.oXY.oX XoXoX.X+X+X%X&X&X&XwXwXwXeXeXrXrXrX5XQ.N.v.v.v.v.v.kX/.U./.^.^./.(.(.(.).v.0 ).0.; ` A.o.{ A.F.I.T.T.Y.Y.=X=XOXY.OXY.OXY.OXOXOX&X&X2X;X9 1 1 , 3 S Z Z A H Z A E N b z.e Z W L.|.c g 7 z @ < * > > 3 3 3 8 S n n n n n )./.).<XnXiXNXnXBXGXHXHXJXHXGXGXGXGXsXaXrX&X&X.X| v   , ;.l -.4.e.1.e.5.7.<.<.<.,.5XwX5XrXrXpXsXGXpXpXpXpXpXpXuXuXuXuXuXiXiXnXMXMXNXNXBXGXBXBX7XT.OX:X8XyX#X{ _ N ~.A.W Z m Y ` S.S.S.G.R.OX2X&XwXXX$X%. .p 7 z d.6 7 a.",
"M.i.7.W ~ ( *.|.H.%.J. X8X5X5X2X4X@X' 5X@X X..t J 8.m.8.6.h.N.N.N.W.W.W.W.I.J.Y.L.L.L. X X XoXoX%X%X%X&X4X4XwX4XwXrXwX' S.v.v.v.k./././.~.^.^.^.(.(.1X(.S.v.Q.0.Y z.E.c.o.A.I.T.I.Y.Y.Y.OX;XOXY.Y.Y.OXY.oXY.OXOX3X3X2X;X~.8 1 3 3 p Z Z V Z Z Z H n c.N Z W v.L.+X$.v h 7 @ # # 3 3 > 3 1 1 S n n V N )./././.^.iXnXnXNXNXBXHXHXJXJXGXGXGXGXGXsXsXrX&X$X&XO.x   f >.z z 4.4.4.e.4.7.1.7.1.n :XeXrXrXuXHXpXpXpXpXpXuXpXiXuXuXaXNXNXMXNXMXNXBXGXBXBXGXyXOXOX;X8XyXiXP.] R ] Y.c.R e Z W v.1XS.S.R.T.<X8XNXrXwXrX|.&X%.*.m i z z s.",
",.Y U / +.*.H.%. XoX@XiXnXiXyXuX5X2X4X@.5X@X X; a <.n.,.6.q.n.N.N.N.N.N.S.G.J.J.J.L.J.J.L.L. X X X XoX$X$X%X&X4X&X&X4X&XS.v.v.k.W.)././.^.^.^.(.,X1X1XQ.W.Q.g.Y z.>XA.c.R.U.U.T.T.I.I.T.=X;XY.Y.Y.OXY.OXOXY.OX2X2X2X@X2X:X3X1 1 3 r n S m Z S Z n c.Y T Q b.W.%X.Xx O.: f i @ , > , 1 , 1 1 n n n H ).(.(.^.^.^.:XnXnXnXNXNXGXGXHXJXHXGXGXGXGXGXGXsXrXwX$X| O.c . 7 z z >.4.4.4.e.4.7.1.<.1.D ,XrXrXsXuXpXpXpXpXuXiXiXaXaXNXMXNXNXMXBXBXHXBXHXBXBXnX;X=X;X3X8X5X3XE._ R _ Y.] N t T z.z.c.A.R.~.<X9XnXnXGXsXrXrXrXO.rX.X*.Q z z ",
"U | #.$.%.K.oX@X@XoXiXNXNXNXNXNXMXtX5X4X X5XoXR a L y.,.T q.n.N.v.N.N.S.S.N.G.J.H.F.F.H.H.H.H.L.L.L. X XoX.X+X+X$X$X%X&XL.v.v.v.(./././.^.(.(.1XkXkX,XQ.Q.z.Y z.D.E.A.I.~.T.T.U.Y.U.I.OX;XOXY.Y.Y.OXOXY.oXOXOX;X2X2X2X2X2X5X3X1 1 w n n n r r m b ` K T x.S./.5XwX$Xx ( m < z 7 & > > 3 1 2 r S W./.(.(.^.(.,X,X^.zXnXnXnXNXBXGXGXJXJXGXGXGXJXsXsXsXsXpX&X$XO.#.U . g 5.j 4.t.4.e.4.7.7.<.7.;.G.rXuXHXiXuXiXpXpXuXaXMXNXNXNXNXMXBXGXHXBXBXHXHXBXBX3X;X;X;X5X2X;XY...) I { I.`   Z 0.D.g.z.D.^.<X0XnXnXnXnXGXpXsXsXrXwX&XrX$X&./ ",
"%.$.$.|.oX@X@X+XY.iXnXiXNXMXNXHXNXMXiX5X2XuX%X Xw 3.s.8.6.q.l.N.l.N.v.v.v.v.v.J.F.F.F.@.F.F.$.H.H.L.J.L.L. X X XoX.XoX.XoXF.v.zX/././.^.(.,X1X0XkX<X/.,Xz.N W >Xc.S.-X~.~.U.T.I.U.I.T.OXOXT.Y.Y.Y.Y.Y.OXOXoXOX2X2X2X@X2X5X5X3X3X> r r r r 8 q n b.m P z.D.Q.kX3XwX4X$X$Xc V # 5.+ O & > > 1 r W.(.(.(.(.,X(.,X,X,X<XnXnXNXNXBXHXGXGXGXJXGXGXGXGXsXsXsXsXsXwX.X+.O.x . g 5.z 5.t.4.e.4.4.7.1.7.n rXHXMXMXNXsXNXMXNXNXNXMXNXNXBXGXBXHXBXHXHXBXHXBX3X3X3X:X3X5X;XY.H...~ U o.P.) t L b.0.g.v.~.<X0XzXnXnXnXiXtXGXsXpXsXMXsXwX&X|.$X",
"$. X*X&X$X%X#XXXnXyXnXNXNXNXBXMXGXHXMXtX4X X5X Xr J s.8.L q.n.n.N.k.N.k.v.k.v.S.F.F.@.F.@.F.@.$.F.H.%.%.K.XXL.L.|.K. X XL.L.G.U.(./.^.^.,X1X1XkX7X>X^.v.Q W D.v.S.=X1X~.~.~.U.U.*X+X2XOX@XT.T.Y.Y.Y.U.U.OXY.OX;X;X;X;X2X4X3X4X4X;Xw.t q q q y.v.Z K g.b.Q.0XkX7X&XrX&X$X|.x y 6 p.+ + & & 1 0.(.(.(.(.(.{.(.1X1X1X,X1XnXnXnXNXHXmXGXHXHXHXHXHXGXsXsXsXsXpXpXwX$X+.#.; + z 5.>.e.e.e.e.e.4.7.7.<.F NXNXNXzXnXnXNXnXNXNXBXNXNXHXGXGXHXHXHXBXBXBXtX3X3X3X3X<X;X=XJ.H...~ U o.E.z.n 8.V.0.g.S.-X<XkX0X0XnXnXnXzX9XMXuXuXuXMXGXaXeX( ",
"7 < 7 7 < < f 5.jX{.kX{.{.(.{.(.(./.S.j.g.$ :X#XQ.V 0.,.,.9.n.n.l.m.l.m.m.B.m.B.6.,.A C S S J g s J 3.3.3.P g g d p d a t d ,.5XtXtXpXpXsXMXGXHXsXwX%.&XQ 7 z . . @ @ + + > , , 7 h 4 1 , 1 1 1 9 w r r V S.W.).).)././.^.^.1X<X=XQ.r q C.C.V.R Y 0.W Q.kX(.W./.6X&X&X+X( +.: g 3.p.a.+ + 3 y p p p p 9 9 9 9 9 9 1 * 3 3 1 1 1 1 8 8 9 0 q V P r r e n r n e e 0Xb.b.X m z.N.(.kXkXkXkXzXkXzXkXN a p p y p p p p p p a C J ,.3.,.J L ,.,.L T u.z.W Q R ) H I R ~ ~ I I *. X{ s <.M.s :.<.t.r.m.m.`.'.'.'.[.{.m.,.,.,.,.,.C :.i.",
"z < # 7 < f < < e.lX{.{.{.{.(.(.(.).v.g.` ~.R.z.r P y.L L q.n.n.m.l.m.l.N.m.m.q.T L A J ;.C J J P 3.P g d t w y a d p y d w 1.).rXrXrXpXpXsXsXGXGXsXwX#.&XT 7 z . . @ + + # 5 < 7 g g 4 3 1 1 9 9 w r p S w.).)././.^.^.^.^.,X<X~.S.D.V.Z.x.W K T b.x.y.n.N.V.~.wXeXeX2X|.c | $ d.,.2.e.M.2 4 w p p p 9 9 9 9 9 8 3 & 3 1 3 * 8 8 8 0 9 w w V V n e r n n e e kXb.w.X b 0.b./.1XkXkXkXxXkXzXkXR.b r 9 p p p y p p p p p p S C J 3.8.,.A L L ,.L W z.` ` E ) R ) ) ) I ~ ..L.[ a ,.e.s C ,.9.r.n.m.'.'.'.'.[.B.,.,.A ;.C J g M.4.",
"z z z z # # # f < a.{.[.(.(.!.(.N.k.g.g.z.U.c.Y r L n.,.6.q.n.n.n.B.N.m.B.B.B.6.,.,.L J L :.J P g p 4 w 4 4 w w 9 2 2 2 , C <.i.BXrXrXtXpXpXsXsXGXGXrXwXrX%XJ u >.. . @ + # , 4 5 g d h 2 1 2 9 w w r p p V v./././.^.^.^.^.1X<XR.E.` b.8.6.8.L y.u.y.y.N.N.V.~.5X5XeXwX%X.X$Xc - C J :.e.4 2 w y y p 9 9 9 9 9 1 & 3 3 3 * 1 8 9 8 9 9 q e S S r r n r q 1 1Xb.Q   e 0.z.D.1XkXzXzXzXxXkXkXzXe n m V y p 9 p y p p y p p a p a C J 6.7.9.8.6.6.T z.` ` ` ) [ [ [ [ _ _ o.Y.*.t L 9.M.C C ,.9.r.m.`.B.'.B.'.A J C C C a M.i.7.y.",
"*.U g g z z # @ < # `.'.!.!.V.N.x.g.0.0.^.c.` t S 6.n.L T q.n.n.N.m.m.C.B.C.8.9.8.3.3.3.,.J a p 9 9 2 1 1 1 1 2 3 2 3 2 -.;.;.1.p.yXrXrXrXrXpXpXsXsXsXwXU eX4XJ l z . . @ , , 4 4 g d h w 1 1 2 9 9 p S S V ,./.^.^.^.^.^.,X,X:XD.D.Y.` ! $ dX3.Z.u.y.}.C.N.!.~.4X5XeX5X$X Xx / : ~.a s 2.M.1 4 9 p 9 p 9 9 9 8 = * * 3 8 1 8 1 8 9 0 0 9 e n r r n e q 8 (.V.W   ; z.z.S.1XkXzXzXxXzXkXkXzX- B ! K n y y p y p y y p p p p p a S C C -.6.d.u.7.6.0.z.j.` ] [ ] ....] ] o.oXo.~.J 8.i.M.J J ,.9.r.m.B.B.C.C C a d 9.m.u.8.Y ( #.",
"pX$X%./ z i z z @ @ # `.N.N.x.g.0.0.W /.W.z.R e P 0.N.T 6.q.l.B.n.N.C.C.C.9.q.q.8.u.8.3.a p y 9 9 2 9 2 1 2 1 2 2 1 2 # -.;.;.7.<.W.eXtXrXrXuXpXpXsXsXsXwX&XrX|.J u >.t.. + < 4 5 4 d 7 d 4 9 9 9 9 p p S V C k.^.^.^.(.,X,X-X/.D.; D.R Q.P d.u.Z.d.Z.}.!.!.V.~.4X4X4X5X&X.XD O.: - P a ,.p.5 1 9 9 p 9 9 9 9 3 & 3 3 3 * 3 3 8 8 8 9 9 r r a r n 9 q * Q.x.Q   - ` z.v.-XkXzXxXxXkXkXkXkXzXP m ! N B r y y y p y y y y p u p p p s C -.C ,.9.y.u.9.z.g.] ` ] .._._...o.o.OX@._ a <.9.m.B.:.:.,.9.q.p.B.C p w M.M.e.8.I U | #.( ",
"&X4X|.&X|.&.g k z z k @ m.q.8.0.W Q.Q.D.g.Q - S L h.N.,.6.0.n.N.B.B.[.C.y.p.p.p.p.d.:.V a p 9 9 2 9 2 2 2 2 2 2 2 2 2 y s -.;.7.<.7.yXeXrXrXrXrXpXpXrXsXpXwX&XuX$X8.7 z d.@ # 5 < 5 4 w w w 2 9 p 9 p p S C A A /.(.^.(.(.-X~.c.Z V.0.g.^ ' ' 0.8.u.p.hXhXqX!.^.4X4X5X4X&X.X.X#.c M : $ d i s., 2 9 y 9 9 9 9 & 3 3 3 3 3 8 8 8 8 8 9 w 9 r r r 8 1 8 !.x.g.  - ` ` v.-XzXxXzXxXxXkXzXkXkX! m N m B B B p y y y y y y y p p s p p C C C J ;.;.9.i.p.8.b.j.] _.A.F.F.A.o._ 5X#X' ` ,.9.p.n.M.J :.,.6.9.w w M.M.7.0.c ( *.K.+.O.( ",
"wX&XwXwXO.rX$X&.N k z z 5.M.8.W !.Q.v.g.Q m r K Q x.T T T q.l.N.N.!.}.x.p.Z.UXZ.9.,.A C a p y y f 9 9 2 2 2 2 2 2 f 2 u u -.;.;.<.7.M.;XeXeXwXrXrXrXrXrXpXrX&X&XpX.XQ 7 z d.# , , , 5 4 6 d w 4 9 p p S S V C A 0.(.(./.g.S q !.V.w.! _ F.H. XoXx.u.Z.qXcXhXqX^.2X4X4X5XwX.X.X$XXX&./ I $ 6 7 z @ , 2 2 9 9 % & 3 8 * 8 3 3 1 8 9 9 0 0 w e t 8 8 (.V.0.Q.  ; W z.v.^.kXzXzXxXlXzXkXzXlX- ! m m B B N F b y j u y y y y u u y j s s -.A ;.,.,.7.7.9.p.6.v.c.A.G.I.G.E.A.P.5XtXXX} V q.p.n.M.C.q.L 3.w M.a.y.T U / +.*.@.@.+.$.^ ",
"&X4XwXwXwX%X$XrX&XK.U :.i z gX!.V.x.g.T N e m T 0.b.T T T q.x.B.C.qXn.M.gX}.UXy.9.<.,.C C a p y y 9 f 2 < 1 < < 4 @ , d s s ;.;.1.7.e.(.eX5XeXwXeXrXeXrXrXeXwX&X$XpX.XI d j 4.s., + # 5 4 d y w p p p S S C A A 6.w.Z n e q C.x.T R ` L.2XH.H.L.@XN.C.}.cXcXqX-X4X2X4X4X4X$X+X$X$X.X|..X| : t 6 k @ # # 6 y * = 3 3 3 8 3 3 8 8 8 9 q w 8 8 q 5 !.x.0.; X e ` j.A.,XzXxXmXxXzXlXkXkXlX,Xb n b b b B F G R q 4 7 f u g d 7 7 d i s -.-.:.,.1.<.7.7.9.9.q.8.W.G.U.I.G.S.E.Y._ tXtXb._ u.p.p.n.B.B.B.M.p.9.T G / +.*.&.@.H.H.H.H.| ",
"$X&X&XwXwXrX4X.X$XrX$X%.I :.z M.z.8.K N m m K W x.V.T 6.8.0.l.W.!.gXC.gX}.Z.p.p.y.6.,.C C a y w 9 2 2 2 3.s.s.s.4.. # 2 i s ;.;.1.7.9.p.zX5X5X5XwXwXeXwXwXwXwX%X$X%.rX.X+.g z 2.s.f.+ + 4 h w 4 9 p p -.C A A ;.6.n S 9 8 !.q.W R } I.L.J.J.L.oXOXyXlX!.hXzXnX-X&X2X2X4X5X4X&X$X$X.X.X4X|.#.x N f l 5.# # 6 1 1 8 3 3 3 8 8 8 8 8 1 1 1 * q !.N.x.0.X X x ` c.S.,XzXzXxXzXkXlXzXlXkXkX- e e b b B N F H R ! f.s.t.f.s.d 7 d d y u k s -.;.1.<.7.9.9.9.e.r.w.G.U.U.I.P.P.T.c.8X2XE.} R.x.n.Z.Z.B.p.q.Q G / $.*.o.&.L.oXH.H.H.O.| ",
"$X&X&X&X4XwXrXwX$X.X.XeX.X&.U <.u.K m = K K Q g.x.z.T T 6.0.h.C.hX}.cX}.}.p.p.u.,.J C s a d a.p.t.s.t.e.2.>.3.J 7 >.o < u s -.1.1.2.9.r.n.;X5X5X4X4X4XwXwXwX4X4X$X.X*.wX.X#.K g 3.4.s.s., 4 y 5 9 w p S C C A ,.L m q 0 V.0.` R A.T.:XL.OXOX;X3X5X8XnXlXhXcXxX=X%X&X4X4XwXwXwX4X&X&X4X&X%.|.|.c X 7 u z @ # 4 5 8 * 3 3 3 3 * 3 * * * * !.C.x.q.N.  $ M ` b.D.1XzXxXxXzXxXzXzXlXlXlXb - b e b b B F H R U ` ^.i.t.4.4.d.s.s.s.s.UX4.i i s s :.:.<.7.9.q.e.q.0./.U.U.G.Y.@XY 8X;XP._ I E.N.Z.Z.p.Y U / &.] *.o.L.OXY.H.F.F.@.@.X.",
"$X$X%X&X&X4XeXrXrXwX$X.X+.wX.X#.I N Y ! Y W 0.z.Q.T T T w.g.x.}.}.}.Z.Z.p.y.9.,.L m.n.M.m.e.2.:.C C r /...+.H.%.s k . # y i -.;.<.7.9.e.p.Q.;X2X5X2X4X&X&X4X&X4X%X.X|..XwX$XK.{ y 3.:.e.s.UXt 4 2 9 f p a S C A V 8 !.n.8.R _ A.T.=X9X;X3X3X8X8XtXtXtXnX{.cXmX-X%X2X%X+X&X&X4X&X4XrXrXrX$X|..X&X/ $ u 7 z @ # 1 % & & = = = & & = C.C.B.Z.n.y.~.X : Y S.D.R.0XzXxXzXzXxXkXxXlXzX{.).- 0 ; b b B B F G Y Y <XD.B  .^ R = a.i.d.s.i.s.s.f.s.`.z C -.;.:.<.7.7.9.0.~.G.G.A.Y.@XY =XR.{ _ ~ R T ).U / o.~ ] ] @.J.Y.Y.F.F.H.H.F.J.O.",
"&X$X%X%X&X&X&XwXrXrXeX&X.X|.&.wX X*.y.Y Q g.z.v.Q.T T Q 8.0.}.V.Z.Z.y.i.y.u.M.Z.m.i.9.3.J t I *.+.%..X%X&XrXwX&X; 7 >.+ < s -.;.1.7.9.r.r.m.,X;X;X2X2X2X4X%X%X%X&X$X.X|.|.eX%X|.&.R g -.,.i.}.s.r.2 4 w t p a a q C.y.E I ` R.=X-XzX7X3X7X7X7X8X9XtXyXiXyXlXxX>X%X%X$X$X$X%X&X&XwXrXrXpXrX.X|.|. .O.: * 6 z 4.# % O % + & & n.!.C.V.n.y.u.R.  $ ; R D.D.~.<XxXzXzXxXzXxXxXxXkXxX{.- - 0 0 b b B F F R H { ~.8.P &X%X+X|.|.#.*./ Q b.i.d.i.s.f.f.`.1.C :.:.,.,.7.w.#XR.D.D.Y.] =XY.A.{ _ Q b Y o.L.[ ' o.F.J.oXY.Y.I.F.@.F.J.P.+.",
"pXwX4X&X&X4XwX4XwX&XwXwXeXwXwX&X4X X .z p.z.v.Q.Q T T T 0.Z.y.y.s.y.y.}.}.M.p.8.J V - ]  .*.+.%.|.+X%X|..X.X|.rX|.d j @ , i -.:.1.7.9.e.r.a.n.OX@X@X@X%X2X%X%X$X$X$X$X.X%.|.+.&X.XK.+.Y s 3.d.i.e.r.m.m.p.3.S Z.V.0.8XR { { =X0XnXBX:X<X7X8X8X9X9XyXyXyXyXNXlX~.%X X.X.X.X$X&X4XwXeXrXtXrX%X|.%.#.%.%.c   d i 5.& O lX!.B.!.C.B.n.x.y./.  X : N ] R.R.:XzXxXzXxXxXxXxXxXxXxXxXkX- - - v v b b B F H R I :XP.q 8.z.&X&X&XO.wX&X.XK.#.O./ b a.d.i.t.a.a.M.J :.J J ,.,.D.R.P.R.T.B T.R.A.}.= Y z.E E b.D.Y.;X@XOXY.J.F.F.J.Y.OX=X;X",
"iXiXiXMXMXMXaXaXsXsXsXGXGXGXpX4X&X&X|.I :.i.C.Q.Q T T T 0.0.u.y.u.}.C.Z.y.8.P T _ ' *.#.L. XK.+.$.$.$.%. X&XuX%.+X0.d 2.+ y j :.;.7.7.r.r.n.m.).oXoXOX@X@X@X%X@X$X$X+X+X.X|.%.|.wX%X|.%.&.b t d.3.,.2.9.p.p.Z.x.6.R _ A.-X=X0XmXmXnX<X7X7X7X9X9XyXnXyXnXnXnXBX:X+X|.%.|..X+X&X4X4XeX5X4XwXwX X|.%.#.%.$X/ $ s i s.C.C.C.V.N.n.x.x.!   X $ B I #X>X=X<XzXnXzXzXmXxXxXnXxXxXxXxX^.- - - 0 0 b B M F R G j.=X!.V 0.8.<XrXeXwX&X&X&X#.wX%X.X%.O./ - p.e.t.a.a.M.a.J C C L b.R.U.U.W c.^.D.K H g.R Q g.A.A.D./.>XD.G.G.U.I.U.~.^.-X7X",
"-X-X-X,X<X-X:X<X:X7X7X7X8X9X9X;XOXE.yX@XY 6.u.C.w.T W z.c.c.c.` ;XY.A.c.W e T T 0.x.N.V.T 8.8.0.0.h.v.N.v.yX5X@XrXo.d i.a J 6.q.r.l.l.l.l.l.x.N.9X<X:X=X~.=X~.=X=X=X=X~.T.I.A.A.c._ OXE.` Q Q t T T E 0.g.v.{ R V ,.p.w r C A A A 0.h.0.0.0.0.w.w.w.0.w.0.W W qX~.~./.~.~.T.~.T.~.~.U.U.~.T.;X:X3X;XoX|._ J.) P 8.c.c.c.g.z.E Z P u.u.dX}.}.Z.y.Z.Z.qXhXhXhXhXhXqXhXhXhXhXhX!..._._.F.F.G.F.I.Y.OXY.J.T.+Xp 3.C :.r.~.^.~.~.R.P.A.c.c.b :X~.A.A.Q K r Z 8.z.V.qXx.u.0.g.A.c.E.] ;XP.Q L q.n.A ,.q.r.h.l.l.l.N.V.N.N.N.N.N.W.W./.",
"k.x.N.v.V.qXqXW.v.v.v.v.v.Q.b.z.W 1Xv.T N W x.1Xy.y.y.W I.oXoX X$.eX&X$X|.%.&.m C i z >.4.5.>.o . @ @ @ + lXA.I L.W A l.6.h.W.v.v.v.v.v.S.k.S.).-X(.-X(.,X,X,X(.1X(.,X(.Q.x.0.8.!.V.x.8.L K U _ ] o.o.H.oX2X$X.X+.d u z . . . @ @ 4 > > > + > + > + > + & # # V V 9 w r r p S S S C V V V A Z n n 0 1 {.V.q.X : U _ _ R U x x :   ! y.d.9.i.s.y y d s :.,.:.,.,.,.7.6.7.6.7.7.[ HXHXHXGXHXMXMXMXMXuX%X.X$XX z i.7 -.y y w w w 4 w C.M.M.m.n.Z.z.M } } b.#XOXOXo.A.A.U.R.V.b.b.z.{ .X#.L >.5.7 i :.>.1.4.5.2.2.2.4.7.e.r.r.q.9.q.",
"N.B.l.N.n.l.n.l.n.N.n.h.x.h.x.0.qXv.Q K T V.!.hXu.y.u.u.y.T. XL.H.K.#.+.wX%X.X|.#. .Q d u s z >.5.5.1.o @ @ c.Y.{ S 8.8.w.k.N.N.v.W.v.k.S.v.S.^.^.-X(.,X(.(.(.,X(.,X(.V.x.0.Q !.n.0.L Z ` { { A.F.Y.OX+XOX+X{ %.$X$.C 7 k z . @ @ + , > > > > & + > + + # & + H ,Xr 9 w w r p S S S S V Z A n r 8 1 qXv.x.$ x _ 3X@Xv  X|.&.} U c x : t 9.e.i.s.s.y y s -.:.1.;.,.;.;.<.;.6.7.7.9XHXHXHXHXGXGXMXGXsXwX%XwX#.s 1.6 2 5 2 1 `.`.`.M.s.m.n.N.U } { XX*X@X2X{ { { A.A.Y.~.*XD.b.b.<X1X<XY.+.,.>.4.y u s j i z z 3.>.;.>.5.4.e.t.r.l.",
"n.n.N.l.n.x.l.n.n.n.n.n.x.8.,.!.V.u.m p.Z.n.V.C.y.u.u.u.0.z.~.+X XH.%.#.#.U $.wX$X|..XK.+._ u.6 u i j z >.>.i.oXY V h.w.g.N.N.v.v.W.k.S.v.k.A.(.(.-X,X(.(.,X,X(.(.,XQ.z.0.x.V.y.T K ) _ E.P.Y.oXOX_ _ } c.E.{ |.|.&X|._ f l z . o @ < , > > > # > > # > & 2 3.H <X:X9 w r p r S S S S S S Z r 0 q !.n.Q.: N A.Y.4X5X5XtXpXpX&.$ X | U c : Q d.s.s.gXd y s J :.:.;.;.7.7.<.6.,.6.A HXHXHXHXGXMXMXGXsXpX%X.X%X% 3.M.`.`.s.s.i.i.p.V.] _ ~ ' XX#X%XrX{ } { { { A.P.OX-X-XD.D.b.e <X<X<XqXqX] 2.>.>.z # f u g g z z -.;.5.5.1.e.e.m.",
"n.n.n.n.l.l.l.n.n.n.q.6.J B.Z.9.Y - 8.0.y.n.B.B.qX8.u.8.u.0.g.=X%XoX X%.&.#.#.%.%.O.wXwX&X.X|.%.#.O.] m g 6 7 8.Z 8.w.w.k.N.v.v.v.v.v.v.S./.^.^.^.^.^.^.(.^.(.1X,XQ.y.W !.V.0.Q R _ ] E.OX2X_ I I _ _ } dXE.A.&.pXrXuX+X*.i 7 z . . > 1 1 > > > > > > > s ,.3.A :X<X<Xr 9 9 r p S p V p A S 8 lXC.x.$ ; _ { { yX8XtXtXtXpXpXpXpXpX|.|.#.} I : P 5.4.s.s i s :.:.;.,.;.;.;.;.,.,.7.j.HXHXHXGXGXMXsXsXsXwX%XwX#.3.s.t.m.0.D _ ' &.&.&.|..X&X%X_ } } } { o.F.F.I.;XzX:X=XD.D.D.7X0X<XqX>XV.z.W y.z z 5.z < 7 z z z j k j ;.1.5.7.'.",
"n.n.l.l.r.q.q.q.8.L A B.m.q.T U _ ] z.V.q.p.Z.N.C.V.8.u.u.0.0.g.:X;X@X+XoX X X|.|.|.%.K.|.wXpXrX4X&X$X%X$X.X#.&.K x.8.g.N.v.k.v.v.v.v.v.S.^.^.^.^.^.^.^.(.,X<X(.N.0.W !.x.8./.R ] A.I.Y.` ) I I _ ' { E.E.P.L.F.&XpXrX.X%X|.V 7 k . . , , 3 , > > > > + 3.d.J H :X7X<X:XC 9 r p p r p r r t hXV.x.- M { { c.Y.nXnXNXNXNXMXNXGXsXpXpXrX#.&X.X*.I   d.2.4.s.i z :.;.;.;.;.;.,.,.,.<.7.0XHXHXGXGXMXGXsXMXpX&X&X&X&.O.#.#.%.|..X%X&X%X%.o.&.*.] ' o.&.P.H.I.Y.Y.:XmX0X:XT.D.D.*X7X0X6XqXqXb.* B I *.9.z z 5.< f 7 z g z k j ;.5.5.].",
"l.l.r.r.q.q.7.L C m.m.r.E ! / o.&.&.*.} Z.q.x.n.N.C.L 6.8.0.0.h.g.=X2X@X%X@X4X%X&X$X$X.X.X.X X.X.X$X.X$X*.#.rXrX.Xw.w.x.v.N.v.k.v.v.k.k.A.^.^.^.^.^.^.(.1X(.^.v.g.0.Q.x.T E R o.P.Y._ R R [ [ ' ' *.A. XL.J.L.J.L.GXsXwX.XwXK.Y 7 l k + + & > > # > + <.2.3.J T <X:X:X<X(.A r 9 w q 9 q q !.N.Q.- I I.{ E.=XBXBXBXHXBXBXHXJXHXHXGXGXpXwXrX%.&X#.| ; 3.z 4.t.4 z 5.>.;.;.;.,.<.;.,.,.g.HXHXHXGXGXGXGXMXsXwX$X&X&X&X&XK.|..X.XK.#.+.%.|.$.&.&. XY.L.Y.Y.OX=X:XmXnXzX<XT.R.D.z.<X0X0X>Xb.e N Y W o.K.O.T z z z 4 7 i z i z k -.1.].",
"r.r.q.r.q.J a M.M.p.Z.U / @.@X@XoXJ.H.&.] y.y.p.m.V.L L A 6.w.h.g.g.OX;X2X%X%X2XeXrXrXrXwXwXwXwXwXwXwX&X$X$X$X$X@XD g.v.v.k.h.v.v.v.k.(././.^.^.^.^.,X(.^./.S.g.0.Q.0.W R } A.OX_ I I _ [ [ [ ....@.P.P.H.J.F.F.H.uXGXsXeXrXeX|./ i l t.M.+ + + + o 2.2.2.3.C H <X:X<X:X:X~.p 3 1 5 5 hXqXZ.c.B } ] ] R.-X7XBXBXBXHXHXHXHXJXLXJXJXJXGXsXpXpXrX$X.X&.( Q z 5.t.7 k 1.1.;.;.;.;.;.,.,.,.` HXHXGXGXGXsXGXsXpXsX|.|.|.|..X.X.X.X|..X+X+X X XoX+XoXoXoXoXOXOX3XBXmXnXnX:X=XR.R.-X7X<X6XqX- Z R ` c.S.OX&X.XO.u.z z z # < 7 l l k ;.].",
"q.q.7.;.g M.gXy.Z.I / +.K.' L.' 2X@XY.H.&.b.8.q.n.B.L P A 6.w.g.0.g.g.Y.@X;X2X%X4XwXpXpXuXuXuXuXpXpXsXsXsXaXaXpXuXeXk.v.k.k.k.v.v.k.k.^././.^.~.^.(.^.^./.S.h.g.Q.y.Y Q { D.] _ ) _ ' {  .[  . ...o.E.&.F.F.$.@.F.OX+X&XwXuXrX%.%X&.s l e.p.s.p.. J 9.d.<.-.s A ,X:X:X<X:XT.A.B.B.B.C.C.v.e U { } b.~.kXxXxXnXBXHXBXBXBXHXJXLXLXJXJXJXJXGXsXpXwX$XrX.XO.  3.5.4.y u ;.4.;.;.;.;.;.;.,.7.MXHXGXGXMXGXGXsXMXwX&XwX&XwXwXwX&X4X4X&X@X+X@X@X@X@XoXOXOX;X=X:XBXBXmXnXnX7X=X#XR.>X<X~.D.m Z Q } c.R.E.c.L..XwX&X&.L z z z 5.< 6 l k ].",
"7.J a M.m.s.W ~  .$.L.@.@.F.H.L.L.' %XoXL.&.m 9.q.Z.m.A L L w.h.g.q.g.j.U.T.;X2X2X4X5XtXaXsXaXpXpXsXsXsXsXsXsXsXsXaX Xk.k.k.g.v.v.j.S.U./.^.^.^.(././.).).j.0.qXx.:XY { OX{ ) ] ] ..] ] [ ' ' ..' o.o.o.@.@.@.F.OXoXOX+XOXoXoX%.|.wX%.V :.:.3.7.:.J d.d.3.J s w.-X,X:X:X;XI.P.:Xn.p.n.N.B R b.v.!.kXzXxXxXxXzXmXBXBXBXHXHXHXKXJXLXJXJXJXJXGXGXsX&X$X&X$X.XX 3.5.4.7 k j 3.>.;.;.;.:.;.<.q.GXHXHXGXGXGXGXHXeXeXeXwXwXeXeXwX&X%X%X2X2X%X%X@XOX@X@X;X;X;XBXBXBXBXNXnX9X-XOX~.0X=XR.u.Z Q g.v.~.c.c.c.] +X@X+.wXwX.XP d.z z z < 7 UX",
"7.m.p.p.} / O.%.O.@.$.$.H.H.H.H.L. X .2XoXH.o.9.p.n.C.A A T 0.0.g.w.w.w.k.U.OX@X2X2X3X4XeXuXaXMXsXsXsXpXsXsXsXsXsXsXsX) k.g.v.v.k.k./.U.^./.^.^././.U.).z.g.qXz.- Y c.7X{ z.] o...' ' ' [ ^ ^ ' ' o...X.o.@.@.J.OXOX@X@X@X@XoXK.H.K.+X@.h Y J d.UXP d.3.,.a p T :X:X:X:X=XR.Y.;XI.E u.V 8.v.Q.Q.1XkXxXxXxXmXxXmXBXHXHXBXHXKXHXLXLXLXJXJXJXGXJXGXrXwX.X%.rX|.; 5.5.4.y k j >.>.:.;.;.;.,.1.b HXGXGXGXGXGXpXuXuXuXrXwX4X&X4X2X4X4X2X%X@X;X@X;X;X;X;X;XBXBXHXBXmXmXnX0X=XT._ :X~.R.Z Q g.S.R.c.` ] ] ] A.%X&X$X$XpXrXXX( 5.k z z s.",
"i.b.I  .+.K.*.O.$.L.J.@.H.L.L.L.L. XoXo.4XoX$.K 9.p.M.V C L 0.0.q.g.g.g.g.Q.OXOX;X;X2X5X8XeXtXuXaXMXMXGXGXMXsXMXMXsXMXuXE h.v.h.k././.^./.^.^.)././.).v.x.qX0.Y Y c.c.c.A.S.F...] ' ' ' ^ ^ [  . . .....X.o.F.Y.OX+X@X@X2X2X%XoXH.%.4XL.$ z.P 2.UX3.3.,.J C p w.-X:X,X:XT.F.F.;XR.q m L 0.0.V.Q.kXxXxXxXzXxXmXzXmXHXHXKXHXBXHXKXLXJXLXLXJXGXGXGXMXpXwX.X$XrX.Xc z z 4.7 i j :.>.-.-.;.;.:.,.BXHXGXJXHXeXwXwX4X4XwX4X4X5X5X4X2X2X2X2X2X2X2X2X3X3X3XnXBXKXAXHXBXBXBX9X:XY.P.:XY.z.T 0.c.Q.g.` ` j.c.o.A.@.&XwX&X$X$XsXrX&X+.u.z 4.",
"] *.+. X*.*.$.L.+XY. .@.$.H.oXoXoX+X+X@X*.%XH.` 8.i.n.J V 6.0.q.g.w.w.g.g.g.3X=X@X;X;X3X3X5X8XtXtXuXiXNXNXMXsXGXMXMXMXsX@.g.v.k.k./.~.^.^.^./.G.G.R.v.z./.g.Y Y c.A.{ D.U.F.A...' ] ] [ [ [ ' [ ' ' ' ..o.@.Y.oXoX@XOX@X@X2X2X@X|.K.+.oX/ U K s i.3.J :.C C s w.<X-X-X-XI.E.=X=XR.: Y Q x.N.V.(.zXxXxXzXxXxXxXxXxXBXAXHXHXKXHXJXJXJXLXJXJXJXGXJXsXsXpXwX$X|.pX$X; z >.6 i j j :.>.;.;.;.;.,.w.HXGXJXHXeXeXwXeXeXwXwX4X4X4X2X2X2X2X2X3X2X3X3X3X3X8XBXHXKXBXBXBXBXNXnX:XY.T.:XT.K W x.W.g.g.` j._.F._...o...&XtXrXwX$X+X+XuX&X|.P ",
"%. .*.&.$.K.oX+X X^  .X.@.$.L.+X2X%X%X@X2XrXoXo.8.e.p.J V 6.q.w.h.w.h.w.g.g.g.I.OX;X;X;X3X3X7X8XtXtXtXiXtXiXiXaXaXiXNXaXaXF k.W./.~././././.R.).R.v.g./.z.K Q c.G.c.U.U.J.F...] ] ] [ [ ) ~ ^ ' ' '  .*...F.oXOXOX@X@X@X%X2X2X%X X%..X$X|.#.#.V u 5.+ y -.C C 0.-X-X-X=XG.S.:XQ.K R ] D.V.b.!.kXxXxXlXzXxXxXxXzXxXnXBXHXAXHXHXKXHXLXLXJXJXHXGXGXMXsXrXrXeX%X%.pX%X: z 5.f u z s >.3.-.;.;.;.<.U.JXJXtXrXtXeX5X4X4X2X2X2X2X2X3X2X3X3X5X3X5X3X5X7XBXHXKXBXHXBXBXBXBXnX3XOXOX=XT.8.z.N.w.W W c._.A.] ] [ ] [ ' %XrXrXrXwX%X$X&XsX$X",
"*.+.H.@XY.oXoXoX=.| | X.O.+.L.oX2X5X4X%X%XO.%X XT 2.Z.J C 6.w.q.w.h.w.g.g.g.g.g.=X=X=X;X;X;X3X<X8XtXyXzXuXuXiXyXtX8XrXtXtX3XE /.R././.>X/.Q.G.G.D.` Q.c.Y T b.Q.S./.^.G.G._.] ] [ [ _ ) [ [ [ [ ^ ' ' ..@.Y.oXoXOX@X@X2X2X2X2X2X@X|.#.| $ %X.X%.i l z # 2 2 p 0.-X<X,X/.g.,XQ.K } E.OX8X3XN.!.kXxXzXxXlXkXlXzXxXzXxXmXKXHXKXHXHXHXLXLXLXJXJXHXNXGXsXpXpXiXeX.X#.aX%XX z 5.< i j j >.>.;.;.;.;.8.NX5X5X5X5X3X5X3X3X2X2X:X2X2X3X5X3X3X3X5X7X7X8XnXBXHXHXHXBXBXHXBXBXnX3XOXOX;X>X0.x.V.W W j.c.A._.] [ ) [ ) ~ ^ 4XrXrXrXrXeX&X$X.X",
"@ # # # 6 7 u a.y.p.n.Z.h.x.Z.V.v.S.S.c.` c.~.} T 8.n.,.A ,.q.9.q.q.q.q.q.h.h.l.'.}.'.C.C.M.m.l.n.n.l.l.l.r.r.r.r.r.r.r.q.r.!.-X%X%X%X$X.X|.L.#.O.| | K.g 6 z   . @ # < y s -.;.1.<.9.r.p.m.l.r.l.B.M.C.N.(.(.^.(.^.^.(.(.-X,X,X^.H.*.*.*.*.%.&X| 6 k # # < < V ,X(./.g.:X/.u.W ;X7X7X7X7X0X7.,.,.;.C C V C p p p w = O O X O O O O % % % = * 8 0 e m Z H w.E T L 1X(.K x.= * e N H w.j.v.v.S.).kX;.C ;.;.A ;.,.,.,.6.6.6.7.6.7.w.9.8.q.q.q.q.S.G.~.^.-X~.-X-X:X7X7X;X2X@X2Xc.e.a.e.C :.<.7.7.<.<.7.7.7.7.6.7.q.,.,.,.2.,.J s s.",
"k . . @ # # 6 i a.y.n.n.x.n.N.V.V.v.c.g.g.Q.P.R 8.x.Z.C V ,.w.9.q.7.r.q.q.r.r.n.C.C.C.B.B.m.m.m.n.p.r.r.r.e.r.q.q.9.7.9.7.<.7.S.4X%X%X%X+X.XK.%.#. .&./ %.5 7 >.. . # > f y j ;.1.1.9.9.i.m.a.l.l.m.B.C.B.Q.(.^.^.^.^.^.^.,X^.-XI. .%.%.o.*.*.$X2XF f k # # 2 a (.^.c.,X/.Y Y v.7X7X7XzXnXBX2X,.6.,.;.A C C C S a w O o O O O O O O % % = = * 8 8 r m Z H T L Y 1X/.N z.Y = ; N H E g.j.v.S.).kXB S C C A ;.A A ;.;.;.,.,.,.6.6.7.6.9.9.0.q.q.q.S.U.^.,X<X-X<X7X0X8X3X:XOX4XF.p.p.M.C s -.,.7.<.6.6.9.7.7.6.q.,.,.8.,.C V y y i.",
"l k z . . # @ < l t.n.Z.x.x.Z.V.V.z.0.0.! =X` N 0.Z.n.J C 6.8.q.q.q.q.q.q.q.m.B.B.B.m.B.l.m.l.t.r.r.r.r.9.e.7.7.7.7.<.7.7.e.7.l.3X&X%X%X$X.X|.|.%.O.| %.wX#.5 i z . @ # < 6 s -.;.7.e.e.r.a.l.l.l.l.m.B.C.B.>X(.^.(.^.^.(.^.^.~.0X .K.H.$.+.*.%X$X$XK 6 z # # s (.S.z.^.Q.Q b.g.<X0XnXmXBXBX+X2Xe.,.;.,.A ;.A C S % O O O X O O % % % % & * 8 8 0 n S Z A Z Z 1XQ.N g.k.= 0 n H H g.j.k.v.S.).j.B b ;.C C C -.-.-.;.;.;.6.;.6.,.6.7.7.6.w.7.h.q.w./.^.,X0X1X<X0X9X9X3X3XoX3XoXn.a.m.a.C C C ,.<.7.7.7.7.6.9.,.;.,.C p w 2.M.a.>.",
"%.q.z l k k . . # 7 a.Z.n.Z.V.Z.b.u.W W R.S.Q g.8.x.V.V V ,.6.q.7.q.q.q.r.l.B.B.B.B.m.m.l.l.t.l.r.r.q.7.7.7.7.,.<.<.,.;.e.4.e.e.l.2X%X%X$X$X.X|.K.#.+.| |.&X#.4 z >.. @ , 6 y j ;.;.7.9.e.r.m.a.a.l.m.m.C.C.V.^./././.(.^.^.U.1XzX .H.%.H.#.+.oXwXpX|.J u z # i D.g.,Xb.K x.W R.zXnXmXCXmXAX+X%X9XB.6.6.,.;.A C 9 O O O O O O O % % % & & * 1 0 0 S S Z V x.1X(.m g.S.* - n H H g.j.k.S.S.).(.B B N 0 C s C C C C -.C ;.;.;.;.6.;.6.6.7.7.7.w.7.h.k.^.,XzXzXzX0XzXzX7X3X@X2X@X- p.m.M.a.s C J ,.;.q.9.9.9.,.A C w w a.M.p.b._ |.",
"uXwX$XY d.l z z . . 7 e.x.Z.x.Z.y.b.0./.S.g.! w.0.x.B.V A A 6.q.w.q.q.q.q.B.B.B.B.l.m.l.l.r.l.r.e.7.7.<.;.;.;.;.-.-.-.p 7.1.e.7.e.G.4X%X%X%X+X.X|.K.%.O.| |.%XO.4 g >.o + < y -.;.1.1.7.9.r.a.n.a.m.n.n.M.C.B.(././.^.^.^.U.<X0X0XX.H.H.$.$.@.H.rXrXpX&.7 k # w c.,X/.K u.W W zXmXBXBXmXmXAX+X2X2XnXB.7.7.6.;.C O O O O O O O % & & & & * 3 0 9 r n S n (.qX/.X } S.- 0 N H H ` g.k.k.S.).{.F N N N N A -.-.-.-.-.C -.C A ;.;.;.,.,.7.7.6.7.7.7.7.q.S.1X9XmXnXnXnXnX7X3XOX3XOXo.n.n.m.M.M.C V J ,.6.6.6.,.V w w M.a.Z.x.E.O.$.wX",
".X$XsXeX+X_ 1.l z z . 7 L u.u.u.y.Z.qXD.z.Y m Q x.N.V.V V A 6.0.q.7.q.w.B.B.l.l.l.m.l.m.t.r.r.r.7.7.<.,.;.;.-.C s -.-.;.4.;.7.4.9.9.8X2X%X%X%X$X.X.X|.K.#.O.|.$XO.d k >.@ # < u -.1.1.7.9.e.a.p.l.l.l.m.N.M.C.B.(././.^.~.,X1X0XzX .K.H.$.@.@.H.uXrXwXrX~ 7 z w ,X/.K 0.v.W v.CXmXCXmXCXmXBX+X@X@X;XnX[.6.7.w.& O O O O O O % & & = % = * 3 8 0 9 0 r {.1XQ.X z.D.e b N H H g.j.k.k.S.W.(.F N N F H H Y -.s u s s s s g -.;.A -.;.<.,.,.<.6.7.7.7.6.q.^.zXnXmXmXmXnX9X0XU 3X@XL.  p.n.m.M.q.C C J L ;.C a M.M.a.n.Y &.$.|.&.*.|.",
"wX$X$X$XpXwX$XO.9.z k z 6 J u.y.nX0X}.z.Q ! 0.0.x.V.V ! V L 6.w.q.w.q.B.l.B.l.B.m.l.l.r.r.r.7.7.<.,.;.;.:.s s d y y i ;.5.<.7.7.9.e.B.:X;X%X%X$X$X$X.X.X|.%.+.|.&X+.h u :.5., 2 l ;.;.e.e.e.t.m.r.l.m.l.m.m.C.C.W./.^.~.,X,X<XzXkX..H.%.H.$.H.@.rXpXwX&X&XY 7 }.^.Q.Q x.E h.,XBXmXCXmXmXmXAXoX@X@X2X2XnXB.9.S + O O O O % O & = * & & & 1 1 8 q 9 e 1X!.!.b z.D.t b N E E g.j.k.k.W.W.).vXF F F F R Q Q 0 z s g z i s s s s :.:.;.;.;.,.<.7.6.<.7.7.6.h.1XmXmXBXBXnX0X7X8X7X;XY._ n.p.n.m.M.n.:.L J a Z.M.n.y.R &.$. X&.&.@.#.|.",
"wXwXwXwX&X$X|.rX&X%.9.z z d.Z.qXcX9XZ.Q Z   Q g.N.Q.V V V A 6.6.w.7.l.l.l.l.B.l.l.l.l.r.r.7.7.7.,.3.-.s d y 2 < > 2 f j >.1.1.4.7.7.7.S.4X2X4X%X$X$X&X$X$X$X|.%.|.&X+.t 7 z 4.< f s ;.;.7.e.r.p.a.l.l.l.l.m.B.B.'.(.~.<X1X0X<XzXzX .H.H.@.H.@.@.$XsXuXwXpX%Xa p.W.K g.Q g.W.xXmXAXmXmXmXmXBXY.oX@X@X2X2XyXC % + % O % % % O = 3 * & = * * * * 1 kXkX!.V.Y c.#XN N Y ` ` j.k.k.S.G.).).lXH G H H Y W Q z.` S 4 6 7 g g z z :.s -.1.1.1.,.;.<.<.<.7.6.7.7.h.nXAXAXBXmXnX7X7XJ.;XY.L.M y.p.p.p.Z.C.M.m.M.n.q._ @.$.oX*.o.H.H.oXL.&.",
"$X&XwXeXwXwX&X$X%.rX%X%.y.i 5.Z.}.dXZ.Q Y Q 0.v.N.!.V Z V K 6.w.w.l.N.N.B.l.l.l.l.t.r.q.7.<.<.1.C s 6 , , + + i.a.@ < u :.1.1.7.e.e.9.q.:X4X4X2X&X&X&X&X&X&X&X.X|.%.%X$.U 6 j 2.e.y u s ;.;.e.l.a.l.r.m.l.m.m.B.C.vX(.^.,X1X1XzXzX..H.H.H.@.H.@. X4XaXrXwXrX|.T Z W 0.W v.mXxXmXCXmXCXmXmXAXoXoXOX@X;X;X2X5XO % % + % + % + 3 1 > & % & = = hXkX!.C.W c.*X>XY Y E k.j.k.k.v.S.W.).(.1XH H H H H W W } ` } W s.4.# # < f y d z i s -.1.:.;.;.,.<.<.7.7.7.7.v.BXAXBXnXnX7X9X=X:XOXP.F.b 9.9.u.p.Z.n.m.q.{ @.L. X*.*.L.+X@XL.H.oX| ",
"|.$XeXwXpXrXeX&X%X%XK.rX%X&.x.:.u.u.u.Q.Y W z.b.Q.V.K P V K T w.l.l.l.l.l.l.l.q.9.7.6.;.;.;.;.t.a.i.i.t.d.1.:.z u >.# f -.>.1.<.7.7.e.e.n.2X3X4X4X&X&X&X&XwXwX&X&X.X%.&XK. .w d ;.e.e.s C -.;.7.e.r.r.l.m.l.m.m.!.lXlXkX,X1X<XkXzX..H.H.H.F.H.OX:XOXOX@X&XwX&XI Q v.0.C.jXlXlXlXmXmXCXmXmXmXY.oXoX@X;X;X=X=X:X* & % % O & & * * % % % % q.{.qXqXV.X b.*XR.W R ` _._.k.v.S.S.).Q.1XzXvX) E H ) ) ` } z.c.z.z.(.5.5.4.4.4.t.s.s.s.g s j -.;.C -.;.;.,.,.7.7.7.N.mXmXmXnX9X9XU :XOXY.&.{ e 8.u.y.9.0.' &.L.oX' o.@X;X@XOXL.L.H.H.^ ",
"#.%.+X&XwXwXrXeXrX&X.X.X%.wX$X#.; Q P Y R g.x.Q.6X8.T P Z A T q.n.h.q.q.9.8.6.L ;.;.M.M.M.p.9.2.:.J C 8.- ` _ / 2 k @ < s >.1.1.7.7.r.7.q.v.5X3X4X4X4X4X4XwXwXrXwX&X&X.X&X|.+.Y d j 3.e.i.s C :.3.6.2.9.9.q.q.y.lXlXlXlXkXkX1XkXzX..J.H.H.Y.3X=X=XOXT.I.F.H.$X@.h.n.n.'.lXlXlXjXlXxXvXmXmXCXoXoXOX;X=X=X=X:X=X-X1 % O O O , = = O % kXhX!.!.V.g.Y b.>XR.` W j.S.W.S.W.W.).).(.zXzXxXE E ) E H ` z.c.c.z.z.nX7X% o.I q y.s.s.4.s.s.`.f.UXf.z g i i s J :.:.,.7.W.mXmXnX9X9X7XA.=XY.P.o.' N q.O _ L.H.OX .{ F.U./.2XoXY.I.F.X...( ",
"O.#.|..X$X&XwXwXwXwXwX&X.X.XO.&X|./ V.Q ` z.S.qXqX8.Q L Z A w.q.q.w.8.,.L :.L M.B.n.9.<.J 3.T <XR ( | | O.&.%.%.Y 6 5., i :.1.1.7.7.7.e.9.p.T.3X3X5X5XeXeX5XwXeXuXrX4X%X%.rX$X#.' r d :.1.e.p.9.:.:.L J ,.,.,.'.jXlXcXlXlXjXkX1XkXE.H.J.=X:X=X=XT.T.=XY.F.{ :X0Xn.y.p.'.jXjXjXlXjXlXxXxXmXAXY.Y.OX=X;X;X=X=X=X=XU.* O O % & , }.{.hXC.C.C.V.  ] A.Y.Y ` g._.).G.G.).)././.0XzXnXxXU.` g.[ ` ` j.c.E.E.c.E.zXW x.rXrXrXeX&X$X%.! [.i.UXs.UX`.gX`.i.a s a C C ,.6.N.mXzX9X9X7XE.:X=XI.A.] ` M A.oXOX] { E.@X=X~.G.OXY.F.@...' ^ c ",
"X.O.#.K.|.|..X$X&X4XwXwX&X.X.XO.%X%.Y g N.b.Q.qXu.Q Q P K T 0.8.T L L L C.Z.Z.9.,.A 6.9X~ I / | +.$..X&X|.|.*.&X*., j , y :.2.1.4.7.9.e.r.e.h.,X5X5X5X5XeXrXrXtXuXuXrXwX&X&XwX%X%.O.) t d C ,.2.p.s.p.p.,.J }.gXlXjXjXlXjXlXlXlXkXR.Y.:X;X=XY.Y.T.T.T.I.A.c.;X!.p.p.x.C.jXlXjXlXjXlXbXlXlXKX;XOX=X=X=X=X=X;X-XOXG.A.= 8.cXhXcX}.C.C.B.W.B _ c.R.Y.{ ] j.S.U.G././.^./.1XzXnXmXzXlXj.j.j.j.j.j.A.D.D.D.z.nX:X}.n.e $X&X&XaXsXsXrXeX&X6Xm 8.i.s.UX`.`.a.a.s d a C ,.v.nX7X7X7X7Xc.3XOXP.b.O c.Q.>XQ [ o.T.OXY.G.G.P.F...' [ ~ G c ",
"XXO.O.+.+.#.$.K.|.|..X$X&XwX$X|.*.$X%.` :.9.(.1Xu.u.Q T 8.0.8.T L C.C.n.Z.y.8.L j.G U ' &.|.oX%X+.#.+.$.%..X%.O.%.8.6 4.6 -.4.1.1.e.9.9.9.q.e.S.5X3X5X3XtXtXtXuXuXpXaXuXwX&X&X|.&X.X%.O.R L y a J 6.9.9.n.p.Z.gXcXcXlXjXkXjX{.lXlX~.;X;XOXI.T.T.T.T.T.I.A.o.0X1Xq.p.r.B.hXjXjXjXlXjXlXlXlXxXOX=X=X=X=X=X=X-X=X~.J.A.<X{.hXhXqXC.V.W.= _ ] A.I.T.c.j.j.G./.^.^.^.(.(.zXzXmXmXxXkXS.k._.S.S._._.).R.OX*XQ 9Xb.n.N.q  X&X$X$X.X$X/ pXpXrXeX4X$XQ 8.d.s.M.s.M.Z.s s C J q.9X0X0X7X} 7XR.N.0.b.R./.` g.c.S.S.A.j.j.j.` [ ) R F F F M ",
"*XXX*.O.+.+.$.H.|..X.X$X$X&X&X$X|.*.&X%.0.:.2.p.Q u.Q Q u.u.T C.!.Z.y.0.L u._ R _ o.F.oX&.P.%.P.L.H. X X.X+.|.%.$X| < :.6 s 2.2.1.7.e.7.9.r.q.r.8X5X3X5X5X8XtXiXiXaXaXaXpXeX4X%X%XwX$X|.$.O./ Z 4 d a J q.9.y.M.cXjXbXjXjXlX{.jXjXU.T.T.I.T.U.Y.T.T.T.J.A.{ 0X(.q.p.p.m.'.jXjXjXjXbXlXlXlXxX=X=X=X=X=X=X-X=X=XY.F.A.9X<XqX}.C.z.; _ ] A.R.I.c.c.] S.R./.~.^.(.,XzXnXmXmXzXxXzX).S.G.S.S.G.G.R.=X:X=Xb.nX3X}.Z.r t A uXuXrXeX4X%X$X$X$XpXpXpXrXwX+XV.2.i.s.M.m.m.p.J J 0.6X7X7XW ,XN.T c.S.^.` g.A.S.A.v._.k._.j.[ R =.H F F D M ",
"E.*X*.*.+.+.#.$.%.|..X.X$X&X&X&X.X|.O.$X%.0.z 1.i.J y.y.y.qXV.V.q.0.L m I R } { L.OXE.P.E.J.oX+X@X@X@X+XO.&X$X%.wX#.w i 4.s 2.9.7.e.7.r.9.r.r.q.Z.3X8X5X8X5XeX8XtXnXiXNXNXaXtX4X$X%X4X4X@X X%.+. .I a J 9.'.9.m.'.jXjXjXjXjXjX{.jXU.I.I.T.I.Y.T.T.T.~.F.{ _ 7XV.2.9.q.a.].jXjXjXjXjXjXjXjXxXT.=X=X=X=X=X=X=X=XU.A.A.0X:X-X  U ] ] E.P.T.R.A.c.c.S.R.^.^.(.1XzXnXnXmXzXxXmXzXmX).).).G.G.G.U.~.-X:X>XD.nXtXn.m.r V 8.S.pXpXpXaXpXuXrXeXwX&X%.rXrXwX&X|.Q 2.s.s.s.a.m.3 J 8.zXW (.b.W S.D.^.E E j.S.A.A._.k.j.[ [ E ) H G F F D x ",
"} *X&. .O.O.#.#.%.|.|..X.X$X$X&X&X.X|.+.$X#.h.s 5.e.x.0XqXV.x.u.Q Q R R ' A.J.F.o.A.o.F.J.Y.oXY.OXoXOX2XeX4X%X|.#..X` d 4.s 3.2.7.7.e.7.q.9.r.q.r.j.3X:X;X:X8XtXtXtXyXiXiXNXaXtX5X%X@XoX+XeX@X X%.H.m t <.p.9.r.'.[.jXjXjXjXjXjXjXU.I.I.I.Y.Y.U.T.T.U.F.c.:X8Xx.,.y.q.p.].FXjXjXjXjXjXlXjXxX~.=X=X=X=X=X-X=X=XI.A.:X0X-Xg.0.` A.R.I.=XA.A.A.A.G.~.^.,X<XzXnXmXmXzXxXxXmXxXvX/.G./.U.^.~.^./.^.<X=X6XtX9XL n.C.t L q.0.zXaXaXsXsXMXsXpXrXwX$X$X.XpXrX&X%X|.Q 2.p.i.p.m.a.L T (.v.0.b././.E W j.S._.S.k.j._.[ [ E ) H F F F D B x ",
"} *XE.*.O.O.#.&.%.|.|.|..X.X$X$X%X%X|.|.#..X+.u.s 4.qX}.V.x.0.8.m W ] A.R.T.c.c.o.E.J.T.T.T.T.Y.Y.Y.OX@XtXrXwX.XK.&X*.4 :.j 3.1.e.e.7.r.e.9.q.q.p.C.S.S.S.v.S.A.v._.A.F.T.OX8X8X5X%XoX XK.H.oX@X@X X{ w J e.9.e.m.[.].{.[.{.{.{.{./.I.I.I.I.U.Y.U.T.U.A.c.7X7X0.:.9.e.r.m.[.jXFXjXFXjXjXjXlX=X~.=X=X=X=X=X=XT.R.A.3X7X=XP x.v.~.Y.U.R.S.A.R.~.(.nXmXCXxXlXvXlXlXlXjX{.{.{.0.^.^.^.^.^.^.^.^.:X<X=X6XnXyXx.n.t V 6.q.q.qXaXsXsXsXsXsXsXsXpXrXwX$X%X%.rXrX&X$Xo.x.6.9.r.p.M.!.V.Q v.D.~.Q R j._.S.k.j.k._.j.j.w.[ ) H F F B B D x ",
"} } &.*.*.O.+.+.%.|.|.|. X.X.X.X$X%X.X|.%.O..XO.T g x.Z.z.8.e W z.E.D.=XE.c.c.A.J.U.U.I.U.I.I.I.U.I.;XyXiXuXrX%X X4X%.4 s a.3.3.7.e.7.r.7.r.q.r.l.B.N.S.v.S.S.S.k.S.k.W.S.v.W.W.v._.R.@X@XH.$.J.3X+XH.q C 7.8.9.p.'.[.].{.].{.bX{.(.I.G.I.I.I.U.T.T.U.c.b.9X8Xx.J 9.`.u.a.'.jXfXjXjXjXFXjXlX=X~.=X=X~.~.=X-XY.A.A.9X:X^.0.x.V.V.T.R.R.9XzXkXlXlX{.!.[.'.[.'.[.'.'.'.[.[.l.,.w.(.^.(.,X,X,X,X<X7X=X*XNX7Xx.Z.a L w.l.n.N.xXMXsXsXsXsXMXMXsXsXpXeX&X%X$X$XrXwX&XoXm ,.9.9.p.v.T S.).(.H E g._._.j.j.j.j.j.g.[ E ) H H F F B B B x ",
"R } } } | O.O.+.$.%.|.|. X|..X.X.X.X.X.X%.%.wX|.*.:.J y.u.M ` } S.R.#Xb.b.S.R.U.~.~.T.U.I.I.I.I.I.9XyXyXyXnXiX4X X%. XQ s i.:.:.7.r.r.7.r.7.q.q.n.B.n.W.v.S.v.W.W.S.W.v.v.W.v.v.k.k.g.0.0.W { L.H.2X|.Q d :.e.<.e.B.].[.[.].{.].[.).I.I.I.U.I.U.T.=XD.E.8X9XuXY g 2.s.i.s.'.'.fXfXfXjXFXjXlX=X~.~.=X=X=X=X=XU.A.T.0X:XK z.x.!.v.9XV.Z.n.n.n.N.B.B.'.B.'.B.'.B.B.'.B.'.B.6.7.6.(.(.1X1X1X1X<X0X<XR.9XnX; p.B.V ,.r.l.B.C.B.7XMXMXGXMXMXMXsXsXsXpXrX4X$X%X| uXrX4X4X*.8.7.P T S.R./.H H g.j.j.j.j.j.j.j.j.j.[ E R H G F B B x B x ",
"U I / ' | X.@.+.$.$.%.|.K.|.|.|..X|..X.X|.#.#.wX|.|   b.Q j.c.S.R.c.z.j.A.R.~.~.~.U.U.I.I.G.I.I.U.;XnXyXyXyXiXtX+X+.%X{ y 2.3.J <.7.r.r.7.r.r.l.N.B.l.B.W.S.S.v.W.v.v.W.N.v.v.k.h.0.w.w.8.E c.L.@.eX+X$.w s 9.1.<.l.].'.[.[.[.[.].).G.G.I.U.U.T.T.=X*Xb.9X0X-Xm t J p.i.i.`.fXfX[.fXjXjXjXlX~.=X=X~.~.=X^.~.G.A.0X<X-XT x.Q.t b.^.9Xn.y.y.y.p.n.n.B.B.B.B.m.B.B.m.B.'.7.7.q.r.A 0XkXzX0X0XzX<X:XOXnX7Xn.n.B.C 6.n.N.B.B.C.{.nXMXMXMXNXMXMXMXMXNXsXaXtX4X4XeXMXNXiXtXH.x.= S.D.^.H H R j.j.j.j.j.k.j.` ` [ w.) R H H F D b b x B ",
"K._ ( ' | X.O.@.+.$.%.H.%.|.|.|.|..X.X.X|.%.+.O.wX%.| z.c.c.D.R.c.j.c.S.G.~./.U.U.G.G.G.A.G.G.G.T.nXzXnXnXnXyXtX%X5X$X*.w 3.a.J ;.r.r.7.r.7.q.B.B.l.N.l.B.W.W.W.W.W.W.v.v.h.g.u.w.8.T T T T W  XoXL.2X XY y 3.p.1.e.m.].].].].'.{.!.G.I.I.I.T.~.:X>XD.} 9X:X% W X J d.s.i.M.gXFXFXFXfXfXjXlX~.~.^.=X~.-X=XU.A.c.0X<XW g.v.(.x.x.0X=X=Xy.q.q.8.0.q.r.n.m.m.m.m.m.m.m.7.6.7.w.q.l.1XkXzXzXzXzX0X=X3X7X;Xp.n.8.L 9.n.m.B.B.[.!.vXGXMXGXGXMXGXGXMXGXMXMXMXaXtXeXtXeXMXiXeX@XN.Q.>XN H H E j.j.g.g.g.w.[ g.E E E R R H G n B x b [ X.",
"F.J.F. .^ | O.@.@.$.%.%.|.K.|.K.|.K.|.|.|.%.#.O.O.&X+.J v.D.^.c.j.j.S.G.U././.U.G.G.G.A.G.S.A.zXzXnXnXnXyXyXyXtX2X@X2X+.w 3.i.C ;.7.7.q.q.q.l.B.l.N.N.m.N.!.Q.Q.N.W.W.l.h.0.0.8.u.u.u.T T T E @X@X%X5X$X&.w s 2.;.1.r.`.m.].].'.[.).G.I.U.G.U.=X=XD.c.:X:X=Xm b.&Xr 3.s.i.i.gXfXVXDXVXVXFXlX/.U.~.~.~.~.~.I.c.<X<X-XQ x.Q.z.z.v.mX;X=X=Xy.6.,.,.,.7.9.p.t.m.m.t.a.m.;.7.7.q.r.l.h.zXzXnXzXzX7XT.:X7XT.q.n.A ,.q.B.B.B.[.].{.{.vXGXGXHXBXGXMXNXBXGXHXGXNXiXtX5X2X%XiX5XL.y.!.m m H H [ E E g.w.j.[ g.[ w.[ E R H G n n n [ _._.G.",
"F.F.@.F.OX .X.@.@.$.$.H.K. X|.|.K.K.%.%.%.%.%.+..X#.%.L <./.z.z.g.S.S.^./.U.).G.S.S.S.S.S._.S.0XnXnXzXnXnXzXnX9X@XoX5X$.P J e.J ;.7.l.q.q.r.N.l.l.n.N.N.B.B.!.!.!.N.x.q.0.w.8.8.u.hX8.T T E W oX@X%X X&X|.R d 3.e.-.e.a.t.m.`.].].S.G.G.I.G.U.~.R.c.c.7X-Xt Y >X&XU g d.s.d.s.fXfXFXbXbXVX{.~.~.~.^.~.^.~.A.c.0X<XZ h.v.!.z.z.qX9X:X=XT.:XhXn.,.L J J ,.7.t.t.l.r.7.7.7.q.q.l.l.n.kXxXmXmXnX<X=X:X3XE.p.B.L ,.q.B.'.'.[.{.{.[.{.BXHXHXGXBXGXHXGXBXNXMXNXNXtX4X%X@X+X3X{ 9.M.K N H E w.E E w.[ [ w.E E w.E w.E R H F F j.[ _._._.",
".._.@.@.@.H.X.@.#.$.$.H.H.|. X|.|.%.%.#.#.#.#.eX&XO. X0.:.<.0.z.S.S./././.).).S.S.S.S.S.S._./.zXzXnXnXzXnXnXyX9X;XoX3XH.0.C 9.J C 6.7.l.r.l.l.l.n.N.N.N.N.B.C.Q.B.l.l.0.8.8.n.n.h.N.8.Q T W g.Y.4X2X&XeX+X$.q s 2.s :.e.a.m.a.`.].W.G.U.G.U.U.~.A.z.<X;X/.N 0.8XwX&Xt z s.2.9.a.`.gX].jXjX{.~.~.~.~.~.^.G.c.<X1X-XT v.Q.z.z.v.nX9X3X=XY.Y.9XlX[.'.i.J J 3.<.9.e.e.7.7.e.r.r.l.B.C.(.xXnXmXzX:X=X9X:X$ p.m.;.<.l.B.[.[.[.{.].[.jXxXNXNXNXNXNXNXNXNXNXNXnXiXtX5X@X@X@.@Xe y.B.8.w.H E E E E E E w.[ E E [ [ E R H F F [ [ [ _.X._.",
"....@.X.O.@.#.@.@.$.$.%.%.|.|.|.K.%.%.#.#.#.&XpXrX&X$XU g e.a x.)././.G.).).S.S.S.S.k.k.j./.kXkXzXzXzXnXzXzXnX9X=XOX2X%.Q a 6.i.A ;.7.l.l.N.l.k.l.N.n.n.N.N.n.n.w.w.w.B.n.q.8.T y.V.0.w.E 0.g.#XtX5X2Xc 4X|.b.4 :.>.s >.t.t.a.m.M.W.G.G.G.U.U.G.c.N -X/.t T b.*XuXwX%Xs :.t.>.2.f.f.`.`.].B.~.^.~.^.~.U.A.c.0X,Xe x.V.W z.Z.Q.mXyX7X;XY.Y.;X7XhX'.'.`.'.s s s j ;.<.e.r.r.l.m.B.B.!.xXmXmX0X=X=X7X;X0 p.m.6.7.l.B.B.[.[.[.{.{.jXjXmXBXNXNXNXnXNXiXnXiXiXnXiX8X3X8XL.OXx.p.3.8.M.w.H H H H R H E w.E E E E w.E H H E E E [ [ ....",
"[ '  .X.X.X.X.F.@.$.H.H.%.H.K.|.H.%.%.#.+.%.uXpXrX%XO.O.d 2.s J ).(.^.).Q.Q.).Q.D.v.v.k.S.kXkXzXxXzXzXnXzXnXzX8X=XoX:XH.z.a 6.8.A ;.0.l.n.x.x.x.N.h.n.k.x.q.q.0.0.n.p.8.L J a T x.}.0.0.W g.c.) iXtX4X%XK.%X%.r 6 >.u s >.4.t.a.s.W.G.G.U.U.G.A.g.-X/.1XQ u.D.>XwXrX4X! u 1.:.:.e.a.f.f.f.B./././.^.~.S.j.0X<X1Xz.v./.g.z.Q.,XAXnX8X:XoXL.o.tX7X'.M.`.M.f.f.f.i s ,.<.e.p.m.B.B.!.[.kXmXmX9X-X_ 7X;XV p.Z.6.6.p.'.[.[.[.{.].{.{.jXjXBXNXBXBXNXnXnXaXnXiXyXyXyXNX7XOXJ.9.p.,.0.}.hXT H H H H H E E E E E W W 0.K E R ) R [ [ [ [ ",
") [ [ ..X.X.X.F.J.H.H.$.H.H.H.K.%.%.%.$.#.GXuXpXuX%X%.|.a :.g s 7.(.(.(.>XqXQ.Q.V.Q.W.N.T.kX0XzXzXzXzXzXnXzX9X7X=XY.=X&.A.a ,.n.C ,.9.p.N.x.h.h.h.h.h.q.8.8.0.x.x.,.P a 5 & P T V.y.8.0.0.z.j.R tXaXuX4X&XeX.X#.1 u >.y s 1.1.e.e.N.).U.U./.S.g.,X/.D.8.Z.D./.*X+.wXrXwXw k 2.z >.t.t.f.a.l././.~.^.U.k.D.<X,X0.v.Q.0.z.b./.0XAXyX8X3XOXL.L.nXiX2XhXgX`.a.a.a.m.s.3.:.6.r.n.m.[.[.{.kXmXnXzX;XI.3X;Xm n.m.8.9.p.[.].[.{.{.{.FX{.jXlXCXBXNXNXNXnXnXnXiXnXnXiXHXnX3X5X{ 9.n.3.y.C.gXn.H N H H H w.H H E E W ` K W E H H R R ) [ [ ",
") ) ^ ' _.F.F.F.J.;XY.OXOXOX=X;X;X;X;X:XiXsXpXpXpX4X#.$X0.s s.s 1.7.w.w.q.w.q.q.0.0.h.g.zXzXkX0XkXzXzXzXnXzXzX<XOXY.=Xo.E a ,.n.P 3.8.q.g.q.0.0.0.8.T T 8.1XV.u.A w $ U U R g 8.V.z.u.z.j.k.k.H tXNXiXrX&X4XwX|.*., k 1.6 s ;.:.;.W.G././.G.c.z.>XD.m dXqX>X/.;XO.+.pXeX%Xg z 4.k >.e.t.t.r././.~./.A.z.kX1Xm z.D.W z.b.Q.,XzXKXyX9X5X;XL.oXtXNXiXw.%X%X] B.t.f.`.`.2.3.7.r.n.C.[.{.lXxXnXzX:XOX3X;XT p.m.8.9.n.[.{.{.{.{.{.{.{.jXjX{.xXAXBXBXmXmXmXmXmXmXmXBXyX3X2X! q.B.6.n.C.}.C.h.q.w.q.w.h.g.w.0.x.Z.y.z.g.w.E E R =.H H [ ",
"G =.)  .X.X.@.F.J.Y.OX=X;X:X;X3X3X<X7X7X8XnXpXuXpXrX$X&X_ u 3.i ;.7.,.6.6.6.6.6.7.8.6.h.(.zX0XkX0X0XzXzXzXzX9X:XT.R =Xo.} a 6.y.L L 8.Z.0.w.0.8.8.T 8.T V.b.u.m * Q ~ ..o.<XP u.}.0.0.c.k.k.j.R 5XiXNXuXeX&X%X&X|.m < j , < u j -.N.)./.R.v.g.>XQ.K P yXqX>X1X3XO.O.#.pXwXb.y >.j i ;.4.e.7./.(.^.S.z.kX0X(.z.S.R.0.v.Q.,X1XnXKXyXyX8X2XoX@XL.GXiXm n.4XwXwXW f.`.gX'.m.9.y.p.m.B.[.jXkXnX9X:X=X:X;XV n.Z.9.9.p.].].{.].].bXFXbXhXjX{.[.xXmXmXmXmXmXCXmXmXKXBX9Xo.oXV.q.,.6.N.C.hXq.h.q.q.q.h.w.q.q.0.0.y.W x.q.w.[ E R H G H =.",
"F =.~  ...X.F.F.H.J.=X;X;X:X:X:X7X7X7X7X0X9XyXpXpXrX%XrXP.d 2.s -.7.6.6.6.7.7.6.6.6.0.l.l.kXzX0XkX0XzXkX0XzX9X-XI.R T.{ K a ,.n.J V L W T 8.8.T W 8.!.v.0.T r g.! Q 6X#X` V P Z.N.g.k.k.S.v.j.) 2XiXiXsXpXwX&X$X%X%.r < z @ , 7 u B././.S.g.<XQ.1XQ V.9X>X1XxX8X#.#.#.$XuXwX! u >.u i >.1.;./.(.D.z.kX0X1Xz.S.Q.0.g.D.-X(.0XBXNXyX8X8X5X@X%X XGXiX6Xa.C.pXeXeX- M.`.'.'.C.p.n.m.B.C.[.hXzX7X:X=X:X2XQ p.m.hX9.p.B.{.[.{.{.jX{.bXjX{.[.[.kXmXCXmXmXCXmXCXmXAXBX8XH.J.q.y.6.q.B.C.q.q.q.q.h.q.w.q.q.g.w.w.g.q.h.z.w.H H H H F G F ",
"F G ^ ^ ..X.X.F.@.F.3X;X;X:X3X3X3X7X7X7X7X9X9XnXpXuX&X|.%.y z g -.;.,.,.,.,.6.<.7.6.l.l.l.N.zXkXkX1X0X0XzX0X<X-XY.` Y.] X V 6.x.V L T T Q 8.Q 8.u.b.v.W K t Z m Q z.x.z.U r u.V.V.h.v.W.v.k.j.` @XtXiXpXpXrXwX&X|.$X#.w f z @ # < N./.S.g.1XQ.b.u.0.6X>X,XzXCX8X+.#.#.%.rXuXwXr i >.7 u ;.s (.).v.b.zXkXW c./.` z.D.^.-X1XnXmXnXyXtX8X5X2X$X%.tXrXtX}.a.'.MXtXrX- `.`.gX'.'.n.N.m.C.C.!.zX9X7XY.3X3XY n.m.C.9.y.m.'.[.{.{.{.jXFX{.{.[.B.B.kXxXmXmXCXCXmXCXAXnX2XL.] 9.p.6.p.B.q.l.q.q.q.w.q.q.q.w.q.w.h.q.w.w.q.w.w.H H F F G H ",
"F G =.[  ...X.X.F.F.OX:X3X:X3X7X7X7X0X8X7X9X0X9XnXpX4X%.&XP i s -.;.,.6.6.,.6.6.6.q.h.r.r.h.^.kX0X1XkXkX0X<X-XR.R.A.E.) - V 6.N.V V T L Q 8.Q Q V.z.E V ; K e Z 0.x.W m % t u.C.V.N.W.).S.k.j.` @X5XuXpXpXpXuXwX&X%.$X+.5 7 z o # C.).g.xXW.0.Q Q Q.>X^.zXmXCX9XO.#.%.%.|.pXuXwXw l >.6 u 9 ).k.x.zXkX` v.~.W z.S.^.-X(.zXBXmXnXyXtXtXeX4XoX&.*.pXwXg.a.`.'.iXuXtXN '.'.'.hXhXjXC.V.C.C.!.9X7XT.3X3Xc.n.m.M.y.i.m.'.{.{.FXjX{.{.jX[.'.B.C.B.CXCXCXmXmXAXCXmXzX2X2X% 9.M.6.m.q.q.q.q.q.q.q.q.w.q.q.w.q.w.w.H 6.w.w.w.H H F B F ) ",
"H D =.^  .X._.F.@.F.J.3X3X7X7X7X7X0X8X0X9X9XzX9X9XNXwX&XrXI 6 >.S -.;.<.,.7.,.<.6.r.l.q.h.q.l.{.zX1X0X1X1X,X~.G.R.;XA.R S P 8.n.a V Y Q T Q P b.z.Q N - % ; ! Q z.Q m = b Y x.Q.!.Q./.).S._.j.g.c.2XtXrXuXpXpXuX&X$X%..X#.& 7 z . r.b.kXv.0.B Q E.6X-XzXCXCXAXtX#.#.%.|.|.|.pXpXwXs k 5.f > x.x.kXzX` c.R.W W S.~.-X^.<XnXBXAXiXyX8XtX8X&X.X#.*.wXrXwXT `.'.'.yXiXtX! '.[.[.hXhX!.C.C.V.V.<X7XT.3X3XA.n.M.C.Z.q.p.].].{.jXjXbX{.{.'.[.B.B.m.{.mXBXCXAXCXmXxX-X] oXm q.6.9.8.q.r.r.q.q.q.q.7.q.w.7.w.q.h.A w.A H A 6.H n n b H E ",
"N D =.| X.X.X.F.@.@.F.3X7X7X8X7X8X0X8X9X0XzX9X9XzXzXzX%XpX%.4 :.d a :.,.7.,.<.,.l.r.r.q.q.q.q.N.zXkX0X1X<X-XR.S.! OX{ N V L 0.N.t Z Q T T Y z.g.Q ! ; % m P u.Q P t = b K g.N.Q.hX,X(.).S.c.j.` I ;X4XtXtXrXuXpXrX&X$X%.$X+.+ 6 z ,.zXV.u.B R S.D.,XzXmXCXCXAXyXO.#.%.|.$X.X.XpXuXwXg k 5.. g.kX1X` c.R.E Q A.~.^.-X,XzXBXBXKXnXiXtXtXeX2XoX%.&.@.pXwX4X8.'.gX'.tX3X;XN.[.hXhXlXlXy.V.C.Q.(.9XY.3X3XJ.m.M.C.[.9.y.m.'.jXjXhXjXjX[.[.B.B.B.B.m.k.vXCXmXCXxX0X/.E.K.q.y.6.L r.r.q.q.q.q.7.7.q.9.9.q.q.q.w.A ,.H A A A 6.Z n b D H ",
"H D ^  ...X.F.X.F.F.F.7X7X7X9X8X9X9X9X9X9X9XzXyXzXyX<X;X%.%.5 z r.d s C ,.7.,.r.r.q.l.r.r.q.q.q.).zXkX1X^.U.S.E.A.D.` m m L u.B.J L T Q Q g.c.W N e - Y ! 8.P m t % ; ! W D.V.}.zXxX/.).S.j.j.` F ;X2X5XeXrXrXuXuXrX&X+X%.$X#.@ 7 n.}.W N R D.D.-XzXmXmXAXAXAX9XO.#.$.|.$X&X%X$XsXpXwXP k s.kXkXz.c.R.R W A.~.~.^.-X1XnXKXmXKXiXyXyXyX5X%X+X.X.X|.%XuXeX5Xm gX'.C.:X;XX C.hXhXkXxXlXN.V.V.Q.-XY.3X3X2Xn.m.Z.B.q.q.p.'.hXjXjXjX{.[.[.'.B.B.B.m.m.vXxXmXxX<XQ.Q.Y.W 6.p.C <.r.r.r.r.9.q.q.9.q.w.q.w.q.7.q.6.H ,.H A H Z A N b [ [ ",
"7.).F.F.F.F.F.F.@.F.F.7X9X8X8X9X9X9XzX9X9XnXzXnXnX9X:XOXA.+Xw.d 1.:.a s ;.<.7.r.r.r.q.q.q.q.q.h.n.r.n.y.h.h.z.v.~.c.I z.V L p.i.a.p.M.M.qX` ` Y N ; = K Q 8.q * N e N W v.u.x.qXkXxXxX1XS.j.j.) F @X@X4XeXeXwXrXuXrXrX&X.X|.$X#.= J y.N W P.R.-XzXmXCXAXAXAXAXyXO.+.#.|..X&XwX&X$XpXsXeXr e.kXz.c.U.R W c.U.U.^.-X,XzXHXBXmXKXnXiXyXiX2XL.L.+X%X@X$X5XuXtX2XZ '.[.C.oX@X0.C.hXkXkXzXkXM.M.m.M.C.C.S.P.N n.M.m.m.i.2.d.<.;.-.1.r.[.'.'.B.B.B.m.l.B.xXzX1X/.Q.W.S.X 8.p.,.,.9.r.r.r.9.9.9.q.7.9.w.7.w.q.w.A ,.,.A A A H A A g.(.k.",
"r.W./.G.F.F.F.F.F.F.F.9X9X9XzX9X9XyX9XzX9XzXnXzXzX9X-XT.T.Y.N & s 7.d d s ;.r.r.r.r.9.r.q.q.r.s.r.9.,.,.:.M.M.a.r.q.P x L q.6.2.5.2.4.i.e.r.0.! B e zXP L * * X e Z W z.b.u.x.V.kXlXcXlXkXk.j.` F 2X@X@X5X5XwXeXrXrXrXeX&X.X&X&X%.=XN _ G.R.:XzXmXCXCXAXAXAXAXtX+.+.%.K..X&XwXrXwX&X$XsXuXY } A.#XR W A.U.U.~.-X-X0XmXAXBXmXKXNXiXtXoXH.J.L.OX2X%X2X+XsXtXeX2X- n.C.n.c.q C.!.!.cXm.M.p.t.e.9.2.y.8.e A.N.2.z >.4.4.7 6 6 u u j e.[.C.'.B.B.m.m.p.W.kX).V.D.W N 0.9.p.J J <.q.r.e.q.q.q.9.q.8.9.q.q.7.7.6.A A A ;.A 6.6.7.N./.N.",
"l.N.).(.I.F.F.F.F.F.F.kXyX9X9X9XzXnXzXnXzXnXnXzXzX0X=X=X-XR.g.* , s 1.i d :.<.<.,.<.<.7.7.p.<.,.J C M.a.s.e.y.0._ U ( +.O.*./ ( D N ! 6.8.3.2.,.t - e V K X B b ! E z.Q.Q u.Z.V.1XkXlXxXlXkXk.) F :X@X@X;X4X4XeXwXrXrXrXrX&X.XpX&X' ] D.U.<XnXmXmXmXAXAXSXAXKX9XO.@.$.K..X&XwXrXpXeX&X&XwXeXE.R.R ` A.R.U.~.^.,X,XzXHXBXBXBXKXNX3XJ.J.Y.L.oX@X;X@X@X@XoXtX5X3X2XoX  qXL   x.cXp.d.y.8.T m N 3X+X$X&XwXwXwXrX+XqX>.j z >.5.5.< 6 7 :.p.n.p.p.p.q.9.6.v.D.v.0.m O 0.3.e.n.C ,.9.e.9.q.9.e.9.q.9.9.7.7.w.7.6.,.,.A ,.,.6.7.l.B.(.N.",
"t.B.W.).>XG.I.F.F.F.J.zXzXzXnXzXnXzXnXzXzXnXnXzXnX7X~.{ T.E.v.D V , i 9.M.J J C -.C C ;.,.J 9.a.a.p.e.p.T c ( / *.#.|.%X&X&X.X.X|.%.%.O.*.| *.U M ` B N b B N N E z.D.V ! u.b.V.!.hXkX{.{.{.{.B.N 2X;X@X@X5X4X4XwXwXrXrXwXrX&X.X.X@.Y.Y.<XmXmXCXAXAXAXAXAXAXAXnXO.#.%.K..X&X4XwXuXaXaXeXwX+XR R [ A.I.U.~.~.-X,XzXBXKXBXBXmXKX~.T.Y.T.Y.OXOX;X3X2X;X@X3XoX8X5X3X;X=XoXD.$ N } %X.X&XeXwX&X&X&XwXrXuXrXrXsXpXpXrX4X%XV.:.z k z >.>.< 6 6.9.8.,.,.J ,.3.W.z.Z X =XW J 7.p.C ;.7.9.9.9.9.7.9.e.i.q.r.q.7.7.w.;.A ,.6.6.7.q.l.W.).N.",
"l.m.N.W.S.^.G.G.F.J.=XzXzXnXnXnXnXnXnXnXnXnXxXnXzX<X~.T.T.E.n } *.Y , 3.t.i.a.a.m.m.a.m.a.a.e.i.y.! U /  .#.|..X%.%.%.%.%.#.%.|.%.*./ / &X$X.X|.%.+.N.U N ! Y W z.D.t t P u.b.Q.qXhX{.!.!.!.!.!.m.k.@XOX@X@X2X4XwXwXwXrXrXrXrX4X+X2X=XzXBXmXmXAXAXAXAXAXAXKXAXyXX.@.H.K..X$X&XwXrXaXsXsXuXuXR ] G.G.T.~.~.-X<X0XnXKXBXBXAXCX1X,XT.Y.T.OXOX;X;X3X5X3X;X5XyXOX7X3X3X;X=XY.c.p.&X4XwXwXwXrXwX4X&.&.&.*.| | O.&X&X( MXpXrXwX%XT.>.u k z >.5.M.Z.M.m.m.p.p.0.N X D.;X%.L >.r.-.C ;.9.7.7.7.9.9.7.9.r.9.q.7.7.q.,.,.,.6.6.7.l.N.B.!.N.",
"l.l.m.W.W.D.U.S.G.P.mXmXnXmXnXmXnXzXmXzXmXnXnXmXzX=XY -XP.  V Q.%.&.b.d :.,.3.9.7.r.e.e.9.Q D / | +.%..X#.%.%.%.|.|.|.|.|.|.%.%.%.%.|..X.X$X$X%X| +.P W R R _ g.S.g.e ! K 0.Z.}.}.!.W.B.!.[.n.l.r.n.n.A.OX+X2X3X4X4XwXwXwXrXrXeXwX8XnXmXmXmXAXCXAXAXAXAXAXAXAX-X@.@.%.|..X$X&XwXeXpXaXMXGXMX_.J.I.U.~.~.,X:X<XzXKXAXBXAX(.kXkXkXkX-XOXOX=X;X:X8X9X8X8X5X8XX OX8X7X3X:X;X{ p.m.+.O.O.O.O.&.&.@.O.O.O.+.O.#.wXwXwX%X%X%XaXsXuXeX4X$XQ.>.u z i.9.8.6.,.C a   c.R.2X$.W :.9.p.-.;.1.7.7.7.7.7.7.7.9.7.7.7.;.<.;.6.6.6.7.q.l.l.B.W.N.",
"l.l.N.N.W.W.G.).S.G.mXmXBXmXmXmXmXmXmXmXnXmXnXmX7X-X~.T.D.m K x.&X.XO.| ~ D Q t J 0.M ( *.O.%..XwX%.%.#.%.|.+X+X$X+X+X+X.X$X+X.X$X.X.X.X.X.X$X/ ( %.m 0.` g.z.S./.0 e e V T x.N.V.N.N.N.n.l.r.l.l.t.m.l.N.G.U.-X4X4X4XwXwXeXeXrXrXNXmXBXCXmXAXAXAXAXAXAXAXAXS.!.(.) F.Y.oX%X%X&XrXrXpXsXGXGXY.U./.~.~.-X,X<XzXBXKXmXZXkX(.kXkXkXkXlXkX-X;X:X7X8XyXnX9X9X9XnX] OX7X7X:X;XR p.M.O +.#.#.#.#.$.#.$.$.$.$.$.$.$XsXaXrXwX&X%X.X$X+.sXpXwX&X$X.Xz.P r Q.Y.Y. XJ.R.~.tXL.H.L 3.i.s s 3.7.1.<.7.7.;.7.;.;.7.;.6.6.e.,.7.7.7.r.l.l.N.W.B.",
"m.m.m.N.N.v.S.).G.0XmXxXnXBXBXBXAXBXBXmXmXmXmXzX:X-X-XD.8.m 8.v.M wX.X|.%._ R K W R { F.oX&.O.+.#.%.|.oX$XoX+X+X+X+X.X.X.X.X.X$X$X$X$X$X$X&XO.( %X%.b 3.v.c.D.D.q ; q e m Y 0.h.h.x.n.r.r.r.r.r.l.l.l.m.m.l._./.4X4X&XwXwXwXrXeXrXnXBXCXAXAXBXAXBXAXCXAXCXS.N.hX[.{.j.H.oX@X&X&X4XrXuXsXsXGXT.~.~.~.-X<X,X0XmXHXmXzX(.1X1X{.{.kXkXkXxXkXkX1X7X9XnXnXnXnXyXnXyX] =X7X7X;X% a.n.o q L.H.%.%.%.H.$.$.$.H.$.$.$.rXpXpXpXpXrXwX4X$X.X.X.X| pXwX&X$Xb.x./.=XOXoXOXY ~ +X+.m :.e.a.C :.<.,.1.;.;.<.;.7.,.;.7.;.;.9.,.7.7.q.r.r.l.B.W.l.",
"m.m.l.N.N.v.v.S.Q.mXmXmXmXmXmXCXBXmXBXmXmXmXmXzX-X~.U.E.m K g.Q *XU x ,X^.D.x.! Q ` S.` ` ` A.I.oXoXoX XoXoX+X+X XoX+XoX$X+X.X$X.X$X$X$X.XO.| ^ ( |._ :.N.v.W e ; q 0 e m K T 0.q.r.r.r.r.r.r.r.l.t.t.m.l.m.m.l.L.2X&X4XwXwXeXrXrXnXBXBXAXAXCXAXAXAXCXv.N.W.v.!.].{.[.{.) @X2X4XwXwXrXpXsXHX=X-X-X<X<X<XzXnXBXSX(.(.(.{.(.kX{.kXkXlXkXlXlXzXxXzXnXBXBXnXnXnXnXnX; ~.3XtXL m.o o O r L.%.%.H.$.H.H.$.$.$.$.$.+XtXrXrXuXuXrXrXrXrXrXwXwXrX*.rX&X|.q.:.9.n.q t Y.eX5XK.$.C >.i.s s :.1.,.1.<.;.7.;.;.,.;.7.;.7.].7.7.7.l.m.l.N.B.w.",
"A m.l.l.N.N.v.W.xXmXvXxXmXmXmXmXCXmXmXmXmXmXmX<X:X,XD.P t Q N.w.W ).1X-XQ.v.W Q c.D.` ` c.A.I.U.U.U.T.T.3XOXoXY. X X X X+X.X+X.X$X.X.X$XO.| | ( ( ( D g u.n b e q - q e m A q.r.r.q.q.r.r.r.r.r.t.l.l.l.t.m.m.m.l...2X4XwXwXwXeXeXyXAXCXAXmXAXAXCXzXv.v.v.N.W.B.FXfXfX[.{.] L.3X4XwXeXrXpXHX-X-X<X<X<XzXzXmXlX!.(.(.(.(.{.(.(.{.{.kXkXlXlXlXlXxXxXAXmXBXnXnXnXzX9X9XY.5XC.n.X X + O r J.H.%.H.$.H.$.H.$.$.H.%.%XrXrXrXpXsXsXGXsXsXpXpXrXrX/ &X.X|.8.:.9.p.9.Z.5XU .X+.` :.2.p.s -.1.:.:.;.;.;.;.;.;.,.;.,.e.r.t.7.r.l.B.l.B.l.n ",
"j.q.l.n.l.N.W.{.xXmXxXmXmXmXmXmXBXmXmXCXmXCXnX<X-X>Xb.e Z h.W v.D.n ,XQ.b.Q Y g.D.` ` c.G.U.I.U.U.U.U.U.T.=X=XT.L. X X X.XoX+X+X.X|.O.| / ^ | ^ ( ( ( J d.e b e q e e u.q.q.q.q.r.r.r.r.e.e.r.r.r.t.r.t.t.l.m.m.m.m.h.=X4X4XwXwXeXnXCXAXmXmXAXAXS.v.N.N.S.N.N.N.[.FX[.].{.].{.U.wXwXwXrXuXGX<X<X0X0XzXzXSXQ.).(.!.(.(.{.(.(.(.{.{.{.kXkXlXlXxXlXlXxXlXzXmXnXzXyX9XnXnX5Xm.m.. o O O O 8 J.H.H.$.$.$.H.$.$.H.$.4XaXNXsXNXsXsXsXMXMXGXsXsXrXrX( wX.XK.,.,.2.a.9.R.wXwX%. .s 2.s.g :.>.,.:.;.;.;.;.;.;.7.;.,.e.e.r.].t.m.m.B.l.S Z ",
"c.w.[.[.{.{.{.lXxXCXCXmXCXxXCXCXCXmXCXmXmXmX0X<X,XE.8.b W Q.W S.D.,XQ.v.V.Y ` ).` ` c.S.U.U.U.U.T.U.T.T.T.~.=XT.OX|.L. X X X X.X$X%.| ^ / | | ^ =./ | P 2.L t e P T 8.d.u.9.9.7.7.9.9.9.7.r.e.e.e.r.t.r.t.m.t.a.m.`.m.n._.2X4XwXwX9XBXBXAXAXCXv.v.N.N.W.V.C.!.B.].].].].].bX].{.` rXrXrXrXNX0X0X0XzXzXkX!.Q.!.).!.(.(.{.{.{.{.{.(.kXkXlXkXlXlXhXjXhXcXhXgX!.1X9X9XY.aXOXp.m.X o O O O + = H.H.$.H.H.H.H.%.H.oXNXNXaXaXaXsXaXsXsXMXMXGXGXsXrXrXc &X|. XJ 3.e.r.<.oX( $XO.%X:.4.i.g :.2.5.>.-.;.-.;.;.1.;.<.t.9.r.l.B.[.[.[.B.S A ",
"j.kX{.!.{.{.{.lXlXxXmXCXvXmXCXmXmXCXmXCXCXzX,X^.S.c.t K z.w.W D.,X^.D.Q.N g.D.` ` c.G.U.U.U.~.U.U.T.T.U.T.=X=X=XT.Y.L.L. X XoX+X.X/ ^ ^ | ^ ^ ^ =./ O.,.<.p.L L L L ,.3.,.:.A ,.;.6.<.7.7.t.q.e.e.e.e.e.t.l.t.l.m.a.a.`.m.l.4X4XwX9XAXCXCXv.v.N.v.N.V.}.qXC.C.m.a.m.f.].].].].].'.{.oXtXrXNX0XzXzXSXQ.W.Q.!.!.!.!.!.!.W.Q.C.!.!.!.[.(.[.!.}.}.'.C.}.M.}.C.M.C.C.}.E.iX] n.M.. X O O O O O & J.H.$.H.$.H.H.H.tXaXiXaXaXaXsXaXaXsXsXMXGXGXGXMXrXwXc $X&.@Xs <.e.<.x.4Xc |.| T g 5.u i j >.;.j -.;.;.;.;.1.7.t.t.m.m.].B.].[.7.;.w.",
"(.xXlX{.[.{.{.lXlXlXxXmXvXxXmXvXmXmXCXmXzX:X/.D.z.e Z 0.W D.D.^.>XD.% m W D.W ` S.G.U.U./.~.U.U.~.T.U.T.~.=X=X=X=XY.L. XL.L. X.XX.( ^ ( ^ ^ ^ | ( ( #.= ,.a.L 3.L Z.g T L J C C ;.,.1.1.7.7.7.e.t.7.e.e.t.t.t.t.t.t.a.m.m.`.n.A.wX9XmXxXv.v.l.v.N.V.V.C.!.}.}.n.t.a.a.m.].f.].].].[.jXj.pXNXzXzXkX!.!.!.!.W.W.B.B.W.!.B.C.!.C.W.B.N.n.n.n.p.Z.Z.Z.}.}.gX}.hXP n.B.R 8Xt a.C.X o O O O O O % r I.H.H.H.H.H.4XtXaXiXaXaXaXaXpXsXaXsXMXGXGXJXGXMXrXeXU %X#.T.:.2.r.3.S.%X%X%.*.C i 4.u i j ;.>.>.1.5.;.;.e.a.t.t.t.f.m.B.].7.<.l.w.",
"xXvXxXxX'.[.{.{.{.kXlXxXxXxXxXvXmXCXxXxX<X,XQ.z.Y m Q -X0.Y R.-XQ.c.e Q v.W ` c.U././.~./.U.~.T.U.T.~.U.=X=X=X=XT.T.Y.L.L.L. X$.=.=.^ ^ ^ ^ ^ ^ =.c O.] :.B.V.Z.Z.n.y.q.r.r.i.p.p.M.3.:.,.3.3.d.i.i.i.e.e.e.e.e.t.t.t.m.a.m.f.B.n.~.k.N.x.N.N.N.V.C.qX}.}.C.C.p.e.t.t.t.t.f.m.f.].].].[.{.7XSXqX!.!.C.W.N.W.Q.!.C.!.C.V.V.B.n.x.y.9.u.q.9.}.xXcXcXcXcXcXcXhXgX!.!.!.%X% m.C.. O O O O O O O % V Y.H.H.H. X5XtXiXaXiXpXpXaXaXaXsXsXGXGXGXGXJXJXsXpXrX( .X#.} P 2.s.6.@X*..XO.oXz j :.6 i :.>.5.2.d.2.>.4.t.t.e.a.`.m.`.a.;.7.9.{.",
"lXxXvXxXlXB.B.{.kXxXlXlXxXxXxXxXxXmXxXkX^./.c.Q t Q S.W B D.<X^.D.q K z.` g.c./.U./.U.~.~.T.U.U.~.T.T.T.~.=XOX=XT.Y.U.L.L.L.F.G =.=.=.^ ^ ^ ^ ^ ^ O.%.I 3.y.u.q.8.,.L L J C C J 3.2.3.d.9.s.J z :.:.>.5.1.5.4.e.t.t.t.t.a.f.m.f.[.F S.N.x.N.V.}.}.}.C.C.V.C.V.r.1.1.4.t.t.t.t.`.f.].].].jXvXS.!.C.W.N.N.!.C.C.C.V.N.B.n.h.9.6.,.,.Z.hXcXcXcXcXgXgXcXhXgX'.C.C.M.C.C.oXT m.p.X o o O O O O O + % Z =XH.J.5X5XtXuXuXuXiXaXpXpXpXaXsXsXGXGXGXGXGXGXGXpXrX&X|.| g d.e.:.T +Xx %.| R.y z 4.6 i j j :.>.>.5.s.s.t.t.a.`.a.m.,.7.e.r.{.",
"kXlXxXxXvX!.B.[.hXkXlXkXlXlXxXxXxXxXkXQ.Q.x.z.q Y z.W b.c.; <X#X,XP 0.W g.j.G.^././.~./.~.~.~./.U.~.~.T.OX=X=XOXU.Y.U.Y.H.@.G =.=.=.=.^ ^ ^ ^ ^ ( =.|.x 3.6.L a a a V g P V a t w d 4 y i s 3.2.s.g i g j -.>.>.1.4.t.a.f.f.f.{.jXY NXI.N.V.C.C.V.C.V.C.C.C.Z.,.j -.>.1.e.e.t.t.f.f.`.fXn.ZXH.) W.N.V.!.V.C.N.N.B.n.q.q.,.L J hXhXhXgX'.gXgXgXhXgX}.B.Z.M.Z.Z.m.M.m.E.{.m.  . X O O O O O % % O % S @X@X5X5X5XuXuXuXuXuXpXpXaXsXsXGXGXGXJXGXGXGXJXGXpXpX&X#.&XP d.p.C R..Xx %./ 0.6 z < 4 u j j j z d.4.t.t.t.t.f.a.i.e.e.t.m.[.",
"{.lXlXvXxXlXB.B.[.!.(.{.kXkXkXkXkX(.W.Q.z.Q * N g.W W R S.:X-Xc.q Q Q.W j.).^.^./.^.~.~.~.~.~.~.~.T.~.T.~.=X=XT.Y.T.Y.Y...I G G =.=.=.~ ^ ^ ^ ^ ( U .XU 8.V P   U N D U U U D U c D D Y P < 4 7 i >.>.6 6 d s z ;.>.4.t.f.].].{.FXY NXNXNXS.C.V.V.C.V.V.n.q.6.a < f l -.;.5.4.t.t.m.m.n.Z.ZXH.oX2XG.C.N.B.N.n.N.h.0.,.A hXhXhX'.gX'.cX0.T.@X@X@X%X@X@X+XOXoXR.  kXZ.w.B.M.o X O O O O O O + + O O % V ;X2X5X5XtXuXtXuXuXpXpXpXsXsXsXGXGXGXGXJXJXJXJXGXpX/ .X*.Q :.s.s J .X$X: #.( L 4 z f 6 u j j :.>.5.4.4.e.t.s.t.2.2.e.a.a.].",
"{.{.{.xXxXvX{.B.!.B.C.{.kXkXkX{.N.v.V.z.V : B _ W W x A.W 7XD.O ! Z.0.g.S./.^.^./.^.~.^.~.~.~.~.~.T.~.T.=XOX=XT.T.I.G.j.] ..) I G G =.=.^ ^ ^ ^ ( =.%XI x N U I I ) _ ' *.o.*. .*.*.| / ( c c B w # < i z z # f u j ;.;.].].{.{.jXY NXNXGXNXJ.C.M.N.x.q.6.,.M.i.1.5.< f u j >.1.{.t.r.l.Z.SXF.Y.2X5X' !.N.N.l.q.6.L jXhX[.[.hXE ;X%X2X2X4X3X4X4X2X4X2X2X4X2X5X5X2X@X;X`.fXX o o O O O O O O % % & s C C =X;X5XrXrXtXuXuXuXpXpXsXsXsXGXGXGXGXJXJXJXJXJXJXsXc #.( J 2.s.a K XX.X: #.( K 5 k z f i j j >.4.5.5.5.e.e.i.4.e.e.a.s.'.",
"'.!.{.lXlXlXlXn.n.n.B.B.C.!.!.v.x.Z.0.K = m ` W W c.D.P.:X:XW t 8.0.z.v./././.^.^.^.^.~.^.^.~.~.~.~.~.T.T.~.OXY.T.~.1X[ ] j._.' =.=.=.=.=.^ ^ ^ (  .Y.- Q R _ ] o.F.H.L.J.oX@X+X+X%X+X|.%.O.O./ U c N + , 6 j @ # f f.].].].].].jXY GXBXBXNXsXMXQ.q.8.,.C.n.y.:.u k 5.5., u t.t.t.e.r.m.m.ZX@.Y.2X5XtX5XS.q.8.,.jXhXhX{.K ;X2X2X2X5X5X5X5XeX5XtXeX8X5XtXtXtXtX5X2X@X$X{.4.6 4 O o O O O O + O 9 C A C S B.;X5XuXrXrXrXuXpXpXpXaXsXGXGXGXGXJXGXJXJXJXJXJXGXsX$X| D.:.s.a a ;X|..X: #.=.Y # 7 z f i j j j >.;.>.5.5.4.e.4.e.t.a.M.",
"B.B.[.{.(.{.kXkXr.l.n.n.N.q.8.!.y.Z W = M ] ` E ] W A.R 7X>XX P }.u.n.)./././.^.^.~.^.~.~.^.~.~.~.~.T.Y.T.Y.:X=X=X0XG.[ ] _._.A._.) =.=.=.^ ~ @.L.H.$.T z.A.A.R.OXP.I.Y.oX#X@X2X%X@X&X%X$X$XsX&X%.O./ c U q # 6 k 4.e.m.].].bX{.FXY BXNXGXNXNXrXrXL.!.n.q.Z.W O.E.& u k 5.e.-.7.7.r.l.m.m.SX@.J.2X5XeXaXpX$.hXlXhXxXX ;X2X2X5X5X@XK. X@X%X2X4X5X5X5XtXiXnX&.;XeX5X2XwXD.5.5.y u 2 O O O % % ;.7.;.A C p 7.n.;X5X5XaXrXrXpXpXpXsXsXsXGXGXGXJXJXJXJXJXJXJXJXGXv %.U s 2.s.s r &X|.|.v #.U { < < z 7 7 k j j -.>.>.>.>.5.1.4.e.t.a.",
"m.m.B.C.[.[.{.kXm.r.9.8.,.,.q.J Z z.: U T.W E ] I I.A.OXT.Q % L u.z.W.).)./././.^.^.^.^.^.~.^.~.~.~.~.I.=X=X=X=X0X-X[ ] ] _.A.A.F.G...=.=.^ J.Y.L.M _ 8.x.Y.T.F.P.I.Y.Y.Y.OX;X5X5X4X4XwX&X%X$X.X|..XwX|.| U U # y -.t.m.].].].bXbXF BXBXHXGXNXuX4X%.rXqXR U *.$X&X@XF.& u < p 7.e.r.r.m.B.SX@.H.@X5XeXpXsX4XGXzXN @X2X5X4X@.@.%.L.oX@X4X5XtXtXtXiXtXuXNXaXiXiXyX$ 5XrX$X4.e.2 i u 2 & + p 7.6.,.;.A C p p r.N.:X4X4X4XpXuXpXsXsXsXGXGXGXGXJXJXJXJXJXJXIXJXJXsX$X/ S.:.i.s a L $X|.|.%.|./ ( a < 7 k f 7 k k k j >.z 1.;.5.4.e.r.",
"r.m.m.B.B.B.!.!.B.;.C C.9.J r Q : x R ) R _ ] :XI.P.R.T.Y.  q x.T x.Q.Q.).).)././././.(.^.^.^.~.~.T.~.~.T.=X=X0X-X-X[ j.] _._.A.G.G.G.F...@.J.OXH.o.M J x.A.A.A.P.I.T.=X;X7X8XtXiXNXiXiXuXrXrXwX&X.X X XMXXXO.P y -.e.m.'.].jXfXFXF BXNXHXGXMXaXwX|.eX-X1 A.L.$X/ sXpXP J 5 s 7.q.r.p.a.M.ZX@.F.@X3X5XiXsXwXGX2Xy.:X@X..*.@.L.oX2X5XiXnXMXNXNXGXNXGXHXNXNXnXtXtXtXtX.X&XM.5.4 7 u 9 f C 7.7.<.,.;.A C p p r.r.n.2X4X4X4X&XMXaXMXMXGXGXGXGXJXJXJXJXJXJXJXIXJXGXv +.I g 2.s a J ~..X X%.|..XO.c } 7 # 7 i < 7 7 z j j >.>.5.5.4.t.",
"t.n.r.m.n.B.m.q.w.B.3.a w ` $ - I T.R R ] { A.G Y.J._ Y.R.X C L L Z.!.V.N.W.).)././././.~.,X:X-XU.~.~.~.~.~.<X~.-X] ] ] j._._.A.S.G.G.G.@.@.J.Y.H. XO ,.K c.A.R.U.=X:X7X9X9XnXnXnXNXMXNXNXsXaXpXpXeX&X+X|.MX&.O y -.t.m.'.'.jXFXbXF NXBXNXBXNXaXeX|.rXiX& :.<XrXrX&XuX. :.4 C 9.r.r.m.n.C.SX@.H.oX4XeXuXsX4XMXpX4.i.W A.L.oX2XtXtXNXNXGXHXHXHXKXLXLXLXLXHXGXNXNXiXiX+.wXY 2.< 6 y y 2 7.7.7.<.<.;.;.-.C p 7.e.9.n.8X4X4X&X4XrXGXMXGXGXJXJXJXJXJXJXJXIXIXJXIXJXsX.Xc P :.i.s J 8 5X X.X|.%.%X%./ x Y 4 # 7 7 < 7 k j z ;.>.5.1.e.",
"r.r.r.r.r.q.6.L q.S w I $ v U +.G I [ ' ..A.G J.Y.F.#XOX* & L V 6.h.V.b.v.W.S.W.).W.)././.(.(.(.<X<X7X=X=X-X-X^.-X] j.j._._.S.F.G.G.G.G...@.I.J.U &.0.8.!.S.U.T.=X<X7X0XzXnXyXnXnXNXNXNXNXNXGXaXpXrXeXaX*.@.*.. s ,.i.B.].].fXFXbXN nXNXGXBXGXMXrX.X X&X+ 4.j D.eX@.uXO ,.y ;.e.r.r.m.Z.gXSX*.@.J.2X5XeXaXwXMXMX4.5.+ Z.@X2X5XtXiXNXBXBXHXHXHXLXLXLXLXKXLXLXHXBXBXNX XpX2X>.e.< y f 2 7.r.7.7.7.,.;.C C C p r.9.9.r.4X4XeXuXrXeXGXHXHXJXJXJXJXJXIXJXJXIXIXIXIXGXx | N j e.C J ,.* |. X$X.X%.#./ |./ c : J . f l f u k j -.>.1.4.",
"a.r.7.,.J m.9.P 1 #X$ c ( / U I ) ....F.A.oXF.I.Y.J. X.X  5 V.V T 0.h.q.h.l.k.k.v.v.S.G.S.).^.(.<X<X<X<X^.-X<X,X~.c._._._.S._.S.G.G.G./.G.F.I.J.~ R ,.p.C.c.~.-X<X<X0X0X9X9XnXnXnXnXNXNXNXNXMXMXaXGX;XJ.*.~ ~ o ,.3.r.C.[.[.jXbXbXN nXBXBXGXNXMXpX$X$X&Xo j j Q.3XGXiX+ :.y ,.q.r.p.p.Z.gXSX..@.L.@X5XeXpXwXaXGXi.4.+ y 1.xX8XnXNXNXGXHXHXLXHXLXLXLXLXLXLXKXKXLXHXHX+XoX$Xt.4.< f f f t.7.7.7.;.6.,.,.C -.-.p.e.e.p.e.uXaXpXtXuXpXJXJXLXJXJXJXJXJXIXIXJXIXJXIXJX+.+.: s i.A :.<.,.I..X.XwX&X|.%.%.( |.*.U v 5 + 7 k f 7 l j >.7.",
"s.3.J 9.9.a 5 Q $ - I F ( ~ /  .@.@.@.F.F.^ Y.@XOXL.oXoX  t q p A 6.w.w.w.0.0.h.h.k.j.k.v.W.(./././.^.kX/.^.(.1XS.S.S._.S.A.S.G.G.G.G.G.F.F.Y.H.@.P L Z.'.qX-X-X<X<X7X0X0XzXzXnXnXnXNXNXNXNXMXHX8X=XY.J.'  .I + 9.<.m.'.[.[.FXbXDXN 9XNXNXHXBXMXpX&X&X&X. s j V.@XyXiX, ,.a <.q.r.m.Z.M.gXZX .@.H.@X2XeXrXwXwXGXi.e.+ 6 -.1.[.mXNXBXBXHXKXKXLXLXLXLXLXLXKXLXLXLXJXIX%X*.4X1X>.< < f y 7.7.7.<.<.;.;.;.;.;.A -.e.9.e.9.n.5XuXiXiXaXMXLXLXJXLXLXLXJXJXIXIXIXIXIXJXsX|.x p d.,.,.9.8.8 2X.X+XrXrX$X.X%.%.%.$X| v M < # 6 s t.u u j ",
"UXd.s w w R $ : D ;XU I *.+.@.H.H.F.F.F.Y.J.OX;X@XOXtXoX  s 2 w V C A A A 6.w.6.w.w.w.g.g.).).)././.kX)./././._.S.S.S.S.S.G.S.G.).G.G./.G.H.J.L.Y.6.<.B.'.kX-X-X,X<X1X0X0X9XnXzXnXmXmXNXBXNX8XzX=X=XY.F._  Xc.& e.<.m.].FXFXFXbXbXN 9XnXBXBXGXMXaX&XsX&X  6 s x.oXtXyX1 :.a 7.r.r.m.m.M.hXZX' X.@.L.2X5XeXwX$ sXw e.# y ;.1.9.m.mXHXHXKXHXLXLXLXLXLXKXLXLXLXKXPXKXJX4X$XuXH.z >.< f C 7.e.7.<.<.<.;.;.;.;.;.;.r.9.7.e.e.B.:X5X8X5XtXIXLXIXLXIXIXIXIXJXIXIXIXIXJXsXc c a 2.2.,.q.q.w.*  X&X&XrXuX&X&X.X|.%.x #.( : U w @ < f j >.",
"5 e q v $ : D &.D U R ] ] H.J.J.J.J.J.T.F.Y.@X3X2X2XtXY.o J , 5 9 r p p S S Z A A T A A N.).!.!.).{./.(./././.S.G.A._.G.G.S.G.S.S.G.G./.G.J.L.D o.L q.M.jXkX^.(.,X,X<X0X0X0XzXnXnXnXnXnXnX~.<X-X-X=X=XF.' &.q 1 3.9.].[.].FXFXDXbXN 9XnXNXBXGXNXsXwX|.4X+ 4 s Z.Y.iXnXw e.C 9.r.p.n.m.}.gXSX[  .@.J.@X4XwXwX.XsXW 4.e.6 ;.4.e.t.m.lXKXHXKXLXLXLXLXKXLXPXLXKXLXLXLXGXeX$X+X+X5.4.> f 1.7.7.7.1.1.;.<.6.;.;.;.;.;.r.e.e.m.r.C.:X3X3X3X8XKXLXLXIXIXIXIXIXIXIXIXIXIXGXc =.V 8.7.,.q.r.q.6.I.$X&XwXrXwXwX$X$X|.%.#.#.%.( x : G.n > < ",
"$ $ : c ~ 2X~ I ) [ ....j.F.Y.L.Y.I.Y.H.L.@X5X8X4X%XeX=Xo J 5 1 9 9 8 9 w r r S L C S S B.!.!.!.{.!.(.)././.G.S.G.S.G.S.S.S.G.G.G.G.).G.G.I.L.L.U ,.p.C.bXC.H /.,X<X<X1X0XzX9XzXnXnXnX,X,X-X<X-X-X~.T.&.F.' P w ,.q.].[.bXFXFXDXDXN 8XyXNXMXBXMXMXeX$XwXT., s.x.: tXx.p a C q.r.n.M.M.gX'.ZX[  .@.H.oX&XwX&X.XGX:X5.e.f ;.1.r.r.m.`.M.SXLXLXKXLXLXKXLXLXLXLXKXLXKX;XwX4X&.4X`.5.> < e.e.e.7.7.7.7.;.7.;.<.;.;.1.1.7.i.M.p.C.C.<X:X7X7XLXKXLXIXIXIXIXIXIXIXIXIXIXGXx ( P 3.3.7.p.r.q.0.6.2X$X&XwXwX$X.X.X.X.XK.%.%.( |. .c v $ $ ",
"U | oX*...' ] ...._._._..._.I.I.Y.Y.NXH.oX2XtXeX4X4X4XY.o C , 1 1 3 3 2 1 8 9 9 w S r r B.[.B.[.!.{.).(.(.k.).S.S.G.).G.).)././.Q./.>X/./.A.J.2Xq <.Z.'.bX6.6.S G.,X1X1X1XzXzXzXzXzXR ^.^.^.<X-X-X=XY.o.) ~ + g ,.p.[.fXjXbXDXDXDXn 7X9XnXNXBXNXMXrX%XrX4X+ :.u.nX8X. C J J q.r.Z.m.C.gXC.SX[ ' X.@.I.@X4X&X.XGXpX4.t.6 j 7.t.t.`.m.`.m.{.SXPXKXKXLXKXLXKXLXPXBXnX9XL.wX$XeX~.>.# + i.e.7.7.7.1.7.;.;.1.1.;.1.7.1.t.t.m.t.'.B.!.-X7X9XKXPXLXPXIXIXPXIXIXIXIXIXIXGXv / J ,.<.7.l.l.q.q.6.m 2X4X%XwX|.|..X.X.X.X.X.X|.|.$X%XK.O.( ",
"H.$.$.F.F.H.F.J.F.F._._._.j.j.~.OX8XJ.Y.@X5X5X5X4X.XeX@Xo s + & > > 3 3 3 1 1 9 9 9 w p B.B.!.[.{.).!.).k.W.).G.S.).G.).G.)./././.>X>X-X>XE.5X XJ q.M.fX6.6.w.w.T W ,X1X<X<X0XkX~.).(.^.^.(.0X,X-X=XI.A.L.R & J 7.n.fXjXFXbXDXDXDXN 7X9XtXNXNXGXMXuX%XpX&X@ i u.3X8X% J J ,.r.n.m.M.}.gX'.SX) ' ..@.F.OX2X&X.XaXsXu.i.y s <.t.a.`.`.m.`.B.'.SXPXLXKXLXLXLXKXnXnXnX9X9X|.%XpX|.>.5.6 9.e.e.7.4.1.4.7.1.1.7.1.1.1.7.7.l.t.r.'.m.C.V.-X<XAXAXAXAXKXPXPXPXIXIXIXIXIXJXx / P ,.<.8.n.l.l.h.0.w.U.2X4X|.|.|.|..XoX$X&XwXwXwXtXsXsXsXwX",
" XOXY.Y.T.U.I.J.G.F.A.A._._.j.F.;XY.Y.OX2X5X5XeX4X XrXoXo i + # > > 1 3 1 1 2 9 p p p C ,.B.'.[.[.[.{.v.W.W.).).).G.).).).D.Q.R././.Q.^.W.` _ &.J p.C.q.w.q.q.w.9.w.w.G.1X<XkXE ).(.,X,X(.-X<X<X-X~.P.; o.7X1 8.9.M.jXFXbXFXDXDXZXN <X7X8XnXNXNXNXuX%XeXwX+ d V.8X9X1 9.J 6.q.Z.Z.C.gXC.hXSX) ^  ...H.Y.@X2X.XwXGXO i.f.i <.t.a.`.].m.B.B.].{.{.KXLXLXPXBXnXnX9X9X9X9X:X$..X$X>.5.y 1.9.e.e.e.4.7.7.1.1.1.<.7.e.7.t.t.m.B.gXm.'.B.(.xXmXCXAXAXSXPXPXPXPXPXIXIXPXNXc I a ,.,.8.n.l.h.h.0.0.T ^.@X X X|..X X+X+X@X&X&XwXeXeXeXwXwX",
"q n V A 6.0.q.l.n.N.N.B.B.!.[.[.- [ ..Y.OXOX:X5X8X%X X+X  s 5 w 9 9 9 9 w p V T A ,.w.w.7.7.q.n.N.l.k.W.W.).).).).).).G.).).R.Q.R.Q./.S.z.b.tXY ,.J 6.6.7.q.q.q.q.h.g.h.v.v.v.W.Q.(.0X1X^.,X0X<X,X~.A._ } x.w 9.p.'.fXbXbXDXDXDXDXN :X7X8XtXNXBXNXaX&XGXrXb < kX8Xb.d 8.C 7.n.n.B.}.C.'.hXZX) [ ' X.@.J.+X4X.X*.sXT.e.t.s :.t.m.m.f.m.].].].].[.lXSXKXBXnXyX9X8X9X8X7X7XoX|.wXC.>.d :.1.e.e.7.e.4.4.4.7.7.4.1.e.t.r.t.a.].cX{.hX{.lXxXAXBXLXKXLXIXIXIXIXIXIXIXPXpXD c s 2.d.a.m.r.r.7.6.V S * (.-X-X=X@X~.U./.G.S.j.` W Y N N * ",
"e.9.e.t.e.e.2.7.e.e.2.e.9.e.r.7.B.A.] A.I.=X:X3X3XY.oX Xo C d C C C V A A A 0.h.h.g.k.W.9.7.7.8.q.h.h.W.W.W.).)./.).)./.G./.).G.).).S.z.W kXY.S 6.a.A 6.r.q.q.h.h.h.h.h.8 W.v.W.).>XkX0X(.,X0X0X,XR.A.Y.R 5 a q.p.jXFXbXDXDXDXSXDXN -X:X7X8XnXNXNXaX4X+XuXNX> hX0X= a J C 8.m.M.M.hXC.hXhXZX) ) '  .@.J.OX%X+X|.GXpXe.a.i -.e.a.`.m.B.].B.].B.[.[.jXZX0X9X9X7X8X8X7X7X3XOXo.rXJ.>.s.:.:.<.e.4.7.t.7.1.1.4.1.e.t.t.t.l.m.].jXbXbXlXlXxXhXKXJXKXLXIXIXIXIXIXIXIXIXsX=.=.t >.<.9.a.r.9.7.;.C p B.vXkXxXlXxXlXxXxXvXlXvXvXlXlX[.'.a.",
"-.z -.;.:.>.>.;.;.;.:.2.2.e.e.e.r.B.[ F.I.OX;X7X2XoXtXY.o C 5 y 9 y p 9 p p V ;.w.6.B.n.9.7.6.7.q.h.h.W.B.W.(.).)./.).).).).).).).S.g.0.0.Q.E.L q.J J 6.r.r.l.l.l.l.w.r C N.W.W.W.(.0XzX1X,XzXzX-XE.nXA.g.= J x.C.FXbXDXDXDXSXDXZXm =X:X3X8X8XiXNXiX4X.XuXrX+ qXyX+ A P L p.Z.Z.}.gX}.cXhXSXI _ [ ' X.F.oX%X@X|.pXaXP s.`.s 1.a.`.f.f.m.B.B.].[.[.hXSXCX0X7X7X7X3X6X:X;X#XY.eX.Xi.a.a.C :.>.e.e.1.1.t.t.e.e.e.e.t.t.t.].fXjXbXbXvXlXlX`.lXKXLXIXIXIXIXIXIXIXIXIXGXx / a :.2.i.a.a.9.7.6.C S {.{.xXlXxXxXxXvXvXvXvXlXjXC.m.p.r.9.",
"z 1.4.i u u i j j s s j :.:.;.e.e.e.Q._.I.T.;X8X2X@XeX@XO J & 1 2 1 1 2 9 9 9 w S l.l.N.7.,.6.9.q.l.l.N.W.).!.).(.).!.)./.).).).S.c.W 0./.z.Q :.i.L ,.9.l.l.l.l.l.p C C C W.W.).Q./.1XzX<X,XzXzX-XA.A._ m q 8.n.].bXbXDXDXDXZXDXDXN =X;X:X3X8XyXNXiXeX.X&XrX% (.-X1 8.V ,.n.m.C.hXC.hXhXlXSXI [ ' ..X.H.L.@X%X XrXsXY.i.a.j :.t.m.m.m.m.].B.].'.[.{.SXCXZXmX:X3X3X:X:X;XY.Y.8X@X`.t.a.t.C :.1.e.t.1.e.1.e.e.t.t.t.m.a.`.[.jXbX{.vXlXxX].jXbXPXKXPXIXIXIXIXIXIXIXJXx | V :.2.r.t.r.q.6.C y vXvX{.vXxXvXvXvXCXvXvXjXC.m.n.gXs.s.,.",
"# < 7 i :.4.f f f u u i s j 1.5.1.9.p...J.Y.=X3X2X@X5X;XO j + > > > 3 3 3 3 9 9 7.w.l.l.7.;.6.7.7.h.n.N.B.).).!.(.).)./.).).).W.v.W 0.Q.v.W Y :.9.M.,.9.n.m.N.n.p C C S V N.W.!./.(.1XzXkX,XzX0X>XA.R.R r t n.B.fXbXDXDXDXDXZXZXDXZ U.~.;X:X3X8XiXNXrX.XGXrXNXx.% r 8.J 0.Z.C.hXhXhXhXlXlXZXF ) ' ....@.L.;X%XoX: sXtXe.a.`.:.9.t.m.m.].m.].B.[.'.{.ZXZXvXZXCX-X:X;X;X;XY.P.:XP.e a.e.i.i.-.:.1.t.t.t.1.t.e.t.t.t.t.`.`.].FXFXbXvXvXxX].jX{.lXPXPXPXPXPXIXIXIXIXHXc / P :.9.7.r.r.7.,.A {.{.vXbXjXvXvXCXvXvXlX'.m.l.p.y.d.J w d ",
"$ $   V 5 4 i z < 7 6 7 u ;.;.;.1.1.1.n.F.Y.=X3X2XoX4XY.+ C @ + > > 5 2 > 3 1 2.,.6.q.l.<.,.,.8.q.r.B.V.W.!.(.).).!.(.).).W.W.k.0.W ^.v.Q m D J 9.a.,.9.m.m.-.C C S C p S B.).).).(.(.zXzX,X0X<X>XD.c.b.8 L C.C.cXDXDXDXZXZXDXDX[.Z w.~.=X:X:X3XtXNXtX+X.XpXrXW O J L L y.C.}.hX!.hXjXlXbXZXN.F ' ....@.J.@X3X+X+XMXuXe t.`.:.,.r.m.m.m.B.B.'.'.[.[.ZXCXZXCXSXCXzX;X:X@XJ.U @Xo.K Y.p.e.t.i.j :.1.t.t.t.t.t.t.t.f.t.].].f.FXFX].lXlXlX].{.{.bXvXSXPXPXPXPXIXPXLXNXD ' J 3.2.6.9.q.7.,.S {.vXbX{.bXjXCXvXxXhXZ.B.r.,.m S R X X : ",
"#.| U v : $ g < l z # < u j j ;.-.;.;.,.).OXOX2X2X+XeX+X@ g @ + > > 4 1 > , ,.;.;.7.r.h.;.;.,.7.6.q.Z.C.B.!.!.!.!.(.)./.(.W.k.q.0.Q.x.W 0.b.G J <.r.7.r.r.-.S C C p S p p W.W.(.(.(.1XkXzX1X>X6XnX~.z.y.a 0.qXhXbXDXDXZXZXZXDX`.B.V T 0.R.~.:X3X3XyXNX2XoX4XrX` * T L 8.n.}.cXhXhXcXvXbXDXvX!.qXH ] o.F.J.OX5X%XoXsXsXOXt.a.`.:.1.t.f.m.].B.B.'.'.[.ZXZXZXZXSXCXZXxX~.OXA.o.+X{ !.H.I.i.4.e.t.:.;.5.t.t.t.t.t.f.f.f.f.].FXFXFXFXFXvXbX[.].bXbXbXvXSXPXPXPXPXPXPXNX) ~ d 6.J ,.q.q.w.r {.vXvXvXvXbXjXjXlX!.n.n.,.a Y X $ v c | #.",
"&X&X&X&X#.( v X d 6 z # 7 7 i i j -.-.;.r.] oX;X@X XuX.Xo i o @ > < 4 , , ;.-.C ;.7.q.r.;.;.A 6.9.q.l.B.B.!.!.{.{.).!.!.).x.w.w.Q.x.Q K b.E. .L ,.i.7.-.C C s a p p p S S B.).!.(.^.,XkXzX(.Q.>X3XD.} t P C.!.lXDXDXZXZXZX{.l.m.m.Z K K T g.=X^.3X3XiXtX+XNXpX] t 0.8.u.}.cXhXhXcXbXDXDXDXbX!.!.qXE [ F.L.OX2X2X+XH.MXuXu.a.`.;.;.e.t.B.m.B.].B.'.[.ZXZXSXZXZXCXCXvXxX-X_ F.Y.Y C.L.|.A.p.2.e.i.-.;.1.t.f.t.t.f.f.f.].].].].FXFX{.bXvX].].bXbXbXlXvXSXPXPXPXPXKXiXoXM p 9.J ,.9.w.;.{.vX{.vXvXbXlXVXZ.y.C.q.J Y $ : c  .#.%.|.rX",
"sXrXwX$X$XO.%.( : 4 # k z 5.< < f u j -.:.n.OX;X@X|. X.XX y e.@ > u 6 y ;.-.s -.-.6.7.l.C ;.;.;.7.q.l.n.W.B.!.!.(.!.!.W.h.0.k.Q.x.Q Z.b.D.J.+.Y ,.i.u p u p s a p p p p p W.).(.(.(.1XkX0X/.D.mX6Xb.8.t 8.qXhXjXDXZXZXZX[.r.l.l.m.Z A A Z Z H (.;X3X5XuX2X+XsXA.K 8.8.Z.cXzXkXlXZXDXbXDXDXvX!.qX(.qXQ.) Y.OX2X2X@X%XMXsXT.a.`.`.;.<.e.m.m.].B.'.[.[.ZXZXZXSXZXCXCXvXkXqXQ.=XJ.O B.-X+X.Xo.a.>.e.t.>.1.t.t.t.f.f.f.].].].FX].].FXFXbXvX].FX].{.FXbXvXvXAXPXPXPXBXnXJ.N V q.J L 0.q.= lXxXvXvX{.].M.p.a.e.8.w.$ : U |.*.+.%..X&XGX",
"MXMXsXrXwX$X.X|.K.( $ P 6 7 z 3.< < y s >.1.m ;X2XL.$X%XW d 4.@ 4 i y ;.j C j C ;.;.7.r.-.-.;.;.7.q.r.l.B.C.!.!.!.!.N.x.0.!.N.0.Q z.D.R.:XoX%.v :.1.s.d y y y p p p p p p ).!.(.(.(.1X,XqXD.N.6X*Xb.q P 0.(.1XcXZXZXZXn.q.q.r.l.l.A A Z Z V Z H T.3X3X3XeX2XiXR.8.0.y.}.xXlXxXZXDXDXDXbXbXDX[.!.qXkXkXhX) =X2X3X4X@XtXpXrX9.M.`.l.;.9.r.m.'.B.'.'.[.ZXZXSXSXCXCXxXzX(././.Q.z.hXV.zX5X+X$X&.m.3.t.t.>.>.4.t.f.f.f.].].].].].f.FXFXbXFX].FXFXFXbXbXbXvXvXSXSXKXmX; o.W J y.J 6.0.8 lXxXvXlX[.C.'.n.9.,.8.U $ D Y.~ ' #.L.&X&XrXJX",
"JXGXsXpXrXrX&X|.%.O.O.( v   6 7 j 5.< 6 s :.9.A.2X XO.&XoX< 3.@ 4 u -.-.j s s s ;.,.9.q.s C A ;.,.9.r.l.n.B.W.B.N.n.0.0.!.N.0.0.b.D.#X:X0X/ |.( W s 2.s.y 9 w w y p 9 p 9 ).).(.(.(.(./.*XQ.>X>Xb.O n T V.!.hXvXZXZXq.w.w.9.q.r.r.A A H Z Z S Z T U.3X3X;X%XGXT.0.0.Z.cXlXvXDXDXZXbXbXDXbXbX!.hXkXkXkXkXzXR 2X3X2X2Xx sXtX=Xa.M.].;.<.7.p.m.'.B.'.[.ZXSXSXSXZXxXkXqX!.(.W.u.N /.V.hXiXrX$X$X.XkX>.>.e.4.>.2.t.f.f.].].].].].FXFXbX].bXFXFX].FXFXbXlXbXbXvXSXBXzXA._ V L n.L 6.q.1XlXlX{.C.C.Z.q.,.b.$ x c { M U ' F.L.oX$X&XwXJX",
"JXJXsXpXrXrXwX&X.X&X&X%.|.O.c   6 k >.< f s 1.q.2X+X XeX.XO g s.4 i j u u s j -.:.:.<.r.j -.;.;.7.7.q.l.n.N.n.n.q.0.C.N.h.8.W *XR.>X:X7XE.%X%X#.U 0.g 9.p.t.2 9 9 p ;.1.1.7.).{.(./.Q.v.V.0X/.D.b.r Z q.{.qXxXZXZXC A ;.6.q.7.q.r.A A A A Z V S V K J.3X;XoX%X-Xh.b.qXnXvXZXvXvXbXbXDXbXbXbXhX{.{.kXlXxXxXxXR 8X3X;X2XMXiX4XL m.`.'.,.<.9.r.m.].'.jXjXjXvXCXxXkX(.(.>XV.0.m /.>X^.z.=XMXO.&X&X$Xk.<.-.>.4.>.>.4.t.f.].].].].].].].bXbX].].FXFXFXbXbX{.bXvXlXmXzXI.R a 0.L L 8.L lXkX!.V.C.x.,.` $ x U |.+.+.D [ @.J.J.oX@X2X5XJX",
"GXMXsXrXrXrXwXwXpXsXrX&X$XO..X| c O u j 4.y s 1.b @X XK.$XY i i.6 4 y u s j s ;.e.;.<.9.:.i.;.;.;.7.q.r.r.q.q.6.n.V.x.8.T b.#X#X-X<X:XS.x.x.Y oX*.c T :.1.r.t.u u k j -.1.1.7.W.Q.W.v.b.0.0XS.b.b.V Q N.(.hXmXvXS S V A ;.w.q.9.r.,.A A A S A Z A A Z F.2X@X@X-XN.}.cXcXvXvXbXbXZXbXbXDXbXjX[.(.kXlXlXvXvXvXvX) 5X2X2XL.aXrXY.a.M.'.'.<.7.7.l.m.FX{.].].M.m.p.n.V.(.v.0.N :X(.1Xm.,.7.zXaX( wXwXOX@.kXs z 2.4.1.5.t.f.f.].].FXFXFXFX].].].FXFXFXFXbXbX{.[.C.C.R.c.v.L x.L 6.k.1X(.V.!.!.y.T - x ~ oX' *.H.oXY.' A.F.L.OX@X2XwXHX",
"sXsXpXrXwXwXwXwXMXsXsXsXwX$X$X|.|.|   7 :.4.d s 7.P. X%.&X.X1 z 5.i.i.f < u s d.d.3.:.<.:.3.:.s :.,.,.,.,.,.n.B.y.8.8.Q E.R.=X7X#X6Xx.g.0.!.V.N.x.b.D.p s d.>.5.4.4.4.d i s j :.h.z.v.v.<XqXb.-Xn T x.(.1XzXkXr r S S C A ,.6.9.q.9.L L A A A Z A H T K ..@XoX<X}.qXxXxXlXlXlXvXvXbXbXbXbXbX[.{.{.lXvXvXCXZXZXCXS.5X;X5XNXuX5Xe M.'.'.'.<.6.9.`.m.m.i.r.9.m.m.a.p.i.8.m !.B.a.i.a.m.9.<.Z.eXtXrXwX&X%.{ p.i :.5.5.2.4.e.t.f.f.`.`.`.].a.f.`.].].].].M.m.M.m.M.y.0.P W N.T y.Q.Q.Q.qXV.0.Q.; N o.R _ @.J.OX@X2Xo.F.I.OXY.;X2X5XHX",
"sXpXrXeXwX4X&XsXMXsXpXpXpXeX&X.X.XwX$X$ i z 4.d :.6.%X$XwX$X' 6.g z 2.4.4.4.g d d a s s i 6 7 d d s J p.Z.s.q.,.T e A.E.@X;X3XD.S.v.0.!.!.Z.n.y.q.- I ) / U qXa z z z 5.4.e.t.i s 0.v.(.qX*XqXT K 0.N.1XhX!.q q 9 r r n V A ,.6.9.9.8.L A A A A L A 6.w.L c.@X:XqXhX!.!.!.{.{.{.jXjXbXbXbXjX{.lXlXlXlXlXvXZXCXSXCXG.5X3XL.iXeX@X6.M.`.'.C.2.a.r.7.M.M.m.a.i.e.8.e T. X XY.Q C.7.9.e.s.a.>.u.<XuX( eXwX|.%.{ p.s z >.4.4.5.4.i.e.t.t.i.>.4.e.e.i.a.7.p.Z.p.u.6.z.6XY q.8.8.0.Q.Q.0XV.0./.x R T.R _ o.J.Y.Y.;X3X5X..G.T.Y.=X;X3XGX",
"pXrXeXwX4X&XsXGXMXsXpXrXpXrXrXrXrXrXGXwX: :.z e.s 3.e %X|.&X.X%.@.T J s z >.d.4.i.e.i.d.z 3.4.e.t.i.9.e.,.L K Y E.F.J.OX;XE.>Xz.8.0.!.V.n.u.0.b ] ] { A.F.%.#.| ( D Y 8.3.z >.2.e.s.!.>XQ.>X0.Z Q x.kXqXqX8 q 8 8 q q w r p C J <.,.6.,.C A A A A 6.6.8.w.T A.,X1XV.x.x.N.N.B.B.C.'.'.'.'.].'.'.'.hX{.jXlXlXxXCXCXmXS.3X8XyXtX4XY.m.C.'.'.].`.`.m.a.r.9.m I.$X+X.X$XwX%X.X|.H.=XhX2.2.e.p.a.:.y.4X%X&.rX$X|.#.' 1Xd i s z 2.4.i.e.e.9.d.4.4.e.e.e.2.<.,.L v.R _ _ { N.0.z.V.V.1XQ.0.= N W F Y ) _.F.F.I.OX;X3X8X;XR.T.U.T.;X3XNX",
"pXrXwX4X&XwXGXsXsXpXrXrXrXrXwXwXrXwX&XMXwXM 3.>.i.z 3.oXeX|.eX%X$X|.%.+.B V.s s s a V P 0.a s a a a t ; F.H.L.L.L.oXOX] E.c.v.8.qX!.V.y.0.m { o.o.F.L.Y.;Xo.sX.X.X%.*./ c x Y 2.1.3.2.V.Q.W N Q z.Q.qX0Xq 0 q * * 8 8 8 9 w r a J V C J P s C Z A A L T 8.w.Y D.V.0.0.q.0.q.y.q.x.p.n.p.r.n.p.m.B.C.'.{.hXhXlXxXxXCXxXP.8X&.tX5X2X~.M.'.M.m.n.y.P OX&X&X%X%X&X4X4X Xv eXwX&X+X X%.I.m.3.2.e.r.-.3.R.$X.X&.rX$X.XK.#.*.Q.J w w r d a V t w d d P V K ! I ( ' ' F.Y.8X:Xg.W.W.<XW.g.% M W Y ! ) j._.A.F.I.OX3X:X8XyXT.R.R.T.=X:XHX",
"pXwX4X&X&XGXGXGXsXpXeXeXwXwXwXwXwXwX$X&XsX4X! g 2.s.3.9.3XrXeXwXO.wX&X%X.X|.K.K..X%.%.%.$X.X.X|..X.X%XrX&X+X@XoXI _ } c.z.T T qXV.y.8.K c.o.&.L.#X;X{ ..*.o.o.| | | rX.X|.%. .( c x : *XN.Y Q 0.V.1XhXe q q - 1 q 1 1 q q w t g p.m.2.M.J J C J L L L 8.8.w.0.8.T 8.w.8.0.8.0.q.q.q.q.r.9.m.e.m.`.C.'.hXhXhXkXlXxXxXxXlXOXiXOXtX4XOX* Z.OX5XwX4X&X&X4X4XwX( / ( L..X+X.X.X( wX&X.X|.%.OX:.,.2.t.9.d y.oX|.|.$.&X4X$X.X|.%.%.#.#.#.#.#.%.&.+.O.O.#.O.O.@.$.Y.2X;X2X;X;Xg.S.,XQ.z.X Y g.Y H H j.j.j.A.G.G.^.:X;X8XyXNXR.G.U.~.=XBX",
"rXwX4X%XsXGXGXsXpXrXeXwXwX4X&XwXwXwXwX$X.XrX|.X :.2.s.:.3.K eX4X$X$X$X( ( wXwXwXrXsXpX.X%.rXrX4XwXrXrX$X2XU U U ~ _ E.0.K T !.b.0.0.E.{ E.P.T.R ' ] ] ..o.F.J.H.#.O.| | | | pX$ %.O.| ( v a :.e.Z.x.m r q q q q 8 - q.qX!.{.hX'.C.m.M.M.gX'.C.hXm.r 8.8.q.0.y.W T Q 0.8.8.T h.hX{.kXhXhXhX'.'.'.'.[.[.hXC.{.hXkXlXmXzXkXkX=XN ,X/.v.:XNX5X5XeXrX&X( ( ( ~ / / H.%X@X%XoX X|.|.eXwX&X%X.X#.kX:.3.e.i.w s -X X%.#.+.O..X4XwX&X&X&X&X%X&X  &X$X&X&X%X$X|.&.oXoXoXoXOXD.W.v.qX,Xc.e N w.Y K E g.j.j.k._.A.G.=X-X-X7XyXnX:XS.G.~.=XBX",
"5X5X&XrXHXGXGXpXrXrXwXwX4X&X&X&X&XwX&X$X|.%.&X%.X :.2.t.s :.m.yXwX&X.X|.%.%.+.*.| / } } K.+.*.| / ( ( U U I ~ _ ] D.m m Z Q.x.w.W E.P.R.Y.R _ _ _ ] *.@.F.J.Y.Y.|.$XO.O.O.| | | | / MX|.O.x m :.4.a.q e e e q x.1XkXkX{.hX[.C.C.B.a.a.m.M.'.C.'.[.[.hXC.a y.q.0.T u.u.b.xXkXkXkXhXhXhX[.hX'.`.M.].'.[.hX{.hXhX{.x.cXzXkXkXK kX,XV.-X<X0XtX( ~ ( ~ ^ / |  .X.$.5X5X2X4X2X$X.X|.|.|.|.rXwX%X|.&.2.:.4.t.4 , Z.oXH.#.O.O. .X.| X.X.*.O.#.O.O.O.O.+.+.+.+.$.H.L.Y.@XS.Q.V.1XQ.x.v.V w.W.H H j.j.j.j.j._.S.G.~.:X-X<X9XnXBXT.S.G.~.BX",
"2X2X2XGXJXGXMXsXrXwXwXwX&X&X%X&X&X&X&X&X$X|.&.+X#.  z >.i.d s d.N.4X&X$X|.%.+.| / / / ' $X%.+.O.X./ / / / / ' F.c.m e kXQ.g.0.c.c.#X=XU U I ) ' { @.F.F.J.I.J.Y. X%.rX.X|.|.%.#.&.%.O.#.$X#.c P :.4.`.t n (.kXkX(.hX1X(.!.!.!.T ! : ; V m.gXM.C.C.C.[.!.!.C.!.0.Q }.xXzXxXkXkXkX1X{.kXb.  #X:XK C.gX'.'.'.[.{.{.hX!.kXkXx.1X^.}.-X1X0XN N } ~ ^ /  . .X.X.+.tX5X4X4X4X4X4X&X$X.X|.|.|.$XuX4X$X#.hXs 5.i., + a A.$.#.+.+.O.O.O.O.+.$.|.#.#.+.+.#.#.H.H.L.oXOXG.1X1XQ.kXV.z.~.N T k.H w.g.g.g.g.k.j.k._.S.G.-X~.:X8XnXnXNXv.S.R.9X",
"tX@XnXGXHXHXMXpXrXwX&X&X&X%X%X%X&X&X&X&X&X.X|.rX$X%.$ 3.>.d.7 d :.[.:X@X XH.+.X. .| | ^ %X X%.+.X.X.X.X. . .~.b e e S.Q.y.z.c.E.$X&XU U U R ] ....@.@.F.F.J.F.I.L.Y.%.%XwX&X&X&X|.%.#.+.O.wX|.c Z z 4.hX1X1X(.kX1X!.(.!.(.t X : v XXO.| U Y q.Z.B.C.C.C.!.!.!.qXzXxXnXxXzXzXkXkXzX% R o.P.2XMXMXiX:Xp.C.'.'.[.!.!.qXqXhXkX(.Q.-X(.1XN N H ) G.@.X.X. . .+.3X5X5X2X%X2X4X4X%X%X%X$X.X|.+X.X%.pX$XXXzXz :.i.# o @ }.J.+.+.@.+.O.H. X+X@X%.#.#.%.$.H.L.L.oXY./.xX1X(.kXQ.z.; N _ A.K K w.g.g.g.g.g.k.j.k._.S.U.~.-X0XnXNXBX9Xk.^.0X",
"iXNXNXBXHXNXsXtXwX4X&X%X%X%X%X%X$X&X$X&X&X$X&XwX%.&X&XI >.>.4.4 4 s :.).L.L.$.@. .| ^ ^ %X.XK.$.X.X.X.X.F.B b e - e Q.z.g.z.D.#X! Q ! I ) ' ] ......X.@.@.F.F.F.L.Y.Y.$.|.|.|.%.%.K.%.#.#.O.rX.X( L :.i.1X1X1X(.,X(.!.>X$ : x N R $XoX|.K.%.' N n.m.Z.B.V.C.V.hX1XzXzXzXkXzXzX= B Y ] A.Y.8XGXGXGXMXiXA.Z.C.C.C.[.!.V.kX1X}.:X<X(.N N F R ) [ _. . . .@.@X2X5X5X2X2X@X%X%X$X$X$X$X$X.X%X.X|.$XpX$X%.R.s :.4.o o o + j.+.@.O.@.@.J.oX@X%.$.%.$.#.H.H.L.F.mXCXmX1X0XQ.x.* Y ` U.R.A.Q g.k.h.g.g.g.g.k.k.k.S.G.~.^.0X9XnXnXNX0XQ.,X",
"8XnXNXNXHXHXMXuX5X4X%X%X$X$X$X$X$X&X&X&X&XsXsXrXwX$XpXwX~ 3.z 4.< 4 y s n.G.@.o...' ..] %X+XL.$.X.O.X.G.b b e - ; ,Xx.0.R c.3X! ! Q I ~ _ ' ' '  . ...X.@.F.F.F.J.J.Y.Y.H..X%.%.%.%.%.%.#.O.O.|.%X&.Q >.C.,X1X(.1XV.; = e M R { :X@.*.eX2XoXoXL.R K n.m.B.N.kXC.'.zXzXkXkX,XN ; Y ` A.T.{ F.: MXNXGXNXtX8X0.B.C.C.C.!.1XV.-X<X<XN N H E ) ) ` E ]  .X.;X=X@X%X3X2X@X+X@X%X$X+X.X.X.X.X&X%X$X.X|.+.&X%.c.g z 2..   o o V...@.@.F.L.Y.OX|.%.$.+.@.F.$.:XCXSXAX0XW /.z.! Y ] =XA.I.:X:Xh.g.g.g.g.h.g.g.h.k.k.S.U.^.zXzXnXnXNXBXW.^.",
"0XnXBXHXHXNXHXNX4X2X%X%X$X$X$X$X$X$X$X&XJXJXGXMXrXwXwXsX&X/ z >.2.# 4 w y a !.o.o.o.{ ..%X+XK.H.@.F.b x b b e ; /.z.W E c.D.! ! Q _ R _ ~ _ ' _ ' [ ....X.X.X.F.F.J.L.J.Y.$.%.%.#.%.%.%.%.#.+.+.&X&X&.e 4.(.1X1X1X; ; B Z ` c.D.A.H.|..XMX5X%X2X2X2XV n.n.x.kX0.i.kX1X1X<XX - N ` b.~.A.c.P. X@XoXNXNXiXtX5X% C.B.N.1Xb.-X,X<XN N H ) ) ` ) ) ` [ ` @XOXOXOXOX2X%X%XoXoX$XoX.X.X.X|..X&X%X&X4X.X#.%.4X%.u.7 3.@ .   . o O j.@.F.L.OX;XH.$.+.@.+.F.AXAXPXKXxXzX/.z.>X0.] } c.U.-XnXmXnXh.h.h.h.0.h.h.g.k.k.S.S.zXzXzXnXnXBXBXnX^.",
"zXnXNXBXNXNXHXGXaX2X%X%X%X+X$X$X$X$X$XGXJXGXGXGXMXpXwXrXpX.XU s z # < 5 4 4 p 8.A.E.A.{ %X+XL.H.-XF D B B b - R.S.W Y z.~.b ! Y Q I _ I ) ) [ ^ ^ [  . ...X.X.F.$.F.J.J.J.%.$.#.%.#.%.%.%.%.#.O.#.wX&XK.- M.0X,XP ! Y Q z./.R.D.G.oX+X+X@XNX5X5X5X8XnXK Z.kXX o.' M.,X0X* * m Q c.S.S.c.c.=X%X%X5X*.NXyXtX3XOXK C.}.N -X,X<XN N H E ) ) ) E ) E ` ` ~.T.oXoXY.@X@X+XoX XoX X|.|.|.|.|.$X$X&X&X$X|.%.sX&X%.0.d 5.@   . o o O A F.J.I.Y.$.@.+.@.mXSXSXPXSXBXzX=Xv.T Q dX` ` R.-X0XnXnXBXnXh.x.x.x.h.h.g.g.k.k.{.kXxXnXzXnXNXGXHXnX",
"nXnXnXBXNXNXNXBXMX@X%X@X@X%X@X$X&X$XGXJXGXJXGXGXGXMXpXrX4XrX.XX k d., 5 4 < 4 g ,.h.] c.@X+XY.=XI F F M M b b /.W Y z.` b b R Q Q R R _ ~ ) [ [ [ ^ ^  . .X.X._.@.@.H.F.J.$.$.#.%.#.#.#.%.#.%.#.+.&.uX4X|.$ Q.z.Q u.dXdX>X>X^./.-X3X4X2X%X@XiX8XtXyXnX7Xw.K Y +XuXL.1XY = m T c.v.D.A.v.D.7XiXuXeX5X' nXyX3XOXA.N.g.-X-X-XN N Y ) ) ) E E ) ` ` [ [ Y.T.Y.Y.L.L.OX+X XK.K. X|.|.|.K.%..X.X%X&X$X$X.X%.O.&X%.,.i 4.. . o O + > 9 v.I.U.H.@.I.mXPXPXPXPXPXmXz.R.v.! b.b.` A.-X<X0XzXnXnXNXnXg.0.z.h.h.q.g.g.k.{.1XkXzXxXnXnXNXNXmX",
"zXnXnXNXNXNXNXNXNXNX4X5X5X4X&X&X&XMXJXJXJXGXJXGXMXsXsXsXwX.XwX%.s z 5.@ 7 4 4 y C ;.h.A.@XBX..[ ` I F F ! M ;Xc.e u.W.e B N U Q R R W ) G ) ) =.~ [ ^ [  ...X.X.@.@.F.F.J.$.$.#.#.#.#.%.#.%.#.%.#.#.&.sXwX%.: T u.z.}.qXnXzX1XzXkXyXtX8X2X@X;XiXyXyXiXnX% Q c. .aXpXwXt e Y z.Q.Q.S.v.)./.zXNXMXiX5XeXH.tX3X@XJ.$ -X-X-XB N U R ) E R [ [ ) ) ) [ ` T.Y.L.Y.L.J.Y.oXL.H.L.L.%.%.%.%.%.|..X%X$X$X$X$X.X#.%.$XO.i j . . @ @ + 3 2 w k.R.@.zXKXKXPXPXPXPXAXnX<Xz.m W L W c.~.^.,X<XzXmXnXmXnXnXh.q.h.h.h.w.g.{.(.kXkXzXmXnXNXNXNXNX",
"zXnXnXBXNXHXNXNXNXnX@X2X5X5XrXwXGXJXJXGXJXGXGXGXsXsXsXsXwX.X%.&XK.u >.. 5 5 7 d :.,.6.9.R _...A.{ ` ) ` Y nXD.W T v.b m N F D Y I R R W ) G ) ~ =.^ ^ [ ^ [  . .X.@.@.F.H.$.+.$.#.#.#.#.#.#.%.#.%.#.#.&.GXwX XJ Q z.qXzXmXmXmXCXmXnXuXuX5X;X@X;XyXyXnXzXY c.c.' O.sXGXL u.` x.Q.V.v.D.Q.^.mXHXHXNXyXtX8X;X8X=X=XN.,X/.N N R R E R E ) E ) E ) ` ) [ Y.J.J.J.J.J.H.L.L.%.$.%.H.%.%.%.%.%.|..X.X.X&X$X$X|.#.#..XD.7 >.o @ + & > 2 p C P CXKXSXPXPXPXPXAXnX~.D.N.K V.Y ` D.~.~.:X0X9XNXBXnXmXNXnXh.w.w.q.w.g.{.(.1XkXkXxXzXnXnXNXmX",
"zXnXmXNXKXNXnXnXiXyX;XoXOX2X2XJXJXJXHXJXGXJXGXGXsXsXsXrXrX&X%.%.|.a i 5., 4 g s ;.;.S ,.0 0 [ G.A.] { } Q OX` P 0.m m H H F F F Y I R I I _ ~ G ~ ~ ^ [ ^ '  . .X.X.@.@.F.$.$.+.#.+.#.#.#.#.$.#.#.#.#.#.&.pXwX: i.x.!.kXzXmXAXSXSXnXuXyXtX2X@X;XyXnX9XT 0.Q N  .O.#.HXpXe.V.N.V.v.N.Q.(.(.mXJXHXHXnXtX8X_ oX9XX qXQ.N N R E R ) R R ) ) E [ E [ [ [ G.G.F.F.F.F.@.H.H.@.#.$.%.$.#.%.%.%.|.|..X$X&X&X$X$X|.%.wX#.g g @ + , , 2 2 y o O xXSXKXPXPXPXPXmX0XT.z.m g.n E j.S.~.~.,X<XzXnXmXnXnXnXnXnXq.0.w.q.h.[.(.(.{.{.kXzXnXnXNXBX",
"zXmXBXHXNXNXaXyXtXyX5XoXoXOXHXJXJXHXGXJXGXGXGXGXsXsXpXrXrXwX.X%.wX%.7 >.@ 4 z g ;.p j ;.0 - 0 B A.o.P.b.` R.Q.K 0.m A H H H H F Y Q R Q _ I G I I ~ =.^ ^ '  . ...X.X.F.@.$.#.#.+.+.+.#.#.#.#.#.#.%.%.#.#.|.$X$X:.d.!.1XkXxXCXAXAXmXtXtXyX3X;XOXOXzXnXL x.L Y +.#.+.GXGX6.4.t C.V.V.Q.Q.Q.CXHXKXHXBXnXtX8XzX0XN.hXK N H R R H R ) E E R ) R ) E E [ G._.F.F.F.@.@.@.F.@.@.@.$.$.#.%.%.%.|.|.%X&X&XwX$X$X$X|..X$Xb.u z , < 4 9 , X o O CXmXSXPXPXPXAX9XA.Y.w L q n H j.S.G.^.,X<X0XnXnXmXnXBXnXBXmXw.w.w.!.'.!.[.(.(.{.kXmXnXNXnX",
"mXmXBXNXnXyX9X8X9X8X9XY.Y.HXHXHXJXJXJXGXJXGXGXMXsXpXrXrXwXwX$X%.%..XJ k # < i < < p p -.0 - 0 - b E.OXE.P.] S 8.Z T w.E E H H H Y } R W Q I U G I ~ ~ ~ ~ ^ ^  . .X.X.@.@.@.#.@.#.+.#.+.#.#.#.#.#.#.#.%.%.&X$XrX; j 4.[.kXxXZXCXCXmX5X8X8X8X2XoX9X9Xu.0.q V ` H.|.#.|.JXsXz t.i.V.qXkX(.Q.CXKXHXKXBXnXtXU nXV qXZ.Q Y ) ` H ) E R R R ) E E ) ) [ [ G._.F.F.F.@.@.@.@.O.@.+.$.$.$.%.%.%.|..XwX&XrXwX&X&XwX&X|.O.#.4 z 6 u y o o . X O CXCXAXSXSXKXnX;XY.D.t x.q Z w.j.v.S.^.,X<X0XzXnXnXmXNXnXnXnXnXq.6.!.!.[.!.!.!.{.{.mXnXNXmX",
"1XnXnX7X8X7X7X7X8X9X9XY.BXHXGXHXJXJXJXHXGXGXGXsXsXpXrXrXwX&X&X.X%.wXXXi >., @ + > 2 u p b v - 0 0 N _ A.Y.m P y.L 0.g.g.g.w.) ) R W ` ` } I U I =.=.=.~ ^ ^ ' ^  . .X.X.@.#.#.@.+.#.+.#.+.#.#.#.#.#.#.#.%.wX&XwXuX3.>.>.jXvXCXZXZXBX5X8X8X8X=XY.9XzXT n.r Z ` F.|.|.|.JXGX9.z u q.!.qX!.V.SXHXHXHXHXnXE.nX9XZ.cXu.u.Y R H ) ) H R E R E R ) E [ E [ G._.F.@.@.@.X.@.@.X.O.+.+.$.#.$.%.|.|..XwXwXwXwX&XwXwXwX&XwX$XE.7 i , @ . @ . o o CXCXSXSXPXPX0Xo.Y.Z.A q r H T g.v.S./.^.,X0XzXnXnXnXmXBXnXNXnXmXq.[.!.B.B.B.[.!.{.kXmXHXzX",
"!.zX<X7X7X7X7X9X7X8X9XNXHXHXHXHXLXHXJXHXGXGXMXsXpXpXrXwXwX&X$X$X%.#.K.J j . @ @ # < s C b b b b b N m E.P.t 6.L w.k.h.k.j.g.g.) ) R E ) ` I G G G =.=.~ ^ ' ^  . . . .X.X.#.@.#.+.+.#.+.+.+.#.+.#.#.#.#.|.rXwXwXsX- z z z bXZXCXvXBX3X7X5X:X:X_ 0XT 0.r r K g.F.%.|.|.|.GXNX>.5.i p.V.N.N.CXHXKXKXBX=XT.nX- V.y.w.g.H R E E R R E R R ) ) E H ) [ E F.F...@...X.X.@.@.O.X.+.+.H.%.H.|.|..X$X%X&XwXwXwXrXrXrXrX$XeX+.< j . . @ @ o o O CXZXSXPXPXZXzX~.#X4 8.9 n A w.g.k.S.).^.(.1X9XzXnXmXmXNXnXnXnXnXnXkXC.!.B.B.M.C.C.V.(.7XxX",
"N.v.-X~.-X0X7X0X9X9XBXNXNXGXMXNXJXJXJXGXGXGXsXaXpXrXrXwX&X&X$X.X|.%.$X- 7 >.. @ # > y -.b b b b N B N /.T S q.6.l.n.N.v.N.k.k.j.j.g.) E R R F ) ~.~.OXoXY.OXOX@X~.=XY.J.@.+.@.#.#.+.+.#.#.+.+.#.#.#.#.#.|.wXpXwXsXtX5.z 7 5.FXDXZXAX:X3X;X7XA.9X0X8.n.e Z Z g.J.|.|.|.%.GXGXq.z # z e.N.n.AXKXBXnX:X=XyX9XM.C.0.q.h.w.R E R E H R R E R H E [ ` E [ A.F.I.^.;X;X-X;X=X;X2X4XiX5X%.K. X$X&X&X&XwXwXwXrXrXpXpXpXwX&.|.,.6 j . @ @ o o @ CXSXPXSXSXmXR D.W.a q q V A w.0.k.v.).^.(.1XkXzXzXnXnXnXnXyXyXyXyXnX{.C.B.C.C.gXC.m.q.~.1X",
"N.v.(.,X-X-X0X0X0XBXnXNXNXNXNXNXMXGXHXHXGXMXaXuXrXrXwXwX&X&X&X.X.X&.#.|.,.l < o # , y J B B B F F N U.` r Q 8 L B.B.N.B.!.N.v.k.j.k.v.` ) ) =XT.~.T.Y.OXOXOXOX@X@X;X:X2X3XL.@.@.$.$.$.+.#.#.+.#.#.#.#.#.|.wXrXrXeXGXb z k u 5.fXDXmX:X=X7XT.] 9XL x.q r Z A g.I.|.|.|.%.%.GXNXz z < :.e.n.ZXHXnX0X8X;XnXu.V.0.0.k.w.w.R H R ) H R E E ) E ) ` E E [ {.^.~.=X=X=XOX=X@X;X;X2X5XtXuXMX+X%XwXeXwXeXrXsXsXMXGXsXsXrX#.wX+.< g @ + + @ O + AXSXPXPXCX<X:Xc.r 0.* r A A w.q.k.v.)./.^.1X1XzXzXnXzXzX9XyXyXyXyXyXnX{.C.hXgX`.M.l.l.v.(.",
"N.N.).^.<X,X<X<XnX9XyXnXNXNXiXNXGXHXGXHXMXNXaXuXrXwXwX&X&X$X$X$XrX.X%.&X$.7 z @ + 2 4 :.F N F H F S.G.m Z v.8 e A !.[.!.(.[.W.W.W.S.A.j.~.^.~.T.T.T.T.OXoXOXoX@X@X@X;X;X2X2X@X$.$.H.H.$.$.%.$.+.#.#.#.#..XwXrXsXeXaXrX4.z 6 >.5.fXmX;X7X=Xo.9X0X8.x.w S K H g.I.|.|.|.|.%.NXJXs.z @ 6 j 1.ZXnX7XzX3X7XzXN.C.8.0.k.w.H E E E E E R E H E H E H ) _.).(.^.-X=XOX~.=XOXOX@X2X2X4XtXiXiXJX4XeXtXuXaXMXGXGXJXGXGXpX%.#.wX+XQ < z + # + + > SXSXPXAXzXR.A.L K 0 e T V ,.w.7.g.x.N.Q.(.(.,XzXxXzXzX9XnX9XyX9XyXyXyXnXhXgXC.C.n.m.l.C.W.",
"N.N./.,X<X0X<XzXzXyX9XyXnXaXNXNXMXHXHXHXHXNXNXuXtX5X4X%X%X.X&XrXwX%X%.#.|.K z 2.5 4 6 3.R Y R G Q Y.` r 0.q r Z N N N.{.{.{.(.(.(.).)./.(.^.^.~.T.OXY.Y.Y.oXoXoXOX@X;X;X;X2X2X%X$.H.H.H.K.|.L.$.$.$.$.$.|.wXwXpXsXeXGX! z 7 l >.5.g.1X-XJ.R 9XL h.q r Z T A g.~.$X|..X|.%.#.GXGXz l # l k DX7X9X9X;XnXz.B.0.w.k.h.w.T E R E H E E R H E R H H G.^.~.<X-X~.~.T.T.OXOXOX@X;X2X8XuXuXaXNXLXaXNXNXGXJXJXGXJXJX$X|.|.|.+.O.#.4 g # < > > , SXPXPXmXnX:Xc.w z.0 n w.g.H 6.w.q.h.k.W.!./.(.xXzXzXzXzXnXnXyXyXyXyXyXuXnXhX'.M.B.M.n.!.V.",
"B.Q.(.(.1X0XzX9X9XnX9XyXiXnXNXNXBXGXHXHXHXHXMXNXaXeX4X4X%XpXrXwX4X%X.X%.wXO.6 5.4 7 d 3.[ [ ` R ;XJ.= V q.n A H H H H A hXjXlXkX{.(.(.(.(.^.,X,X~.~.T.Y.Y.oXoXoXoXOX@X@X;X;X2X2X;X$.H.L. X X XH.%.%.$.%.%.wXwXrXsXrXsX&Xz z 7 j ;.g.<XT.] 8X9X0.n.r S A L T x.=X$X%.%..X|.#.GXGX5.z . < k bX0X9X8X] zXn.C.0.q.h.g.w.T E E H H R R Y E H E ) G./.U.~.-X^.=X~.T.T.Y.Y.OX@X;X5XtXtXyXNXNXNXLXHXLXKXLXJXJXGX$X.X$X$X$X|.| $X} 6 >.5 , 2 f SXPXAXnX=XR.t Z 1 r A T g.k.S.w.0.h.l.N.W.!.kXxXlXzXxXzXzXzX9X9XyXiXtXyXiXNXhXB.C.C.N.C.V.",
"W.!./.(.1XxXkX0X0X7XyXyXiXnXNXNXKXHXBXBXBXHXtXtXtX5XeXrXpXpXeXwX4X&X.X%.+.K.3.z 4 i g 2._...] _ Y.c.t 6.V L w.w.w.w.T H H !.lXjXlXlX{.(.(.(.(.<X<X-XT.T.Y. XY.oXoXoX@X;X;X@X;X2X2X@XH.F.J.J.L.K.H.H.H.H.%.4XwXwXpXsXpXsX8.k < l >.w.T.F.I 9X% y.t r V A Z T b.=XwX|.%.|.|.%.#.GXc.z . # f bXzXnX;XnX0XZ.0.q.l.h.h.0.w.W E W w.` W T R T H k./././.G.^.~.~.~.U.I.T.Y.OX@X2XtXyXiXNXiXnXNXKXLXLXIXIXJXwX.X$X&XwXwXwX&X|.wX+.6 z < 2 y p SXPXAX9X:Xc.q 8.8 r A w.g.v.W.^./.h.l.n.N.W.xXlXxXxXxXzXzXnXzXyXyXyXtXyXyXyXnXlXgX[.B.!.!.",
"!.{.(.1XzXzX0X<X<X0XnX9XnXNXLXHXBXHXHXBXBXBX3X3X3XeXsXsXpXpXrXwXwX$X$X|.#.$X{ u 4.g 3.9.G.G...c.@XQ J p.A 0.q.h.q.x.g.E H H k.bXbXlX(.{.{.(.{.1XzX<X7XT.Y.L.L.oXoXOXOXOX;X=X;X;X;X2XL.$.H.$.H.H.H.L.L.K.%..XwXwXuXsXrXaX2Xk k 7 j w.I.] yX9Xq.n.w r Z Z A E V.-X&X|.|.|.%.|.%.GXGXl z . # DXzXzXY.nXV.V.8.p.h.0.w.n.8.w.0.0.g.0.0.W w.W w.(././.).).~./.~.U.~.I.I.I.OX@X5XnXiXnXnXnXNXNXNXKXLXLXHX$X$X&XwXrXMXrXwXeX&X.X|.x.u d.2 d -.PXPXmXOXY.u.a 9 9 Z A T q.k.W.(.{.{.k.l.l.N.lXlXlXxXlXzXxXzXnX9XyXyXtXtXyXiXnXnXkXB.N.!.!.",
"qX(.(.xXkXkX0X1X,X<X0XyXNXHXAXBXBXBXBXBXmXBX7X3XnXHXGXpXtXrXwX&X&X$X$X.X#.eXO.y 2.z 3.e.T.I.E.E.Y.V.,.L 6.x.h.h.h.h.n.g.g.H H ) lXbX[.!.(.{.{.(.(.kX<XnXY.L.L.Y.Y.OXOXOX=X:X:X;X;X2X3XH.H.@.H.H.H.H.H.L.&. X&XwXwXaXsXGXNXq.z < l g.F.G 9X0Xy.r r V Z A T w.!.<X4X.X|.K.%.%.%.%.GXx.z . @ DXzX;XzXzXn.n.q.h.0.y.u.y.T g.0.0.0.0.0.0.z.0.1X(.(.)./.)./.).G.S.G.G.I.I.OX7XnXnXnXNXnXnXNXmXnXPXLXiX+X$X%XrXuXsXsXsXrXrXrX&X%XI 4 4.y s ,.PXKX9XY.F.& d.q r A 6.T 0.h.N.).1XkXxX(.N.B.lXlXlXlXvXmXxXxXxXzXyXtXtXyXyXiXnXnXmX{.!.!.{.",
"kX{.xXkXkXkX1X1X,X,X<XnXnXBXmXBXBXmXBXmXnXBX0XHXJXHXMXpXrXeX&X&X&X$X.X.X%.O.|.a z 2.3.i.-XY.D.OXE.a 8.,.q.m.m.n.N.n.v.k.g.g.g.H F k.{.[.[.!.{.{.{.{.kX(.<XJ.L.Y.Y.Y.T.=XOX;X:X:X:X:X:XY.F.H.F.F.H.H.H.H.K.|..X4XwXrXsXeXGX@Xk k 7 0.' F 9Xp.n.t r V A H w.0.Q.<XtX.X|.|.|.|.|.#.GXGXz j . bX9XOXyXN.Z.8.q.h.x.q.u.6.T E W E W W w.w.w.b.(./.!.(.!.).W.W.).S.S.v.A.I.3XnXnXmXmXBXmXmXmXnXmXKX XoX%X4XwXrXpXpXsXGXMXsXpXeX#.#.5 >.u C <.PXBXyX;Xo.g y.w a C w.q.0.h.l.W.(.(.zXxXzXQ.jXjXjXlXlXvXvXxXxXxXzX8XtXyXiXyX8X9X9XzX{.!.kX",
"kXlXkX{.(.(.{.(.(.!.!.kXmXmXmXmXxXmXmXmXmXBXaXHXHXGXGXuXrX4X&X%X%X.X.X+X|.&..X$ s s.3.e.-XY.#X5XW p u.3.a.B.B.B.B.N.B.N.N.k.j.` H U.G.!.[.{.{.!.(.{.[.[.!.W.G.T.=X:X;X:X:X7X7X7X9X7X7X:XF.F.F.J.J.J.J.L.L.|.|.$X&XeXpXiXsXsXs.k < g.I 9X7Xy.y.w S Z A T 0.Z.1X0X8X$X X X|.%.|.|.| GXs.z   FX:X9XyXm.C.8.q.q.y.q.T 6.T w.E w.T E E E T (.!.(.!.!.!.W.C.Q.V.V.N.N.h.C.CXmXmXmXmXmXmXBXmXmX3X@X2X2X5X5XaXMXsXsXMXMXGXMXMXwX|.$X8.z i g <.KXBX_ oXQ.J P g L A ;.0.q.w.h.N.Q.,XkXxXmX<XkXjXjXjXcXbXxXlXvXlXhX^.-X<X0X7X0X0X9X0XmXkXhX",
"kXkXkX{.{.{.(.(.kXkXzXmXmXmXmXBXBXBXBXBX0XzXzXmXmXnX9X7X3X2X2X2X2X%X+X+X$X%.$X_ C i.m.'.NX3XuX$X,Xs t.a.gXFXFXfXFXFXFXjXbXbXvX{.W.N.W.W.!.{.{.{.{.{.{.{.{.,XU.U.I.U.U.~.T.~.=X-X,X<X<X,XI.J.J.I.I.I.I.I.I.Y.OX;X5XpXaXuX4XMXL t.< <X4XMXm t.2 s ;.;.<.7.r.l.bXCXmX5XtXtX5X4X%X.X%.MXm i.5.C.K.MXY s.2.,.9.,.,.A C V 7.0.w.6.w.6.A 6.w.{.(.!.W.!.N.N.N.N.N.h.x.v.W.0XzXmXAXAXBXBXmXnXnX~.~.7X<XPXKXPXLXKXLXLXIXLXIXIXLXHXO..X<Xa ].9.B.KXNXoX+X1 d y g :.<.;.,.7.7.r.l.m.!.{.lXkXkXkXkXlXlXvXxXCXvXxXlXxXxX1X<X<X<X<X0X0XzXzXzXmX"
};
