/* XPM */
static char *result[] = {
/* columns rows colors chars-per-pixel */
"256 256 256 2 ",
"   c #3E3C76",
".  c #443976",
"X  c #483D77",
"o  c #3E437A",
"O  c #48467C",
"+  c #514F7C",
"@  c #59677D",
"#  c #4D3D88",
"$  c #4D4A8C",
"%  c #4B4786",
"&  c #534B8B",
"*  c #554888",
"=  c #4D5487",
"-  c #54548C",
";  c #58578B",
":  c #4E4B91",
">  c #584C94",
",  c #5C5493",
"<  c #5C5B94",
"1  c #585699",
"2  c #4E5692",
"3  c #624B98",
"4  c #635394",
"5  c #635B94",
"6  c #64549B",
"7  c #635C9B",
"8  c #6B5C9C",
"9  c #6A5898",
"0  c #6B5A95",
"q  c #596689",
"w  c #5C6597",
"e  c #5D758E",
"r  c #64639C",
"t  c #6B639C",
"y  c #676898",
"u  c #72679D",
"i  c #677699",
"p  c #6A7190",
"a  c #5D5BA3",
"s  c #5C56A5",
"d  c #5A4EA5",
"f  c #635CA4",
"g  c #6C5CA2",
"h  c #635DAA",
"j  c #6857A8",
"k  c #735DA8",
"l  c #685AB5",
"z  c #775DB7",
"x  c #684DA6",
"c  c #5C64A5",
"v  c #6563A3",
"b  c #6C64A3",
"n  c #6C6BA4",
"m  c #6463AD",
"M  c #6B64AB",
"N  c #6C6BAB",
"B  c #646AA9",
"V  c #7364A3",
"C  c #736BA4",
"Z  c #7463AB",
"A  c #736CAC",
"S  c #7C6CAC",
"D  c #7A67A7",
"F  c #6B74A7",
"G  c #7472AC",
"H  c #7C73AC",
"J  c #7878A8",
"K  c #6B65B3",
"L  c #656BB2",
"P  c #6B6BB3",
"I  c #6967B7",
"U  c #736CB4",
"Y  c #7C6CB3",
"T  c #7B63BC",
"R  c #736DBB",
"E  c #7866B7",
"W  c #6C74BB",
"Q  c #6C75B6",
"!  c #7473B4",
"~  c #7B74B4",
"^  c #7C7AB4",
"/  c #7473BB",
"(  c #7C74BB",
")  c #7C7BBB",
"_  c #747BB9",
"`  c #796AC4",
"'  c #7C7BC3",
"]  c #7978C6",
"[  c #7473CB",
"{  c #6E5AC6",
"}  c #846BAB",
"|  c #8273AD",
" . c #8476AC",
".. c #836BBC",
"X. c #836BB6",
"o. c #8374B4",
"O. c #847BB4",
"+. c #8374BB",
"@. c #837CBB",
"#. c #8B7CBB",
"$. c #8B75B8",
"%. c #937ABB",
"&. c #9273B5",
"*. c #8056BE",
"=. c #856AC6",
"-. c #8374C3",
";. c #847BC3",
":. c #8B7CC4",
">. c #8374CB",
",. c #837CCB",
"<. c #8B7CCB",
"1. c #8B74C8",
"2. c #957CC6",
"3. c #897AD4",
"4. c #967AD7",
"5. c #8E6BD4",
"6. c #977BE4",
"7. c #9174E7",
"8. c #9A6FE6",
"9. c #6E8499",
"0. c #7A84B9",
"q. c #738AAC",
"w. c #7DA1B1",
"e. c #7D83CB",
"r. c #7A86C5",
"t. c #7D85D3",
"y. c #7B94C8",
"u. c #7E92DF",
"i. c #8B83BC",
"p. c #8586BA",
"a. c #9484BD",
"s. c #8793B9",
"d. c #89A8B9",
"f. c #8483C3",
"g. c #8B83C4",
"h. c #8383CC",
"j. c #8C83CB",
"k. c #898BC9",
"l. c #9384CC",
"z. c #938BCC",
"x. c #9886C6",
"c. c #8A95C8",
"v. c #9695CA",
"b. c #8484D3",
"n. c #8B84D3",
"m. c #848BD4",
"M. c #8B8BD4",
"N. c #8C84DB",
"B. c #858BDC",
"V. c #8C8BDB",
"C. c #8685DA",
"Z. c #938CD3",
"A. c #938CDC",
"S. c #9886D7",
"D. c #8B94D8",
"F. c #9493D4",
"G. c #9B93DB",
"H. c #9897D8",
"J. c #A487CB",
"K. c #A589D7",
"L. c #A597D9",
"P. c #AB95D2",
"I. c #9AA5D8",
"U. c #92ABCD",
"Y. c #A5A7DA",
"T. c #ACADD9",
"R. c #8B8BE4",
"E. c #948BE3",
"W. c #9789E8",
"Q. c #8A95E5",
"!. c #9C94E3",
"~. c #9C93EB",
"^. c #9C9BEC",
"/. c #9597E6",
"(. c #998CF3",
"). c #9C93F4",
"_. c #9D9BF3",
"`. c #9C96F9",
"'. c #8D90F3",
"]. c #A588E9",
"[. c #A29BE4",
"{. c #A49BEB",
"}. c #A796E8",
"|. c #A98BF5",
" X c #B18DFB",
".X c #A39BF4",
"XX c #AB9CF3",
"oX c #A49BFC",
"OX c #AB9CFD",
"+X c #A694F7",
"@X c #B499FB",
"#X c #B49AE7",
"$X c #9AA5E9",
"%X c #9DA6F4",
"&X c #9DB4E8",
"*X c #A7A6E8",
"=X c #B4A7E9",
"-X c #A9B5E7",
";X c #B6B6E8",
":X c #ACA3F3",
">X c #A5A3FD",
",X c #ACA4FD",
"<X c #ACABFE",
"1X c #A6A9F5",
"2X c #B3A4FE",
"3X c #B4ABFE",
"4X c #BBACFF",
"5X c #B6A6F7",
"6X c #ABB3FE",
"7X c #ADBAFE",
"8X c #A6B3F7",
"9X c #B4B3FE",
"0X c #BBB3FF",
"qX c #B3BCFF",
"wX c #BCBBFF",
"eX c #B6B6F3",
"rX c #C3ACFF",
"tX c #C7AAFE",
"yX c #C3B4FF",
"uX c #C4BBFF",
"iX c #CBBCFF",
"pX c #C9B4FC",
"aX c #D5B9FF",
"sX c #C6AFEE",
"dX c #D0A9FA",
"fX c #B5C3FF",
"gX c #BBC4FE",
"hX c #BCCBFF",
"jX c #B8C7F7",
"kX c #B8CBF5",
"lX c #A3C6D9",
"zX c #CCC3FF",
"xX c #C3CBFF",
"cX c #C8C7FE",
"vX c #D3C4FF",
"bX c #D4CBFF",
"nX c #DBCCFF",
"mX c #DCC4FF",
"MX c #C7D5FF",
"NX c #DCD3FF",
"BX c #D7D8FF",
"VX c #C3C4ED",
"CX c #E5CAFF",
"ZX c #E3D3FF",
"AX c #E9D8FF",
"SX c #FDDCFF",
"DX c #F5D8FF",
"FX c #F7C9FF",
"GX c #D9E5FF",
"HX c #D9FAFF",
"JX c #C9E9FF",
"KX c #FFE3FF",
"LX c #F4E2FF",
"PX c #E3FDFF",
"IX c #FFFFFF",
"UX c #E4E5FF",
/* pixels */
"H n b %.i.%.#.%.i.i.i.i.i.i.i.i.i.i.x.g.a.x.g.x.a.v.x.c.J.s.P.v.v.T.T.Y. .p.P.=X=X=X=X=X=X#X=X#X*XT.*XP.[.*X[.*X=.X.} k k 8 8 t t u i i 9.3XMXMXBXBXbXNXnXnXnXNXGXAXGXUXUXmX2XrX4X9X9X9X9X9X9X9X4X4X9X9X6X<X-X:X:X,X:X<X8X8X8X<X8X8X1X8X1X8X8X%X1X>X%X_._.^.'.Q.$X$XV.V.m.b.n.;.+...} k k 3 0 3 3 3 # * 3 &.%.#.i.i.O.i.%.i.#.#.#.#.$.#.O.+.+.~ ~ S o.~ ~ ~ H H H ~ H ~ ~ ^ ~ ^ ~ O.~ @.~ @.) @.@.) O.@.@.@.@.@.@.@.@.@.g.p.@.@.@.@.@.@.;.@.@.) @.p.^ ) 0.p.0.p.s.c.s.c.U.v.U.H.H.v.x.l.2.2.@.o.~ g.2.2.2.x.2.x.x.l.j.z.z.c.z.v.",
"v.b t S %.%.O.O.i. .O.p.O.i.i.i.i.i.i.i.a.p.x.s.s.x.s.a.d.v.d.P.d.P.v.T.Y.#.q.Y.=X#X*X#X=X[.L.=XL.Y.Y.Y.L.[.[.{.#X&.} D D u u u y p i yXhXxXxXxXMXzXzXzXvXzXcXNXGXBXBXUXGXUXAXtXyX0XyXwX9XwX0X9XyXwX9X3X3X<X2X2X<X,X<X1X1X<X6X8X<X8X8X<X1X1X1X1X1X%X.X%X%XQ./.$X/.1X}.L.L.{.E.<.<.+...z x } 3 3 3 * X 3 # 3 * &.i.a.a.i.i.i.#.i.#.#.#.O.$.$.S S Y :.o.o.o.| ~ o.H ^ ~ ^ H O.~ ^ ^ O.@.^ O.@.@.@.@.@.@.@.@.@.@.p.@.@.@.p.@.@.i.;.@.@.i.@.@.p.@.@.p.^ ^ p.p.0.p.s.s.0.c.c.v.c.v.F.F.S.G.z.x.:.@.o.~ G G z.2.2.2.2.2.2.x.x.x.z.z.z.",
"z.p.t C #. .$.O. .O.O.O.O.O.O.O.i.i.i.i.p.i.i.a.a.a.v.a.a.v.v.J.P.U.P.Y.P.Y.#.0.=XY.Y.*XL.L.L.Y.Y.L.P.L.[.!.!.}.~.#XX.} } u u u J yX;XkXgXjXgXuXuXiXiXuXyXuXKXAXBXBXGXUXGXUXUXKXpXuXuXwXwXwXyX0XyX0X9X9XBX3X5X5X:X,X,X<X1X<X<X<X8X<X<X<X8X1X1X1X1X%X%X_.^._.^.$X$X/.{.[.].L.S.S.Z.x.G.] } k 0 3 3 * 3 X # + * * # D g.%.a.i.a.%.%.#.%.X.Y Y S #.:.@.O.o.~ o.o. .O.~ o.| O.O.O.O. .p. . .@.@.@.O.@.@.@.O.@.p.@.p.f.p.;.@.;.p.@.p.@.p.#.@.@.p.@.@.p.O.p.p.p.p.p.s.c.c.c.c.c.U.c.H.F.v.Z.z.g.#.@.~ o.G S n n 2.%.2.%.2.x.2.x.k.z.z.",
"l.z.t t %. .$.$.$. .O.O.O.O.p.#.O.i.O.O.i.i.p.i.s.s.a.s.v.a.d.d.v.P.v.P.Y.L.L.a. .T.#XP.P.L.L.P.P.Y.v.L.K.A.S.A.A.E.}.&.}  . .sX-X-X-XeXeX0XwX0X0X4X9X4X9XcXSXSXBXBXBXGXGXGXUXHXIXiXuXuXuXwXuXuXyXyX4X9XIXMX3X2X5X2X:X<X<X1X<X<X<X1X<X1X>X>X>X%X.X.X%X_.^.$X$X$X$X$X^.}.!.G.K.S.S.n.l.x.%.%.2.z.} 3 3 3 * * * X + X * 4 g.a.i.#.+.+.$.X.} X.2.i.#.o.o.@.$.O.O.O.O.O.O.O.O.O.#.O. .i. .a.#.O.O.@.i.@.#.p.#.f.#.#.#.i.#.f.#.@.i.:.g.@.p.@.p.O.@.p.p.^ p.p.0.p.p.s.s.s.s.c.c.v.D.v.F.z.Z.z.l.g.#.@.~ G G G A C S %.%.a.%.x.g.x.x.z.",
"x.l.p.t $.o.O. .o.O. .O.^ O.O.O.O.p.O.p.p.i.p.p.i.i.s.a.s.a.v.P.v.U.v.P.P.L.L.Y.x.H =XL.L.P.P.v.v.P.v.J.S.Z.S.n.Z.Z.Z.L. .sXT.T.T.*X=X5X=X<X3X2X2X2X,X,X,XSXSXSXMXBXBXGXGXGXUXHXPXIXiXuXcXuXuXvXyXyX0X4XIXIXMX3X3X2X,X5X<X<X:X<X<X1X,X,X,X>X>X>X.X%X_.%X/.$X$X$X$X/.^.^.!.G.S.S.Z.l.j.k.g.k.g.g.&.&.x.i.;.x * # * * # + * , &.$.$.+...X.$.i.2.#.#.#.o.O.#.O.O.%. .i. .a.#.O.i.%.&.a.a.a.a.&.a.a.#.i.a.#.i.i.#.i.#.i.i.i.g.g.i.#.i.i.@.p.p.p.p.i.p.@.p.p.p.p.p.a.s.c.s.c.v.c.v.F.F.z.z.z.l.g.@.O.O.H G J C n n b @.%.%.%.%.2.x.g.",
"x.x.x.G $.o.|  .| H H J H O.^ H J O. .O. . . .p.i.s.p.p.s.s.a.d.P.v.P.P.P.v.P.v.L.J.8 sXv.P.v.P.v.v.T.4.4.x.j.j.j.j.k.a.T.P.P.T.*X*X*X*X*X:X.XXX.XoX.X1XCXSXFXSXBXBXBXBXGXBXGXGXPXPXUXzXcXiXcXdXpXtXyX4XIXIXIXbX4X2X3X2X,X<X5X<X,X<X,X,X:X:X.X.X.X_._.%X$X$X$X$X%X$X_.^././.A.Z.l.M.j.j.k.g.g.g.2.%.#.g.g.i.g.#.%.+.* * + * * X.+...$.2.2.2.i.2.o.$.$.#.O.#.O.%.a.&.a.%.%.a.%.a.a.a.a.&.a.a.a.&.a.a.%.a.%.a.a.a.i.i.2.a.i.#.g.i.i.#.g.i.i.i.i.i.i.i.p.a.i.s.k.s.g.s.x.c.c.v.c.F.F.F.Z.j.j.g.#.@.^ ~ H G C C C C V r #.:.%.x.%.x.",
"0.g.x.x.O.| |  .H H H H J | H  .O.O.O. . .p.p.J p.p.p.s.s.v.a.J.s.P.P.v.v.P.v.P.P.H.v.r sXY.J.v.v.P.T.J.x.<.:.:.i.g.a.v.P.#XP.T.L.[.}.}.{.~.}.~.~.~././.SXSXSXSXNXBXBXBXBXBXNXGXGXGXHXAXzXzXaXtXtXtXyXyXIXIXIXIXcX4X3X3X3X5X,X3X,X5X,X,X>XXX.X:X.X_.^.$X%X%X$X%X%X^.^.^.^.Q./.Z.Z.j.j.j.g.g.f.g.%.:.:.:.;.:.@.#.#.@.f.#.f.x.~ ; 5 +.g.2.:.2.:.%.+.O.#.O.#.#.%.%.a.&.%.a.a.a.a.a.&.a.a.a.a.a.%.J.a.%.a.a.x.%.x.%.x.%.a.%.g.i.a.:.a.i.i.i.g.i.a.i.p.a.p.i.a.s.g.s.a.c.c.k.z.c.v.M.z.z.M.x.g.g.p.@.^ H H G G n C n b u 8 ^ ^ ^ O.^ ",
"~ ^ ~ o.D x.x.g.p.O.H H H J H J J  .J J  . . .p. .p.p.s.a.s.v.d.d.a.v.v.J.v.J.v.v.J.v.J.p v.T.J.s.v.4.2.%.#.#.i.i.p.p.p.#XP.#XP.K.G.G.S.E.E.E.A.E.A.G.FXFXFXFXSXDXbXMXBXBXBXNXNXAXBXGXHXBXCXpXdXpXpXtXyXIXIXIXIXIXzX4X3X3X3X3X3X<X5X5X,X2X:X:XXXXX:X_.$X%X$X_.$X_._.^._./.$X/./.V.j.h.g.f.f.g.;.2.:.@.;.@.+.-.@.@.@.#.@.@.@.:.2.2.$.> Z x.#.:.$.+.$.$.#.#.#.%.a.a.a.J.a.a.a.J.a.J.a.J.J.a.J.J.%.x.x.J.a.x.a.a.J.x.x.2.x.%.%.x.a.2.a.g.a.a.a.a.a.a.a.x.s.g.a.a.x.x.g.x.k.z.z.c.z.z.z.j.M.g.g.:.@.O.^ ! J G G n u b V u t ! ~ ^ ^ ",
"~ ~ ~ ~ u a.a.J.x.v.a.v.v.U.v.a. .J  .J J  . . .J p.q.s.a.s.s.x.J.v.P.a.J.v.v.J.x.v.x.x.v.q.%.T.a.a.2.2.%.#.$.p. .q.0.0.J P.#XK.S.S.S.Z.4.n.n.n.l.M.U.DXFXSXFXFXSXbXbXBXBXbXBXNXNXNXBXGXUXpXpXtXpXtXtXyXPXIXIXIXIXIXiX4X9X4X4X4X3X3X3X5X5X,X:X:XXX{.$X_._.$X^._._.%X^.'._./.$XQ.$XC.h.f.h.;.;.-.;.-.-.+.+.+.+.+.+.+.@.@.@.;.:.:.X.( X.6 4 3 4 7 $.$.$.#.%.g.%.x.a.a.a.J.x.J.2.J.x.J.J.2.2.J.J.J.J.J.J.J.&.J.J.J.2.J.J.%.J.%.J.%.x.a.a.x.a.a.a.a.a.a.a.a.J.J.2.2.g.i.x.k.l.g.l.l.j.j.j.g.g.g.@.) p.^ ^ G G J C n C u u 8 8 H ~ ~ ",
"A U S U y y x.a.a.x.v.v.v.v.v.U.v.Y.I.Y.I.v.s.J  .p.p.s.s.s.a.v.v.a.v.v.x.v.x.x.x.x.v.a.x.a.s.~ sXJ.2.%.%.&.H i q.J q.0.s.J K.4.S.4.2.j.<.h.<.f.f.k.ZXFXFXFXFXFXFXbXbXMXbXbXbXbXNXNXNXBXGXpXaXdXdXpXtXyXUXPXPXPXPXPXPXcX0X0X0X4X4X4X5X3X5X5X5X:X:X.X_.^._._..X^./._._.$X/.$X/.$X$X$X1.r.;.;.' ( ] +.( ( ( ( ( ( ( +.+.+.+.@.+.X.+.X.X.o.Y 4 4 6 4 < $.#.#.%.%.%.%.J.2.2.J.l.J.J.J.J.J.J.P.2.J.J.J.J.J.J.J.J.J.J.%.J.J.2.%.J.a.J.%.a.x.a.a.J.a.a.a.J.a.J.a.2.2.2.x.x.2.g.g.l.j.j.j.j.:.j.:.;.;.p.^ ^ ^ G J F J G C V V u 8 8 A A ",
"A A A A y y a.a.a.J.a.a.v.v.v.P.v.Y.P.I.Y.Y.Y.Y.T.T.&XT.I.s.a.s.a.a.a.v.x.x.x.x.g.a.i.a.i.s.i.s.J sX&.%.D i C J F q._ 0.0.f.$.4.2.<.1.;.@.@.;.p.p.lXCXFXFXFXFXFXFXbXbXMXMXvXbXbXnXnXNXNXBXtXpXdXdXpXpXtXAXAXGXUXUXUXGXUXuXyXyX0X0X4X4X3X5X3X5X<X^._._._..X^.)._._._._.$X%X$X$X$X$X$X$X&.-.-.] ( R ( ( R Y Y ~ ~ ~ ~ o.o.@.X.X.X.( Y ~ } X.+.4 4 4 0 0 5 Z %.:.2.2.2.J.2.2.J.4.J.S.J.J.J.J.P.J.4.J.J.J.J.J.J.J.J.J.J.J.2.%.J.%.J.%.J.a.J.J.a.J.J.J.x.J.a.%.J.&.2.2.2.:.2.2.:.<.:.:.1.1.;.;.;.@.@.^ ^ J ^ J G G J J n C u u 8 8 V ",
"V b b C t 0 5 a.J.a.v.v.v.v.v.U.U.v.I.I.Y.I.Y.I.T.U.T.T.;X;XlX;XkXkX;XP.x.a.a.a.a.a.i.i.a.i.i.a.s.y } J u J J F G ^ ^ _ ) @.;. .2.+.#.$.o.O.^ ^ p.CXCXCXCXCXCXFXFXCXzXcXbXvXvXvXvXvXbXbXNXtXdXpXpXtXtXyXAXAXZXUXUXUXAXUXAXfXfXwXfXfXgXgXfXfXhXfX.X{.{.+X^..X^.^.^._.^./.$X$X$X$X1X$X*X1Xx.( R ( ! Y Y ! U U A Y ~ ~ Y @.+.+.X.~ } ~ X.Y o.} X.g 5 9 8 8 t u r x.2.2.x.2.J.2.S.J.4.J.K.4.J.4.K.P.J.J.J.J.J.J.J.J.J.J.J.J.J.%.J.J.J.x.J.a.x.J.J.a.2.J.J.%.J.%.J.2.%.2.:.:.:.1.:.1.:.:.-.:.;.+.( ) ( ^ ^ ^ ^ G J J C S C V u 8 8 8 ",
"9 b g b V y y S a.a.a.J.a.v.v.v.U.H.I.Y.I.I.Y.Y.Y.Y.T.&X-XkX;XkXkXkXVXMXxXVXVXcX;XT.a.a.i.p.i.s.s.2.sXJ D H J H G ~ ! ~ / ` ` ] Y ..o.| J  .J J vXmXmXCXaXFXFXFXFXCXcXcXzXzXzXzXvXvXvXbXbXaXdXtXdXdXpXtXZXZXZXNXZXZXAXAXgXqXfXfXqXgXfXgXgXgXfXgXfX{..X{.{.+X^.+X^.^.^.$X$X*X$X*X$X1X*X1X1XG.( R U U U A A A A U U S ~ +.o.+.~ Y ~ Y o.o.o.X.X.o.#.t t u u u C u t 2.2.l.4.l.4.J.J.4.K.4.J.K.K.2.J.J.K.K.J.#XJ.J.J.J.J.J.J.J.J.J.J.J.J.J.J.x.J.x.J.a.2.J.2.J.&.2.2.:.%.1.%.1.1.$.:...$.1...+.+.( ~ ( ~ ! G J ^ F G J S V D 8 8 0 ",
"9 5 8 t t y y y J.J.a.a.v.a.v.v.v.Y.v.Y.v.Y.I.Y.Y.T.T.-X;XlXlXkXkXVXkXVXxXxXcXcXcXbXvXVXvXVXsXT.v.a.T.VX| | S H G U U R R R ` R ` E }  . . .J p.vXmXaXCXFXaXaXFXCXFXuXcXzXuXiXiXiXiXiXvXvXaXtXtXtXtXtXtXZXZXZXZXZXZXNXnXqXqXqXqXgXqXqXfXfXfXfXqXqXqX{..XXX[.{.{..X^.{.^.*X%X&X1X-X1X8X1X1X1X/.K U U K A N Z A A A ~ o.+.X.o.o.o.~ } H Y Y Y ~ X.Y +.u u u u } C D | S Y 4.2.l.2.J.4.4.J.4.4.K.4.J.K.K.J.J.J.J.#XJ.#XJ.J.P.J.J.J.J.J.a.J.J.J.J.J.J.J.J.2.J.2.2.2.2.%.1.%.$.&.%...+.$.X...o.X.Y Y ~ ~ ~ ! ^ G G _ G G A C D 8 8 u ",
"0 5 0 8 t y p u p %.J.a.v.v.v.v.H.v.v.Y.Y.Y.Y.I.I.T.T.lXlX-X;XlXkXVXVXMXMXcXcXbXbXvXcXcXvXVXaXzXuXI.P.bXzX&.} S Y E U K I I I l I I V } J  .p vXvXvXmXmXmXFXaXCXCXFXyXuXuXuXuXuXiXiXiXiXiXvXtXtXtXtXpXtXCXNXNXZXZXNXZX<X9X6XqXqXqXqXqXqXqXqXqXqXqX9X9XXX{.XXXX{.{.{.*X%X%X%X1X1X8X8X1X1X1X1X1X1XK M M Z N M N A H o.o.o.o.} ~ | ~ H ~ ~ ~ o.o.X.Y o.X.D C D H D | | | } | n 2.4.4.4.2.4.2.J.4.J.K.J.8.P.J.#XJ.P.#XJ.J.#XJ.P.J.J.J.J.J.J.J.J.J.J.J.J.J.2.J.&.J.2.%.%.&.1.1.$.$.$.$.&.X...X.X.Y Y Y U G ~ G ! ! G G S A A A V u 8 ",
"8 y 5 5 0 y u u p %.a.a.a.a.a.v.v.v.v.v.I.v.I.I.T.I.T.&XT.-XkXkXkXkXkXJXcXMXbXMXbXcXbXvXzXiXVXiXsX=Xx.bXzXiX$.X.Z Z Z l l h l h h m v 0  .p d.iXaXvXaXaXmXaXmXCXmXCXiXyXwXuXuXuXuXpXiXiXiXcXtXrXtXtXtXtXNXnXCXnXZXZX<X<X<X3X6X6X6XqX6X9X9X9XqX9X9X9X9X6XXX*XXX{.{.:XXX*X*X:X*X8X1X8X8X1X8X1X,X1X1XZ M M M g A H | | o.o.o.o.o.~ | ~ H ~ ~ ~ ~ ~ ( o.+.O.i.| | | | } } o.o.X.o.G 2.2.4.2.2.4.4.J.2.4.K.2.J.J.#XP.J.#XP.P.P.J.P.J.J.J.J.J.J.J.J.J.J.J.J.2.8.J.&.&.2.%.2.&.&.&.1.&.X.X.X.&.} X.E } S S S A U G A ! G A A A V V V 8 ",
"r y 5 5 5 F y i y w a.a.a.a.v.d.P.v.U.P.U.v.Y.I.I.Y.T.T.&XlXlXkXkXkXxXxXcXMXMXcXcXbXbXzXvXzXiXVXcXuXi.vXzXzXwXwXk k n b h r f f p t y p 5  .uXiXiXiXaXaXaXaXaXaXmXCXCX0XwXyXwXyXyXuXuXuXiXuXtXtXtXtXtXtXnXnXCXZXnX0X,X:X,X<X<X<X6X3X6X3X6X<X9X<X<X6X<X6X<X:X:X:X:X:X:X:X1X*X:X8X<X8X6X<X<X8X<X<X1X>XD g 8 D | | | | o.o.o.o.Y o.o.G ~ ~ ~ ~ ~ ~ ^ ~ +.) +.@.o.$.$.X.X.$.$.X.o.o.o.~ +.2.4.2.4.l.2.K.J.S.J.L.K.L.#XK.P.K.P.P.J.P.J.J.J.J.#XJ.J.J.J.J.J.J.2.J.2.J.2.&.&.&.&.$.$.$.&.*.&.} } } } } S S Z Z D V A A A A N A N b b g ",
"t 5 y r y y n n n y %.%.a.a.a.a.v.a.a.P.v.P.P.v.I.Y.I.T.T.-X-XkXkXkXkXhXxXMXcXcXcXbXzXzXzXzXzXiXuXVXp.vXvXVXeXVXjX=XP.v.P.P.P.T.P.T.U.P.U.T.uXpXpXiXiXaXaXaXaXaXaXaXaX0X9X9X0X0X0X0XpXuXuXuXtXtXrXtXrXpXnXnXnXnXnX:X:X:X:X,X1X:X<X<X3X<X<X2X<X<X<X<X<X<X<X<X:XXX:X:X:X:X:X5X<X1X5X<X<X6X<X<X<X<X<X<X1X&.J | H | | | X.o.} o.X.~ Y ~ o.~ H ^ ~ ~ ~ ^ ~ O.O.+.O.i.$.$.$.$.X.$.X.X.+.~ +.) 0.2.2.2.2.4.S.x.G.J.L.K.P.K.K.#X#XK.J.#XJ.#XJ.K.J.J.J.J.J.J.4.J.J.2.J.&.2.2.2.2.$.&.$.o.&.&.} &.} } } } D D D S k } Z S A A A Z b b b b ",
"t r y y F n n F n i y %.a.a.a.a.v.v.v.v.v.v.v.L.Y.L.L.I.T.-X-X-X-XkXjXjXhXxXcXcXcXcXzXzXiXzXiXuXuXuXI.iXzXuXwXeXuXeXP.P.P.P.T.P.P.T.=X;XsXyXyXpXuXpXpXpXaXaXaXaXaXaXaXyX0X9X9X9X0X0XwXpXuXpX@XtXrXrXrXtXnXnXnXCXXXXXXXXX>XXX,X>X,X,X,X,X,X2X,X,X,X,X<X1X<X8X1X5X5X:X1X5X5X8X8X5X8X3X6X<X6X<X6X<X6X%X<X$XD | | | } } X.} X.o.} ~ } ~ H ~ ! H ^ ^ ~ ^ ^ ) ) @.@.@.x.$.$...$.+.X.+.$.~ +.) @.p.r.2.2.x.x.K.G.J.K.L.P.}.K.K.K.#XJ.K.J.J.K.J.K.J.J.K.J.K.J.J.J.J.J.J.%.%.%.&.%.&.%.&.&.} *.} } } } } k } D D k k 0 } Z N Z n b b b t ",
"t y t F n F n i F y F t a.a.a.a.a.v.J.v.P.v.P.v.v.H.v.Y.I.Y.Y.-X-X-XjXeXgXgXgXxXcXcXcXzXuXuXuXuXsXeX-XP.cXuXeXeXeXeX;Xv.T.P.T.T.T.T.;X=X;XsX0XyXyXpXpXpXdXpXdXaXdXaXaX4X9X4X9X0X0XwXyXyXuXuXXXrXrXrX@XpXnXnXnX:X{..XXXXXXX*X:X>X:X>X:X>X>X>X,X:X>X:X>X>X1X8X8X8X5X5X5X5X5X5X5X3X5X3X3X3X<X<X<X<X<X<X<X<XD | S S S | Y o.} Y } Y ~ S o.~ ~ ^ ^ ~ ^ ^ ^ ) ) ) @.;.;.g.$.1.&.=.+.$.+.+.+.@.@.;.f.f.x.J.x.l.x.v.S.K.K.K.#X#XK.K.K.K.#XJ.J.K.J.K.J.J.J.J.2.J.J.&.2.&.2.2.%.2.$.&.&. .} &.&.} } } } } } D } k } 9 } } V Z V b b b b t ",
"t u t F F F n n y F i y t i.a.a.a.a.x.v.v.v.J.v.H.v.L.L.H.Y.I.*X-X*X8XeXeXfXwXgXqXwXuXwXuXwXwXwXjXeXeXk.uXeXeXeXeXeXeXG.d.P.T.T.Y.=X=XsXeX4X0XrXrXyXyXyXpXtXpXpXaXaXaXaX0X9X9X0X9XwX0XuXpX@XXX:XtXtXrXpXbXnXzX{..X{..XXXXX:XXX:X>X:X:X:XXX:XXX:X:X>X*X1X*X8X1X8X8X5X5X5X2X3X3X3X3X3X3X9X<X<X<X<X6X<X<X8XS.S } Y | Y X.} Y Y ~ } S ~ | H ~ ^  .^ ^ ) ^ ) ) 0.' p.@.;.;.x.$.1.X.+.$.+.+.#.@.;.f.f.k.k.c.D.K.S.v.K.K.K.].L.].K.K.K.K.J.K.J.K.J.J.J.4.J.J.J.2.J.2.2.2.2.&.2.&.&.%.%.&.X.&.} } } } } } } } } 3 } } + V V V u V b t t ",
"t t F F F n F n F F n F 5 y w y a.a.v.v.v.J.v.J.J.v.v.S.H.H.H.L.Y.*X$X-X1X6X6X9X9X9XqXwX9X0XeX0XeXeXeXM.uXeXeXeX;XeXeX-XP.T.P.T.=X=X=X=X5X5X4X4X4X4XrXyXtXpXtXpXdXdXpXaX5X0X5X9X0X0XwXuXuX@X#X@XXX2X4XuXnXvX^.{.{.{.{.{.{.{.{.{.{.XX.XXX:XXX:XXXXX:XXX*X1X*X1X1X8X8X3X3X3X3X5X4X3X3X3X3X3X3X<X6X<X8X6X6X6XS S | S } Y Y Y } } Y | Y S o.| H O. .^ O.^ ^ ) @.@.0.f.p.f.g.v.1.1.$.+.+.+.:.#.;.g.g.f.k.M.D.D.D.J.K.K.K.K.K.K.K.K.K.K.K.K.J.J.8.J.K.J.J.J.4.J.2.J.2.%.%.2.&.%.%.&.&.&.&.&.&.&.} } } } } } 0 0 } } 0 D u D k b V u n ",
"t F C F n F F n F n F i 5 q w r p y n G v.x.J.v.v.J.x.F.v.F.F.H.H./.^.*X*X1X1X1X1X<X<X9XeX3X9XeXeXeX-XY.eX;X-XeXeXeXeX;XH.*X=XL.*X=X=X5X5X5X3X4X4X4X4X4XrXrXtXtXtXpXdXaX4X5X4X0X9XwX0XuXyXXXXXXXXX}.4XpXbX^.~.{.{.{.{.{.{.*X{.:XXX{.XXXX:XXXXX{.:X{.1XXX*X1X1X1X1X1X8X3X4X3X3X3X3X4X3X3X3X3X3X<X6X<X6X6X6X%.S S } Y } Y Y } ~ | H | H o. .O. .#.O.O.O.p.p.0.) @.f.f.f.f.f.k.1.$.1.+.1.#.:.:.:.g.k.M.M.c.U.Q.H.$Xv.K.K.K.K.K.K.4.K.J.J.8.8.J.J.8.P.2.P.4.2.J.J.2.J.2.2.%.%.%.%.%.&.%.&.&.}  .&.} } } } } } 3 } } k u V u V u u t ",
"C G J F F n G F F n F y < y r r r r y t t y J a.x.J.x.x.x.x.z.z.F.G.H.H.H.^.{.*X1X*X1X:X:X1X1X:X:X=X:X-X5X-X5X-X-X=X-X;XeXL.L.*X*X#X:X:X=X5X5X5X4X4X4XrX4XrXrXyXtXtXtXpXeX4XeX9X9XwX0X0XrXXXXX#XXX}.}.iX:X!.{.!.{.{.{.{.{.{.{.XX#X:X*XXX{.{.:X{.{.{.{.*X.X*X*X1X1X1X8X1X3X2X4X4X2X3X4X2X3X3X<X<X<X6X6X6X6X1XG | S | | S | S | S | | | |  .O.O.O.O.O.#.@.@.O.p.r.0.0.f.f.p.g.k.K.#.$.1.#.#.2.g.g.x.j.Z.M.F.D.H.D.I.*X{.4.K.4.K.J.4.8.J.J.2.J.J.J.4.2.2.J.2.2.2.2.&.2.2.%.%.%.%.%.%.&.&. .&.&.&. .} } } } } } } 0 D D u k u D 8 V ",
"C n J n F F C F F F F r 5 q y r w y v i v i F i F F ^ x.x.x.x.z.z.Z.Z.H.G.G./.!.[.^.{.*X*X1X*X*X*X*X*X*XH.*X-X*X-X=X-X=X-XG.[.[.*X#X*X:X:X5X5X5X5X4X2X4X2XrXrXrXtXpXpXtXuX0X0X4X9X0XuXuX|.XXXX}.}.}.{.[.!.!.!./.[.[.*X{.{.:XXX*X{.{.XX{.{.XX:X#X*XXX*X{.*X.X1X1X1X1X1X1X1X2X2X3X3X2X4X2X4X2X2X3X<X6X6X6X6XqXS | } S | } S S | |  . .o. .$.O.i. .O.$.O.#.O.@.O.r.f.0.r.f.k.0.k.c.I.:.#.:.2.l.l.l.j.z.Z.Z.F.G.H.H.$X$X$X$X$XJ.S.l.J.J.8.2.2.J.4.J.2.J.2.2.2.2.2.2.2.2.%.J.&.J.&.J.%.&.%.%.&.&.&.&.&.} } } } } } } u } 0 0 } 0 } 0 ",
"C J J F C G G n C F F t 5 y 5 y y v y v y n v F F F F q.q.! i.x.x.x.z.z.z.Z.F.H.G.G.G.!.!.!.!.[.$X!.*X*X*X*X*X*X*X*X*X-X-X5XL.[.}.*XXXXX#X:X:X:X5X5X4X4X2XrX2XrXrXrXtXtXuX4X4XeX9XyX0X0X#X}.}.XX}.{.[.iXyX[.!.*X^.[.{.{.{.{.{.#X*XXXXX*X{.{.{.{..X{.XX{.{.:X{.*X:X*X.X1X1X1X3X2X4XrX2X2X2X2X3X2X3X<X6X6X7X9XP.H | | S | | | | |  . . .O. .#. .p.%.#.#.#.#.#.@.@.p.f.p.r.k.c.k.c.c.F.2.:.2.g.2.x.z.x.z.Z.Z.F.D././.$X$X$X$X%X1XY.2.2.2.2.2.2.2.2.2.4.J.2.2.2.2.2.2.%.2.%.%.%.a.&.a.%.a.&.a.&.&.&.&.} &.} } } 0 } } 0 } } } 0 } u ",
"J C J C C G C G G n G y 5 5 5 y y v v n n t y F F F q.F q.0.0.y.0.p.x.g.x.z.Z.z.Z.F.F.G.G.G.G.G.G.G.G.$XI.H.$XY.*X*X*X*XY.*XG.!.}.[.{.XX:X:X#X5X5X5X2X2XrX2X2XtXrXrXrXtXyX4X4X9X9X9X4X9X}.}.}.}.XX[.uXyX5X0X!.^./.*X*X{.*X{.{.}.XX{.{.{.{.XX{.{.XX{.{.{.{.{.{.{.{.1X_.1X.X%X>X2X2X2X2X2X2X2X2X2X<X<X6X6X6XqXqX| | ~ | | | | | o. .O.O. .i.O.a.&.%.%.%.#.#.@.@.@.r.f.r.k.r.k.k.c.c.c.c.H.g.2.l.l.x.S.S.x.G.G.G.H./.$X$X$X$X%X1X%X$X8XJ.2.2.2.2.2.2.2.2.2.2.2.2.2.2.2.%.2.%.%.%.a.a.%.a.%.&.a.&.&.&.} } } } 0 } } } } 0 0 } u u } ",
"C C S J H C J G C G N t 5 t y y t y t t r n n n n F F q.0.q.0.0.k.0.k.c.' g.x.x.x.z.z.z.z.Z.F.G.F.H.H.H./.H.I.$XI.$XY.I.$X*XeX!.L.[.{.{.{.:X:X5X:X@X5X@XrX2XrX@X2XtX@XrXrX3X4X3X3X3X9X5X|.}.}.XX}.=X9X4X3X3X3X!.[.^.[.{.#X{.XX+X{.{.}..X{.{..X}.}.{.{.{.{.{.{.{.{.{.{.^.{._.^.:X4X2X2X2X2X2X2X2X,X,X<X6X6X7X7X .} } | o.o.| O. . . .#.O.O.%.&.i.#.#.#.#.:.#.#.@.@.p.p.f.k.y.k.c.D.c.H.F.I.x.x.K.K.x.G.K.S.G.G.!.H.H./.$X$X$X&X%X1X*X5XtXP.:.:.2.2.%.2.2.%.2.%.2.%.%.2.%.a.%.a.%.%.J.%.%.a.&.&.&.&.&.&.} &.} } } } } } } u } } u ",
" .J J J H H S C J C A t y y u u t t u t V n n n n F F G _ 0.0.0.r.k.r.k.k.m.k.e.i.x.x.z.x.x.z.z.Z.z.z.Z.F.F.F.H.H.Y.H.L.Y.Y.[.G.!.}.}.{.{.*X:X:X:XXX5X5X5X2X2XrX2XtXrXtXrX2X4X2X3X<X3X}.].}.}.{.{.3X3X4X2X2X2X:X!.*X^.{.{.{.{.{.{.{.{.{.{.].{.{.[.{.{.}.{.^.{.{.{.[.{.^.^.~.^._._.,X2X2X5X@X2X2X2X,X<X<X6X7X7X<Xo.| | | | O.| O.O.O.%.%.%.i.%.%.#.%.:.%.$.1.$.#.@.;.@.f.r.k.y.c.c.D.D.U.I.I.S.Z.x.K.S.K.G.K.F.G.!.!./.$X$X*X*X%X8X%X%X&X8X8XkXg.%.2.%.%.%.2.2.%.:.%.%.%.%.J.%.a.a.%.x.a.J.%.%.&.&.&.&.&.} } } } } } } } } } } p ",
" . . .J H H S S S A C u 0 t u u u C C V V b V n n N N F F Q _ _ 0.r.r.r.r.k.h.h.h.h.h.) g.x.x.x.x.x.x.z.z.k.v.F.H.H.H.H.H.H.L.1XG.!.[.[.XX#X{.XX:X5X2X:X5X@X2X2X@X2X@X2X2X4X2X2X,X,X,X].}.~.}.}.3X<X<X3X5XXX:X,X{.!.}.{.].{.^.{.].{.~.}.{.^.{.].~.{.~.~.}.~.~.{.~.~.~.].~.~./.E./.^.2X2X2X2X@XXXOX:X,X1X6X6X7X7X .| o.| O.| O.O.O.$.O.i.O.%.#.1.%.#.1.$.%.$.+.#.#.@.@.r.p.k.k.c.c.D.U.D.I.I.I.I.K.K.K.L.G.L.].L.!.L.*X!.^.$X%X$X%X&X8X%X8X8X8X8XfXJ.%.%.%.%.$.2.%.:.%.%.%.%.%.%.%.a.%.2.%.2.%.&.&.&.&.&.&.} &.} } } u J } } }  .",
" . . . .| | | S S C A u u u p u C u C u u C V b V N N N N Q ! _ _ ' ' r.e.e.h.h.b.h.' f.r.;.( x.a.x.x.g.v.g.c.v.v.H.H.L.L.L.H.H.G.}.[.[.}.{.#X:X:XXXXX2X2X5X@XrXrX@X@XrX2X4X,XOX,X>X,X}.].}.}.,X,X>X,X2XXXXXXXXX:X~.^./.^.^.~.].^.].^.~.~.~.].~.].~.~.}.~.].^.~.~.}.~.~.W.~.~.R.E././.2XOX@X@X5X@X:X2X:X>X<X6XqXK.$.o.O.o.o.O.O.@.O.#.#.i.%.%.$.%.%.$.1.$.=.+.+.+.@.@.;.f.f.r.k.c.D.U.D.D.I.$X$X&XP.K.K.K.K.L.K.L.[.!.!.!.$X$X1X1X8X%X8X8X8X8X8X7X7X7X=X%.%.%.%.%.%.%.#.#.%.%.%.%.%.J.%.%.%.&.&.&.&.&.&.&.} } } } } } } J }  . .",
" .J  . . . .| | S S D u u u u u C C D C V V V V b b b Z N N P ! / W _ ] ] ' ] ' ' ' ' ' ' ) ) ) _ _ O.a.a.a.c.s.v.v.v.P.v.v.H.H.*X!.[.}.XX[.XX}.:X:X:X@X5X@X5X@X2X@X@XtX2X2XOXOX.XoX}.K.].E.{.2X>X>X1XXXXXXXXXXXXX.X!.~.~.~.~.~.~.~.~.!.W.!./.~.~.E.!.W.E.E.!.E.E.E.W.!.E.E.E.E.R.R.Q./.@X5X5X@XXX@XXX>X1X<X6X6X9Xo.| o.o.O.o.$.O.#.#.#.#.#.2.$.1.1...$.+...$.+.o.+.@.@.@.f.r.k.y.D.D.D.U.Q.U.$X$X$XL.K.K.L.].L.}.L.[.].[.{.{.$X$X1X-X8X8X8X8X8X8X7X7X7XqXcX2.%.$.%.%.#.%.%.#.%.%.%.%.2.%.%.&.&.&.&.&.} &.} } } } }  . .}  . . .",
"p. . . .#. .o. .| D | u u u J p D H D D D V V V V b V n V M Z P P / R / ] ] ] / ] ] / ' ] _ ) _ ) ) _ ^ _ a.^ s.v.v.v.P.P.v.v.J.v.}.[.}.}.}.{.XX:XXX:X:X@X:X5X5X@X@X@X5X@X5XXXXX.X_.].S.].!.OXOX.X.X%XXX{.+X+X.X{.+X.XW.E.E.W.W.E.E.W.W.W.A.W.E.W.E.E.W.E.E.E.E.W.E.W.S.E.E.4.R.N.R.R.D.R.@X@XXXXX#XXXXX:X>X>X6X6Xo.X.o.o.+.~ O.#.#.@.#.%.:.$.1.&.1.=.......$...o.+.+.@.+.;.f.f.k.k.D.D.D.I.I.$X$X&X1X*X}.K.}.L.#XK.].L.[.}.^.^.$X%X1X8X8X8X8X8X7X8X7X7X7X7X7XfXK.&.&.%.%.%.%.$.%.1.$.1.%.:.1.&.%.$.$.&.$.&.} } }  . .| |  .$. .",
" .p.i.i.O.$.$. . .| H u  .u  .}  .D | S D D D D V V V V b N n N N P P U P R W / ] / / / / / / / _ _ _ _ ^ _ _ ^ @.s.v.P.v.P.J.v.v.*XG.}.~.}.{.}.XXXX:XXX:X@X@X@X5X@X@X@X5X@XOXXX+X{.A.].W.@X:XXX:X*X^.XX{.{.}.{.{.+X{./.R.R.E.W.E.E.E.E.E.W.E.W.E.E.W.R.W.E.N.E.A.E.S.W.R.6.3.R.N.N.B.B.Q.Q.5XXX XXXXXXXXX:X1X1X6X,XX.o.o.~ o.( ~ +.@.+.+.1.1.+.1.X.&.X.$.X.X...X.+.( o.@.@.;.f.k.k.c.D.D.I.Q.I.$X$X$X&X-X#XK.K.K.}.L.}.}.[.[.}.*X*X$X%X8X8X8X8X8X8X7X8X6X7X6X7XqXqX#X$.$.$.$.$.$.$.$.$.$.$.&.1.$.$...+.&.} X.}  .} | }  . . .p.",
"p.a.i.i.a.%.O.&.o.} } } J J  .J | | } } S D D C V C V V V V V C Z A Z N U P U R U R / R / / ! / ! / ! _ _ ! a.0.^ ^ ! ^ #.v.v.v.x.v.!.}.[.}.[.XXXXXX#XXX@X:X@X5XXX@X@X@X@XXX2X+X+XXX].S.[.5XXX:X{.^.^.[.].~.].{.].{.^.].H.R.R.R.E.E.E.E.S.E.E.E.A.S.E.4.S.N.6.N.N.R.4.6.R.4.4.3.3.t.C.B.m.Q.V.XX#X@XXX#XXX.XXX1X1X6XX.o.o.Y X.~ +.+.+.+.=.$.+.+.X.......X.X.X.X.Y X.+.+.+.@.@.;.f.f.k.m.D.D.D.$X/.$X$X%X1X1X}.#X#X}.#XK.L.].}.}.^..X%X1X%X8X8X8X8X7X6X7X7X6X7X7X6X7X7X7XwX%.$.$.$.$.$.$.$.$.$.$.$.$.&.$.&.X.}  .}  .}  . . . .p.",
"i.s.i.a.a.i.%.%.$.$. .p J  . . . . .| | | | } S D D V C V C V V V n N A A A N U U U U U U R U Q ! Q ! ! _ J J a._ _ _ ! ^ 0.! O.v.v.*X!.}.{.{.XX{.{.:X@X:XXXXX@XXX@XXXXXXXXXXX{.}.W.S.W.5XOXXXXX{.*X$X}.~.!.~.!.~.{.].~.~.H.C.N.N.N.N.4.W.N.N.E.R.4.4.R.N.4.R.3.4.3.3.C.3.3.3.3.3.3.] C.t.m.B.V.@XXXXX}.}.}.{.XX1X:X2.X.Y Y Y ( ( Y ( +.+.+.......X.X...X.E X.Y X.Y Y +.+.+.+.;.f.h.h.c.D.D.D.H.D.$X$X$X$X$X%X8X#XK.#X].L.}.}.}.{.{.*X$X%X%X1X8X8X8X8X7X6X8X6X6X6X7X7X7XqX6XqX%...&.X.X.+.X.+.X.X.X.&.X.} } &.} }  . . . . .p.p.",
"p.a.s.a.a.a.a.&.%. .$.J J p. . .O. .$. . .| } } } D D C u C C D C C C C V A A A A A A A U A A U P P P ! Q _ O.a.a.| ! ^ _ 0._ 0.0.r._ [.}.}.}.{.XXXXXX:XXX@X@XXX#XXX@XXXXXXXXX{.{.S.S.:X,X:X:X{.{.$X$X[.].!.!.}.].].^.!.W.G./.C.N.N.N.3.N.N.4.N.4.R.4.3.3.3.3.R.3.3.3.3.3.3.3.>.>.>.3.] t.t.t.u.u.}.XX|.}.}.}.{..X%X^.^.{.!.K.S.:.+.Y X.( ......T ..} X.z X.E S E } Y Y +.o.$.+.:.;.j.k.m.M.D.D.I.$X$X$X$X$X%X&X6XL.#X}.K.#X}.#X}.[.}.^.*X%X1X8X8X6X8X6X8X6X6X8X8X7X7X8X7X7X7X6X7XP.o.o.o.X.X.o.$.o.o.X.X.&.} &.&.}  . .O.p.p.p.",
"s.a.a.a.v.a.J.a.a.$.&.J J p.p.p.a.i.a.&.&. . .} | D | D | u D C C C C C C C C C D C D A Z A Z A A N N ! Q J J a.s.s.i.~ ! ! _ _ _ r.M.}.}.{.}.XX{.XXXXXX:XXX@XXX@X XXXXXXXXX#X:X{.4.XXOXXX:XXX:X$X{.[.S.S.[.!.~.!.~.].!.G./.D.H.3.C.N.N.N.3.N.3.3.3.3.3.3.3.3.3.3.3.3.3.>.5.>.5.>.>.[ ] ] t.t.t.u.u.}.#X}.}.}.}.{.{.*X!.{.[.!.!.E.G.A.M.Z.n.S.l.2.X.z T } z D E E } Y } Y +.+.+.@.:.:.g.g.M.M.D.D.Q.$XQ.$X$X%X%X1X1X#X#X].#X}.K.}.}.}.{.{.%X%X1X%X8X8X8X8X6X8X8X8X8X8X8X6X7X6X7X6X7X6XqXo.o.} Y } X.$.X.&.&.&.&.}  . . . .i.i.p.",
"s.v.v.v.a.v.a.a.a.%.%.q.p.p.s.a.a.a.a.%.%.$.$. . .} | } C D D C D C D C J C C S C J C S C A C C A N A N J F 0.s.a.s.v.x.! Q G _ _ 0.!.[.}.}.[.{.#XXXXXXXXXXXXX@XXX@X#XXX#XXX{.,XXXW.OX:X:X:X:XXX{.*X$XG.A.W.W.!.E.}./.!.E.G.A.F.V.b.,.3.3.N.N.3.3.3.3.3.3.3.3.3.3.3.>.>.>.>.>.[ [ =.[ ` [ [ [ t.t.t.m.}.|.}.].[.}.$X^.{.^.[.!.!.G.G.S.Z.M.M.Z.z.4XE *.S z D z } S E Y X.~ X.+.+.+.#.:.<.j.j.M.M.D.Q.D.$X$X$X$X%X$X%X1X:X#X#X#X}.#X}.}.}.{.{._.1X%X8X%X8X6X8X<X8X8X8X8X8X8X8X6X7X6X6X8X6X8X6Xf.~ X.o.} &.&.$.&.} &. . . . .p.p.p.",
"a.s.v.v.P.v.J.J.J.a.%.p.p.p.p.i.a.x.a.a.a.a.&.$.&. .| | } | | D } J u J D C C J D J D D C D u u C n n n J q.0.a.a.v.d.v.H.! G Q _ G.[.!.}.{.}.XX{.XX{.XXXXXXXXXXXXXXXXXXXX}.XX:X4.:XXX:XOX:X.X*X*X[.*XA.G.G.].!.!.~.E.!.!.G.D.H.D.n.C.3.N.3.3.3.3.3.3.3.3.5.[ >.[ 3.[ >.>.>.` =.` ` ` R R [ [ e.t.t.t.b.}.}.}.}.!.[.[.[.[.!.[.G.E.A.V.M.M.Z.Z.Z.pXz D z D z D z Z E S Y Y o.o.+.+.1.+.:.;.j.j.M.M.D.D.D.Q.$X$X$X$X$X8X%X8X#X].}.}.L.].[.}.{.{..X%X>X%X>X%X8X%X6X%X8X8X8X8X8X8X8X<X6X6X6X6X8X8X8XP.} %.&.&.&.&. . .}  . . . .p.s.",
"d.v.v.P.v.P.v.P.x.x.x.p.p.s.x.v.v.x.x.x.x.a.%.%.#.$.$.| o.} H H D D J D C J  .D J u | }  .u u } u u C O.J q.s.J v.v.U.P.P.H.G ! c.[.[.}.}.}.XX}.}.XX}.XXXXXXXXOXXXXXXXXXXX#XXX}.XX:X:XXX:X.X:X{.^.*X$XS.A.K.E.!.W.!.!.E.!.G.D.D.F.D.b.,.3.3.3.3.3.>.3.>.3.>.>.>.>.>.>.>.>.` ` ` ` ` ` { R ` ` [ [ t.t.t.u.Q.}.!.[.G.^.!.!.].[.E.G.A.M.D.D.c.z.0X0X2.z k Z k D E D E S E } Y X.+...$.$.1.:.:.j.j.M.M.V.D.!./.$X$X$X$X%X%X&X8X1X}.#X].#X].L.}.}.}.^.1X_.%X>X1X1X%X8X8X<X8X8X8X<X8X8X%X8X8X8X8X8X8X8X8X2.&.%.&.&.X.&. . . .p.p.p.s.",
"v.v.v.v.P.v.v.J.P.x.x.p.p.s.s.v.v.v.x.J.J.x.x.a.%.#.$. .o. .o.H  .J J  .| J J |  .J  .C u }  .u J J C  .p.p.p.x.d.v.v.P.P.L.L._ G.!.[.}.}.}.[.XX{.XXXXXXXXXXXXXXXX@X#XXXXXXXXXXXXXXXXX:X:X:X:X1X*X$X*XS.S.W.W.E.!.E.E.G.E.A.A.F.D.F.F.h.3.,.3.,.3.>.>.>.>.>.>.>.` >.[ ` ` =.` ` ` T z ` E I I L W [ [ t.t.t.W.'.D.*X[.}.[.!.!.G.A.A.D.M.F.D.F.9X0X:XD k z D z k z D E } Y X.o...+.1.$.$.:.1.<.<.j.M.M.A.D.Q.D./.$X$X&X%X%X&X8X8X#X#X#X].}.].}.}.{.{._.1X%X%X%X1X%X%X%X%X>X>X%X%X%X<X<X%X8X8X%X8X8X8X8X#.&.&.&.&.} &.&. . .p.p.s.",
"d.v.v.P.v.L.L.L.K.x.x.p.s.c.v.v.J.P.v.v.S.J.J.%.%.%.#.#.$. . .| | |  .J J  . .J | J  . .} J  .J C J J q.q.p.p.p.J.v.v.v.P.}.].F.G.[.}.{.~.XX}.}.XXXX+XXXXXXX+XXX@X+XXXXX#XXXXXXXXXXXXXXX:X.X1X.X^.$X*XW.S.W.S.!.W.A.A./.A.D.H.D.F.D.D.D.3.,.] 3.>.3.>.>.>.>.[ ` =.` ` =.` ` ` T T E z E z K l I I W W [ r.t.t.u.[.[.[.[.!.!.G.E.A.D.D.F.D.F.5X9X9X9Xk z k k k } D D D E Y Y X.( ..$...1.+.1.1.:.<.<.n.M.V.D./.Q.$X$X$X$X%X&X8X8X-X#X#X#XK.#X}.].}.~.^.{._.%X1X%X%X>X%X%X%X%X%X%X%X%X%X%X%X%X%X8X8X1X8XfX$.&.&.$.&. . . . .p.s.s.",
"v.v.P.U.L.H.L.P.L.K.x.s.s.a.v.v.H.v.L.K.P.x.J.x.x.2.%.%.%.$.$.|  . . . .O.H  .O.O. . .0.J  . . . . .p.p.p.i.k.z.s.P.P.P.K.P.].S.G.!.}.[.[.{.XXXX}.XXXXXXXXXXXXXXXXXXXXXXXX}.XX+XXXXXXXXX.X.X{.*X*X^.^.A.W.S.S.W.E.A.E.E.A.V.A.D.M.F.F.m.B.3.] 3.3.>.>.>.] =.=.>.] ` ` ` ( ` ` R T z E l l l K l L L L [ W [ t.r.[.[.[.[.!.!./.G.D.V.k.D.D.U.9X9X9XwX1.k D z k k z k E S E Y X.X.......-.-.$.$.:.:.<.j.n.M.D.H.D.Q.Q.$X$X&X%X%X8X1X6XXX].#X].#XL.}.].}.!.^._._._.%X%X`.%X_.%X`._.`.%X%X%X%X%X8X8X8X8X8X7XxXiX$.&.&.} &. . .p.s.a.",
"v.U.H.H.L.H.L.L.S.v.J.p.s.c.v.v.H.G.H.K.S.v.J.x.x.2.2.%.O.$.$.O.O.O.O.O. .O.$.O.H.L.H S  . . . . . .s.p.p.c.k.c.p.v.L.L.}.].K.6.!.!.[.}.}.XX}.+XXXXX}.XXXXXXXXXX+XXXXX|.XXXXXXXX.XXXXX.X{..X{..X^.^.A.( S.W.S.S.E.N.E.N.A.V.V.V.M.M.D.M.D.D.3.] >.>.>.>.>.>.>.` =.] ` T ` E ` { z z z z z l l j l m I L L [ I.[.[.[.[.!.!.!.G.A.A.D.M.F.D.H.qX3X3X9X!.k k z k z D D z E Y Y Y X.....+.$.1.$.1.1.:.1.<.<.n.n.M.A././.$X$X%X&X%X&X8X8X8X8X].}.].#X].K.}.}.}./.^._._._._._._.^._._.`._.%X%X%X%X&X%X8X8X8XfXwXwX0X@X$.$.$.o.i.p.s.s.",
"c.v.v.L.L.L.L.L.L.K.J.s.c.v.v.L.L.L.L.L.L.K.K.S.J.2.x.%.%.#.i.#.O.O.O.O.f.F.F.H.L.J J H p.O. . . .s.p.k.k.k.k.M.x.p.K.K.K.].K.6.!.}.[.{.{.[.XX{.XXXXXX.X}.XXXXXXXXXXXXXXXXXXXXXXXXXX.X.X+X.X.X{.{.n.>.[ ` N.N.6.N.R.4.R.N.V.M.M.M.m.M.m.B.m.Q.>.>.] >.>.>.` -.>.` ` ] ` T ` E z z z l l j k l j j h m l r.*X[.[.^.[.[.!.E.G.E.A.A.M.c.D.D.8XeX8XeXeX3Xk k k k V z k D Z E Y T X.X.........$.+.=.+.;.1.1.<.3.n.V.V.D.D.$X$X$X%X$X%X8X<X8XqX#X#XK.#XK.].[.!.}.^.^._._._._.^._.^.).'._./._.%X$X%X8X%X8XqX6X9X4X4X3X2X|.%.$. .p.i.s.",
"c.v.F.H.G.L.G.L.K.G.K.s.s.v.F.H.H.L.!.L.K.G.K.v.x.l.x.2.g.a.#.O.p.j.v.F.z.G.z.) H H H H  .O.p.p.p.r.y.k.k.m.M.n.x.z.a.K.#X4.8.4.h.[.}.{.{.{.{.XX}.{.}.XXXXXXXX+XXXXXXXXXXX}.XX|.+X{.+X+X{..X^.^.,.] >.,.` ` 4.R.N.4.N.N.N.M.n.m.m.m.m.b.b.m.m.B.>.3.>.>.=.[ =.` [ ` T ` ` T ` z E z z l l j j j j a N !.$XL.[.[.!.[.!.!.G.E.A.A.M.D.D.c.D.=X3X-X5X5X9XX.k k k z z D D z D E } T ..X.......=.-.&.=.1.:.1.1.<.h.n.M.V.D.Q.Q.$X%X%X%X%X8X8X6X6XXX].].}.L.].}.!.[.^.^.^.^.^.^.^.~.~.^././.$XQ.$X%X%X%X7X9X3X3X2XOXOXOX X|.(.J.p.i.s.",
"s.v.F.G.G.G.G.G.G.K.S.s.c.v.F.F.H.L.L.G.L.L.K.J.K.l.x.x.g.;.z.j.j.z.Z.z.Z.v.$.| | H H H p.i. .i.p.r.k.y.c.c.M.J.K.S.J.J.4.#X8.4.<.!.~.}.}.+X{.+XXXXX+XXX+X+XXXXX+XXX+XXX|.XXXX+X|.+X{.].].{.~.>.] >.] >.] ] ] 3.N.4.3.C.3.b.b.b.b.b.m.b.b.b.b.m.B.,.>.>.1.>.3.R.E.N.n.1.` I ` E ` l k z l j j f j G.Y.[.Y.^.^.[.[.[.!.!./.G.A.A.M.M.c.D.=X<X-XeX5X8X5XM.k k k k Z k z D E E E E X.........X.=.=.-.$...1.1.1.,.<.b.D.D.Q.Q.Q.$X$X&X%X%X8X%X8X8X5X#XL.].L.].[.[.!.!.{.^.^.^.~.^.~./.^./.$X$X$X%X&X8X<X3X2XOX@XOX+X|.(.(.(.6.S.J.a.",
"<.c.H.Z.G.G.G.L.G.S.G.p.z.v.v.F.L.G.L.L.G.K.G.J.S.l.;.f.f.f.k.k.z.M.M.z.Z.#.o.~ ^  .H ^ i.i.s.a.g.f.r.k.c.m.D.K.S.S.l.j.4.4.4.4.1.!.[.{.]..X}..XXX}.XX.X+XXX.XXXXX}.XX.X|.XX+X}.].+X{..X].W.>.>.>.^.}.|.].] ( ] 3.3.3.3.3.C.t.] t.t.t.b.t.t.t.t.t.C.] _././././.!././././.$X/././.I././.H.j.-.;.[.Y.*XL.^.[.!.[.!.!.!.!.!.A.A.M.M.M.k.D.*X=X8X5X5X-X5X,Xk k k z k Z z D E E } T X.( ..............&.=.=.1.&.1.<.<.<.N.V.V.Q.^.$X%X%X%X%X%X%X8X8X8X~.}.].}.[.[.!.^.!./.^.^.!.^./././././.^.$X$X%X<X,X,XOXoX+X|.|.(.6.6.6.6.R.3.3.",
"1.1.:.F.Z.G.G.S.L.S.K.s.c.v.F.G.G.H.G.[.L.G.z.( @.@.@.f.f.f.k.k.f.z.j.@.#.O.O.O.O.^ H O.p.p.p.a.f.r.k.y.k.m.r.K.S.4.n.h.k.4.4.5.1.m.{.{.{.{..X{.{.+XXX+X{.XX}.XXXX+X+XXX+X+X}.|.{.+X].].n.>.,.{.{.~.}.].].W.C./ ] 3.3.>.] 3.] t.[ r.e.' ' e.] t.e.m./.E.E.Q.Q./.E./././.Q././.H./././././.H.D.*X*X[.[.[.[.[.*X!.!.!.!.!.G.A.V.M.M.m.k.<X-X:X1X=X5X=X:X5Xk k k k Z z Z z D T Z X.T X.........=.&...=.=.&...1.=.1.1.<.,.n.V.D.Q.Q.Q.$X$X%X%X%X%X%X8X8X{.}.K.[.K.}.[.[.{.^.{.^.~./.!.$X!.^.!.^.%X<X>XOXOXoX+X+X+X(.6.(.E.6.3.7.5.] ",
"-.-.+.=.@.H.G.K.Z.G.S.a.z.v.F.H.G.G.L.n.( +.( ) ) ;.' ) ;.f.f.f.k.k.g.g.p.#.O.p.O.^ H O.k.p.g.L.;.0.r.f.c.c.K.].4.S.4.h.f.r.5.2.-.~ /.!./.~.}.~.^.{.}.^..X+X{.+X|.{.].~.].A.W.W.E.E.A.n.>.XX}.].}.!.].].].4.].W./ ] >.>.3.3.] ] r.[ [ r.] ] t.e.e.V./.Q.E./.Q.A.Q./.Q.D./.Q.Q.$X$X/./.!.!.G.M.*X[.[.[.[.*X!.!.!.!.!.!.G.V.A.V.n.M.m.m.*X*X:X=X1X:X:X:X:XF.k l z k k Z E T D T X.Y ..............=.&.-...1...$.=.-.-.<.<.b.N.V.V./.$X/.$X%X%X$X%X%X8X8X:X1X>X<X<X6X<X<X<X<X<X<X<X6X6X6X6X7X7XoXoXOXoXoX+X+X|.].W.(.W.4.3.3.1.,.1.",
"-.+.+.+...X.} K.Z.x.G.a.x.v.v.z.-.+.X.( X.( ( +.( ( ) p.r.;.f.g.f.l.g.g.#.p.i.O.p.O.O.@.s.k.g.;.) r.0.k.z.z.6.K.4.4.<.h.' f.r.=.-.~ !.!.~.!.~.~.~.^.].(.~.).].].].(.~.|.{.}.}.+X}. X X3.N.N.N.N.N.n.S.].W.S.4.S.W.] ] >.] [ ] ] [ r.] r.] t.] e.e.Q./.R.R.D.V.Q.V.D.D./.D.D.$XD.H././.D././.*X[.*X[.*X[.!.*X!.!.!.!.E.E.A.V.M.M.k.k.[.*X=X-X:X:X:X=X:X:X.Xk k k z Z z Z E E E T T X.T ......=...=.....=.....=.=.-.1.1.>.,.n.b.V.R.Q.Q.^.$X$X%X%X%X%X%X8X:X1X>X>X<X<X<X<X<X<X<X<X<X<X<X6XXX>X.X1X.X.X+X+X+X].W.].6.4.3.4.<.<.;.-.",
"+.-.+.....X.X.X.Y S.F.x.z.+.+...+...X.X.Y ( ~ ( ^ ( ) @.) ) j.v.j.k.g.g.i.i.p.p.O.^ O.p.p.g.v.@.;.0.r.f.c.0.K.8.4.4.>.-.' r.0.r.T ~ G.!.!.~.!.].~.W.].~.~.W.(.~.~.~.].^.^.].{.}.|.>.>.3.R.4.N.n.b.b.h.] 4.W.4.].].4.h.( ] [ ` ] [ ] r.[ [ r.[ r.] Q./.V.V.B.V.D.D.V.V.Q.H.H././././.H././.E.^.*X{.*X[.[.[.!.!.!.!.A.E.A.V.M.M.b.k.M.*X*X*X1X*X:X:XXX:X:XXXk z k k z z Z z E E } ..T ..X...=.........X.=.....&.=.$.=.+.1.1.,.<.C.C.V.Q.Q.Q._.Q.%X%X%X%X%X1X.X:X1X>X,X1X,X,X>X,X<X>X<XXXXX{..X.X{..X.X}.].].!.W.S.S.4.n.2.<.1.;.+.",
"+.+.+.+.X.X.} &.} j.v.H.o.+.+.+.+.X.+.( ( o.~ ( ~ ) ~ z.F.F.F.v.z.z.c.g.k.p.f.p.p.O.) @.c.x.n.@.@.;.p.f.f.].K.8.4.3.1.' ) ' r.0.r.Z E.!.!.!.E.!.].W.W.W.W.].!.W.~.E.~.~.~.].].3.1.>.>.3.N.N.C.C.b.b.b.t.] 4.4.W.4.6.S.S.[ ` ` _ W ] W W Q ] ] ] b.D.D.V.m.M.D.D.D.D.D.D.D.Q.Q.D.D./.!./.D.H.*X[.^.{.[.^.!.[.!.!.!.!.A.A.V.N.M.k.h.M.[.*X*X*X:X{.*X:X{.{.{.K.k k Z z Z z D T T T T Y X.T ..*...=...=.=...=...=...=...=.=.-.1.1.3.C.C.N.B.Q.Q././.%X/._.%X%X{.:X:X1X>X,X,X1X,X>X,X,XfXgX.X{.{.^.{.{.[.}.}.[.].K.S.S.S.<.<.1.:.:.-.",
":.+.+...+.} K.P.J.J.v.F.v.H.X.+.o.X.X.Y X.~ ) ! Z.H.H.H.H.F.H.v.z.k.x.k.k.i.f.i.p.@.@.f.g.c.:.;.@.@.f.f.k.K.6.4.4.1.-.' ( ) _ _ r.M.G.!.W.!.E.W.E.W.S.W.W.W.W.W.E.W.!.].~.>.3.>.5.[ ] 3.N.C.C.C.b.C.t.b.] [ 4.4.6.6.6.8.4.W / / W 0.Q ] W r.[ _ D.A.D.m.M.D.M.D.V.m.D.D.D.H.I.D./.D.D./.E.$X*X^.^.[.!.{.!.!.!./.E.A.A.V.V.n.m.M.k.*X*X{.*X*X*X{.{.{.{.{.^.D.k z z z z D Z z T E T ..T T T ........=.X...............+.-.=.-.>.>.,.3.C.N.R.Q.Q./.Q./.^.^.^.{.*X:X:XXX1X:X:X>X>X1X>XcXcXwX[.^.[.[.[.XX}.[.K.].G.S.S.2.2.<.1.:.:.+.",
"+.:.1.sXsX#XP.P.P.P.H.Z.v.z.M.L.L.H.H.H.H.H.L.H.G.H.H.H.F.F.F.Z.z.z.c.k.g.k.g.f.;.;.) p.g.}.:.p.p.;.p.k.p.].6.4.5.1.-.( ~ _ _ _ Z.A.E.E.S.W.E.W.W.W.E.W.A.E.S.A.S.G.E.,.5.>.>.>.[ =.>.3.3.3.3.3.' ] ' ] ' ] =.6.4.4.4.4.4.4.n./ W Q W W W W _ ] D.D.D.V.m.m.m.m.m.D.D.D.D.D.V.Q.V.A.Q.A.M.^./.^.^.!.^.!.^.!.!.!.E.E.A.M.M.M.b.k.k.[.[.*X}.{.:X{.{.{.{.{.[.!.z z z D E z T S T T T T ..=.T ....=.*.....=.*...=...=...=.......=.-.1.>.,.,.C.B.V.R.Q.R.'.Q.'.^.{.{.*X*X>X1X:X>X:X:X1XuXuXpX0X^.[.[.[.}.[.].[.S.K.S.S.l.l.l.g.2.:.:.",
"vXaXpXpXsXsXsX#XP.P.H.Z.Z.z.M.L.L.G.G.G.H.H.[.L.L.G.F.G.Z.H.Z.H.z.c.k.j.k.g.f.f.;.@.@.g.k.:.:.:.i.g.p.g.6.K.8.4.4.-...( ~ ! ! Z.A.A.E.N.W.A.W.4.4.W.E.4.A.N.A.E.G.3.>.>.5.>.>.>.5.[ ` 3.3.3.3.] ] [ [ r.] ] ' 1.4.4.4.8.4.4.5.4.2.3.;._ W W W [ M.D.D.m.m.m.M.m.m.D.D.m.V.D.D.V.V.V.V.D././././.^././.!.!.E.!.E.A.A.V.V.M.b.h.h.>X[.[.*X{.*X{.}.{.{.!.!.!.!.W.Z z z z E D T E T T ..T ..` ....*...T T ....T ..*.....=.....=...=.=.>.-.,.,.C.C.N.R.R.R.R.E.E.}.*XXX*X:X:X:X:X:X1X9XuX0XyXrX9X[.*X[.L.[.}.}.L.L.S.K.z.x.x.l.g.:.(.",
"vXiXaXpXdXsX#X#X#XP.G.Z.Z.M.Z.L.!.L.G.G.G.G.!.L.!.G.G.G.G.G.Z.S.Z.z.M.j.j.f.j.;.;.' ) f.M.2.g.:.f.p.g.k.K.6.4.4.1.-.+.( ~ ! n.Z.N.S.S.6.E.4.W.4.N.N.3.S.S.N.S.3.>.>.[ 5.] [ >.` ` >.` 6.3.3.3.>.[ r.[ [ ] ] [ W 4.8.4.4.5.4.4.1.5.<.<.<.,.h.' D.M.D.D.m.h.c.m.m.m.k.M.M.D.M.V.V.V.V.B.V./.!.!././.!.!./././.A.E.A.V.V.n.m.h.k.m.[.[.[.}.[.{.{.^.[.~.^.!.!.!.c.T D z E z z T z T T E ..z *.T z =.` =.*.....=.......................-.>.-.,.,.b.C.V.V.V.R.R.R.!.{.*XXX*X:X:X:X1X:X0XyX0XrX4X4X4X{.*X#X}.[.[.}.K.G.J.S.S.l.rXbXbXvX",
"zXiXpXtXdX#X@X@X#X#XK.Z.S.n.M.[.[.G.K.G.A.G.G.G.G.!.G.A.A.Z.G.Z.Z.j.j.j.h.h.;.f.;.@.) g.K.j.g.g.g.k.z.k.6.6.4.4.1.-.X.Y ~ n.n.Z.n.S.S.N.4.4.N.N.4.N.N.n.n.3.>.>.] [ >.>.[ 5.` [ ` ` ` 3.3.3.[ ] ] ] [ 0.] [ W [ R 4.5.4.4.5.5.5.1.3.1.3.,.' ,.D.M.D.M.h.k.m.c.m.k.c.m.m.V.C.m.C.C.C.C.m./.Q.V./.E./.E./.E.A.A.A.V.V.b.b.m.h.k.{.[.*X{.[.{.[.[.~.^./.!.!.!.D.D...X.T } z z T z T T z z T z ..*.T *.T =.T z =.T =...=...*...........=...>.] ,.,.b.C.n.N.V.R.V.R.}.{.#X*X:X*X:X{.1X9X0X4XrX2X2XrX3X{.*X*X#X}.L.L.L.].MXMXMXMXbXbXzX",
"pXpXtXtXtX@XOX X XK.K.S.n.n.<.[.].!.!.!.A.G.S.].!.S.G.A.A.Z.Z.n.n.n.j.j.<.f.;.;.' @.) g.j.l.g.g.x.g.x.J.K.4.4.2.1.1.( p.l.l.n.n.n.N.4.4.3.N.3.n.n.n.Z.,.>.[ ] ` [ >.` [ ` [ ` ` ` ` ` 3.3.3.3.>.] ] [ W r.Q ] W / =.4.5.5.4.5.1.5.5.1.1.1.,.' M.D.M.D.h.y.h.m.t.m.m.m.m.m.n.b.C.m.b.b.E.A.Q.E.E.E.A.Q.A.E.A.R.V.N.N.b.m.m.h.e.^.!.^.{.!.!.}.^.!.!.!.!.!.!.D.A.4.....T *.T T T T T T T T =.z ` ..T ..z =.z ......*.......=.*.....( ....+.>.-.,.h.,.C.C.n.N.V.V.A.*X:X:X:X:X:X:X5X3X3X4X2XrX2X@X@X5X}.}.*X}.@XhXxXMXxXxXMXzXzXiXiX",
"rX4X2X@X@XOX X|.|.].S.n.<.3.j.}.[.S.W.G.A.Z.A.!.S.S.S.G.S.Z.Z.S.n.j.<.,.;.;.;.' ' ) ) F.j.j.l.x.g.v.g.K.].4.4.1.1.-.x.l.l.l.4.j.3.n.4.n.4.3.3.<.<.3.` ' [ ] ` ] [ [ ` [ [ ` [ ` ` ` ` 3.3.5.>.-.[ ] W W ] W W W W ` =.4.4.1.5.1.5.1.=.=.-.` ' M.c.M.M.r.h.k.t.k.h.m.m.b.b.b.R.C.b.b.t.V.V.V.V.Q.D.R.R.A.V.E.N.V.n.n.b.b.h.h.m.!.!.^.^.!.!.^.}.!.!././.G.V.D.M.c.*.X.*...*.X.T z z T T T T T ` z T T T T T ..z T T ..T *.......T ..T ..` ` -.;.,.,.b.n.b.n.N.n.V.}.:X=X:X:X*X:X3X3X4X4X4X5X5X@X5X#X5X9XfXgXgXgXhXxXgXuXcXuXuXpXrX",
"2X@X@X@X+X|.+X(.].W.S.3.<.j.:.W.].S.S.S.S.S.S.K.S.G.S.S.Z.Z.Z.n.<.<.<.;.;.;.;.) ) ) ) S.z.x.z.z.v.x.z.S.4.4.4.1.1.J.l.l.l.n.l.<.l.<.<.<.j.j.<.b.] ] ' ` [ ` ] ` ` ` ` [ ` { { ` { ` { 3.1.1.>.[ ' ] / W W W W [ W W W 5.5.5.5.5.=.5.=.1.>.=.-.m.m.m.m.h.e.e.k.t.r.h.b.b.b.b.] C.C.] N.V.V.V.V.V.V.V.V.V.V.V.V.V.C.b.m.h.m.r./.!.!.!.!.!.!.!.!.E.E.A.A.A.D.A.D.F...=...X...*.` *.T T z z T T T z T T T T T =.=.T ..T ....*.............+.+.+.' ;.,.h.b.<.b.n.b.N.A.*X=X=X:X5X:X<X5X5X3X5X5X5X5X@X5X7XqXfXfXfXgXgXwXwXwXpXyX4XrX2X",
"@X+X+X+X|.(.(.].W.W.<.<.<.<.<.S.K.S.S.S.S.Z.n.S.S.S.G.S.Z.Z.z.4.<.<.;.;.;.@.) ) ) ) ) Z.z.z.v.J.v.S.z.S.4.4.<.<.+.G.S.l.l.2.n.2.4.<.2.<.<.j.] R / ] ] ` [ R [ ` R ` ` { I ` ` { { I E 3.5.=.=.=.` ( / / W _ W W W W W W 1.5.5.=.=.=.=.=.=.-.-.h.m.m.m.r.e.r.r.t.h.e.b.C.e.C.] C.] t.R.V.N.N.V.V.V.V.V.V.V.N.N.N.m.b.b.b.h.r.!././.!.E.!.!.!.E./.G.E.V.D.Z.D.M.D.5.=.=.*.T *...z T *.T z z *.T T T T T T T z z =.T T z ..T ..T ....T ..+.+.+.;.;.;.j.,.n.n.b.n.m.n.#X5X:X:X5X#X<X5XeX5X5X5X@X5X#X6X6X7XqXqX9X9XwX9X9X4X4X2X@X@XOX",
"|.(.|.(.(.(.6.W.W.4.<.1.<.<.:.S.S.S.S.S.n.l.z.K.S.z.S.z.z.M.l.<.<.;.;.;.-.' ) ) ) ) ) z.z.z.v.v.J.K.K.4.4.4.<.-.-.!.L.l.S.S.l.l.j.2.j.<.Q Q W / R ` / ` R ` I ` { I ` I { { I { ` l ` 5.1.5.1.-.` ( / W _ W W W W W / R } 5.=.5.5.*.=.=.=.` ] h.h.b.b.e.e.e.e.[ e.e.' ] ' ] ] ] [ ' N.M.M.V.m.n.V.V.M.N.N.m.b.b.b.h.e.r.r./.E./.H././.!.!.E./.A.A.V.D.V.M.D.M.F.3.=.=.=.=.z ` z { z z ` { z z T T z ..z T T T z ..T ..T ..T T ......Y T +.+.-.-.;.,.,.h.h.n.h.n.M.M.5X=X=X=X1X=X5X=X5X5X5X=X`.>X<X<X6X<X9X6X3X3X4X2X2X2X@X@XOXOX",
"(.(.W.W.W.W.S.4.S.4.1.:.;.:.;.S.S.S.l.S.l.l.l.S.S.z.S.z.z.l.<.1.;.-.;.;.( ) ^ ) ) _ G.l.z.v.F.L.J.L.K.4.4.<.1.1.+.!.~.L.l.l.l.l.l.,.F N Q Q R R ` R ` ` R { { I ` { I l I l { l { R I 5.5.5.>.=.` ( R / ! W W / W _ W _ W [ [ =.=.*.=.*.=.=.=.' t.t.e.e.] e.] r.r.e.] r.] r.] ] [ n.n.V.m.N.n.m.V.C.C.n.b.C.C.b.b.h.h.e.r.V.A.R.R.E./.E.E.E.A.A.V.V.V.M.M.D.c.D.Z.5.=.=.=.*.=.T T T z =.` z { T T *.T T T T T { z ..T T ....T ....T X.+.-.+.-.:.;.h.<.j.h.n.h.b.n.M.}.5X=X5X=X*X:X5X=X:X).`.`.`.>X>X<X<X,X<X,X2X,XOXOX@X+X+X+X|.",
"(.(.W.W.6.S.N.S.4.S.1.;.-.+.$.S.2.S.l.2.l.l.j.S.S.z.z.z.z.z.2.<.:.-.+.+.( ( ( _ ! ) Z.z.z.Z.H.P.P.F.J.4.4.1.1.-.+.!.W.W.S.S.x.;.t B N N P P R P I ` I I I I I l l l { l l l K I I I E 5.=.=.=.=.=.( Y / ! / Q W W W W ] W W ` 5.*.5.=.*.=.{ ` ] e.t.] ] ] ] r.] ] ] [ ] [ [ [ W ' V.n.n.n.M.b.m.b.n.m.V.n.b.b.b.e.e.h.e./.V.V.V.V.A.A.E.A.A.R.V.V.M.M.M.M.M.m.M.M.-X1.=.=.=.z *.T T z z z z z z z { T z z T T T =.z T T T ( T ..( ..+.+.+.+.+.@.:.;.j.,.n.b.n.n.n.n.D.5X5XXX*X=X=X5X!.).).`.).).`.>X>X>X>X>X,XOXOXOXOXoX|.|.(.(.",
"6.W.S.S.S.n.S.4.<.2.:.-.-.-.@.S.S.2.l.4.l.j.l.l.z.x.S.n.z.j.1.:.@.+.+.( ~ ^ ( ) _ ~ z.M.c.H.L.L.L.4.4.4.<.>.-.@.( A.S.E.W.S.r v v n B B K P P P I E l { z l { l l l l l l m h z K K E =.5.=.=.=.T T R R R Q / / W W W W W r.W [ 5.*.=.` ..*.=.] e.] ' [ ] W ] ] [ [ [ [ [ ] ] [ h.C.N.m.b.m.m.n.m.n.b.b.b.b.b.e.e.e.h.r.C.V.V.V.V.A.V.V.V.E.V.N.M.b.m.m.c.m.m.c.gXfXgX8X=.=.R ` T T ` z *.T T T z z z T T T T T z =.E T ( T T ..T +.+.+.+.+.;.:.:.<.:.j.j.<.j.n.n.n.S.#X=X[.*X*X!.R.R.W.'.(.'.(.)..X_.`.oXoXoXoXOXoX|.|.|.].(.W.",
"S.4.4.l.l.l.<.l.4.2.+.+.+.@.+.l.2.l.2.x.l.:.g.j.l.l.l.x.z.l.:.+.+.+.( +.( ~ ! ~ ~ ) M.z.z.v.G.}.#X4.4.4.<.1.-.( ~ W.S.S.S.b b r v n B v M K K K E I l l l l l l h l l s l h l K z K E 5.=.=.=.=.=.=.T R R R Q W W W W 0.W W [ L { =.*.=.T ` z [ ] ' [ W W [ [ W [ W W [ ] [ W [ V.M.n.n.C.n.b.n.b.b.b.b.b.b.b.h.h.e.e.m.b.b.m.C.V.V.V.N.V.V.V.N.V.m.m.m.c.m.H.fXfXhXgXgXhX9X` ` =.*.*.z ` z z z T ` z z z T T T z T T T T ..T ( =.( +.-.-.;.:.:.g.:.j.<.j.j.n.n.n.S.n.S.5X*XG.4.3.6.R.R.R.R.W.W.).).`._._._.+X+X+X|.|.(.W.W.].6.",
"4.S.l.<.4.<.l.2.2.2.-.+.+.+.+.l.l.2.j.l.:.j.g.j.z.x.z.l.j.l.+.+.+.+.~ ~ ~ ~ ! ! ! S.M.z.v.F.F.L.L.4.4.<.1.-.-.( ^ n.S.S.S.r b 7 b v v m m K K l l l l l l l l s d l d h h l l M K K z 5.=.=.=.=.` *.` T R R R W W W Q W W W r.W ` =.T T T T { ` ] ] [ [ W [ W W W W [ W W [ Q r.n.n.N.b.C.b.b.b.b.n.b.b.b.t.,.e.e.h.r.,.b.b.b.C.b.V.V.C.N.m.N.m.b.k.m.m.m.-XfXfXfXfXgXhXkXMXhX7X*.` z =.T T z { z T T z T T z T ` T T T T X.( ` ..-.( +.-.;.;.:.:.j.l.<.j.n.j.n.n.N.4.S.].4.4.3.N.3.N.N.N.N.N.W.E./.~.^.).^.+X}.].].].].].K.W.S.",
"S.l.l.l.l.g.<.l.<.2.+.+.+.( +.l.4.2.2.2.2.g.g.g.l.l.g.z.z.:.+.+.( +.R ~ ! ~ ! ! ! z.j.z.c.F.G.[.S.4.2.1.1.=.( ~ ~ S.4.n.4.r 8 g f v h h h h h h l l j s d s d j s s j f h j M h K z E =.5.=.5.{ =.T =.T ` R R R W W W [ W W W L [ *.T =.z T z ] W [ W P W P [ [ W [ [ W W [ W B.V.n.n.M.C.C.n.b.b.b.b.b.h.b.e.e.r.' e.b.b.b.b.b.b.N.C.n.V.C.b.b.b.m.h.h.qXqXqXfXfXfXfXhXkXkXhXJXxXfX*.z T T T T T T z z T T T ..T R T Y T ` T ......-.-.:.;.g.:.:.l.<.l.n.<.n.3.4.N.4.L.XX4.7.3.3.3.C.C.N.N.S.N.E.E.E.!.~.!.!.}.~.!.L.W.S.S.S.4.",
"l.l.l.l.g.l.l.2.<.2.+.X.~ +.+.2.l.:.2.g.:.g.g.g.2.l.l.g.l.+.+.+.~ Y Y ~ ~ U ! ! ! l.k.c.F.Z.G.}.4.2.2.5.=.( ( ~ ^ <.l.2.+.8 g 8 7 h f j h j j j j d l d d d x 1 s s f f h h M M Z K ` 5.*.5.*.=.=.T z ` T E E R W I W L W Q W r.I [ ` { T T T ` [ W W W I R [ I [ P P [ ] W ] n.N.N.C.b.u.t.u.[ b.b.b.t.e.e.e.e.,.r.b.' ] C.b.b.b.b.b.V.b.b.m.b.h.m.k.7XqXqXqXqXfXfXfXhXkXkXhXhXMXhXMXfXT T { T { *.T ` z T { z z T T T T T ( =.+.] -.-.;.:.:.j.j.<.l.j.2.j.3.4.4.S.K.L.@X3.>.5.3.] ,.h.n.n.n.l.A.A.A.G.!.!.E.G.[.K.W.K.S.S.S.l.",
"l.l.l.2.l.2.l.<.2.:.+.+.+.~ ( 2.2.:.:.:.:.:.:.g.l.l.l.g.g.$...+.+.Y ~ G U ! U G ( j.j.z.c.H.H.L.2.4.1.=.-.( ! ! ! j.2.l.g u 9 k g 7 f s j d j d d d d d j d d d d 6 f f h g k K E K ` =.5.=.=.=.=.*.=.T ` T T I L W W W W Q W W W W L ` { T { I P [ I [ I I I W L [ W L W W r.N.b.n.C.b.7.'.[ u.3.,.t.b.b.e.e.' r.e.t.,.b.' h.b.n.b.b.b.b.b.b.h.m.h.qXqXqX7XfXfXfXfXfXfXhXkXhXMXhXMXhXMXMXfXT I z z T z T T z T z ..T ` T T ( T ` ( -.-.;.;.<.g.j.l.l.4.S.4.n.K.K.L.K.5X5X@X>.>.>.,.,.,.h.j.n.n.Z.A.D.A.G.G.G.].W.!.K.K.S.K.S.l.",
"S.l.4.x.l.2.x.2.j.:.X.o.X.~ +.:.:.2.:.:.#.g.;.g.:.l.g.g.g.X.+.X.Y Y ~ ! A ! U ! l.j.k.z.M.F.G.j.5.5.1.-.T R ~ ! ! x.2.:.k k k 9 g 8 f x s 1 x x 1 d 3 1 d > x 6 1 6 f f h h M z K E =.=.5.=.*.=.{ =.*.=.T T T ` R P I W W Q W W Q [ q.I z { I I ` [ L I ` L [ I P [ W W W [ t.b.u.[ u.[ [ u.u.[ t.] t.t.r.t.e.r.r.N.' ' b.b.b.b.b.b.b.b.b.b.t.h.m.9X9X6XqXqXqXqXfXfXfXfXfXhXhXhXkXMXhXkXJXhXJXfXT T T T T T T T T T T T ` T +.` ` +.-.-.;.;.<.j.j.j.n.4.4.K.}.#X}.K.L.5X@X5X1.-.-.;.' h.h.j.j.l.M.Z.M.F.A.G.G.G.K.G.S.K.S.S.x.S.",
"z.x.x.x.x.x.2.2.2.2.+.X.+.~ ~ 2.2.:.2.#.:.:.#.i.#.g.l.:.g.$.o.X.~ Y A Y A A G P j.j.g.k.k.Z.Z.2.2.1.=...Y U A U Q g.2.:.k k k 0 j 6 6 1 x x > d > d d > 1 3 1 1 f 6 f f g h M Z E K =.5.=.=.5.=.=.=.=.*.{ T T T R R R P L Q L W W W W [ { I I I I I W I I I I I I L I W W 0.6.[ [ u.[ [ [ [ [ [ ] t.[ t.r.r.r.r.e.,.,.b.b.] h.b.b.b.b.b.b.h.t.H.6X9X6X9X6XqXqX7X7XfXfXfXfXfXhXhXhXhXhXJXMXMXhXJXMXfXE T T T T T z ..T ..T T ( ......-.;.;.,.<.j.<.4.l.S.}.].}.K.K.}.K.5X5X5X@X-.-.' ;.;.f.j.j.n.j.M.M.Z.G.A.G.K.K.S.S.K.S.v.S.x.",
"z.J.z.x.x.x.J.2.2.2.o.X.~ o.~ 2.#.2.%.:.#.:.f.;.:.2.i.x.:.+.o.Y Y Y Y A U G U G g.g.g.f.k.z.S.1.1.=.....R E A N G l.#.b k k k k g x x 6 , 1 3 > > 3 > 3 > 1 > f 6 f f g h Z M K K E 3.6.5.5.*.5.` *.T ` *.T T T E I R L L W L W Q W W W W I l I I I L I I I P P I I W W [ 7.[ [ [ [ [ [ [ [ [ [ [ [ t.r.r.r.[ e.t.t.' ,.b.,.b.,.C.b.h.b.h.b.$X3X<X3X<X9X9X9X7XqX7XfXqXfXfXfXfXfXkXhXhXkXkXMXJXMXMXMXJXfXT ` T T =.T T T T T ` ..-.] -.-.;.;.<.<.l.S..X{.}.}.}.].#XK.4X2X5X@X5X<.( ;.) f.h.g.j.l.j.z.z.F.Z.G.S.G.G.G.K.S.K.v.J.z.",
"v.v.S.x.J.J.J.2.x.2.+.o.o.o.o.2.2.#.:.%.:.@.#.:.i.l.g.g.%.o.+.} H Y A Y A A N ~ :.:.g.g.k.z.g.-.=.=...E U Z N N N :.:.b k k k k g 6 6 6 x > 6 , > > > , > , 6 1 1 x h h h k K Z ] ] [ [ [ ` [ [ ` [ ` ` [ =.T z z T I I L L W L Q Q Q [ [ [ I I I P I I I I L I I L W Q W { [ [ { [ { [ [ [ [ [ t.t.r.r.r.r.r.e.,.,.b.t.b.h.b.t.b.b.b.b.m.:X,X<X3X3X3X6X6X9X9X7X7XqX7XfXfXfXfXfXfXkXkXkXkXkXkXhXMXhXMXMXMXhX` / T =...T -...T -.-.-.-.;.<.<.<.j..X.X{..X+X}.}.}.].}.5XrX2X2X@XXX+.) ) f.f.g.M.j.k.k.z.z.Z.F.G.G.G.G.G.G.G.S.v.L.",
"L.P.P.J.P.v.2.J.2.2.&.%.$.o.O.g.a.%.%.g.%.#.:.@.#.x.%.2.+.$.o.S S Y S A A A N 1.;.g.g.f.g.j.-.=.=.T E E k M N b N ;.#.h k z k x x 9 6 > 6 3 > 3 6 > 4 > , 6 6 6 7 f j j h M ] ] ] [ ` [ [ ` [ I ` { W [ { R { I I I { I l I K I L L W [ W [ L m P I P P I I N L R P P Q r.{ { { { { { { { L { [ [ W r.r.y.t.r.r.] C.] t.t.t.[ u.b.b.C.' :X:X,X<X3X<X3X3X3X9X9X6X9X7XqX7XfXfXfXfXkXfXkXkXkXkXkXkXhXJXhXMXMXMXJXhX=.....` -...=.( -.;.-.;.<.<.+XoX.X.X.X{.{.}.}.}.}.K.@X2X2X2X2X@Xj.@.' f.f.j.j.j.k.j.z.z.Z.D.G.G.K.H.L.H.L.P.H.v.",
"H.P.P.P.P.P.P.J.J.2.%.&.$.$.O.g.g.x.x.%.a.%.#.:.@.x.x.x.$.$.o.o.o.Y S A A A N :.:.;.f.#.g.j.-.=...R E Z k M v b n ;.Z h k k l k j x 6 6 , , 4 > , 3 > > 3 1 1 6 f f h k ] ] ` ] ` ` / [ ` ` ` I R ` I I L I I I I I I I I I K h m L m h L c L L W [ I m L L L L P P P Q { { { { { { { d { { L [ W W q.r.r.r.e.t.C.3.C.3.] [ u.[ ] b.t.1X1X.X,X,X2X3X3X3X<X9X<X9X6X9X6XqX7X7X7X7X7XkXfXfXkXkXkXkXhXhXMXhXhXJXhXMXMXhX=.( =.( =.-.-.;.:.<.|.oX.X.X.X_._..X.X{.+X}.}.4XrX2XrX2XOX5XXX+.@.f.f.j.M.j.j.k.z.M.F.Z.F.G.H.G.H.L.H.v.L.P.",
"Y.Y.P.P.P.P.P.P.J.2.&.%.%.%.$.a.a.x.x.a.%.2.#.i.:.J.a.a.$.$.$.o.o.} S S A A N :.:.@.#.@.:.f.T T T E k K h b v v v -.< h j l x j 9 x 6 > 3 , 6 6 4 , 6 6 6 1 f 7 f K ] ] ] ` / ] / / ` I R R I I I I I I I P I I I K K m l I I l L L l m L m L l I ] [ W ] B B L P P P R { l l l { d d { c { L L L W r.r.e.y.e.t.R.] ] C.R.[ [ t.b.b.t.D.:X>X,X,X2X<X3X<X3X3X3X6X6X9X6X6X6X7X7X7X7X7XfXfXfXkXkXkXhXhXhXhXMXhXMXMXMXMXMXhX1.-.-.:.1.:.].+XoX+X.X.X.X^.{..X{.XXXX}.}.rX@XrX@X2X2XOX:XS.;.;.f.k.j.M.j.g.j.c.F.F.H.G.H.G.H.H.L.I.Y.Y.",
"T.T.T.T.T.P.P.P.P.2.2.%.%.%.%.x.v.a.J.J.x.a.2.2.#.x.J.J.p.p.%.&.$.o.} S Y A U :.@.#.@.:.#.-.Y E z Z k h g h 7 v v T a j l j k x x 1 , 6 1 3 , > , 3 , 6 6 6 6 ` ] ] ( ( R ] R ` R R R R I R I I K K K I m I h I m K K m m m m m m l m L c L c L L [ W [ W [ ` L G Q P { d { d d d { d d d 2 c c L W 0.0.r.r.{ [ [ 3.[ ] C.[ u.[ t.t.C.m.V.:X:X,X,X,X2X3X3X3X3X3X3X<X6X6X6X6X6X7X7X7X7X7X7XfXfXfXkXkXhXhXhXhXhXhXhXhXMXxXMXgXj.:.S.oXoXoX+X.X.X_._._..X_..X.X{.XX#X2X2X2X2X2X,X,X,X:X@.f.h.j.k.M.j.g.M.Z.Z.M.G.H.H.H.I.Y.I.Y.Y.T.",
";XT.T.sXsXP.#X#XP.&.a.J.a.&.%.v.P.v.P.J.J.J.&.2.%.2.P.P.a.a.a.a.&.&.&.} } S Y +.@.@.@.#.;.j j j x d 3 d > > & : 2 j v j l j j j j f f 7 7 f f f v g g g h ' ] ( R ( ] R R / R R R I U K K P K K K m K m m K m I h I s I l m m l m L L L c L L m c L W [ W L [ W P Q / h j h x x d 6 x 6 d s f a B B q.0.r.r.[ [ [ [ [ [ [ [ u.u.t.t.m.t.B.E.>X:X,X,X,X3X2X3X3X3X3X3X<X<X<X6X8X8X6X7X7X7X7XfXfXfXkXkXkXkXkXkXkXkXhXhXMXMXhXMXMX7X`.oX`.+X+X+X`.)._._.%X^.:X.XXX.X3XrX2X2X2X2X,X,X,X2XS.:.f.j.k.M.k.g.z.M.Z.F.F.G.H.H.I.Y.T.&XT.-X",
"VX;XVXsXsXsXsX#XP.a.P.J.J.J.J.v.v.P.P.P.J.J.J.&.2.2.P.v.a.a.a.a.&.&.&.&.} S +.+.+.#.@.@.x x x x x 3 d > : : & : - E f j h j h f s f 7 f f f 7 f f h h h ' ( ( ( ( R R R R R R R P R P K K K K K K m h m m h h m h m s m m m I m l l m c L c L m L c W W W r.W [ 0.L R h j j j x x 6 6 x 6 6 6 r B B L 0.r.2 [ [ [ [ [ [ [ [ [ [ e.t.B.C.m.m.E.>XOX,X,X2X,X3X2X,X<X3X<X<X<X<X<X8X8X8X8X7X7X7X7X7XfXfXfXkXkXkXkXkXhXhXhXhXMXhXkXMX+X+X+X+X`.`._.)._._._._.1X.X.XXX2X2X4X2X2X,X<X<X:X<X:Xg.j.f.M.M.l.l.j.z.M.Z.D.H./.I.I.&X-X-XlXlX",
"VXVXsXVXsXsX#X#X#X&.P.P.P.J.2.T.d.P.P.P.P.J.J.2.J.a.P.s.d.J.a.a.J.&.&.&.X.S +.+.+.$.#.Y d 3 3 d d 3 > > & $ $ & & P f f x 6 x s , s f d 6 1 f s f f K ( ( ( / R / / / U U R R U P K U K K K M m h m h m l m m L s m m m h l h m m m c L L B L c s l l { W I I L L m { ' h.h.b.C.b.b.] ] ] ] [ [ [ t.r.e.y.{ { { [ { { { [ [ [ r.e.e.N.C.b.C.C./.OX,X,X,X,X2X3X,X<X2X,X2X<X<X>X8X8X8X8X8X7X7X7X7X7XfXfXfXfXfXkXkXfXhXhXfXkXhXhXkX2X+X`.`.`.).)._.^._.%X_._..X.XXX2XrX2X2X,X3X,X,X<X5X,XA.h.j.k.M.j.l.l.M.M.F.G.D.D.$XI.I.-X;XkX;X",
"kX;XsXsXsXsXsX#X#X&.P.P.P.P.J.U.T.T.T.P.#XP.J.J.%.J.P.J.v.d.J.P.J.2.2.&.X.( ( o.~ @.O.d 3 d x d d # > # * $ $ & x M 1 6 x 1 6 d 1 > > , 1 s 1 s s ( ( ( ( R ( / U R R U R U P K K K K K m K m h m m h h h a a s m m s m m m I K l L L c c q.L m c L c W { I I L m B ` I h.b.,.] ,.,.,.t.b.,.e.t.t.] [ ] [ t.{ { { { { { { L W r.r.h.N.V.V.C.C.m.E.OXoXOXOX,X,X2X2X2X2X,X,X<X>X<X%X8X8X8X8X8X8XfX7X7XfXfXfXfXfXfXhXfXfXfXkXkXhXhXfX+X`.|.).)._.).`.^.`._._.1XoX<X2X@X2X2X,X,X<X,X<X<X,X5Xh.j.M.M.j.l.j.l.Z.M.V.H.I.I.$X&X&X-XlXkX",
"kXjXwXuXyXtXtXdX#Xi.P.T.#XP.4.T.T.T.T.#X#XP.K.2.x.:.#Xd.d.U.P.J.2.2.2.&.+.k Y o.o.) d 3 > x x 3 3 d # # % % % % N M 4 6 , , > 1 > 1 > 1 1 1 d 1 ( ( ( ( / R ! R U U U K U P K N K M K M m M h m h m a m s m a h s m m s L h m m l m L L L L L c s c l I I I L L L { I [ I [ b.3.3.b.C.] ] b.,.] ] ,.] t.] ] { l { { { l l I W W r.t.N.N.R.N.C.C.C./.oXoXOXOX,X,X2X2X,X2X,X,X,X>X%X%X8X8X8X8X7X8X7X7X7X7X7XfXfXfXfXfXfXfXfXfXhXfXgXOX`.`.).)._.)._._._._..X>X>X2X2X2X2X2X,X<X,X<X<X<X3X,XG.h.n.M.n.l.l.Z.n.Z.M.D.D.I.$XI.&X-XjXfX",
"eXeXqXwXyXrX5X@X#Xa.Y.#XP.#XK.T.T.T.*X#X#XK.K.K.l.l.#Xc.T.v.v.P.P.4.2.2.+.X.Y ~ ~ Z 3 d > > # 3 # # > # # % % % m m 4 3 3 3 > > > > > : 2 > N ( ( ( ( ~ ! R U U U U U P P K P K K K h m h h h h m a f a m s a a s c m s h m l m c m m c c L q.c c l [ I L L L L L W ` I { ` l ] t.] 3.C.C.] 3.t.C.[ t.] t.e.[ d d d d l l c L Q W R.N.R.V.N.N.N.C.B.W.oXoX,XOXOXOXOXOX2XOX:X>X,X>X>X%X>X8X8X8X8X7X7X7X7X7XfX7X7XfX7XfXfXfXfXfXfXgXfX(.).).).)._._._._.%X%X.X:X@X2X2X2X2X,X<X<X<X,X<X<X3X2Xn.j.M.4.l.l.n.n.N.Z.D.H.Q.I.$X-X&X&XfX",
"6XqX9X9X4X4X5X@X#Xc.Y.#X#X}.].U.T.-X*X#X#X#X4.4.l.l.$XU.U.I.Y.P.K.K.4.2.:.Y Y Y ~ 3 > 3 > > 3 d > # # # * # % : h h 4 4 4 3 > > > : : : : +.+.( ( ( U R U U U P P U M U K P M K M m h M h h h f a h a a a a a a s m s c h s I m L m L m L L L c l c I I I l L L L I [ ` W I I m 3.] R.] [ C.] t.] t.t.e.e.e.r.j d d d d d s L L W R.R.4.E.N.E.N.N.C.C.W.oXoXOXOXOX@XOX@XOX@XOX+X>X1X%X>X%X8X8X8X8X8X7X7X7X7X7X7X7XfX7XfXfXfXfXfXfXfX`.).'.).^.'.`.^.%X`.oX1X3X2X2X2X2X,X<X,X,X<X,X<X<X3X2XG.j.M.j.4.n.l.Z.M.Z.F.H.D.I.$X&X1X&X8X",
"8X<X6X3X4X2X@X X Xc.$X{.}.}.].I.I.$X[.{. X].K.K.S.j.U.c.D.H.G.L.K.K.4.1.( E U Y x > > > > > # # # > # # # % % 1 7 v 4 3 4 * > & & & & , ) ) ( ( R ( ! U U U A U P P P M M M M M M m v m h v f f h a a s a a a a m a m m m I s L m m m L L L L l c c I I I L L c L [ I I L I L L I [ [ 3.] ] C.[ t.] e.e.e.r.e.t.d d d d s c c L q.R.R.R.R.N.N.E.N.V.C.b.(.+XOXOX+XOX@XOXOX@X+XOX.XoX.X%X%X>X%X<X8X8X8X8X8X7X7X7X7X7X7X7XfXfXfXfXfXfXfX).).).)._._.`._._._._.2X2X2X2X,X,X,X>X<X<X<X<X3X<X<X2Xn.M.n.l.l.n.n.n.M.M.D././.H.$X&X%X8X",
"1X<X<X>X,XOX@X X6.H.[.{.].].].F.H./.^.{.].].W.S.4.j.c.k.D.D.H.E.W.4.4.<.j Z A k d 3 x # # 3 3 # > # # * # # * 7 v a 4 3 4 3 > * & $ ! ( ( ( / Y R U U U P U P P K N M m M M m M m h v h f h a a a a a a a a f a a h a m m m h m l c h L L L L m c m I I L m L L I I L { L L L L L L 6 [ [ [ R.[ [ t.t.t.t.r.h.k.x 6 6 6 7 7 v B ' R.W.R.R.R.N.R.R.N.C.C.C.(.+X+X XOX X+X X+X|.+X+X+X.XXX.X1X>X,X8X8X8X8X8X6X6X6X6X7X7X7X7XqX7X7XfXfXfX`.).'.^.'._._._._.oX%X2XOXOX,X,X>X,X,X<X<X<X<X<X<X<X3X!.n.n.4.n.n.n.n.Z.M.D.H.H./.^.$X$X1X",
"%X%X1X>X>XOX@X|.|.D.!.~.~.~.W.D.D./.~.~.!.].W.S.n.n.0.y.c.B.V.E.R.6.4.<.Z Z E x 3 d 3 3 3 > # 3 > # * # % % % < < < 6 9 3 * > & & ( / ( ! ( U / U U U P U M M N M M M M m M v h b h m f f f a f f a 1 a 1 a a c h a m a h s I m l L L m c L L m h m I I m L L I I [ I I L L L L L L L N [ [ [ [ t.t.t.y.t.y.e.y.m.9 9 9 9 9 b b C.R.6.R.6.W.W.R.E.R.6.R.C.t.W.+X+X X+X X X X|.|.|..X].+X.X{.>X>X%X%X<X<X<X<X6X6X8X7X6X6X7X7X7XfX7XfX7X6X'.).).^.`._.%X`._.<XOX2X2X,X,X,X>X<X>X<X<X<X<X<X<X3X2XM.4.S.l.4.n.n.M.M.V.A.D./././.^.$X",
"_._._..X.X+X+X].6.!.V.W.W.W.E.M.V.E.E.E.W.E.E.3.3.<.r.r.h.b.V.N.N.4.3.<.Z Z j x x # 3 # # 3 # # # > # * % % g < < r 6 6 9 3 > < ! ! / ! U U U U U N K N N M N M m M m M m v m m f v h f a f a a s 1 a 1 f a a a a m h m m m h m L h L L m L L I h I I L L L c I I [ I I I L L L L L L L L [ [ t.t.t.t.r.y.t.y.t.j.j 8 8 g g b b W.R.6.R.E.R.R.W.E.R.4.3.C.3.3.(. X|.|. X|.|.|.|.].+X}.+X+XXXXXXXXX>X>X<X<X<X<X<X6X8X6X7X7X6X7X7XqXqXqXqX`.).'.^.'.`.`.`.`.2XOX,XOXOX,X,X>X<X<X>X<X<X<X6X<X3X2X!.l.S.S.n.Z.n.n.A.A.D.A.E.E././.^.",
"/.^._._..X).|.].6.n.V.R.R.N.A.h.m.V.N.N.E.N.S.3.n.j._ ' e.t.3.C.C.3.3.` k g x x x x d 3 # # 3 # # # # # f / ( ! 5 5 6 3 3 * S G P U U P U P U P P M N N M m M m m m M m v m f m f f f a f f f 1 f 1 a a a a a f a f h h m h I h h L L m L L L m h I m m c L L I I L I I I L L L L L L L L I a [ W r.y.y.y.t.t.u.M.m.g u k g V V 6.R.R.R.6.W.'.7.R.6.R.E.R.R.3.t.W.|.|. X|.|.|.].|.].|.}.+X].+XXXXXOX>X>X,X,X<X<X<X<X6X6X6XqX6XqXqXqXqXqX9X).'.).%X`.'.%X_.OX2X,X,X,X,X>X>X>X>X<X>X<X<X<X3X<X3X3XS.4.n.4.n.n.n.n.M.V.A.A././.E./.",
"/././.~.~.].(.].8.n.N.n.N.N.N.,.h.C.n.N.C.3.N.C.,.b./ ( ' ] ,.3.3.3.[ 3 x x x x 3 x # 3 * # * # # % B N G ! ! U N < 6 3 > A U Z N N P P N P N M M M m M M M m m v v v h v h f a a f a f s a 1 f a 1 a a a a a a m h m f m h K m m m m m L L I h m I I m c m I I I I I l c L L c L L L L L L [ B [ r.y.y.y.m.m.M.M.m.k M V V V C R.R.6.R.7.R.W.W.R.W.R.6.6.3.3.R.R.(.|.6.|.].#X X].|.].}.#X|. X#X@XXXXXOX@X:X,X,X<X<X6X6X9X6X9XqXqXqXqXwXqX).'.`.'.`.%X`.%X>X,XOXOX,X,X>X<X>X<X>X<X>X<X<X<X<X<X3X2X].n.S.n.n.n.N.S.V.V.A.V.E./.E.",
"E.E./.~.~.(.].W.6.,.n.b.,.C.n.' ,.,.,.,.b.3.,.b.b.,.Q / ] ] ] ] ] >.,.j { *.x x x # d # > # # > N n n N N G G ~ ~ v 1 f A Z N N M N M M m M m M M v M m f v v v v h v h f f a v f a f f 1 f 1 s 1 a a 1 a a v v f v h m h m m m I m I L L L I m s I m m L m I I I I l L L L L L L L L L W L I L L r.r.y.y.c.m.D.m.M.M.Z Z Z Z U 6.R.R.6.R.'.R.W.6.6.R.W.R.4.7.3.[ t.7.|.8. X8.8.].].].|.].#X|.|.+X@X@X@XOXOX2X2X<X<X<X9X9X9X9XqX9X9X9XwX9X2X`.'.`.'.'.`.oX,XOX,X>XoX>X>X>X>X>X<X<X<X<X<X<X3X<X<X2X<X:X5XG.n.S.Z.N.N.S.A.A.V./.V.",
"E./.!.!.!.W.W.6.8.>.3.,.,.3.,.] ,.1.,.] 3.t.,.,.,.,.P / / ` ] [ [ >.=.x { x x x x 3 # 3 & > v b b v y F F n N G S S b Z A Z N b M m m b v m m b v m m v v f v h v f f f a a a a a a a 1 a f f 1 1 a a a a a f a f h m f h m h L m m I m L m I L m m I c c I l L { I L L c L L c L L L L L [ I W W I N r.m.D.D.m.V.m.B.M U U A [ R.6.R.6.W.6.W.R.W.6.R.6.R.6.R.3.3.3.n.8. X].].].].].].].]. X|.|.|.@X#XXX@X@X@X2X,X,X3X<X3X3X9X9X9XwX9X0XwX0X'.`.'.%X'.`.OXoX,XOX,XoX>X>X>X<X>X>X<X>X<X<X<X<X<X<X<X3X,X<X5X<X5XG.M.N.A.N.A.V.V.A.",
"R.E.E.E.E.W.].4.4.' ] ,.,.h.,.( ] [ ] ,.,.] ' t.' ,.U U R ( ] ` ] ` ` z *.{ x x d 3 # x r b r r v y B y n F F G Z : 1 V D V b b b v v v f v v v v a f v f a f a < f a a f a a a a < s a 1 1 s 1 a 1 a w a a c a m c h m h m m s I m m m I K L m I m I m m I I I L I I c L c L L L c L L L L L L I W P R y.y.m.B.m.D.B.V.U U U R.3.R.6.R.W.R.6.6.6.'.6.6.7.7.3.7.4.3.3.2.6.6.6.|.6.|.].].].]. X#X|. X X X@X@XXX@X2X2X3X3X9X9X9X9XwX9X9X0XwX9X2X'.'.'.'.%XoX>XoXOX>XoXoX>X%X%X>X>X>X>X>X>X<X,X<X<X,X<X<X<X<X<X1X:X<X:X!.A.N.A.V.A.",
"/./.!.!.!.W.W.6.8.-.-.] ,.,.] ( ] ` +.] ] ' ] e.] b.P U R R ( ` ` ] ' T z z x x d x b t r r r r w r r n i B L : : : : d Z V V g g v f 7 v a f v a 7 f 7 a f < a a a a 7 a 1 s 1 a s 1 s 1 s 1 a 1 1 a a a a c c s m h l c m m m L c l c l I L L L L L c K I I I c I I L l L c L c L L L L L W L L I W W L u.u.u.u.u.D.D.P R ! R.R.6.R.E.E.6.6.W.6.W.6.6.6.7.4.7.3.5.3.[ 3.7.].].].].]. X|.].]. X#X X#X X@X@X@X@X@X2X2X2X3X4X9X9X0X9X9X0X0X0X0X'.'.'.'.%XoX>X>XoXoX>X%XoX>X>X>X>X>X>X>X>X>X<X<X<X<X6X<X>X<X<X<X<X1X<X:X,X1X~.!./.",
"xXxXxXxXxXxXMXcXcXgX-.] ' ' ] ( ( ` ( ] ] ( ' ' e.' K U R R R ( / / ] { z l x k g j f t 8 7 7 w r r y w w i o $ $ : : : > D V g 8 7 7 7 7 a < a a < a f 1 f a a 1 s 1 s 1 s s 1 1 1 s 1 1 s s 1 s a 1 a a a a a h a c l c l m h l c L L l L l L c l L l L L I m L l l c c c L c L L L L L L I I W L L L W W [ u.u.u.B.D.D.] / 4.N.6.4.W.6.E.W.W.6.6.6.7.7.4.7.3.5.3.3.3.3.6.4.].].].|.6.].|. X].|. X|. X X X X@X@X@X2X2X4X4X4X4X9X4X0X0X0X9X0X,X'.'.'.`.`.`.oX>X`.oX>X`.`.%X%X`.>X%X%X>X%X%X%X>X%X%X%X<X>X<X8X<X9XwXgXxXcXgXcXxX",
"xXxXxXxXxXxXxXxXxXxXxX;.' ' ' R ( R R ( / ] _ ' e.] M U E R R R / ] / :XXX#X}.J.$.b 7 7 7 < < 5 < w w w w # o # % $ : : : : D 8 8 9 7 < 1 7 7 1 a 1 < 1 f 1 1 1 s 1 1 s 1 d 1 s 1 1 1 1 d 1 1 1 s s s a a a s c s m a c c l c l c L m m L L l L L l m m I l m I l L c c c L c L c L L L L L L I W I W L L W W [ u.u.u.Q.D._ ] N.S.E.S.W.E.6.S.6.6.6.6.6.6.7.7.E.R.R.u.Q.u.Q.R.Q.Q.].|.+X X]. X X X X X@X X X@X@X2X@X2XrX2X4X4X4X4X0X0X9X9X0X0X0X'.Q.`.`.%X`.oX`.>X%X`.%X%X`.`.%X`.%X`.%X%X%X%X<X0XwXgXwXuXgXgXgXgXxXgXgXxXhXxXhX",
"MXxXMXxXxXxXxXxXxXxXgXxXG.' ;.R Y R R / ( / r.' ' ' U K U R U / / n.5X=X#X#X}.].K.S.l.#.S < < < < < w o o   o o 2 d.|.: : : & k 8 8 f 1 6 1 1 1 1 1 a 1 1 1 a 1 1 1 1 s 1 1 1 > 1 1 d : 1 2 d d 2 2 s 1 a s a a c h h h h c h c l c l L c L L c L L L m L K L K L L l L L c L c L c L L L L L L L L L W W L W W W t.B.D.Q./.` N.N.W.S.A.W.W.(.~.^.~.~.W.E.V.R.V.Q.Q.Q.t.Q.u.Q.u.u.Q.Q.Q.|.|.|.|.|.|. X X X@X X@X@X@X@X2X2X4X4X2X4X4X4X9X4X4X4X9X`.'.%X`.`.`.`.`.`.`.`.`.`.%X`.>X3XwXwXwXwXwXgXwXgXwXgXgXgXgXgXgXhXgXgXxXhXxXhXxX",
"hXhXhXxXxXxXxXxXxXgXhXgXgX<Xr.E R R R / / _ _ ] e._ K U E U R R 4X5X5X@X#XXX}.}.].S.l.j.g.i.O.s.F 2 % < d.d.lXU.I.T.L.#X$.: : : 9 g 4 6 , 1 2 1 , 1 1 , 1 1 1 1 1 1 1 : 1 d d : : d d 1 1 d d 1 s 1 d 1 a a s s a a h s h m h c c c c c B L L s l L K m L K L m K B m m c c L c L c L L L L L L L L W L W W [ L W ] m.b.N.3.N.~.).~.).).).].).~.~.(.~.E.W.E.Q.R.R.u.B.Q.u.Q.Q.u.Q.Q.u.u.Q.Q.W.OX X|. X X X@X@X@X@X@X@XrXrX2XrXrX4X4X4X4X9X9X4X9X9XW._.'.`.`.`.oX2X4X0X0X9XwX9X9XqXqX9XqXqXqXqXfXwXfXfXqXfXgXhXgXhXhXhXhXhXxXhXMX",
"hXxXxXhXxXhXgXxXgXxXgXgXgXhX0XU E U Y R / _ ' r.] ] R K K E 5X4X4X2X5X5X@XXX}.].K.S.l.h.g.8 O % o q w ; w.U.U.U.Y.*X#X#X].K.& : : 9 9 4 , , , , 2 1 1 2 > 1 1 > d : > 1 2 : 2 d 2 : : : : 2 2 1 d 1 1 s 2 s c s h h h h h s h s a c c L B L L a L m m B L L L K L K N B L m c L m L L m L c L L L L L L L W L W W W b.b.b.n.] ~.~.~.~.(.).(.).).).~.(.!.~.!.E.R.R.B.Q.B.Q.u.u.Q.u.Q.%Xu.Q.Q.Q.'.Q.].@X X X@X X@X@XtX@X@X2X2XrX2XrX4X4X4X3X9X3X,XoX_.9X9X4X9X9X9X9X9X4X0X9X9X9X9X9XqXqXqXqXqXqXfXfXfXfXfXfXfXfXhXfXfXhXhXhXhXhXhX",
"hXhXhXhXhXhXhXgXgXxXgXcXgXgXhXxXxXM.R / / _ ) ` ] ] ] ( ,.yX4X4X2X2X2X@X#XXX|.].Z % # # #   . $ 2 = q q e e e e d.#X}.}.].].4.- & $ 3 9 , , > , > , 1 > : 1 : 1 2 > : > > : : : : 2 > d d : d d 2 2 d 2 s s a s a h h h h h h s a c c L c L L h L I m m L B L m K m L m m L m L L c L c L L L L I L L L L L [ W W [ t.t.m.B.] e.~.).).(.~.).(.~.).).~.(.~.W.W.E.R.V.R.u.Q.B.Q.u.u.Q.Q.Q.Q.Q.Q.Q.'.Q.Q.Q.].@X@X@X@X@X@XrX2XrX2X,X`._.^./.'.^./._._.E.3X3X3X9X3X9X9X4X0X9X4X9X9X9X9X6X7X7X7XqXfX7XqXfXfXfXfXfXfXfXhXhXhXhXhXhXhXhX",
"hXhXgXgXgXfXwXfXqXqXqXqXqX7X7XqX7XqX7X3X/ R ' 1XpXpXpXyXyXtXrX4XrX2X}.E { x d > > : % % # % & - = = q q q 9.9.9.J J } J 4.; * & : : $ 3 3 , - > 2 : : > 2 > : : 2 d : : > 2 : d : d 2 : : 1 2 : 2 d 2 d 2 a 2 c a f s s l s s c c c c c c B c s L L L L L K L L L L m B L m L c m c L L L L L L L W L [ W W L W W W e.b.t.t.[ r.W.(.~.~.).).).).|.~.).(.(.W.~.W.R.R.R.Q.t.u.R.Q.Q.Q.u.Q.Q.u.Q.Q.Q.Q.Q.Q.'.Q.R.|.|.(././././.^.~.$X$X/.^.^./._./._.E..X9X3X9X3X3X4X9X9X3X9X9X3X6X6X6X6X7X7X7X7X7X7XfXfXfXfXfXfXhXfXfXfXhXhXfXhXgX",
"V.V.V.E.E.N.E.4.5.5.*.*.z Z N.8XvXvXiXvXvXiXyX] ] ] ] A.2X(.` ` [ [ { { { l d 1 : # % # # = & = = q q e e e 9.9.J H H $.o o = $ $ : $ $ 4 4 > > & : & : : : : 2 : : : : : : : : : : : d : d : : d : 2 d 2 s 2 s a h c s h h f f c c c B c L j h L L L N L L L N P L L N L B m B L L B L B L L L L L W W W L W W W [ t.t.t.t.r.[ e.~.).~.).).~.).(.`.).|.].(.].(.E.E.N.R.R.B.R.B.Q.Q.Q.Q.Q.Q.Q.Q.Q.Q.Q.Q.Q.%Xu.u.~./.~./.~././.^._./.^.^._.^.^.).).~.oXOXoX+XoX+XoX`.`._.%X`._.`.%X`.>X%XoX_.+X+X].~.!.G.E.S.A.A.D.A.S.N.A.N.V.A.",
"E.A.A.A.E.Q.'.>XiXiXzXzXaXvXvXiXvXiXaXiXiXiXiXuXpX4X[ [ ` [ [ [ { [ { { l d d > > : % ; * * = = = q @ e e e 9.9.J | o.o = o = $ $ $ : $ % * > * > & > & & : & : : : : : : : : : : : : : : : : : 2 2 2 : d 2 a a s f h m h j h f a a w B B B s f P P L L L K L B L N N L N m L m B m L m L L L L L L L L L W W W W W [ t.t.t.r.r.e.E.(.).].(.+X).+X|.(.(.(.].W.].W.W.R.N.N.R.B.Q.B.Q.Q.Q.Q.Q.Q.Q.Q.Q.Q.Q.'.u.u.%XQ._.~.~.~.~.^.^.^.^._._._._._._.W.oXoXoXOXoXoXoXoX_.>X`.`._.%XoX`.%X>X`.%X_._..X_.{.].!.[.G.G.!.A.G.A.A.A.A.V.A.",
"cXwXuXuXuXuXiXzXzXzXzXiXvXvXvXiXvXvXaXiXiXiXpXpXyXyXrX4XOXE.N.A.R.3.n.<.[ >.=...` E > * * * + = @ = @ e e 9.9.9. .| i o o = = o $ $ $ : & % 3 * & & $ $ $ : $ $ : : : : : : : : : : : : : : : : : : 2 d 2 2 2 s s a h c L s h f f c c w B B a h L N L N B L L L N L L L N L m B B K B B B B L L L L L W W W W W W 0.[ t.t.[ [ r.e.t.~.(.).(.~.).(.|.(.|.|.6.|.6.6.W.6.N.R.N.R.V.V.Q.B.Q.Q.Q.Q.Q.Q.Q.Q.Q.Q.Q.u.'.Q.Q.~.).)./..X^.`..X_._._._._.).`.).`.`.(.(.`.`.`._.`.>X_.oX%XoX%X>X%XoXoXoX>XoX1X.X.X^.}.!.!.!.!.!.G.E.E.Q.R.6X",
"wXuXuXcXuXiXuXcXzXiXiXzXiXiXvXiXaXiXiXiXpXpXpXpXyXtXrXrX4X4XrX2X2X@XOX+XXX].}.W.4.4.:., + = = + @ @ e @ e 9.9.w.H X.O o o = = $ $ $ : $ : : % > & * $ $ $ $ $ $ o $ : $ : : : : : : : : : : : : : : : 2 2 d d 2 s s s j c B f h v w B B c B a j L L P L B L L L L P L P L N P M L m B L L L L L L W L W W W r.W r.[ r.t.t.r.[ r.e.t.b.{.{.+X].|.(.|.|.|.6.|.6.|.6.6.W.6.S.W.N.N.R.E.R.Q.R.R./.Q.Q.'.Q.Q.Q.Q.u.%XQ.Q.Q.).{.+X.X_._._._.oXoX`._.`.`.+X`.+X`.).(.~.).~.(.~.E.W.'.'.`.`.%X>X%X>X%X%X>X_._.{.^.'.R.8XwXqXwXwXwXwXwXwX",
"uXuXuXuXuXiXiXiXuXzXiXiXzXiXiXiXiXiXiXpXpXyXpXrXrXrXrX4X4X2X2X2X2XOX@XXX+X}.W.A.S.<.:.;.q.+ = @ @ e 9.9.i 9.J J o.X o % = o = % $ $ $ $ : $ : % * * * $ % $ # $ : $ $ $ # : : : : : : # : : : : : : : 2 d 2 2 d s s s h c L B a f c B c L s s a L P L B N L m N L L P Q L B L L m K L L L L L L L L W q.W r.W W r.[ e.e.t.[ r.r.e.t.m.m.~.+X{.+X].].|.|.|.].8.6.W.6.].6.4.W.E.W.E.E.E.E.E.E.E.R.R.Q.'.Q.'.Q.Q.Q.Q.Q.'.Q.{.+X+X.X+X.X.X.X_.oX`.`.oX`.`.`.).).).).^.~.'.W.~.E.W./.'./.R.E.'.^./.%X6X7X7X9XqXqXqXqXqXwXwXwXwXwXuXuX",
"uXuXuXuXpXuXuXiXiXiXiXiXiXiXvXiXiXiXyXyXyXyXyXyX4X4X4X4X2X2X2X2XOXOXXX+X].~.].1.l 6 6 > + = + = @ @ @ 9.9.9.J ! % O O % o = q % $ % $ $ $ : : & : * # * % * $ $ $ $ $ # : $ $ # : : # : : # : : : : : : : 2 d 2 1 s s s h L L L c v v B B 1 a s P L L P B L L L L P L P L P P L L L P B L B Q L r.L L W W W r.W [ r.[ t.t.r.[ r.t.t.m.t.m.Q.].].+X].].]. X8.|.6.6.6.6.6.].4.4.W.S.W.W.W.E.W.W./.E./.Q.Q.$XQ.Q.%X$XQ.$X$X/.+X.XXXoXoX.XoXoX`.`.oX`.`.`.`.`.).).).).).~.~.~.~.!.'.~.E.~./.>X6X6X6X6X7X7X6X6X9X9X9X9X9XwXwXuXwXuX0X",
"uXyXpXuXuXuXuXuXuXiXiXiXuXiXiXiXiXyXyXyXyX4XrX4X4X4X2X2X@X2X2X,XOX~.>.P I M M h g f < = o = @ q e e e 9.F J P   % o o % = = = $ $ $ $ $ : $ : : : # * * $ # # $ $ # $ $ $ $ $ : : $ : : : : : # : : : : 2 : 2 d 1 d a s f B L B P c v m B 1 d s N L L Q m L L L B P L L Q P P P N P L L P L L Q L L W r.r.Q [ [ 0.r.r.t.t.r.r.r.m.m.m.m.m.C.D.|.|.|.].|.#X6.].8.6.6.6.K.4.6.K.6.6.].W.S.W.E.W.E././.E./.Q.Q.%XQ././././.^./.XX+XoXoXoXoXoX`.oX`.`.`.`.`.`.).).).).).~.~.).~.'.~.'.>X3X<X6X6X6X6X6X6X9X6X9X9X9X9X9X0X0X0X0XuX0XyX",
"0XwXyXyXuXyXuXpXuXuXuXuXpXiXiXpXpXyXyXyX0XrXrXrX2XrX2X2XW.] ] ` / R R R P K M M b f $ = q + @ q @ e i i J F @ O O % O = O q q % % % $ $ $ $ $ : : : # * * $ % % $ : o # $ $ $ $ # : # : : o : : : : : : : : : 2 1 2 s s s h L L Q L B B B 2 1 a K L L L N L m K P L Q L L Q Q P P P P P P Q Q Q q.r.W W W 0.0.r.r.r.t.t.t.[ r.t.m.m.m.m.m.B.m.V.|.].|.].8. X6.].].6.].8.6.].6.].W.6.].W.W.].].E.W.~.~./.^.$X'.$X/._.%X^.^.`.^.OX+X+X+XoXoXoXoX`.`.`.`.`.`.`.).`.).(.'.).'.~..X3X3X3X<X3X6X<X<X<X<X9X<X9X9X9X4X9X0X0X0X0X0X0XyX0X",
"yX0XyXyXyXwXpX0XpXuXyXpXuXuXuXpX0X0X9X0X4X9X+XR.t.b.e.t.] ] ] ] ] R R P P P K M h > & - = @ q e e e i C J G O O O % O + = q q % # $ $ $ $ $ $ $ : $ : $ # $ * * $ % & % $ * $ $ $ # $ $ $ # : : $ : $ : : : : : 2 d d a s s L P W Q W B v 1 1 s m L L L L m K N P L L Q P W W P P P L Q L Q Q L W L r.r.] 0.r.r.[ r.b.m.e.e.r.b.m.m.D.B.D.B.R.B.D.'.].].6.|.6.].#X8.6.].K.8.].6.6.].].6.6.].].].(.~.~.~.~.^.^.^.^.^._._._._._.1X+XOXOXOX+XoX`.oX`.`.`.`.`.`.(.'.'.).).oX3X2X2X3X3X3X<X3X<X3X<X<X3X3X6X3X3X9X9X9X4X9X0X0X4X4XyX0X",
"0X0X0XyX0XyXyXuXwXyXyXwXyXyXyX0XOXE.D.t.m.m.m.b.C.b.b.,.b.] ] ] / [ / / R R K I j - - = @ q q q e p i F F % # % % O = = q q i % % % # $ $ $ $ $ : : : : * * % % $ % % $ % $ $ # $ # $ # % $ o $ $ # : : : : : : : 2 2 s s c s L W P Q ! K 1 2 1 L K L N P N P P P P P L Q P Q Q W W Q L Q Q W W W r.r.W r.] r.r.t.r.y.m.e.r.e.m.m.B.m.D.B.D.D.V.Q.R.E.].|.].].8.6.6.].8.].].6.].].6.].].|.].].].].].].{.{..X_..X_..X%X.X.X.X.X_.oXOXOXXXOX+X+X`.+X`.`.`.`.'.`.`.`.).,X2X2X2X2X3X2X3X2X3X3X<X3X<X<X3X3X9X3X3X4X4X4X4X9X4X0X0X0X0X",
"4X0X0X0X0XyX0X0XyXyXrX4X0X).t.t.t.u.u.u.m.m.m.B.C.b.R.] 3.t.] [ ` ` / ` R R U l - - = = q q q e p i n n * % * + + = + q q @ 9.% $ % * % $ $ # : # : $ : : # * * % % $ $ $ % $ % * $ # $ % $ # $ o # $ : $ $ : 2 2 d 1 1 s s a L P W W W W 2 1 s K L P B K M P P P P W Q Q P Q W W Q L W Q Q Q 0.q.L r.r.r.r.r.r.t.t.e.m.r.t.m.m.m.m.B.D.D.D.Q.V.V.Q.R.R.|.].6.].].6.8.#X].6. X]. X6.6. X|.6.|.].|.].+X{..X.X.X.X>X>X.XoX>XoXoXoXoX>X@XOXOXOX+X+X+X`.`.`.`.`.`.'.(.'.Q.2X2X2X2X2X,X3X2X<X3X<X3X3X3X3X3X3X3X4X3X4X4X4X9X4X4X4X4X4X",
"0X4X4X4X4X4X0X0X4X0X(.u.R.t.u.R.B.t.m.m.m.B.B.C.R.C.3.t.3.[ 3.] ' [ ] R R R E > - = q q q q e p y C A > * * * % = = = @ e 9.F $ # & * $ $ # $ $ $ $ $ $ : $ > * & * * % $ $ * * % $ % % # % % % : $ $ o $ $ $ : : 2 2 d s a a c W / / W [ 1 2 1 M L L L P P P P W L L Q L Q Q W W / [ W q.W W Q r.r.r.L r.r.t.r.y.e.m.B.r.t.m.m.B.D.B.D.B.D.V.Q.R.A.R.Q.R.|.|.].]. X#X8.]. X8.].8.#X|.].]. X].].].].+X|.+X.XXXXX>XXX>X>X>XoX>X>XoXoX>X@X@XOXOX+X+X+X`.`.(.`.).`.`.^.)./.OX2X,X2X,X,X3X<X2X3X3X<X3X3X3X3X3X4X3X3X4X3X4X4X4X4X9X4X",
"3X4X4X3X4X9X4X`.u.'.[ u.R.t.u.t.B.m.m.B.B.B.V.N.R.3.3.3.3.[ 3.[ ] >.` ] ` ` , - ; = q q q e y i n N = > * * - * = ; q e p 9.*.3 > * * % $ $ $ $ $ $ # $ : # $ & * - * & * & % $ * % # # % % % % : o o $ $ : : : 2 2 : 2 a a a a L _ W W W 2 1 1 K P L L P P U P P P Q L L W W W W W / _ W Q 0.r.r.r.r.r.r.r.y.t.e.m.m.B.r.B.B.m.D.B.D.B.D.V.D.Q.Q.V.R.R.V.R.'.].#X X].].6. X].]. X].#X8.#X|.|.|.XX|.+XXX+XXXOXOXOX,XOX,XoXoX,X>X>XoXoX>X@X@XOX X+X`.`.`.(.`.).(./.~.^.'._.>X,X,X<X3X<X2X<X3X3X3X<X3X3X3X3X3X3X4X2X4X3X4X3X4X3X4X",
"3X3X3X3XoXR.Q.R.u.R.'.R.R.u.R.C.B.B.B.B.D.V.N.R.R.3.R.7.6.3.3.3.>.] >.` ` 1 , , ; q q e p i u n A p 3 > 3 * ; - = @ q e 9.p x # * * # # # % $ # % $ $ $ $ $ $ : * * & * & & & * & % $ % % # % # o $ : $ o : $ $ : : 1 1 1 a a f m W _ ] _ 1 2 1 K P P L R P R P R P P Q Q Q W W W / _ W W W r.Q L r.r.r.r.r.t.y.m.m.m.m.k.m.B.D.B.B.D.V.R.Q.R.V.Q.R.Q.V.B.R.t.R. X8.8. X|.|. X]. X X X X X X X|. X+X XXX@X@XOX2X,XOX,X,X,X>X>X,XOX>X,XoX>X@XOXOX+X+X+X`.).).'.).)._.^.^././.oX,X,X,X,X3X2X3X2X3X3X3X2X3X3X3X3X3X3X3X3X3X3X3X3X3X",
"3XoX'.u.u.R.u.'.R.u.u.R.u.R.C.B.B.B.V.N.N.N.R.R.R.R.6.R.3.[ [ 3.5.[ [ =.1 1 < ; q w q e i y n A A j x , , , ; ; q q 9.9.9.9.3 3 3 * * * * $ % $ # $ $ $ $ $ # : , & * ; > & & $ $ # % % % # % % : # o : o $ 2 $ 2 2 2 1 1 a a m m P W _ ] R 1 1 P P L L P R R R P R Q P Q W W W W W [ _ W r.W r.r.r.r.r.r.t.r.t.h.m.m.m.m.B.m.B.B.D.B.R.D.R.Q.R.V.R.V.R.R.R.C.R.R.|.#X X|.|.#X|. X#X X X X X X X X@X+X X@XOXOX@X2XOX2XOX,X,X,XOX,X>XOX>X>X,X@XOXOXoX|.|.`.(.).+X).).).).^.'.'.>X,X,X<X,X<X2X3X2X2X3X3X3X2X2X3X3X2X3X2X2X2X3X2X3X",
"Q.Q.u.R.'.'.u.R.'.u.7.u.R.3.R.N.R.V.N.R.E.R.R.6.7.R.3.3.7.R.3.3.[ 5.>.j 7 < < w w w p i F n A A j j 6 4 , , ; q e @ 9.9.9.9.3 3 3 * > * # % % # $ $ % $ # $ $ $ $ , > * > * & & * $ * % % % % % $ $ $ $ 2 $ $ : : 2 1 2 1 c c c m m W ] 0.e.2 1 P P P Q P R P R W P P W W Q Q W W Q ] _ 0.W r.r.r.r.r.y.t.y.t.t.t.m.b.y.m.m.B.D.B.Q.D.D.V.Q.V.Q.R.R.R.R.B.R.R.B.R.A.]. X|. X X X X X X X X X X X@X X@X@XOX@X@X2X2X2X2X2X2X,X,X,X>X,X,X>X,XoX>X@X@X XoX+X+X(.).`.+X`._./.)./.^.).,X<X,X<X3X,X<X3X3X<X2X3X3X3X3X2X2X2X<X2X2X3XoXR.",
"'.u.'.R.R.R.u.R.u.R.R.R.R.R.6.R.R.R.E.R.7.R.W.W.7.R.6.3.R.7.3.7.3.[ k h < < w w e y i i n G G l j f 6 6 < < < q p i 9.9.q.s.3 * 3 3 # 3 X 3 * # X # * # % $ $ $ $ $ 1 > - > * & & & & & % % % % $ # $ $ $ & $ : 2 2 2 1 1 c c m B B P ' _ r.2 1 R P P Q U R / U R P P Q Q Q W / r.W W 0.r.W W r.r.r.r.y.y.h.t.m.m.m.m.m.m.B.m.B.B.D.V.D.Q.R.B.Q.R.B.B.R.R.R.R.t.B.B.B.R.+X X X X X X X X@X X X@X@X@X@X@X@X2X@X2X2XrX@X2X2X2X2X2X,X,X,X,X,X,X>X,X@XOX X+X+X).`.+X_.`.).)._._./.).^.>X<X,X<X3X3X<X3X3X3X3X3X3X2X2X3X2X,X>X'.u.Q.u.",
"R.Q.u.R.'.R.'.7.'.R.R.R.R.R.R.R.E.E.R.6.'.R.R.6.R.7.7.R.[ 7.3.[ 3.l j f r w y w y i n F G ! , z l j 7 7 < w y e i 9.9.q.q.p.3 3 3 # 3 * 3 + * * 3 * * * & % % * $ % % 6 * > > * & & % & & & & * % $ $ $ $ 2 & 2 2 , 1 1 w c c B N N P ' ] r.2 1 P / W P R R / R / P W P Q W Q W W L r.W W r.r.r.e.r.e.h.b.e.m.m.b.m.t.C.m.B.m.B.B.D.R.B.B.R.R.R.R.R.R.R.R.t.R.R.B.B.B.Q.R.|.@XOXdX X X X@X@X@X X@X@X@X@XrX@XtX2XrX2XrX2X2XrX2X2X,X2X,X,X,X>X,X,XOX@XOX+X+X|.`.+X+X`.+X_.).~.).).).~.>X<X<X<X,X3X3X<X2X3X2X2X,X,X2XR.'.u.Q.R.Q.'.",
"R.R.'.'.R.R.'.R.R.R.R.'.R.W.R.R.W.'.W.W.6.W.7.W.R.7.R.7.R.3.3.3.E M g v w r y y i i F G U w E k j f f 8 y y p p p 9.q.p.p.p.3 x 3 * 3 # X 3 X 3 % = % * & % $ % % $ $ & 7 > , > * & & & & & & & & $ $ $ & $ - , 2 2 2 w c w c F N N P Q r.' < 1 R / U W R / R / R R Q Q Q Q Q / W r.r.W r.r.W r.r.r.e.e.e.m.m.t.t.m.m.m.t.B.B.m.B.B.R.B.D.B.R.B.B.R.Q.R.R.t.B.B.R.B.B.Q.B.Q.). X@X X@X X@X X@X XtX X@X@X@XtX@XtXtX2XtXrXtX2X4X2X2X2X2X3X,X,X,X,X,X,X@X X+X+X`.`.`.+X).)..X).).^.).).).,X,X<X<X3X,X3X2X2X2X3X'.Q.Q.u.Q.R.'.u.'.u.",
"R.R.'.R.'.R.W.R.R.W.'.7.'.W.W.W.W.W.W.R.'.W.'.'.7.R.R.7.7.3.7.` K h v r r r i i C F G ! Q E z l M b f r t i i 9.9.9.s.p.:.1.3 # 3 3 3 3 3 3 3 X * * * * & & * & * * & $ & 0 > > , > - > - : & & & 2 $ $ & 2 & 2 1 1 1 w w w F F Q U ! ( ' e._ < / R W ! / / ( R / ! P Q ! Q Q W W 0.W r.r.r.r.r.r.h.r.m.e.e.t.b.t.b.m.t.u.B.t.B.B.B.B.B.R.R.B.Q.t.R.t.R.R.R.R.B.t.R.Q.t.Q.D.Q.'. X@X@X@X XdX XdX XtXtX@X@XrXtX2XrXrXtXtXrXrXrX4X4X2X3X2X<X2X<X,X,X,X,XOX+X+X|.`.).`._.`._.)._.).)._.)._.,X<X3X<X<X3X,X'.Q.Q.u.Q.R.Q.'.u.R.R.R.'.",
"'.'.R.'.R.'.'.W.W.'.W.W.'.W.'.W.'.6.'.6.'.6.W.7.'.7.R.3.7.[ [ K h M B r i y i n F G ! ! T E E Z Z g v y i F J 9.s.p.p.p.g.z.3 3 3 3 3 3 # 3 X 3 * * * * - & & & : * & & & : 7 > , - > - > ; & - - & & , & , 1 2 < w c w i B F F G ~ ~ +.! e.,.' / / / / ( / ( R R / / Q W Q Q _ Q r.W Q ] r.r.] e.e.e.t.b.e.b.b.t.r.Q.t.e.t.m.B.B.B.B.R.R.R.R.R.Q.R.C.R.t.R.Q.B.Q.B.B.B.B.Q.D.Q.Q.OX@X@XdX@X@X XtX@XtX@XrXrXrXrXtXtXtXtXtXtXtXtXrX4X4X2X2X3X<X,X<X,X3X,XOX|.`.`.+X`._._.+X.X`.).)._.`.).).>X<X<X(.Q.R.Q.'.Q.Q.R.'.Q.'.Q.Q.R.R.R.",
"R.R.6.'.W.W.6.'.'.W.'.'.'.W.W.'.'.'.W.'.'.'.W.'.R.R.7.R.R.7.K M M v v v v F n F G ! / =.` E K Z N b n n J i 9.9.9.p.i.k.z.z.3 3 3 # 3 3 3 3 3 3 > ; 4 * ; & - & & & & & & & & 7 4 > , 1 > - , , , , - , - , ; 2 w w w i i 9.J J ^ O.+.+.+.r.h.( ( ( / / ] ( ( / / / Q ! Q _ W _ Q r.r.r.0.r.e.r.e.e.h.e.t.t.t.] ] k.Q.t.m.m.m.m.m.B.B.B.t.R.t.t.R.u.R.B.R.R.t.R.B.B.B.Q.D.Q.Q.Q././.+X@X X XdXdX@XdX@XdXtXtXrXtXpXtXpXdXtXpXpXtXtXyX2X4X3X2X3X2X3X<X3X3X+X`.`.`.`._.`._._.).+X.X+X`.).+X_.).~.~./.Q.Q.'.Q.Q.Q.'.R.Q.R.R.'.'.R.'.",
"'.W.'.W.'.W.'.'.W.'.W.7.6.'.W.(.6.'.6.6.6.(.7.7.6.7.R.7.[ P K M M v n n F F F ! ! ( ` ` R T E Z b n n i 9.q.q.p.s.s.g.z.M.n.3 3 3 3 3 3 # 3 3 # , , , * > * - * > & > & : & > - 5 , , , , , , , , , , 2 1 ; < w w e i i q.q.q. .$.#.#.:.;.( ;.' ] ( / / +.( ( ( ( ! W Q Q Q _ _ r.Q [ 0.r.r.r.e.e.e.t.e.] b.e.b.t.h.B.e.t.t.m.m.C.B.C.C.Q.t.R.R.R.u.t.R.R.t.B.B.B.D.R.D.Q.Q.Q.D./.Q./.).dX XtX@X@XdXdXtXtXtXtXtXpXpXpXaXdXdXpXtXtXtXtX4X4X3X2X3X2XoX+X`.+X`.`.).`._.`.oX`..X_..X`..X_.).`.)./.~./.'.R.'./.Q.'.Q.'.R.R.'.'.W.'.R.",
"W.'.W.'.7.'.W.W.'.6.W.'.'.W.'.7.'.W.(.'.'.6.'.W.'.7.7.R.{ P m B B n F n F F A ! / f -.-...R Z A A n F q.q.q.p.p.a.a.z.z.z.Z.3 3 3 3 3 # 3 3 3 3 3 * 4 * > , , > > > & > > - - > > 5 6 , 4 < 5 , , , < , , < w w e i 9.q.q.q.O.i.a.%.:.:.<.G.-.;.@.] ) _ ;.' -.( ( / ! _ W _ Q _ Q 0.0.] r.] e.e.e.e.t.e.t.t.' t.e.t.Q.t.e.t.C.m.C.C.B.R.u.R.C.u.C.R.t.R.Q.t.R.B.B.Q.D.Q.D.D.Q./.Q./.Q.^.]. X@XtXdX@XtXtXtXtXpXtXaXpXpXpXaXaXpXaXpXtXyXtX4X4XOX`.+X+X(.`.`.).).`.`._._._.oX`..X_..X.X.X+X.X).).).)./././.'.R./.R.'.~.W.'.W.'.W.'.",
"(.'.(.'.(.'.'.W.W.'.'.6.6.'.(.W.(.6.6.'.W.'.W.7.W.6.7.K M m B n B n N F G ! ! / G >.>.....R Y A G J J 9.q.p.s.p.k.z.M.C.V.o o > 3 3 3 3 3 3 3 3 3 3 4 3 4 > , > , : , , - > , 1 , 1 6 5 7 , , 7 7 < < < w w e e 9.9.9.s.s.a.a.x.x.2.x.k.r.h.M.;.;.' ' ) -.;.-.( ( / / / _ _ W _ W r.r.r.r.] r.t.e.t.r.t.t.e.[ e.e.b.R.e.e.h.m.b.C.C.C.R.C.C.u.C.R.u.C.R.Q.B.B.B.Q.D.B.Q.D.Q./.Q./.$XQ.Q.).'.oXtXtXtXtXtXtXpXpXtXaXdXpXaXaXaXdXaXtXpXaXOX|.`.`.|.`.`.`.(.).).).)._._.`.>X_.oX1X_..X.XoX.X`.+X+X).).).'./.'.~.'.'.~.~.'.E.(.W.~.'.",
"(.W.(.(.W.(.(.(.'.(.(.'.'.W.'.(.(.'.'.(.7.6.'.'.7.R.m M M m m v F N F F ! R / ( >.>.-.] ( Y U G G J q.q.p.s.k.z.z.Z.A.: o % o = # 3 3 d 3 3 6 3 9 6 3 3 4 , 4 4 , , , , , , - , , , , 6 6 7 7 7 7 7 7 < w c i 9.9.9.9.d.d.d.a.J.J.J.0.r.r.r.k.j.;.;.' ' ;.-.;.;.' / / _ Q _ _ _ 0.] W r.[ r.r.[ e.[ ] t.t.[ t.e.e.t.R.r.e.b.b.C.C.N.C.C.R.C.R.t.t.R.R.C.B.B.B.B.B.Q.Q.D.Q.Q.D./.Q.Q.Q.^.Q./.R.~.tXtXtXtXdXtXaXaXpXaXaXaXdXaXaXaXOX`.|.`.`.`.`.|.(.|.(.`.).`.`._._._._._.>X_.oX.XoXoX.X`.+X`.`.`._.~.^.).~.~.~.~.'.~.).~.).(.(.'.",
"(.(.'.(.(.(.(.'.(.W.'.W.(.(.(.'.'.'.'.6.(.'.'.7.'.l l M m v B B F N A ! ! R ] 3.3.>.=.+.Y ( ! G J q.0.p.s.p.k.v.Z.S.o o o o o o   o $ 3 3 3 3 3 3 3 3 9 6 3 6 4 1 , , , , 1 , , , 1 1 7 7 7 7 7 7 7 w r r i 9.9.w.w.d.d.d.J.J.K.K.) 0.p.p.c.k.m.<.;.' ' <.1.-.-.( ( / / _ W _ 0.r._ _ r.0.r.[ r.e.e.t.t.] t.e.e.t.R.R.b.e.,.b.3.C.3.3.R.t.3.C.R.R.t.t.R.Q.B.B.B.B.Q.Q.Q.Q.Q.Q.$X/.$X'./././.'.'.E.2XdXdXtXaXaXpXaXdXaXaXaXoX|.+X|.`.).|.|.(.+X(.+X(.`.`.)._.)._.`._.`._.%XoX_.>X>X.XoX+X`.+X`._..X).)._.).).).).).).).).(.).).(.",
"(.(.(.(.(.'.(.(.(.(.(.(.(.'.'.(.(.6.(.'.W.(.(.(.3.[ I m b v B n F F ! ~ R ] [ 3.,.-.-.] ( ( ^ J q.0.s.p.s.s.z.Z.o o o = o o o o o o o o > x x > x 6 6 6 6 6 3 6 4 , , 4 , , , , < , 1 < 7 7 7 r r 7 v w i F 9.q.w.d.d.d.d.P.P.P.^ 0.0.r.H.k.m.c.j.,.f.' :.<.<.-.-.( _ _ _ _ _ _ _ _ r.r.r.r.r.e.] e.t.] e.t.e.e.h.R.A.b.' t.,.C.N.3.C.C.C.R.R.t.t.R.R.t.B.B.B.Q.Q.D.D.Q.Q.Q.$XQ././././.'./.E.E.~.W.OXdXdXaXaXaXaXaXoX|.(.(.).(.(.`.(.`.).(.(.`.(.(.`.(.).)._._._._.%X_._._.1XoX.XoXoXoXoXoXoXoXoX_.+X.X_..X).).).).).).).).(.).",
").(.(.).`.'.(.'.'.(.(.(.(.(.(.(.(.(.'.(.'.'.6.7.7.>.` ` R R B F N Q ! / ] R 3.3.,.] -.' ( ) ^ 0.p.s.p.s.c.M.[ o o o o o o o o = % % o % o = > d 3 3 x 8 9 9 3 9 6 , 7 , , 7 4 7 < 1 6 5 7 b f 7 v r b y i F 9.q.w.d.d.d.U.P.P.0.0.0.w.c.H.k.D.D.M.f.;.r.<.<.1.<.-.( ' / _ _ ] 0.0.' r.] e.e.e.] e.t.e.t.] e.e.t.' A.R.C.t.b.3.C.3.R.3.4.N.N.N.N.R.C.C.B.R.B.R.B.D.Q.Q.Q.Q.D./.Q.^.Q._.Q./.Q./.E.R.'.R.).aXaXpX`.(.(.(.).(.).(.|.|.`.(.`.(.(.|.).`.(.).'.^._._._.oX_._._.oX_.>X>X>X).oXoXoXoX>XoXoXoXoX.XoX.X.X`.+X`.).+X).).).`.",
").`.(.`.(.(.`.(.(.(.(.(.(.(.(.'.(.(.(.(.(.(.(.(.[ [ ] R R P U N Q n ! / F 3.3.] >.;.' +.) ) 0.p.p.p.g.k.k.o o o o o o o o o o o o o o o o = = = x g k x x 9 x 9 6 7 7 7 < 7 < 7 7 7 7 7 < r C v v r y F F q.q.w.w.d.d.d.Y.U.p.0.s.s.d.s.m.k.D.c.F.M.g.h.<.<.<.1.;.' ( _ _ _ 0._ _ ' ] r.r.] e.t.r.] e.e.e.e.] t.] E.E.3.' ] ] 3.3.3.3.R.4.3.N.N.C.R.C.R.B.V.D.Q.Q.D./.Q./.$XQ././.Q.Q._./.'.~./.E.R.Q.R.R.(.W.(.(.(.~.(.).(.(.(.(.(.(.(.(.(.(.(.(.).).).)._.)._._._._.oX%XoX_.1X>XOXoXOXoX>XoXoX>XoXOXoXoX.XoX.X.X_..X`.`.+X+X).",
"+X`.`.`.(.`.`.(.(.`.`.(.(.`.(.`.(.(.(.(.(.(.(.6.3.` ` R ! U Q G G F G ^ 3.[ ,.,.;.' -.) 0.0.p.p.p.c.v.:   o o o o o o o o o o o o o = o = o o = % & 9 x k 9 9 x 6 f 7 7 7 7 7 7 7 7 7 7 r r r F r n F F q.9.q.w.w.U.U.v.s.q.w.w.d.d.d.U.c.m.c.D.D.D.j.h.<.4.<.<.-.' ( ) _ _ ] 0._ r.' r.' ' e.' t.e.t.e.e.r.t.e.C.>X<X6X%X] ] R.3.R.3.R.R.4.N.E.N.R.N.N.R.V.V.V.R.Q.Q.Q.Q.Q.$XQ.Q._.Q.).~.'.Q.'.Q.E.'.R.(.W.W.(.E.(.(.E.(.(.~.(.(.(.(.(.(.(.(.(.(.).).)._.)._._._._._.%X_.%XoX>XOXoXOXoXoX>X>X>X>X>X,XoXoXOXoXoXoXoXoXoX+X`.`.`.",
"`.`.).).`.`.(.`.`.(.`.`.`.(.`.(.(.`.(.`.(.(.(.(.7.] R ! ! ! _ G ^ ^ _ ^ 3.>.] -.] ;.' ) f.0.p.p.k.V.      o     o o o o o % o o o o o = o o = o % % % 3 x x k 9 8 9 5 7 8 r f 7 r 7 r r r r F F ~ t F F J q.0.0.s.c.v.p.0.q.w.d.d.d.U.v.M.c.D.D.H.H.j.h.4.<.3.1.1.-.' _ _ _ ] _ ' ' r.' ' e.' e.] e.e.e.e.] e.t.t.W.6X<X6X6X<X[ 3.3.4.3.6.4.4.N.N.S.N.E.V.R.Q.R.V.Q./.Q./.Q.Q.$X^.Q.^./.Q././.'./.R.Q.E.W.W.'.W.W.'.(.(.E.(.(.(.(.(.(.|.(.(.(.(.(.).).^./._._._._.oX_.oX_.oX_._.OXOX,X>X>X,X,X>X>X,X>X,X,X>X,X>X>XoXoXoXoX+X+X+X",
"+X`.`.`.+X`.`.`.`.`.`.`.`.(.(.`.`.`.(.(.`.(.(.(.7.` ( / ! ! _ ! 0.^ ) ^ >.>.] -.' ;.) 0.f.f.i.k.                o   o o o o o o = o = o = o 2 o = $ = = 2 d x j x 8 8 9 f 7 7 b 7 8 v r t F F 9.q.J p J F q.0.0.c.c.^ s.q.s.w.d.d.lXlXP.v.F.D.F.H.Q.I.g.3.4.<.1.,.-.( ) ) _ ' ) ' ' ' ;.r.' ,.' h.e.e.e.r.e.e.e.e.t./.6X<X<X6X<X<X3.C.3.E.6.S.6.W.S.W.N.E.N.A.E.E.Q.Q./.Q./.Q.'./.Q.'.$XQ.'./.Q.E.Q./.R.(.W.W.'.E.(.(.W.(.(.(.(.(.|.(.6.(.|.(.(.~.).^.)._.^._..X.X_._..XoX_.oXOX,XOX,X,X>X,X,X>X,X,X<X,X,X,X,X,X,XOXOXoXoXoXoXoX",
"+X+X+X`.`.+X+X`.+X`.`.`.`.+X`.`.`.`.`.(.(.|.(.(.7.' ! / ! _ ^ ) ) 0.0.! ,.] ] ' ' ) 0.f.p.c.[ . .                 o o . o O o % o o o o o = o 2 o % o 2 = = 1 s k g 8 8 8 g v 7 v r r v n i 9.9.q.d.p.J J 0.0.p.c.) 0.0.s.d.d.d.d.lXT.P.z.c.D.D.D.I./.M.4.<.3.5.1.] ] ' ) ) ( ' r.' ;.r.;.,.,.h.,.,.h.' e.e.h.t.e.m.m.1X6X6X6X6X<X6X<X4.3.4.6.4.4.6.4.W.W.E.E.E.E./.R.E./././././.^.'.^.^./._././.'./.R.W.R.6.W.W.(.(.W.(.W.(.W.(.(.(.(.(.(.(.(.(.].).^.+X+X.X)._..X_._._._.,X,X,X,X>X,X<X,X<X<X<X<X<X<X<X<X,X,X,X,X,XOXOXOXoXoX",
"oXoX+XoX`.+X`.+X`.`.+X`.`.`.+X`.`.(.+X`.`.(.|.(.6.` ! ~ _ ^ 0.0.0.f.;.! ` -.-.' ) ' ( +.k.. . . .     .             O . .   o o = % o % % o = o o 2 o = o $ = 2 3 g g g 7 b g r r b y n i i q.w.w.d.d.q.! 0.0.s.0.p.s.0.d.d.U.lXlXlXT.v.M.D.F.U.I.Q.H.I.3.<.3.1.1.-.-.( ( ' ( ' ;.' ,.,.,.h.,.h.h.h.e.e.h.h.b.e.m.m.m.h.6X<X6X9X6X3X6X9X6X6.4.6.6.6.].S.S.W.S.W.!.E./.E.W.Q.~./.^.Q.Q.$XQ.'.^./././././.R.'.W.W.W.W.'.W.W.(.(.(.(.6.].|.6.|.(.|.].).).+X^.+X+X.X+X_.+X_.`..X2X,X,X,X,X<X<X<X<X<X<X3X3X<X3X3X3X3X2X2X,X,X,XOXOXOX",
"oXOXoXoXoXoXoX`.+XoX`.`.+X`.`.+X`.`.`.+X+X`.|.(.6.~ ( _ ! 0.0.0.h.j.n.U ;.' ( ( ' 0.f.x . . . . .   . . . .     O .   O O O O X o o % o o $ o 2 2 o 2 $ = 2 = = & $ 3 x g 8 f b b b B y F q.q.q.w.d.d.lXs.0.p.p.p.s.0.c.d.d.d.lXlXlXT.a.F.F.H.D.H.H.^.^.S.4.4.>.>.=.] ( ( ] ' ' ' ,.' ;.,.,.j.,.h.,.,.b.' h.h.h.h.m.m.m.h.6X9X6X9X6X9X6X9X9X6X6.4.6.6.4.].6.W.W.W.W.~./././.'./._./.'.^.^._.Q.Q.'.^.E.'.W.6.W.W.W.W.(.(.(.].(.].|.|.].6.|.|.6.|.].|.].+X{.+X.X.X_._.+X_..X2X,X,X2X<X3X<X3X<X3X<X3X6X<X9X3X3X3X3X2X<X2X,X,XOXOXOX",
",XOXOXoXoXoXoXoXoXoXoX+X`.+X`.+XoX`.+X`.`.(.`.|.(.R ~ ~ ^ 0.r.3.h.b.3.-.+.( ) ) 4 u . . . . . . . . .   . .     X X O X X * X X X % X O $ % % o $ $ $ $ $ = $ $ = 2 2 6 6 8 8 b v b y F F 9.q.w.d.d.U.I.d.d.@.p.p.p.s.w.d.d.d.lXT.-X5XZ.F.D.G.D.H.$XH./.].S.S.G.M.M.M.M.k.k.k.f.,.;.f.h.h.h.,.j.n.f.,.h.h.b.h.b.b.m.M.m.n.C.9X6X6XqX6X9XqX9X9XqXwX6.W.6.6.].].].W.].~.W.~.~./.)./.^./._.'.^.^._././.Q.^.W.W.W.W.W.W.W.W.(.(.].|.].|.|.|. X6. X].|.|.}.+X+X+X+X|.oX+X+X_.2X2X3X3X<X3X3X<X3X3X3X9X9X<X9X9X9X3X3X3X3X2X3X2X,X,X,X,X",
",X,XOXOXOXOXOXoXOXoXoXoXoXoXoXoXoX`.+XoX+X+X+X(.|.( ( ^ 0.) r.[ j.n.3.-.( +.( @.. . . . . . . . . . . .   . . . X X X X X X O * % X % % o % o $ o % o : o % = = $ 2 1 2 1 x g b n v F F q.q.q.s.s.U.U.I.d.c.@.p.p.p.c.d.U.U.U.&X&X-XXXZ.F.F.H.G.!.H.*XH.}.[.L.F.Z.F.c.D.D.D.D.D.H.D.Q././.H.D.m.n.,.h.h.j.j.n.n.M.M.M.V.V.M.W.9X9X9X9XqX9XqXqXqXwXfXuX6.].6.6.].].].].W.^.].~.^.'.).^.~./.^.Q._.^._.^./.W.W.W.W.].W.(.(.].].|.|. X X|.|. X].|. X+X|.|.|.+XXXXX+X+X+X_.+X2X3X3X3X<X3X9X3X3X9X9X9X9X9X9X9X9X4X9X4X4X3X3X3X2X2X,X2X",
",X,X,X,X,XOX,XoXoX>XoXoXoXoXoXOXoXoXoX+X+X+X+X(.(.' ^ ) ) 0.5.5.<.3.7.( ( Y A . . . . . .   . . . . . .   . . . X O X + O X X X X * # X % # $ # $ % o $ = $ = $ = - 2 ; , 6 7 * b b n J J q.q.w.w.c.U.I.c.d.@.p.p.s.s.c.d.U.U.I.&XY.G.S.H.A.H.G.G.[.}.}.L.}.G.A.G.G.D.F.F.D.D.I.Q.D.I.H././.$X$X$XH.<.n.n.n.n.M.M.Z.Z.S.N.Z.n.+X9XqX9XqXqXqXqXwXfXwXxXxXwXW.].].].(.].|.].~.].].^.^.^.^.^.^.^.^./.^._.'.W.W.W.W.(.].].|.].|.].|.#X8. X X X].6. X X|. X+X|. X+XXX+X+XxXaX3X4X3X3X9X9X4X4X9X3X9X9X9X3X9X9XwX9X9X4X9X4X4X3X3X3X2X2X",
"3X2X2X2X,X,X,X,XOXOX,XOXOXoXoXoXoXoXoX`.+X`.+X|.[ 4...b _ f.{ 8.N.3.3.-.Y # . # . . . . . . . . . . .   . . . . X X X # X + X + + X X % X . % % o % $ = o $ $ $ = = - 2 1 1 7 g X.y F F F q.0.p.c.c.D.H.c.c.;.p.p.k.s.s.c.U.I.I.I.*XS.A.Z.D.G.!./.[.!.}.}.K.].G.D.Z.F.M.D.U.F.D.H.$X/./.$X/././.^.$X/.n.n.n.V.n.S.A.A.A.A.A.S.n.<XwXqXqXgXqXwXgXgXgXgXxXxXxXxX].].].].].|.].+X{.{.].+X^._.^.^.^.^._.^.~.W.W.].(.].].|.].|.|.|.|. X X X8. X X X X#X X X X+X@X XuXKXKXKXIXiX3X9X9X9X9XwX9XwX9X9X0XwX9XwX9X0X0X9X0X0X9X9X3X4X3X3X3X",
"3X3X2X2X,X2X,X,X,XOXOXOX,XoXOXoXOXoXOXoXoXoXW C.R.R.7.5.*.*.{ x > x { ` # o # . . . . . . . . . . . . . . . .   . . . X + X * * * X * X * X * X * X * * % % = = = - 2 1 < < f 0.1.B n F F q.^ 0.y.c.m.D.s.c.O.p.p.f.s.c.c.v.I.D.$X/.Z.Z.A.A.G.G.!.!.XX}.}.].L.L.G.Z.F.H.D.D.H.I.H.$XI.!./.$X$X^.$X^.$X^.n.N.Z.S.A.E.E.S.!.S.A.N.j.qXwXqXwXgXgXgXgXgXxXxXMXMXbXMXMX].].(.].|.|.|.+X}.|.{..X{..X.X_.%X^.(.].W.].].|.].|.|.|.|.8. X X X8. X X X X X X X X XyXKXKXKXKXIXIXIXIXvX4X9X0X0X0X0X0X0X9XwX9X9XwX9X9X9X0X0X0XwXwX4X3X3X4X3X",
"3X3X3X3X3X2X2X2X2X,X,X,XOX,XOX,X,XOXoXOX{ h.b.R.7.7.7.8.8.{ *.{ x # =.` { [ # # . . .   . . . . . .   .   . . . . . O O O O * X X * * * X * X * X * X # + % = % = = - ; < 1 0.) f.n n F G q.0.0.r.c.M.D.c.c.@.p.p.f.k.p.c.c.D.H.H.{.S.V.A.Z.A./.!.!.#X}.}.}.].L.G.G.D.D.H.H.H.H./.H.^.^.$X^.^._.$X%X*X%X$XS.A.A.S.A.S.!.W.S.A.S.M.m.wXgXgXgXgXxXxXxXxXxXMXMXMXMXMXMXBX|.|.|.}.+X+X+X+X+X+X.XXX.X.X_..X~.].].].|.].|.|. X X X X X X X X X@X X X X X2XIXIXIXIXIXIXIXIXIXIXIXIXvXyX0XwXyXwXyX0XyX0X0XwXwX0XwXwX0X0X0X9X0X0XwX4X9X4X",
"4X4X3X3X3X3X2X2X,X2X,X2XOX,X,X,XOXOX{ q.0.k.V.4.7.7.7.5.8.*.*.x S >.` { { { l h d d d 2 . . . . . .     . . . . X X O O O % * + * + + * + X * + * X 3 + % = % = - 2 2 < w ) 0.0.f.n n G G _ _ 0.0.h.h.M.k.k.@.p.p.p.f.c.c.F.c.H.H.|.n.Z.Z.A.G.G.L.].|.}.].}.].L.G.G.D.G.H.I.I./.I.^.!.$X[.^.^.$X1X$X%X1X*X1XA.A.W.G.W.S.].S.S.S.M.n.E.wXwXgXgXgXxXcXxXMXMXMXBXMXGXBXBXBXGX|.+X|.|.|. XXXXX+XXX+X.X.X.X].|.].|.|.|.|.|. X|. X X X X X X X X XdXKXIXIXIXIXIXIXIXIXIXIXIXIXIXIXIXbXuXpXpXyXuXyX0XwX0X0X9X0X9X0X0X0X0X0X0X0X0X9X0X4X",
"0X9X4X4X4X3X3X3X3X2X2X,X,X,X,XOXOXOXG.q.0.M.V.R.6.7.7.5.*.*.{ 6.3.5.] [ { l h s d d 2 2 : # # . - = . . .   .   O X O O % + + * * + 3 + * * + + * + X * % % = $ = = ; G 0.0.0.) 0.t n n G G ! ^ ' 0.h.h.f.f.O.@.p.f.f.k.k.k.c.F.A.n.n.Z.Z.A.G.G.!.|.}.|.}.].[.].!.G.H.H.H./.!.H.*X!.$X[.{.*X*X*X*X1X*X1X1X:X<XG.E.W.].W.W.W.W.E.S.M.M.|.cXgXcXxXxXMXMXMXMXMXJXBXBXGXBXBXBXBXGX+X+X+X+X+XXXXX+X+XXX+XXX|.].].|.|. X|. X X X X X X X X XdXSXIXIXIXIXIXIXIXIXIXIXIXIXIXIXIXIXIXIXIXnXiXuXuXpXuXuX0XwXyXwX0XwXwXwXwXwXwXwX0XyXyX0X0X",
"0X4X4X4X4X3X3X3X3X2X3X2X2X2X,X2XOXH.S.S.0.n.R.R.7.7.7.5.*.7.W.7.5.1.5.{ I h j a 1 1 < 2 : 2 - 2 - - 2 ; 2 ; - = O X O % O % + % + 3 ; * * * * + + * * % * % = = 2 - 0.^ 0.) 0.0.p.n n n G Q ! _ ) ) ' ,.f.f.@.O.@.p.p.k.f.k.c.M.Z.j.n.Z.Z.Z.A./.Z.}.].}.#X|.}.!.S.G.G.H.H.!.$X/.!.*X^.*X*X*X:X:X1X1X1X1X-X5X:X5XE.].!.].].E.W.G.A.A.Z.F.@XcXxXcXMXMXMXMXBXBXMXGXJXBXGXBXNXBXAXZXUX+X+X+XoXOX+XOXOX+XoX|. X|.|. X X|. X X X X X X@XDXIXIXIXIXIXIXIXIXIXIXIXIXIXIXIXIXIXIXIXIXIXIXIXNXiXiXpXiXpXpXuXyXwX0XwXwXwXwXwXwX0XwXyXwX0XyX",
"yX0X0X4X9X4X9X4X4X3X3X2X3X2X2X,XOX!.].].6.h.W.7.'.7.7.7.(.(.W.7.3.<.` l l h h 1 7 , , , : 1 - , - ; - 2 q 2 2 < ; ; - w < ; ; * * + * > * * * * * * + = * + $ = = 0._ 0.0.0.@.0.0.b n n A F G ! _ ) ) ;.f.p.p.@.@.p.f.f.f.k.k.M.M.j.j.n.n.Z.G.G.|.}.}.|.].].].G.].G.G.!.!.H.L.*X*X[.*X{.*X:X:X:X:X:X5X8X<X3X<X,X0XW.W.W.W.K.S.].K.A.H.F.H.iXcXxXcXbXbXMXMXBXJXBXBXGXGXGXGXNXGXBXGXZXPX`.+XoX+XOX+XoXoX|.|.|.|.|.|. X|.|. X@XCXIXIXIXIXIXIXIXIXIXIXIXIXIXIXIXIXIXIXIXIXIXIXIXIXIXIXIXZXaXiXiXuXuXuXuXwXyXwXuXwXwXuXwXwXuXwXyXyX0X",
"0X0X0X0X4X9X4X3X3X3X3X3X2X4X2XOXU.).|.].6.8.7.'.6.7.`.`.(.(.W.6.N.<.E K k h 7 6 7 , ; , , - - , 2 , ; 2 - 2 - 2 ; ; 2 2 2 w 2 2 0 w w 7 0 * * > * * * * & % = - 0.J ^ 0.^ 0.0.0.0.t n n n A ! ! ~ ( ( ' ) 0.@.O.O.p.p.f.f.g.g.g.S.j.j.z.Z.A.G.Z.|.].}.}.}.].}.].E.G.G.!.G.[.[.{.{.{.{.:X:X:X:X5X5X5X9X5X3X3X5X5X5X0X~.W.].W.].!.G.A.G.H.H.I.bXbXbXMXBXMXGXBXGXGXGXGXGXBXBXGXGXNXUXBXBXUXIX`.`.+XoXoXoX(.(.|.|.|.|.|. XiXIXIXIXIXIXIXIXIXIXIXIXIXIXIXIXIXIXIXIXIXIXIXIXIXIXIXIXIXIXIXIXAXaXiXaXiXuXuXuXwXuXwXuXwXwXuXwXuXuXuXyX0X",
"yXyX0X4X0X4X4X4X4X4X3X4X3X2X2X2X{.+X|. X8.8.5.7.y.`.`.'.(.'.R.R.Z.<.z k g g 8 6 7 , < , , , , - - - 1 ; ; ; ; ; ; < q < w < w w 4 5 < w y y y r t V 5 $ * = n ^ ^ ^ 0.) 0.0.) p.k.t n n N F A ! ! ! / ) @.p.@.#.O.f.p.f.p.k.g.j.W.j.j.j.n.Z.Z.].].}.].].].].W.!.!.E.G.G.!.!.[.[.{.XX*X:X1X5X:X5X3X3X3X4X4X4X3X5X5X:XuX!.].~.!.}.}.[.[.!.H./.$XMXbXbXNXBXMXBXBXGXBXGXGXGXUXGXUXUXGXGXAXUXAXUXIX`.`.`.+X(.`.(.(.`.iXKXIXIXIXIXIXIXIXIXIXIXIXIXIXIXIXIXIXIXIXIXIXIXIXIXIXIXIXIXIXIXIXIXIXIXDXvXaXiXiXiXuXuXuXwXwXuXcXuXwXuXuXyXuXuX",
"yX0XyX0X0X0X0X0X3X4X4X4X3X4X2XD.+X+X|.|.8.8.8.[ (.'.'.'.Q.Q.Q.Q.Z.z.Z k g k g 9 6 4 4 4 , > ; , 4 ; ; ; ; - 5 , , < < ; < < < < w a w r r w v w v B v F F F ^ ^ ^ 0.^ 0.0.^ 0.0.p.t t n n N G A U ! U ( ^ ) @.#.O.p.p.f.f.f.g.g.<.h.j.M.l.Z.A.].].].].].].].G.].G.A.G.G.!.[.[.[.{.XX:X:X5X<X5X3X4X4X4X4X4X4X4X3X5X8X:XiX}.}.~.}.}.].[.{.[.$X$X1 c c t.`.iXJXJXJXUXGXJXGXGXUXGXUXGXUXUXUXUXLXLXKXIX`._.'.).pXKXKXKXKXIXIXIXIXIXIXIXIXIXIXIXIXIXIXIXIXIXIXIXIXIXIXIXIXIXIXIXIXIXIXIXIXIXIXIXFXaXmXiXzXiXzXcXuXcXuXwXuXuXuXuXuXuXpX",
"uXyX0XyX0X0X4X4X0X9X9X4X4X3X2X%XoX+X|.|.8.8.8.|.7.7.u.u.Q.Q.Q.Q.F.z.E k k 8 x 9 6 4 4 4 , , , ; * 4 ; 4 ; 4 ; ; ; ; < ; 1 < < < < w < w w r c v B r c F c F F _ ^ ! ^ _ ) 0.) 0.0.u b b n n N A A U ! ~ ) @.^ $.@.@.@.p.@.f.g.f.;.g.g.j.Z.Z.K.!.].}.].].S.].W.E.S.G.G.!.!.!.{.{.*XXX:X:X<X5X3X4X4X4X4X4XrXrX4X4X3X5X8X5XpX].].{.{.}.{.[.{.[.c 1 c 1 c c c 2 c c c B y.'.iXGXPXPXPXHXPXLXKXKXKXKXKXKXyXKXLXKXKXKXKXIXIXIXIXIXIXIXIXIXIXIXIXIXIXIXIXIXIXIXIXIXIXIXIXIXIXIXIXIXIXIXIXIXIXIXIXIXDXaXmXaXiXiXuXuXuXuXuXcXcXuXuXuXuXuX",
"uXyX0X0XyX0XyX9X4X4X9X4X4X3Xm..XOXOX X6.8.8.' |.7.'.u.u.u.u.U.U.F.F.k k k 8 9 3 9 4 4 4 4 , * 4 + 4 4 ; , , , 4 < < , 5 < < < < < < < a a v c v w B r n B G J ~ ! ^ ! ) _ ) ) 0.' V t b b n N N A A G ! ~ ^ ) #.#.O.@.@.@.f.@.f.f.j.g.j.j.S.S.].K.].].S.].A.S.E.E.G.G.!.!.}.[.{.*X:X:X:X5X5X3X4X4X4X0XrXrX4XrX4X0X5XeX8XeXiX+X{.+X{.{.XX:X2 2 w 2 2 c 2 2 c c c c c c B B B F q.0.q.r.Q.uXNXKXvX'.R.E.%XoXKXKXKXIXIXIXIXIXIXIXIXIXIXIXIXIXIXIXIXIXIXIXIXIXIXIXIXIXIXIXIXIXIXIXIXIXIXIXIXIXIXIXDXaXmXvXiXzXuXuXcXcXuXuXiXuXiXuXyX",
"uXyXyXyXyX0X0X0X0X0X0X4X4X4X:X,XOXOX X|.8.8.8.8.7.[ u.y.u.u.u.U.H.L.z k k 9 k 9 9 6 4 3 4 , 4 4 4 4 ; 4 4 ; 5 ; 5 , 5 , 5 < 5 4 7 7 f < 7 w w v v v r c B N G ~ ~ ^ ~ ~ ^ ) _ ) ^ k b b v b b N N A U ! ~ ~ ) $.#.@.@.@.@.@.@.S.;.;.f.j.n.j.].K.K.].].].].S.G.Z.G.A.G.L.!.[.{.*X:X:X:X5X5X3X3X9X4X0X4XrXrXrX4XrX4X0X4XeX9XeXiX.XXXXXXX:X- 2 2 2 2 2 2 c 2 2 2 c w c e c 9.F Q q.q.0.0.y.c.y.c.R.R.Q.Q._.%X_.>XKXIXIXIXIXIXIXIXIXIXIXIXIXIXIXIXIXIXIXIXIXIXIXIXIXIXIXIXIXIXIXIXIXIXIXIXIXIXIXIXIXDXCXaXvXvXzXzXzXuXcXzXuXiXuXuXuX",
"uXyXyXuXwX0XyX0X0X0X4X0X4X(.OX2X@X@X X|.8.{ 8.7.7.[ [ u.y.y.u.u.I.6.D k k 9 9 9 4 0 3 4 4 4 4 * 4 ; 4 ; 4 ; 5 ; 5 5 5 4 5 5 4 5 7 6 7 7 7 1 f v r a w r r n S H ~ ~ ~ ~ _ ( ^ ) ) 8 V 8 v b v n N N A G G ~ ^ %.$.#.@.@.@.@.;.,.;.;.j.j.<.S.K.S.].W.].S.W.S.S.S.Z.G.G.!.[.^.[.*XXX:X5X<X3X3X4X4X4X4XrXyXyXrXrXrXrX0X9XwXqXwXjXiX.XoX+X2 = 2 = 2 2 2 c 2 2 c 2 2 2 c c c 9.9.q.q.q.y.0.k.y.c.y.I.A./.Q.$X%X'.!.!.!.}.!.].,XmXSXIXIXIXIXIXIXIXIXIXIXIXIXIXIXIXIXIXIXIXIXIXIXIXIXIXIXIXIXIXIXIXIXIXIXSXmXaXvXvXiXzXzXzXzXiXiXuXiXuX",
"uXuXuXyXyX0X0XyXyX0XyX4X4X:X,X2X2X@X X X8.8.8.7.[ { [ [ y.y.y.&XI.8.k k k 0 k 3 0 0 4 4 4 * 4 4 ; 4 ; 4 5 5 4 5 4 5 5 0 5 5 0 5 4 5 5 4 7 < 7 < w r v B B n S S Y ~ H ~ ~ ~ ^ _ ^ D g V g b n v n N A A ! ! ~ %.$.+.O.^ @.p.p.+.@.;.:.<.g.K.W.].].K.S.].S.S.A.G.G.G.G.G.L.{.{.{.:X:X:X5X3X3X4X4X4XyX0XrXrXyXyXyXyXyXyXyXwXgXgXxXvX%X1 = = = 2 2 2 2 2 w w 2 e c e e 9.9.q.L L r.0.r.y.y.y.u.D.D.!.G.$X$X$X$X$X$X[.^.{.~.~.].~.~.~.(.~.).5XpXSXIXIXIXIXIXIXIXIXIXIXIXIXIXIXIXIXIXIXIXIXIXIXIXIXIXIXIXSXCXCXaXmXvXzXzXzXiXzXuXiXuX",
"uXiXuXuXyXuXyXyX0X0X0X4X3.3X2X2X@X@X X Xr.8.7.7.{ W [ r.q.y.y.I.!.=.k k k 9 k 9 3 0 4 4 4 4 4 * 4 ; ; 4 ; 0 5 5 5 5 0 5 5 0 0 0 0 4 6 5 5 7 7 < 7 w v a r b | | S } H ~ H ~ ~ ^ o.k k 8 b r v b n n N G A G Y %.$.#.o.@.) @.) ( @.;.;.1.S.S.].K.K.].].S.Z.S.G.Z.G.G.G.[.[.[.{.:X*X:X,X5X2X4X4X4X4X4XrXyXtXyXpXyXyXpXuXuXuXgXcXxX%X2 = = = 2 = q = 2 q q 2 w e 2 c 9.c q.9.L q.q.0.r.y.m.D.D.D.D.D.[.&X$X$X$X$X*X*X^.{.{.{.^.^.~.~.~.^.~.).).)._.+X.XoX+X@XyXFXIXIXIXIXIXIXIXIXIXIXIXIXIXIXIXIXIXIXIXIXSXCXmXmXmXvXvXzXzXzXiXzXiX",
"iXuXuXuXuXuXuXuX0XOX(.|.i.3X4X2XtX@X X X8.8.7.[ [ L q.q.w.w.U.I.$XZ Z V k k 0 0 3 0 4 4 4 4 4 0 ; 4 4 5 ; 4 5 5 5 5 5 0 0 t 0 0 9 0 9 0 5 8 7 7 7 7 < r w g | | | | | | H ~ H ^ H } k 8 8 r r v v n N A A A G 2.%.+.@.O.) ) p.( ( @.;.;.S.K.K.K.6.6.S.S.S.S.Z.Z.Z.Z.G.G.[.}.*X#XXX:X5X5X3X2X4X4X4X0XrXyXyXpXyXpXpXiXpXoXc q ; ; q = q q = q 2 q q w q w e w e 9.c 9.9.c q.q.W r.0.r.r.t.y.y.D.D.I.Q.$XI.&X$X&X$X1X*X1X{.{.{.+X^.~.^.~.).^._.^._._..X.XoX.X+XmXFXIXIXIXIXIXIXIXIXIXIXIXIXIXIXIXIXIXIXIXIXSXCXmXmXvXvXvXvXiXzXzXuX",
"iXzXiXiXuXuX2XOX@XOX+X|.z.3X3X2X2XrX Xs.8.8.8.5.{ W 9.q.w.w.U.I.^.Z D k k 8 k 0 0 9 3 9 3 0 3 3 4 + 4 ; 0 5 5 5 r 5 t 0 t t 0 8 8 0 0 0 8 0 0 5 r < 5 r w b | | } | | | H ~ H J ^ z k 8 9 8 v r v F n A N G H 2.&.$.o.o.^ ^ 4.( ( ( ;.S.l.K.4.].].S.S.S.S.S.G.Z.F.G.G.L.[.}.{.XX:X:X5X5X2X3X3X4X4X4XyXyXpXpX.Xm q q 5 q q ; q ; q q ; q q q q q 5 q p p e p i i p 9.J J 0.J 0.) r.e.r.e.k.u.D.D.$X-X1X$X&X%X%X-X1X*X1X*X1X{..X{._.^.^.^.^.^._._._._._.oXzXFXDXFXSXIXIXIXIXIXIXIXIXIXIXIXIXIXIXIXIXIXIXIXIXIXCXCXmXmXvXvXvXzXiXzX",
"zXiXiX4X2X2X2X@XOX@X X+XS.4X4X4X2X@X@X X8.8.7.{ U Q 9.w.w.w.U.Q.{.Z D g V g 8 8 9 9 9 9 0 0 + 0 3 0 4 4 4 ; 5 5 5 5 0 r t 0 t 0 0 8 0 0 0 0 5 5 5 < w < 7 t | | o.| } | | H | ~ S } k g 9 8 7 r y n n G n A C 5.1.$.+.o.O.^ Y ~ ( ( +.S.J.S.K.4.4.S.4.S.Z.Z.z.F.G.L.G.!.}.[.[.{.XX:X:X,X2X3X4X4XwX].R C C t y y t 5 y q w q y 5 5 q 5 q 5 p q p p p p p p i J J J J q.H ^ 0.) ) ' r.r.h.y.u.y.&X-X-X:X8X$X&X&X%X1X1X:X:X{._.*X^.^.^.^.^.%X>X,X3XyXpXvXDXDXDXDXDXFXSXIXIXIXIXIXIXIXIXIXIXIXIXIXIXIXIXIXIXIXIXIXIXAXCXmXmXvXvXvXiX",
"zXiX2X2X2X2X2X@X@X@XOX X}.4X4X4X4X@XOX8.8.7.5.R ! q.q.w.w.d.U.$X{.Z Z V k 8 8 8 0 9 3 0 4 + 4 4 0 0 4 * , 5 , 5 5 r y r y t 8 t t 8 8 0 8 0 0 5 < 7 < < w t o. .o.| | o.| H H ~ G *.k 0 7 7 r y r n n A n A F 2.1.$.o.^ ^ 0.Y U Y R 1.x.4.K.K.6.4.S.l.S.j.z.Z.Z.A.L.L.[.[.}.}.XXXX:X:X2X!.,.P ! ! G G C G u t t t p y y y y y y y p p p y p p p p p u J J J J  .^ p.0.@.O.;.@.;.;.r.h.e.m.I.&X&X-X6X,XIXIXIXIXIXIXIXIXIXIXIXIXIXIXIXIXIXIXIXIXIXIXIXIXSXDXDXDXDXDXDXIXIXIXIXIXIXIXIXIXIXIXIXIXIXIXIXIXIXIXIXIXIXIXIXZXmXmXmXvXvX",
"vXpX4X2XrX2XrX2XOX@X@X@X[.4X9X4XJXOXoX<X8.5.[ / _ q.q.w.d.U.I.^.XXZ V k u g V 8 9 0 9 9 4 0 4 4 4 + 4 4 4 ; 5 5 7 5 5 r t t t t u 8 u 8 0 0 9 5 8 < < < < t | o.&.| &.| o.| | H H z k 0 7 7 7 w y v A S n C G 2.1.+.o.^ ^ ^ Z U U U x.S.J.6.K.4.S.4.S.n.z.Z.Z.Z.G.S.G.G.[.}.{.{.:XXXA.<.P R P ! U ! ~ ! C G C i y t p y u p y i y y p u i p J J J J p.J p.J  .p.O.p.#.#.g.g.f.h.f.h.f.m.U.T.&X&XjX8XcXIXIXIXIXIXIXIXIXIXIXIXIXIXIXIXIXIXIXIXIXIXIXIXIXIXIXLXSXDXSXSXDXIXIXIXIXIXIXIXIXIXIXIXIXIXIXIXIXIXIXIXIXIXIXIXIXIXZXnXmXvX",
"aXKXDXNXaX2X2XrX@XOXOXOXXX2XaX@X X@X`.$X&X7.[ _ q.q.w.d.U.U.!.{.@XX.D V V V 8 k 0 9 9 9 9 4 4 4 4 ; 4 ; ; 5 , 5 5 r y 8 r t t t 8 V V 0 g 0 9 9 5 4 < < < 8 o.O. .o.o.| } o.| G S *.k x 7 7 r w r F n U b n D 2.%.$.o.~ ^ 0.Z U U Y J.J.K.K.6.4.S.4.j.l.z.z.z.Z.G.S.G.].[.[.[.{.XX!.O.@.,.P P P ! ! ! U G A G C G n u i n u u n J C J J J C J J ^ O.^ O. .O.p.i.g.g.g.j.<.j.j.j.j.j.I.I.&X-X-XjX-X7XjXfXkXhXBXIXIXIXIXIXIXIXIXIXIXIXIXIXIXIXIXIXIXIXIXIXIXIXKXKXKXKXSXSXIXIXIXIXIXIXIXIXIXIXIXIXIXIXIXIXIXIXIXIXIXIXIXIXIXIXZXmX",
"IXIXIXIXKXKXSXSXSXDXCXaXtX@XdX@X X|./.Q.U.&X[ r.q.w.s.d.c.I.$XXX8.} D k k k u 8 0 k 0 9 9 9 3 0 4 4 4 4 4 4 ; 5 < 5 5 r t t b b u u 8 V 8 0 9 9 5 < , < ; t o.o.o.o.&.o.} | Y H S k k g 6 7 < 5 w n n Z t n C 5.1.X.o.~ ~ 1.M Z N x.4.J.4.4.K.4.4.l.j.j.j.l.Z.S.Z.G.G.[.G.].[.{.G.g.g.O.O.;.P G P ! ! ! ! ! G S C J G G J G J J J J J H O.J ^ O.O.@.O.p.p.i.:.j.j.l.j.n.j.j.l.2.j.I.I.I.&X-X-X8X7XfXfXfXhXkXhXhXMXxXSXIXIXIXIXIXIXIXIXIXIXIXIXIXIXIXIXIXIXIXIXIXKXKXKXKXIXIXIXIXIXIXIXIXIXIXIXIXIXIXIXIXIXIXIXIXIXIXIXIXDXaXaXCX",
"CXCXKXKXKXKXSXSXSXFXFXdX4X.X.X.XI.~./.U.U.&XlXr.s.s.d.s.U.$X{..X8.X.} u u k u 8 8 k 0 0 9 4 9 4 ; 4 ; 4 4 ; 5 5 5 5 8 r r t b t k u t 8 k 9 9 6 4 , < , < 7 o.o.$.$.o.} o.S S G S z x 8 7 7 < y y v A Z v n C 2.1...X.o.^ b V V Z g.J.4.4.K.4.4.4.l.j.j.j.l.z.Z.S.S.F.S.G.!.}.!.z.g.i.p.O.p.' A P ! R ! R ! ! ~ G G G Y G G ^ ! ^ ^ ^ ) O.) p.;.p.;.,.j.<.j.n.n.n.n.n.n.S.n.z.U.I.I.T.&X-X1X8X8X8XfXfXfXhXMXhXMXMXMXBXBXMXvXIXIXIXIXIXIXIXIXIXIXIXIXIXIXIXIXIXIXIXIXIXKXKXIXIXIXIXIXIXIXIXIXIXIXIXIXIXIXIXIXIXSXFXCXCXmXaXaXDXZX",
"CXZXCXnXSXKXSXSXDXFX9X9X9XXX.X+X+X_.I.U.lXlXlXlXs.s.U.v.L.^.:X.X=.} k k V u 8 k k 0 0 0 0 9 4 4 0 4 4 4 4 5 ; , < r 5 r r t t b u g k k 9 0 6 9 , , , 2 1 7 o.o.o.o.o.X.X.Y Y S Z k k 6 6 1 < < r v b A r n u 5.&...o.~ ^ g g N f.x.K.4.K.4.4.4.<.j.2.j.j.l.l.Z.Z.G.G.G.!.L.G.Z.j.x.a.i.p. .p.' P U U ! R ! U ! ~ ! ~ ~ ~ ~ ~ ) O.( @.+.@.;.;.;.f.h.j.j.j.n.n.n.N.N.S.S.A.A.Y.U.Y.T.-X-X-X-XeX7XfXfXfXfXhXhXMXMXJXJXJXJXGXBXNXBXbXbXIXIXIXIXIXIXIXIXIXIXIXIXIXIXIXIXIXIXKXKXIXIXIXIXIXIXIXIXIXIXIXIXKXSXSXSXSXFXFXFXFXFXCXSXFXFX",
"FXDXCXCXnXmXDXDXCXqXqX9X9X1X{.`.).'.^.>XlXlXlXjXkXs.v.H.$X{..XoXX.D Z V V V 8 u V 0 V 0 8 0 9 4 4 4 + 0 ; 4 5 ; 0 5 5 y t t t t b V 8 g 8 9 9 9 4 , ; & 2 6 o.~ o.o.o.X.X.E A S A z k x 4 4 , w r v M K v b n 1.....~ H ^ g g b f.l.l.4.6.4.4.4.2.2.<.g.j.j.l.l.n.S.S.G.G.!.M.M.z.k.g.s.a.i.p.p.@.P U U ! R ( Y ~ R / ( / ( / ( ' ;.' ;.;.,.<.h.<.n.4.n.n.n.N.S.N.N.N.S.Y.Y.T.T.*X*X=X=X=X8XeX6X7XfXfXfXhXhXJXJXJXJXGXGXGXGXBXZXNXNXNXbXbXAXIXIXIXIXIXIXIXIXIXIXIXIXIXIXIXIXAXDXDXDXSXIXIXIXIXIXIXIXIXIXIXIXIXIXIXIXIXIXIXFXSXFX",
"SXFXAXCXCXmXmXxXwXwXgXqXqX{.%X(.).~././.D.3XkXjXjXsXU.!.[.{..XoXX.S D D V D k u 8 V 0 8 9 0 4 4 0 4 4 4 0 ; q 0 5 5 0 y r t t b b g u k g g x 3 3 > > - - 6 H o.o.X.o...} S S A k k x 9 4 4 ; < < r b Z r r C =.1.X.Y ~ ) g t 5.i.j.K.4.4.4.4.2.2.2.:.:.:.j.j.j.z.z.G.F.G.j.j.k.k.z.v.a.g.a.i.p.p.;.P ! P ! U R R / ( / ] ( ] ' ] ' ' ,.h.,.h.,.n.n.n.n.n.N.N.N.N.S.}.Y.T.T.=X=X;X;X;XeX9XeX6XqX7X7XgXgXhXhXhXJXJXJXJXGXGXGXBXZXNXNXNXNXbXMXMXbXbXIXIXIXIXIXIXIXIXIXIXIXIXUXIXIXIXIXIXIXIXIXIXIXIXIXIXIXIXIXIXIXIXIXIXIXIXIXSXSX",
"SXFXFXCXCXCXnXgXgXgXgXqXqX1X_.'.W.R.E.D.D././.cXuXuXpXH.)..XoXoXX.S D D D u 8 k V 8 8 8 8 8 9 9 0 4 4 4 5 5 5 5 5 5 5 y t 8 t t V g g g g 3 9 3 , > - & - 4 ~ o.X.o.X.} } E S Z Z z x 3 1 < < < r v M k r r r ..&.X.Y G z 8 g 0.i.l.4.2.4.4.4.2.1.:.:.:.:.g.:.l.l.n.Z.Z.h.j.j.M.M.z.z.z.x.g.a.s.i.s.f.P R R R R R ` R ` / ] ] / ' ] ' h.,.h.b.j.h.3.n.n.4.N.N.S.Z.T.T.;X;X;XeXeXeXsX0X0X0XeXeX0XqXwXfXgXhXMXMXJXJXJXHXGXGXGXAXUXAXZXNXBXbXBXbXMXbXMXbXMXMXIXIXIXIXIXNXGXIXIXIXIXIXIXIXIXIXIXIXIXIXIXIXIXIXIXIXIXIXIXIXIXIXIXIXSX",
"SXSXFXCXCXnXBXhXhXgXhXgXfX*X%XW.R.Q.Q.D.Q.H.Q.$X^.uXyXtX^..X`.oX} } S D D k D u V V 8 8 8 9 0 5 4 0 @ 0 5 5 ; 0 5 y 0 t t t b g b g g 8 g 9 3 4 > & - & $ 4 S Y Y X.} X.E D Z Z V k x x > , ; < < v g l r r t Y ..X.Y G 8 8 S 0.:.2.S.4.4.4.1.<.:.:.:.:.:.:.j.j.j.x.Z.,.;.h.h.h.k.M.k.M.z.v.a.a.g.i.s.f.U P R R R R R / ` R ] / ] ' ;.,.,.h.h.n.n.n.N.N.S.N.N.XX=X;XsX;X;XsXsXyXuXyXyXuXyXpXuXuXwXwXgXgXhXhXhXMXJXGXJXJXHXGXGXBXGXNXBXZXBXbXNXbXMXNXMXMXMXbXMXbXBXGXGXJXIXIXIXIXIXIXIXIXIXIXIXIXIXIXIXIXIXIXIXIXIXIXIXIXIXIXIXIX",
"IXSXFXFXZXCXhXxXhXhXhXhXhX$X%XR.N.N.B.D.D.Q.Q.Q.Q._.%X0XrXoX+X`.o.S D S D D V V k k 8 8 8 8 0 0 0 4 0 5 q 0 5 p y 5 0 y u 0 8 b 8 g g g 9 x 3 3 * > & % $ , | Y Y } X.E } Z Z V 8 *.x 6 4 , ; < < f g k 5 r b Z ..X.X.S 8 f ^ @.;.l.4.4.4.2.1.:.:.+.+.:.:.:.g.g.j.j.;.;.;.f.f.h.k.M.M.z.c.z.z.k.x.v.s.x.h.K R E R R R R / ] / ] ' ' ,.,.k.h.b.k.n.H.T.T.-X-X-X;XlXkXVXVX0XuXuXuXuXiXuXiXiXuXiXuXuXuXuXcXMXxXMXMXBXJXGXGXGXGXGXBXNXUXAXBXNXNXBXbXbXMXBXBXMXBXMXBXBXJXGXIXIXIXIXIXIXIXIXIXIXZXNXBXnXIXIXIXIXIXIXIXIXIXIXIXIXIXIXIX",
"IXIXSXFXFXZXxXxXhXxXhXhXhX$X$XR.C.C.m.m.D.Q.D.Q.Q.Q.Q.Q. X X).`.X.S } Z V D V V u 0 u 8 8 0 0 8 0 0 5 5 5 0 5 5 0 y t t t t u 8 8 g 8 x 8 3 3 3 > * % = * > S Y S Y } E Z D k Z u x k 3 , - ; , < 7 j j w r r V ..X.S S 7 b ! ^ @.<.<.4.4.1.1.:.:.+.@.:.#.#.:.:.x.;.-.;.;.;.f.h.f.k.j.j.Z.z.z.z.z.x.z.z.z.j.K I R R R I W / / ] ' ' ' h.H.T.Y.Y.T.T.;XT.-X-X;XkXkXkXVXMXMXMXNXuXiXiXiXiXiXaXiXiXzXzXuXzXxXcXMXMXMXBXBXJXGXGXGXUXBXBXBXAXBXBXBXBXBXMXbXMXbXMXbXBXGXGXIXIXIXIXIXIXIXAXLXDXAXZXZXBXZXNXnXIXIXIXIXIXIXIXIXIXIXIXIXIX",
"IXIXIXFXFXxXMXhXxXMXhXhXMX$X$X3.3.b.e.m.D.D.D.u.Q./.%XQ.Q.Q.8.@Xo.} D D } V V V D 8 k 0 8 8 8 0 0 4 0 5 5 5 y y y u t t u 8 u g g 8 8 8 6 6 3 > > * * % = > S S E S Z E D z D g u x x 3 , , , < < 7 f j 5 r t b ..X.Y Y 5 G ~ @.:.<.<.4.5.1.<.:.+.:.#.#.@.#.:.g.-.@.+.' @.' ' f.h.j.M.M.z.M.Z.z.z.v.v.z.v.F.j.K P I I I P ! ' Y.Y.Y.Y.Y.T.T.T.T.T.-XlX;XVXlXkXVXVXVXVXMXMXBXGXBXGXBXCXzXbXvXvXzXvXiXzXzXcXbXzXbXMXMXMXBXBXBXGXNXGXZXBXBXBXNXNXBXbXBXbXMXBXMXBXGXUXGXIXIXIXIXIXIXPXUXLXLXDXAXBXNXNXBXbXbXbXIXIXIXIXIXIXIXIXIXIXIX",
"IXIXIXIXGXMXMXMXMXMXMXMXhX$X$X] ] ' ' r.y.y.u.I.Q.Q.Q.Q.^././.1.X.} } } D k D D 8 V u 8 t 8 8 0 0 0 5 5 p 0 5 y u y t u 8 V g g g g x 9 6 3 3 3 * * * = O & S Z D E } k Z k g g k k 6 3 , , - ; < 6 x j 5 7 r b X.X.S 7 7 G G ^ -.:.5.2.1.1.1.+.+.+.$.+.+.:.i.( ( ( +.( ) ) @.;.f.f.h.j.M.M.Z.Z.Z.Z.Z.Z.G.G.G.n.K b.L.T.Y.T.T.T.T.T.T.T.T.T.T.;X;XlX;XlXVXVXVXVXVXMXJXMXBXBXBXNXNXUXBXGXGXAXCXvXmXvXvXvXvXzXbXbXbXbXNXBXNXBXBXBXBXNXAXBXNXNXNXBXNXBXBXBXNXNXBXGXUXIXIXIXIXGXBXHXHXUXUXAXAXAXBXBXNXbXNXbXbXzXcXIXIXIXIXIXIXIXIXIX",
"IXIXPXkXMXMXMXMXMXMXMXMXMXQ.$X` ] ] ' r.y.y.u.u.u.u.Q.Q.$XQ.$Xu.X.o.} S D D V V V u 8 8 8 u 8 0 0 0 0 y t y t y t t t V u 8 8 g g 9 9 6 4 3 4 * * * * % O > D E D z D k Z k V g t k x 3 3 , ; , 1 6 x x 5 r r b X.X.S 4 Y G H ) -.1.1.1.1.-.+.+.+.@.#.+.#.:.( ( ( R ( ( ( ) ) ' ;.f.h.h.n.M.Z.Z.Z.A.A.Z.A.G.G.G.T.T.T.T.T.T.T.T.T.T.T.;XT.T.;XVXkXVXVXVXVXVXVXMXBXbXBXBXBXAXAXAXAXAXUXUXUXGXPXPXPXLXmXvXvXnXbXmXnXbXnXNXNXNXNXNXNXNXZXBXAXNXBXBXNXBXBXBXBXNXBXUXIXIXPXGXGXBXBXHXHXPXUXUXAXUXBXBXBXMXbXbXbXcXxXxXxXIXIXIXIXIXIXIX",
"IXhXhXMXMXJXMXMXJXMXMXMXMXU.$X] ` ] _ ' r.r.y.u.u.Q.u.$XQ.Q.u.$X1.o.S S D D D k 8 V 8 V 8 t 8 u t 0 y 0 y t y u u t V 8 k g k k x 8 x 6 3 3 3 3 * % = % % * Z D z D D k k V g b g x 9 3 4 * , ; , 6 x 1 < 5 7 r ..X.S 6 G G ! o.+.1.1.1.1.-.+.@.+.o.+.#.+.Y U U Y Y Y ! ! ~ ( ) ) f.f.h.j.j.n.M.n.S.Z.A.A.G.E.;X=X;X=XT.=X;XT.;X;X;X;X;XVXVX;XVXVXVXVXVXVXNXbXBXNXNXAXAXAXAXAXUXLXDXAXAXLXUXUXPXPXIXIXIXIXLXnXnXnXnXnXNXnXNXZXNXNXZXZXNXAXBXZXBXBXAXBXNXNXNXNXIXBXBXGXGXGXMXXX.XGXGXGXBXBXAXBXBXBXMXMXbXbXcXcXhXxXxXgXIXIXIXIXIX",
"fXhXkXJXJXMXMXJXMXJXMXJXJXD.$XR ( / / 0.r.y.y.y.D.u.Q.Q.u.%X$Xu./.~ } S S Z D D D V D 8 8 t t t y t t u 0 y t t t C V b u g g 9 8 9 6 6 4 3 3 * * * % + + & Z Z Z Z k Z V g b 8 t x x 3 > ; , , 6 , d 6 < 7 7 8 ..Y A b C G ~ o.-.-.=.-.-.+.+.+.o.#.+.$.( A U U U U U U ! ! ~ ) ) ' ' f.h.j.n.n.N.N.S.A.E.E.;X=X=X=X=X;X;X;X;X;XkX;XsXVXVXVXVXVXVXbXbXbXZXNXNXNXAXAXAXAXDXDXSXSXSXSXKXSXLXSXLXUXIXIXIXIXIXIXIXIXIXSXNXnXZXNXZXZXCXZXZXZXZXBXAXBXBXBXZXAXAXIXIXGXBXGXGXGXGXUXbX{.XXGXGXUXGXBXGXGXBXMXbXxXcXcXcXxXgXxXgXxXgXKXIXqX",
"fXhXMXMXMXJXJXGXJXBXBXJXJXU.I.R E ! Q W q.y.y.y.u.U.Q.Q.Q.Q.u.$XQ.4.Y | D D D V u V 8 u t t t t t t t t t u t t u b u k k g g g x 6 4 4 3 3 * * * * % O = * k D k k V k g V g b t k x 3 , > ; > > 6 > 3 7 7 7 7 ..} j A C G U ( ..-.-.-.+.( +.~ o.~ o.( M M Z M Z N A A A ! ! ! ) ) ' ;.f.j.n.<.n.Z.N.V.A.*X=XeXeXsX;X;X;X;XsX;XsXVXVXVXvXVXVXNXbXbXbXNXNXAXZXAXAXAXDXLXLXSXSXKXSXSXSXSXSXKXKXKXKXIXIXIXIXIXIXIXIXIXIXIXIXDXCXZXAXAXZXCXZXAXBXAXUXNXIXIXIXIXIXUXNXBXGXGXGXUXGXbX.X>XBXGXGXUXBXGXMXMXbXMXMXxXxXxXxXgXhXgXwXwX0XqX",
"fXhXJXJXJXJXGXJXJXGXJXGXJX&XI.R E P Q _ q.0.y.y.u.Q.u.Q.Q.Q.&Xu.Q.R.( Y D D V D k u g u t u t u t y u t t t u u b V b g k g 8 x 8 6 3 6 3 3 * 3 & = % + = % k V V k V k 8 k t t 8 k 6 6 * * , > 1 > 3 > , 7 5 6 X.X.7 A C A ~ Y +.-...( O.1.x.o.+.+.~ b g g M b M M N N N A U ! _ ) ) ;.;.,.<.n.n.n.n.n.N.-X5XeXeXeXsX;XeXsXjXsXuXuXVXcXvXcXbXbXbXbXNXnXZXZXZXAXDXAXDXDXSXSXSXKXSXKXSXSXKXSXSXKXKXIXIXIXIXIXIXIXIXIXIXIXIXIXIXIXIXAXAXAXAXZXAXIXIXIXIXIXIXIXIXPXAXGXGXUXUXAXUXUXbX.X.XbXGXBXGXGXBXbXcXMXcXcXcXhXhXhXhXgXgXwX0XqX",
"hXhXhXJXJXJXJXGXGXJXGXJXJX&XU.U E P P Q q.0.y.y.y.u.U.u.Q.Q.Q.Q.Q.R.3.] S S D V k u t V V 8 t t u t u u C t V n V b g V g g x 8 9 6 6 3 4 * 4 * * * = % + % k g k V k V V 8 g t 8 x x 3 4 3 4 * > > > 1 6 6 7 f X.E S Z A Y Y Y Y ~ o.=...v.v.v.O.#.6 f f h h f h v g b N N N G ! ~ ( ) ;.,.,.,.,.<.b.n.1X=X5X5XeX5X5XsXsXeXuXuXuXiXzXzXvXvXbXbXnXbXNXNXZXZXAXAXAXAXDXDXSXSXSXSXSXSXSXKXSXSXKXSXKXKXKXIXIXIXIXIXIXIXIXIXIXIXIXIXIXIXIXIXIXIXIXIXIXIXIXIXIXIXIXPXUXZXAXNXUXLXLXLXUXbX>X>XzXGXGXGXbXMXbXMXxXxXxXhXhXhXgXgXfXqX0XeX",
"kXkXJXJXJXJXHXJXGXGXHXJXHX&XU.E Z P N F q.q.y.y.U.u.Q.$XQ.Q.Q.&XW.7.3.3.] D S V V V u u t b t t t t t u t C V b b V V g g g x 9 9 6 4 3 , 3 * * * = + % + = g k g V k k k g 8 8 t X.3 3 3 , > * & , > > , 6 7 6 X.} D S S Y Y ~ Y ^ >.=...z.v.v.l.6 6 7 7 7 f 7 7 r v v v N N G ! ! ( ) ) ;.;.,.3.,.h.*X*X:X-X5X5XeXeX0XwXyXuXuXuXVXuXzXvXbXbXbXnXNXNXZXCXZXAXFXDXAXDXDXDXDXSXSXSXSXSXSXSXSXSXSXSXKXKXKXIXIXIXIXIXIXIXIXIXIXIXIXIXIXIXIXIXIXIXIXIXIXIXIXKXIXIXIXAXAXUXAXLXKXKXKXKXLXbX>X,XuXBXGXNXbXbXcXcXcXxXxXhXhXgXfXfXqXeXwX",
"kXkXkXJXJXJXHXHXHXHXHXHXJXfXU.E Z M N F Q q.y.y.y.u.u.u.U.Q.Q.u.W.7.5.[ ` ` N V D u u g u t u C C u C V V V V V V V g g g g g 6 6 6 4 4 4 > 3 > * * O = * % k k g k g 8 8 u b t 3.j.2.9 > * > , > > - , , 6 6 7 X.*.S Z S U A Y p.-.=.=.Y I.P.v.H.6 , 1 4 1 4 4 7 7 r v y b n F G ! ~ ( ( -.-.-.;.,.j.*X*X*X:X<XeX4X5XeX0X0X0XuXuXuXzXiXzXzXzXbXbXnXnXnXZXZXZXAXDXAXDXAXDXDXDXSXSXSXSXSXSXSXSXSXSXKXSXKXKXKXIXIXIXIXIXIXIXIXIXIXIXIXIXIXIXIXIXIXIXIXIXIXKXIXIXIXDXAXUXAXKXKXKXKXKXKXKXbX:X>XuXGXNXbXMXbXMXcXxXgXhXgXgXfXfXqXeXwX",
"kXkXJXJXJXJXJXJXHXHXHXHXHXhXU.I c Q c Q e y.w.y.y.U.U.u.$X$Xu./.6.4.>.>.` ` I R V V V b t u u C C t C V C V V V V g g g g g x 8 6 3 3 4 3 * 3 * * = = + = % g g 8 k 8 g g 8 t w j.n.j.<.S > > ; > - - ; 4 6 6 < X.E E A S U U g.<.-.=...1.v.Y.Y.K.3 * , , , 4 ; < 5 < r y v F n G ! ~ ~ ( ( ' -.' ;.G.*X*X*X*X<X5X5XeX3X0X0X0XyXuXuXuXcXcXzXzXbXbXnXnXNXCXZXZXAXAXCXAXDXAXDXDXDXDXDXSXDXDXSXSXSXSXSXSXSXSXKXKXKXKXIXIXIXIXIXIXIXIXIXIXIXIXIXIXIXIXIXIXKXKXIXIXIXLXDXDXLXKXKXKXKXKXKXKXKXBX,X,X9XZXNXbXbXbXcXwX3X:X{.!.!.D.D.N.wX",
"fXJXJXJXJXJXHXHXHXHXPXHXPXhXU.Z L c c W W e q.y.y.u.u.u.u.Q.Q./.W.4.5.` ` { I I P J u u C n u t C C C V V V V b k g g g j 9 9 6 9 6 4 3 , 3 , * * * % * + = g g k g k k g b 8 b.j.n.n.l.j.:.* > - - - , 4 6 7 < X.X.S S S S f.,.-.>.=.=.G.L.L.Y.2.* * , 4 * 4 ; , < < r r y n n C G Y ~ ( ( ( ] ' H.G.H.!.*X*X*X:X5X5X5X3X3X9X0XwX0XwXuXuXcXzXbXbXbXnXnXNXCXZXCXCXAXAXCXAXAXCXAXDXAXFXDXDXDXDXDXDXDXSXDXSXSXSXSXSXKXKXKXIXIXIXIXIXIXIXIXIXIXIXIXIXIXKXKXKXIXIXIXIXIXIXIXIXIXIXIXIXIXKXKXKXnX<X,X<X,X,X,X>X>X,X:X.X{.{.{.!.!.V.-X",
"kXJXJXJXJXHXHXHXHXPXPXPXPXMXU.M q.c c e e y.q.y.y.U.u.$XQ.D._.~.W.7.5.=.` K l L B m N C u C t C C C V C V V V g g g g g g j 6 9 3 3 4 4 * 3 3 * & * * = = = 8 g 8 g k 8 g 8 j.n.n.n.n.j.n.j.l.n , , ; < 4 7 7 7 X.} Y S ~ h.h.,.1.=.=.z P.Y.Y.Y.*.+ 3 + * ; ; ; ; 5 < q y y i n C G Y ! Y ( ( ( j.H.H.H.!.*X[.*X:X:X<X5X5X3X3X4X9XwXwXgXcXcXcXbXvXnXnXnXCXnXnXCXZXZXCXCXZXZXZXZXCXAXAXAXAXFXDXFXDXDXDXDXSXSXSXSXSXSXKXKXKXKXKXIXIXIXIXIXIXIXIXIXIXIXKXKXIXIXIXIXIXIXIXIXIXIXIXIXIXIXIXIXKXKXNX,X3X,X,X<X,X,X,X,X:XXX{.{.!.!.G.V.",
"y.JXJXJXHXHXHXHXPXPXPXPXPXJXU.M c c c c e q.q.y.y.u.U.u.D.Q.V.(.7.4.5.=.z z m h s m m v u C C C C C C V D V Z g g g g j 9 6 6 6 6 6 6 3 4 4 , * = * + = = O g g k 8 g g 8 y b.m.M.n.M.n.Z.j.l.j.( < q < 5 7 7 5 X.T Y #.r.f.;.,.>.-.T E #XY.*XT.3 * + 3 + * * ; ; ; ; y y t t n C S U Y ~ / ~ ~ M.c.F.G.H.L.}.}.{.*X:X:X5X8X3X3X9X9XwXwXuXcXzXzXvXbXvXnXnXnXnXnXmXCXnXZXCXCXCXCXCXAXCXCXAXCXAXAXDXAXDXAXDXDXDXDXSXSXSXSXSXSXKXKXKXKXIXIXIXIXIXIXIXKXKXIXIXIXIXIXIXIXIXIXIXIXIXIXIXIXIXIXIXIXKXNX3X3X2X<X3X3X,X,X,X>X:X{.*X{.!.H.",
"D.JXJXJXJXHXHXHXPXPXPXPXHXJXU.Z m h v v e q.y.q.y.U.D.Q.Q.Q.$XQ.W.7.5.=.z l j h c c c c c n C C C D C Z Z Z g g g g j 9 j 9 6 6 6 4 4 3 4 , * 3 * * = + = * g g 8 8 V k g j.M.j.n.n.n.n.n.l.M.j.l.j.b < 5 8 r y } Y ,.' r.;.' ] -.` =.,.T.*X=X=X* * + + + 4 ; + ; ; q 0 q u u n A A A Y U ~ U g.g.z.Z.F.H.H.[.[.}.{.XX:X:X:X<X8X9X9XwXwXgXuXzXzXzXbXvXbXmXbXmXnXmXnXmXmXnXnXnXCXCXZXCXCXZXCXZXZXCXAXAXAXAXFXDXDXDXDXDXSXSXSXSXKXSXKXKXKXIXIXIXIXKXKXIXIXIXIXIXIXIXIXIXIXIXIXIXIXIXIXIXIXIXIXIXKXNX3X3X3X3X<X3X2X<X,X:X:X{.{.[.!.",
"/.c.JXJXHXHXHXHXPXIXIXIXIXHXU.Z m a v i Q e q.y.y.y.u.u.Q.I.Q./.A.4.5.=.z k j f s a a a c a M C C A V V V k Z g g 9 j 9 6 6 6 6 4 4 3 4 4 3 4 * ; * & = = * 8 g g g k 8 h.b.b.n.n.S.n.Z.n.n.n.n.n.j.j.U 7 r t r ..;.;.' ' ' ' -.=.=.z }.=X=X=X*X+ * + # + + + ; ; q 5 q 5 y t u C A A A U S p.f.g.k.c.v.F.G.G.L.}.[.{.*X{.*X*X8X8XeX9XwXwXuXuXzXzXzXvXvXvXvXmXvXmXvXbXmXmXmXbXmXmXnXnXnXnXnXnXCXZXCXCXZXAXAXAXAXDXDXDXDXDXSXSXSXSXKXKXKXKXKXKXIXKXIXIXIXIXIXIXIXIXIXIXIXIXIXIXIXIXIXIXIXIXIXIXIXKXNX3X3X3X3X3X<X3X3X<X,X:X:X*X}.",
"*XG.JXHXHXHXHXPXIXIXIXIXIXHXU.Z k b r w 9.q.w.w.y.y.u.U.Q.Q.Q.m.D.V.5.=.T k j 1 1 a 1 a 1 c a w V D Z V Z g g k g j j 9 6 9 6 9 6 6 4 9 4 4 4 * ; * = = = + g 8 g g u y h.n.b.n.b.M.n.n.n.n.n.n.l.3.<.3.<.,.<.>.1.' ' ' ' ' ] ] ` T z =X=X:X=X:XX * + + + + + + + ; 0 5 y y u n n A A A G ~ O.p.p.k.k.z.Z.K.F.G.L.!.[.[.^.*X$X*X=X5X9X9XwXuXuXuXiXiXiXiXzXiXvXvXvXvXvXmXzXzXmXbXbXbXmXbXnXmXnXnXnXCXCXCXZXZXZXDXAXAXDXDXDXDXDXSXSXSXSXKXKXKXKXKXKXKXKXKXKXKXIXIXIXIXIXIXIXIXIXIXIXIXIXIXIXIXIXIXIXKXNX9X4X3X9X3X3X<X3X3X5X1X:X{.",
"*X[.D.HXHXHXPXPXIXIXIXIXIXPXU.Z h b y v c 9.q.w.y.y.u.D.D.D.Q.~.V.N.C.=.{ l f a 1 1 2 2 a w 1 1 < Z D V k k g g 9 j 9 f 5 6 6 6 6 4 3 4 4 3 4 4 * ; - = q = 8 8 V 8 V h.j.b.n.n.n.n.n.n.n.n.n.n.n.n.3.<.3.,.>.-.] ] ) ' ) ' +.' -.T z 5X=X5X=X=X+ * X + + * 4 + ; q @ 0 5 y t u V A A A A ^ ^ p.p.p.g.z.z.H.G.G.G.!.G.!.!.*X*X*X-X8XeXeX0XuXwXuXuXiXuXiXiXiXiXiXiXiXpXzXaXzXzXaXaXvXvXvXbXbXmXnXnXnXNXCXCXCXCXZXAXCXCXAXDXAXDXDXDXDXDXSXSXSXIXKXSXKXKXKXLXIXIXIXIXIXIXIXIXIXIXIXIXIXIXIXIXIXIXIXIXIXKXZX9X9X3X3X9X3X<X9X3X5X5X=X",
"=X=X}.JXHXHXPXIXIXIXIXIXIXPXU.Z k g r c i 9.q.y.y.y.y.u.Q.u.Q.u.B.B.m.h.z h x 1 , 1 2 , 1 < 1 1 1 1 B V V k g g 8 x f 6 6 5 6 9 6 6 6 6 4 6 4 4 > * - ; = = t 8 b V j.h.n.n.n.3.n.n.n.n.n.3.n.<.3.<.<.3.>.1.>.>.] ( ' _ ' ] ( ] T T h.=X5X5X:X:X+ X + + + + + @ + 0 q 5 y t t b b A A G J J J 0.p.p.a.k.z.z.Z.Z.G.A.H.G.H.$XI.*X*X-X-X5X0X9X0X0XyXyX0XpXuXpXuXuXuXuXpXiXiXuXiXiXiXiXvXzXvXvXvXvXvXnXnXnXnXnXCXCXZXZXZXAXAXFXDXAXDXAXDXDXDXSXDXLXSXKXKXSXIXIXIXIXIXIXIXIXIXIXIXIXIXIXIXIXIXIXIXIXIXIXIXKXZX9X9X4X9X9X3X9X9X4X3X5X",
"5X5X=XL.HXHXPXIXIXIXIXIXIXPXU.U k b r y F 9.q.q.y.y.y.u.D.Q.B.D.M.m.h.h.e.h f 1 , 2 - 2 ; 2 2 1 2 < 2 i g g g j j 9 8 6 6 6 6 7 5 6 5 9 4 9 4 3 4 ; = q q ; b g t F <.j.<.n.j.n.n.3.3.3.n.3.3.3.3.3.3.>.>.>.=.] ] ( ( _ _ ' / ( ` T }.5X5X5X5X:XX + X + + + 4 + @ + p 5 5 t t b b n C H J J  .^ p.p.i.g.l.l.z.Z.z.Z.Z.H.H.H.H.*X*X=X:XeX5X4X4X4X4X0X0X0X0X0XyXyXyXyXyXyXpXyXpXuXiXuXiXiXiXzXvXvXvXvXvXvXmXnXnXNXNXCXZXCXZXCXAXAXDXDXDXAXIXDXDXDXDXDXSXIXIXIXIXIXIXIXIXIXIXIXIXIXIXIXIXIXIXIXIXIXIXIXIXIXKXNX9X9X0X9X9X9X9X9X9X0X",
"0X3X5X=XeXHXPXIXIXIXIXIXIXPXU.N Z g B w e 9.q.y.y.y.u.u.u.B.t.R.>.h.e.h.e.' a 1 1 - - 2 2 ; 2 1 2 < 2 ; 2 b g 8 9 6 8 7 9 6 6 5 6 8 7 6 9 6 6 6 , , ; q q ; g g g j.l.n.l.n.4.<.3.4.3.3.3.3.3.3.3.5.>.>.>.-.` ` T ` / ( ( ] ] R T T 5X5X5X5X2X[.X X + + + + @ + 4 ; q 0 y t t b b C C C C J J p.^ O.i.g.g.l.l.z.z.z.Z.F.H.H.I.L.*X*X:X:X<X5X3X3X3X3X3X9X4X4X0X4X4X0X0XyX0X0XyXyXyXuXuXuXiXiXzXiXzXvXvXbXbXbXnXnXnXnXCXZXZXCXCXAXZXCXKXKXSXAXAXAXDXIXIXIXIXIXIXIXIXIXIXIXIXIXIXIXIXIXIXIXIXIXIXIXIXIXIXIXIXKXCXwXwXwX9X9X9XwXwX9X",
"0X4X4X=X=XHXPXIXIXIXIXIXIXPXU.U Z b v y F 9.q.q.w.y.y.u.Q.t.R.u.R.e.e.r.' ' ) , ; 2 - - 2 - ; 2 , 2 2 2 - - b b 9 6 6 6 6 7 6 8 8 6 8 8 9 9 9 6 , < ; q w q V b l.<.4.j.4.<.4.3.4.<.<.3.3.1.5.>.[ >.=.>.>.=.` ` ( ( / _ _ _ ( T R z 5X@X:X#X:XG.+ + X + + + + + @ 0 5 5 5 t t u b C y C i J J  .p.O.#.i.:.g.g.g.j.j.z.v.v.H.H.H.!.!.{.*X:X*X:X:X,X5X5X,X3X3X3X3X4X4X4X4X4X4X4X0X9X0X0XyXuXuXuXuXiXiXzXzXvXvXvXbXnXnXNXnXZXZXAXCXAXKXSXDXIXCXDXDXKXKXIXIXIXIXIXIXIXIXIXIXIXIXIXIXIXIXIXIXIXIXIXIXIXIXIXIXIXIXKXNX9X0XwXwXwXwX0X0X",
"0X0X0X4X5XT.PXIXIXIXIXIXPXPXU.K N b v y c 9.q.y.y.y.t.u.t.u.R.u.C.' r.' ' ' _ W < ; ; - = - - - - - - 2 ; = 2 F 9 6 5 6 5 6 7 8 8 7 g 7 8 9 f 5 5 < q q e w g ^ 4.l.4.4.<.<.<.4.3.5.1.5.>.>.>.=.5.=.=.` ` =.` E R R / / / / / R T h.5X5X2X5XXX1.X + X + + @ + 0 ; @ 0 0 u t t u t J y u u J J J H O.O.p.g.:.g.g.g.x.z.z.z.v.F.G.H.!.*X{.{.*XXX:X:X:X:X:X:X5X,X5X5X2X2X3X3X3X4X3X4X9X0XyX0XyXuXpXuXiXzXzXzXzXzXbXvXnXnXnXCXKXIXvXzXZXIXNXDXFXAXKXKXIXIXIXIXIXIXIXIXIXIXIXIXIXIXIXIXIXIXIXIXIXIXIXIXIXIXIXIXIXIXKXNXwXqXwXwXwXwXwX",
"wXwX0XwX5XeXPXIXIXIXIXPXPXPXU.U N B b y 9.9.9.q.y.y.y.u.t.B.u.R.t.! _ ' _ _ _ ! P - - = - - - - - - - - ; 2 = 2 N F ! ! ~ G C b b g g 8 g g 8 f 5 y y w y q V j.j.n.<.<.4.3.<.5.5.3.3.=.5.5.=.=.=.` =.` T T ` E R U U ! / / ( R E }.@X5X@X#X:Xk X O + + @ + @ @ 0 p 0 0 0 u t t V y u p i C J J ^ O.+.@.O.@.@.g.g.p.g.k.z.z.F.F.H.G.G.!.[.!.{.{.{.{.*X{.XX*X*XXX:X:X5X:X,X5X5X<X3X3X3X4XwX0XwX0XuXuXuXuXuXzXcXNXPXUXnXvXvXvXzXbXAXAXKXAXAXAXKXKXKXKXKXIXIXIXIXIXIXIXIXIXIXIXIXIXIXIXIXIXIXIXIXIXIXIXIXIXIXIXIXIXKXNXwXwXwXwXwXwX",
"wX0XwX0X0X0X=XIXIXIXIXPXUXUXU.! L B c c c 9.q.q.y.y.r.t.B.R.t.[ [ -.H _ _ ! / Q G L ; ; - & ; ; - - - - = 2 ; q w P U U U K K E l l l l l m L L P _ ! ! G F <.<.<.3.3.<.4.3.4.1.5.>.5.=.=.=.=.` ` T *.=.T T T T E K U U / ! R T E @X@XXXXX#X#X* + O + + + + @ 0 p 0 0 p 8 u 8 u 5 y y p p J H J H O.O.@.@.#.@.@.f.i.i.g.j.j.M.Z.Z.G.H.!.!.!.!.!.}.!.}.{.}.{.{.{.{.XX{.:X:XXX:X:X5X,XxXcXcXxXxXBXGXGXGXHXBXMXbXbXbXnXvXnXbXbXZXZXZXvXZXZXZXKXKXKXKXKXKXKXIXIXIXIXIXIXIXIXIXIXIXIXIXIXIXIXIXIXIXIXIXIXIXIXIXIXIXIXIXKXNXwXwXwX0XwX",
"uXwXuX0X0X0X0XMXIXIXPXUXUXAXU.! Q B F c 9.q.q.q.y.y.t.u.t.t.t.[ ,.;.+.o.! _ ! ! Q N B ; ; ; * ; - - - - ; = ; = 2 N P K Z K z l l l l s l m c B N Q _ ) ;.b F ! / ( ( ] ] ' -.>.>.=.>.=.=.=.=.=.=.` ` z T z z z E E P ! P R U R z @XXX@XXXXX}.O + + + @ @ @ @ @ p u 0 u u u u p q y y u u u J H G ~ ~ ~ ( O.@.O.#.#.@.f.g.g.g.j.M.M.Z.Z.A.G.A.G.G.G.G.!.!.[.[.}.[.}.{.[.{.{.*XXX*XwXhXxXcXbXbXMXMXbXBXxXbXbXnXnXnXnXnXbXZXbXNXNXNXbXNXZXSXLXLXKXKXKXKXKXKXIXIXIXIXIXIXIXIXIXIXIXIXIXIXIXIXIXIXIXIXIXIXIXIXIXIXIXIXIXKXNXwXuXwXwX",
"wXwXwX0XwXyX0X4XPXPXUXUXAXZXU._ P N F i F F q.Q r.r.t.t.t.t.h.h.,.;.-.+.T H G P G B N v < ; ; ; ; * * ; - - - = - N K l l l l x l d d l s s B B B G / ( B C ! / ) ' ] ' ;.] ;.,.' ] >.;.>.>.` -.-.] ` ` ` z l z Z Z N U P ! U E -.@XXX#X|.XX}.O + + @ @ @ @ @ 0 0 u u u } u  .@ p 0 p 0 u p C J H H ~ H o.O.o.O.#.) #.@.;.;.f.g.j.j.j.M.Z.Z.Z.Z.Z.A.G.A.G.G.!.G.!.[.G.}.!.[.[.*XcXcXgXxXxXnXbXNXMXbXMXbXbXbXnXnXmXbXCXMXbXbXbXMXNXbXbXDXLXLXKXLXLXKXKXKXKXKXKXIXIXIXIXIXIXIXIXIXIXIXIXIXIXIXIXIXIXIXIXIXIXIXIXIXIXIXKXSXBXwXwXuX",
"uXwXuXuX0X0X0X4XxXPXUXUXZXZXU.~ ! F F F i F q.0.r.[ t.t.[ m.b.b.h.,.-.] -.( Y G N F F B r ; ; ; ; ; ; ; = & & & - m h h j j l s d d d d d c w c B ! ! ( C A ^ ) ) ;.' -.] ,.>.] >.,.>.] [ >.;.[ ` ` ` E E R E E K P P N P P P K ].#X|.}.#X].}.+ + + @ @ @ @ } p p u u p u u + 0 ; p 0 p u u u J J S H G H ~ ~ ~ ~ o.~ @.@.@.;.;.f.;.:.h.j.j.j.n.j.Z.Z.Z.Z.Z.Z.Z.A.A.Y.kXmXmXmXmXmXmXcXgXxXxXCXNXNXNXMXcXbXbXbXnXnXcXMXxXMXbXBXIXKXNXNXNXDXDXDXLXLXSXKXKXKXKXKXKXKXIXIXIXIXIXIXIXIXIXIXIXIXIXIXIXIXIXIXIXIXIXIXIXIXIXIXKXSXNXwXwX",
"wXuXuXwXuX0X0X4X4XGXGXBXNXNXI.( ^ G F F F q.F W [ r.r.r.B.B.m.t.e.,.' ' -.Y R E G n B n v w 5 4 4 * , * & & - = $ 1 h j d d d d d d d 1 2 c c c n N ! C G S ) ) ;.;.;.;.,.-.>.,.>.,.>.>.>.>.=.[ >.` ` ` ` E T I K P P P P P K l -.|.|.#X].].#X+ @ @ @ p } p } p } u }  .} ; 0 q 0 0 0 u u u u C C S G G G ~ ~ Y ~ ~ ~ ~ ( ( +.) ) @.;.;.;.,.,.j.<.j.j.j.Z.Y.sXiXvXvXmXmXaXCXmXCXmXaXaXaXgXMXMXnXNXbXMXbXbXbXbXgXhXxXcXGXKXSXMXcXbXMXNXbXAXAXAXAXDXLXLXLXSXKXKXKXKXKXKXKXIXIXIXIXIXIXIXIXIXIXIXIXIXIXIXIXIXIXIXIXIXIXIXIXSXSXNXcX",
"uXwXwXyXwX0X0X4X3XxXGXGXNXNXU.Y ! G G F F Q Q Q W W m.D.B.m.m.t.t.t.,.] ] ( R U K M n n v y < , ; 4 * ; * * * * = $ d s d d d d : : : 2 2 1 w w n Q +.C G G ;.;.,.;.,.1.,.1.,.3.>.>.>.>.>.[ >.` >.` ` ` ` E E I P K N P N P K k x #X].].}.].K.@ @ @ @ p @ } p u u } J u  .@ 5 @ @ p p p u i C C C C D S S A S S Y A Y Y Y ! ~ ~ ( ( ( @.) @.) z.T.sXeXsXsXuXzXzXiXmXvXmXCXmXmXmXCXaXmXiXvXzXcXBXNXcXbXMXbXgXfXgXHXSXBXxXcXMXcXMXMXAXAXNXbXAXAXLXAXAXLXDXLXDXKXKXKXKXKXKXKXKXKXKXKXIXIXIXIXIXIXIXIXIXIXIXIXIXIXIXIXIXIXIXKXSXSXAX",
"DXcX0X0X0X0X4X4X3X2XHXGXMXd.U.U.lXP _ F Q F Q Q r.D.B.m.m.m.m.b.b.e.e.[ ] ] ` R Z z k V v y w < 4 * * * * * % & % % d 1 > d : : & $ 2 - 2 < < A +.#.+.#.H Y ;.;.<.1.1.<.1.3.1.>.1.>.>.=.` >.5.` ` =.` T ` z E I K P P N P P K l x 6.#X].P.P.P.@ @ @ p p J  .p  .J  .u } + @ 4 0 @ 0 p 0 u u u J C D C C S A A A S A A A S Y S U ~ ~ v.sX#X#X=X=X=XsX4X0XyXpXiXiXiXaXvXvXaXmXaXmXaXmXaXvXzXzXcXcXcXcXbXqXjXGXPXxXgXgXgXxXxXcXxXMXZXNXAXAXZXzXAXAXAXAXUXAXDXAXLXLXSXLXKXKXKXKXKXKXKXKXKXKXKXIXIXIXIXIXIXIXIXIXIXIXIXIXIXIXIXKXSXSX",
"DXDXbXyXyX0X9X4X3X<X3X&Xc.U.y.lX&X&XfXF G Q F q.u.D.B.D.m.m.t.t.t.e.e.] ] [ / R K Z j j t v r y ; 3 , * * * * % % % 1 1 : : : 2 $ $ = = G +.@.#.O.;.:.#.:.^ :.<.j.<.<.4.3.1.1.>.>.>.>.=.` =.` ` ` ` ` T R { l E K P N P P P K k k o.].K.P.P.P.@ @ p p  .u  . . .|  . .+ @ q @ @ p 0 } p u u u D C C C V V V C Z C Z Z A O.T.}.[.[.L.#X#X=X:X=X5X5XsX4XsXyXyXyXuXiXiXaXaXaXaXaXaXiXaXiXzXzXuXcXcXcXjXAXGX-X7XeXjXgXgXgXhXhXxXcXNXNXNXNXZXZXZXvXAXAXZXAXAXUXAXAXAXDXDXLXLXSXSXKXKXKXKXKXKXKXKXKXIXIXIXIXIXIXIXIXIXIXIXIXIXIXKXKXSX",
"SXDXAXzX9X0X3X3X3X2X,X:X.X%X&X%X$X&X-XU.$XF 0.$XH.V.D.D.m.m.b.,.e.e.] r._ ] W R E l j f f 6 v y y - * * * * * % % % - 2 2 : : $ = l o.O.O.@.#.@.#.g.g.2.l.^ <.<.<.<.4.<.<.5.1.5.=.=.=.>.>.` ` ` ` T { z E z z K K M N P P P K z x x #X4.4.K.a.p p p p  . .H |  .| H  .@ 0 @ p p 0 p p u J u u u V u C C V C V a.=Xn.n.A.S.A.G.G.L.}.[.}.#X#X#X=X5X5X4X4X4XyXpXpXpXiXiXpXpXiXaXpXiXiXuXcXuXcXMXjX-X;X-XeXeXjXeXjXjXgXgXxXhXxXbXNXNXnXNXNXZXZXNXbXNXZXZXZXZXAXAXAXAXAXAXAXAXSXDXLXSXLXLXKXLXKXKXKXKXIXIXIXIXIXIXIXIXIXIXIXIXIXKXKX",
"SXFXDXAXCX9X4X3X2X2X,X.X1X%X$X$X$X$X$X$X$X0._ $X7X7X6X6X<X>X'.[ Y ,.e.[ [ W [ P I z k j 6 , > t w 7 ; > * O * * % + % j 2 = d o.^ #.O.#.@.#.i.g.x.g.z.x.f.<.<.<.3.<.<.<.4.1.3.1.5.>.5.=.=.=.*.5.*.T ` z z Z z z K U K U P P Z l *.x 4.#X6.K.a.p 9.p 9.&. .o.$.O.| O X . @ @ @ 0 p p } p } u u D C D P.}.:.2.j.g.<.j.j.j.Z.Z.S.H.!.G.[.}.*X}.:X5X=X5X=X4X4X4X4XyXyXpXuXpXpXpXpXaXuXiXuXuXcXeXU.&X-XMX8X-X-XeXeXeXqXjXgXgXgXbXbXbXNXnXnXnXNXnXNXNXnXNXNXBXZXNXZXZXAXAXAXAXAXAXAXAXAXDXDXDXDXLXLXLXLXKXIXIXIXIXIXIXIXIXIXIXIXIXKXSX",
"KXDXDXCXCXnX9X2X2X,X>X1X_.^.$X$X$X$X&X$Xp.0.0.0.0.H.7X6X<X,XoXoX|.6.4.5.-.Y U / ! v - ; 9 , > , - < w ! G < ; = % O O + l O.p.O.0.p.i.i.g.g.g.x.v.x.z.;.,.<.<.<.4.<.4.1.4.1.5.1.5.=.>.=.=.z ` =.=.` T z z z Z Z K K A N P K K z j x U K.K.4.*.9.9.J  .$.O.O.$.O O O O O + + X p p } } } &.P.J.2.a.x.2.x.2.:.2.#.l.:.:.j.j.Z.Z.F.A.G.H.[.{.{.*X*X=X5X3X5X9X9X0X4XwX0XyX0XyXpXyXyXuXuXcX-XU.I.T.T.-X-X1X-XeXeXeXjXeXjXjXgXgXbXbXbXbXbXbXbXbXnXbXnXbXnXNXNXNXNXnXNXZXZXZXZXZXAXZXAXAXAXAXAXAXLXAXUXLXLXLXLXIXIXIXIXIXIXIXIXIXKXKXKX",
"SXDXDXAXCXnXbXpX,X>XXXXX.X$X^.$X$X&XD.h.;.0.0.0.0.0.0.D.<X,XoX+X(.W.4.1.=.( / ! ! ! / _ / ! _ ! ! < & - ; * % = 2 w ^ p.- O O % = $ d E i.v.z.c.v.G.) ;.,.<.3.3.3.3.3.4.5.3.3.5.>.5.=.=.=.=.=...*.z T T z z z z Z M P P U U K k z x x K.6.K.4 9.9.J O.O.$.+ + H.P.L.L.K.P.P.J.J.} p @ @ @ 4 0 4 4 4 * ; * , ; * ; ; ; ; 2 < , , , 5 5 < < < r r r 7 y v n n F F F F _ q.0.0.w.y.c.c.c.U.U.I.I.&XqX-X-X-X-XeXeX-XjXeXjXgXbXzXzXbXbXvXbXvXvXbXbXbXbXbXbXbXbXbXNXNXNXnXNXZXZXZXZXZXZXZXAXAXZXAXAXAXAXUXAXUXUXLXKXLXKXKXKXKXKXKXKXSX",
"DXDXDXAXCXnXbXbXyX3X.X_.^.$X$X$XI.Z.n.j.r.k.p.0.0.0.0.0.r.h.oX+X(.(.6.<.-.( ~ ! ! ! ! _ _ ) ) , < < < > * ; * ; ; ; ; 4 M % % + O + O = = O = q ; = ] ;.,.<.<.<.4.3.5.3.3.1.5.1.=.5.=.5.=.=.=.*.=.T z *.z z k Z Z Z U N P K K z k x x 1.4.K.@ 9.J  .$.* + -...2.#X=XL. .p p p p p } } @ ; + + * * % * # % % # % % % % % # o % % % $ $ $ : : : 2 : 1 > > 1 1 1 1 2 c 2 c B B B Q Q G 0.v.I.I.Y.Y.$X-X-X-XeX-X-XjXeXkXgXcXcXzXzXcXzXzXzXzXzXzXzXzXzXzXbXbXbXbXbXbXnXnXnXNXNXnXNXNXNXZXZXNXNXAXAXAXAXUXUXAXUXAXAXUXUXLXLXLXKXLXSXAX",
"AXAXZXCXnXnXbXcXuXpX9X9X<X>X$X$XR.V.n.b.h.r.k.r.r.r.f.r.r.' r.<.(.W.N.3.,.) ~ ~ ~ _ _ ^ _ < 7 7 f < ; 1 < % ; ; ; ; 4 ; 4 > + O O O + O + = + = + = = ` 1.3.4.3.<.5.4.3.5.3.5.3.5.1.=.=.=.=.=...=.T ..z T z Z z K Z M P A U E z l x 3 T K.J.i 9.J ; * +.=.+.( T @ @ @ p p p  .p }  . .} D D * * * * O * % * % # # # % # % # % % % % $ $ $ $ $ $ : : : 2 > 2 > 1 c 2 c c w B B F F Q _ 0.v.U.Y.sXY.*X-X*X-X8X-XeXjXeXuXuXuXuXzXiXiXcXiXzXzXiXzXzXcXzXcXcXcXbXbXcXbXbXbXbXnXbXnXbXNXNXNXNXNXNXNXNXZXBXAXBXUXNXUXGXAXUXDXLXDXLXDXAX",
"ZXZXZXnXnXbXvXcXcX4X4X3X5X8X8XW.N.N.C.b.h.k.r.y.r.r.k.e.e.' r.' [ +.C.3.,.@.) ) ^ ^ 0.r b 8 5 7 < < < - ; 2 = - * 4 ; ; , ; O + + + O + + = = = = = = = I <.4.3.4.3.5.3.5.4.1.1.1.>.=.1.1.=.=.....=...z E z z D Z Z A A A K E z z x 6 3 4.4. .+ 3 +.@.-.-...@.@ @ 9.@ 9.9.p  . .H | H | J H J H u % * + % # # O O # % # O % % # # % % % % % % % $ = $ : : 2 2 2 2 c 2 c c c c F F _ _ _ 0.Y.L.Y.T.L.Y.-X*X-X8X;X-X0XuXuXuXuXuXuXuXuXuXuXuXuXuXcXuXcXuXuXzXcXzXzXzXvXbXvXbXbXbXbXbXbXbXNXbXNXNXNXBXNXBXNXNXBXNXAXAXUXAXAXAXAXAXAX",
"ZXZXCXnXnXvXbXcXcX9X9X3X<X1X8XR.N.N.C.b.t.e.e.y.y.k.e.y.r.r.' ' ] ] ] ( ;.r.p.) ^ ! V b g t 7 5 7 < < ; ; ; - 2 + ; , 0 , , 0 * + + + % = + & = ; = = = 2 2 3.3.3.4.3.4.5.3.3.5.5.1.1.5.5.=.=.=.=.*.....} z } z E Z A U U U E E k k g 4 X.4.}  .O.+.1.+.-.-.a.@ @ 9.9.p p a. . .| o.H H H D J D J J D ; % % O % O O X O O . O % O % % O % % = % % $ $ = $ 2 2 2 2 2 e c e c 9.F F Q _ ^ ^ w.sXT.#XY.*X*X*X-X-XeXeXwXwXuX0XuXwXyXuXyXuXyXuXuXyXwXuXuXuXcXuXcXzXuXcXzXzXzXvXzXvXbXbXbXbXbXNXbXNXbXNXNXBXBXNXBXBXNXZXBXAXAXAXAXZXZX",
"nXnXnXmXvXzXcXcXxX3X3X<X1X8X1XN.E.3.C.,.m.e.e.y.t.y.c.e.r.e.' ' ' _ / W [ Y f.p.Z Z b g 8 7 8 6 4 < , , ; 2 , - - + * * * ; ; * * * + = + = = - ; * = - = = = >.3.5.5.4.3.1.3.1.5.1.5.1.1.=.=.=.=.=.*.X...*.z T E Z A U U U E Z z j x 0 Z 4.Z O.@.1.+.-...T @ e e e 9.9.a. . . .| ~ S G G S S S S C S S } u * + O O O O O O O O O O % % O O % = = % % $ = - - 2 2 e 2 e c e B F q._ 0.r.[.*X#XP.#XT.Y.*X*X-X*X-X0X0X0X0X0X0X0X0X0X0XyX0X0XyXwXwXyXuXyX0XuXuXuXcXuXcXzXzXiXzXzXzXzXcXbXzXvXbXbXbXNXbXBXbXNXNXNXBXNXNXZXZXZXZXNXNX",
"nXnXbXvXzXiXcXgXhX3X5X<X1X8X1XR.N.C.b.t.e.e.y.m.y.h.y.r.k.h.r.' ' ] ` W I W I A Z Z b b g 8 5 5 5 , ; , ; 2 - - - & + ; * ; * * + > , , ; < < 7 w y 0 0 5 ; = = I 4.3.4.4.4.5.4.3.5.3.1.1.5.1.1.=...=.....X.z } Z Y U A Y U Y E z k k 9 5 2.i @.@.-.1.-.=.q @ 9.9.9.9.p.p a. . .o.} ~ Y A S A S A S Z S Z D Z Z 0 O + + O + + O O O O O O % % o o = = $ = = = - 2 2 w c e c i F g.G.H.I.H.5XT.#X#X#X#X[.Y.*X*X3X3X3XeX4X9X0X0X9X4X9X9X4X9X9X9X4X9X9XwXwXwXwXwXuXwXuXuXuXcXiXzXzXcXbXzXcXMXbXbXbXbXbXbXbXBXNXbXNXNXNXnXNXNXnXnXnX",
"vXvXvXzXzXcXuXgXxX2X<X>X1X8X-XC.3.3.t.e.t.r.y.y.y.y.t.y.k.r.h.;.' / / R R R L U A b b b 8 8 5 5 5 4 4 ; 0 + ; 4 - = = + ; * * ; < & , , 2 , < 7 7 r t b 0 0 0 0 , = 1.4.4.<.4.3.4.3.1.<.1.5.5.1.=.5.....X.*...X.*.S E S U U Y E z k k 8 t z J @.@.@.-.p.9.@ p @ 9.9.q.J O.O.+.+.Y Y S Y A Z U N Z Z M Z M Z Z Z M Z Z ; + + + + + + + + = O = O = = + = = = = ; ; q w w w }.!.H.H./.H.H.L.#X=X#X#X=X#XY.*XY.5X5X8XeX5X<X5XeX3X5X3XeX5X3X5X3XeX9X5X9X0X0X9X0X0XyXwXwXwXuXuXuXuXcXcXuXcXzXzXcXzXbXcXbXbXbXbXbXNXbXNXNXnXnXnXnXbXmX",
"vXiXiXiXuXuXwXgXgX<X,X1X1X$X&X3.] C.] e.r.r.r.y.y.u.y.t.m.r.h.r.' ' ] / W I P C Z V b 8 r 8 r 8 5 5 5 5 ; 4 * + - = ; = * ; * > & F > , , , < w r r b b } } 0 0 5 5 ; y 3.4.4.4.4.3.4.5.4.2.2.1.1.1.1.=.=.X...X.} E Y Y ~ Y R E E k g u t Z 0.@.-.p.q.9.p.q e 9.9.9.J O.#.+.+...X.R E K Z Z M k Z h k l h l h h j l g j M 8 * = * + + + + O + + = % = = = = = q < i R.A.A.A.A.G.H.H.H.F.@X#X#X#X#XP.L.#X[.=X:X:X=X:X*X5X:X5X1X5X5X:X5X8X5XeX<X5XeX<X5X5XeX4X9X9X9X9X0XwX9XuXuXuXuXuXcXcXzXcXzXcXbXcXbXzXbXbXbXbXbXbXbXbXbXvXvXvX",
"iXiXuXuXuXwXwXgXgX6X1X$X8X1X$X3.] e.] t.r.r.y.r.y.y.y.t.k.m.h.r.' ' ] R R I I I b b b t 8 8 5 5 0 5 4 ; 0 ; ; ; ; ; ; + ; + , * & - w 1 2 < < < w v b C 0 } D 0 0 0 @ + q L 4.4.4.4.4.4.4.1.5.5.1.1.5.&.=.......X.T Y Y Y R Y T E Z Z V p i s.9.s.9.s.9.p.e p i 9.p.J O.+.+.+.Y T Y E Z Z Z k h j g j h j j x x j f j j j h s h 4 + + * % + + = O = + = ; ; O.n.N.n.N.Z.M.V.Z.M.D.F.F.F.:X#XXX#X#X}.}.L.[.=X:X*X*X:X*X:X:X:X:X:X:X:X*X:X:X:X:X5X=X5X8X5XeX8X5XeX4X9X9X9XwX3XwXwXuXcXcXuXcXcXcXcXcXcXzXbXcXbXbXzXbXvXbXvXvXvXvXzX",
"iXuXuXuXwXwXqXwXfX9X%X*X$X%X&X] ] ] [ e.r.r.r.y.y.y.u.y.k.k.h.h.' ' ( R R P L L V C t b t t t 5 5 5 0 5 4 0 ; 4 ; ; = ; ; ; ; > & > 5 q , , < 1 w v b V u k } k u 0 0 4 2 ; w ` 4.4.4.4.4.4.4.2.2.5.2.5.5.&.=.....Y Y Y ( Y ( Y E U A u J 0.p q.9.s.p.s.s.p 9.9.9.J ^ @.+.+...X.R E Z M M h g h f j 6 s 6 d 1 d d > 1 s d 6 s s j g 8 ; * ; ; + = q ; ~ ,.,.j.h.<.n.<.j.n.j.j.M.M.k.z.W.+X}.}..X].}.}.H.}.*X}.}.}.*X{.{.{.*X{.*X*XXX*X*X:X*X*X*X*X1X=X:X5X:X1X5X5XeX<X0X9X9X.XwXwXwXwXcXcXuXuXcXzXzXcXcXcXbXbXvXzXbXzXvXvXiXiXiX",
"yXyXyXwX9X9XqXqXfXfX$X$X$X$X&X] ] ] ] r.0.r.r.y.y.y.c.u.k.h.h.,.;.` ] / R P I B b C t t t t t y y y 0 0 0 5 5 q 4 ; ; q ; ; q * & & > Q w , 1 w f v N N A S } D } 0 0 0 q y q w i R.4.4.4.4.4.4.4.5.4.2.5.&.=...+...Y ( Y X.( Y Z t i F q.^ Y q.s.s.s.p.i.p 9.9.9.p. .O.+.-.T T E K M k j h f 6 6 6 1 x 3 d d > > d > d : d d d x s f j j 9 ; 0 P ( ( ;.;.;.,.;.,.,.,.h.h.f.j.h.f.k.k.~.W.(.].].~.~.!.[.[.{.[.[.}.[.[.[.[.{.[.[.}.[.*X[.*X[.*X*X*X*X{.*X:X*X:X:X5X8X-X5XwXeX9X1XwX0XuXgXwXcXcXuXcXzXzXzXzXzXbXzXvXvXzXvXiXiXiXpX",
"yX0X0X9X9X9X9X7X7XfX/.$X$X$X$X] ] [ ] _ W r.q.r.y.y.y.t.y.k.b.b.' ] ( R P I L m M b t t t t t u y 0 t y y 0 0 4 0 ; 0 ; q < q < 4 & & r Q w < 1 w v B N U Y X.} } } } 0 t q y w w i Q S.4.K.4.4.4.4.2.2.5.5.&.5.+...X.+.+.( v t b n F F F 0.#.s.s.s.s.s.i.9.p q. . .@.+.-...T R Z z k h g f f 6 6 3 > 3 > # > * : # : # : : : d 1 1 > s f h Y U Y ( ( ( ) ( ;.-.;.;.;.;.;.;.f.f.p.f.A.E.W.(.E.W.E.E.!.}.[.L.[.!.!.L.G.!.G.[.[.[.H.[.!.*X[.[.[.[.{.*X*X*X*X*X*X*X*X:X:X1X1XzX6XeX-X3XwXwXwXwXwXcXuXcXcXzXzXzXcXzXzXzXiXiXiXiXpXpX",
"rX4X4X3X3X3X6X7X7X7XH.$XH.$XI.] ] [ W W 0.r.r.r.r.r.y.y.t.m.e.' ] ] ` W I I m m c V C t t t t t t y y t t 0 0 y 0 0 5 ; < ; < < < ; & - w Q < < w v B N U ~ } *.} } } u u y y e i w i F r.K.S.4.4.4.4.4.2.2.2.&.1.+.+.Z r r v v n n n F q.F 2.G s.a.s.a.x.i 9.q.^ O.@.+.-...T E K k k g f 6 6 6 4 , > 3 > * * # # # # # # : : : : : : s 1 N A U U ! ! ( ( ( ( ( ( ( ( ) ) ) ) 0.f.p.4.R.E.4.E.A.A.G.L.G.L.G.G.L.G.G.G.G.H.G.G.G.!.L.G.[.G.*XL.*X^.*X[.[.{.*X*X*X*X=X*X-X:X-XeXeXqXwX:XwXwXwXcXwXuXcXcXiXzXzXzXzXiXzXiXiXuXpXyX0X",
"4X4X3X5X5X8X8XeX7XjXH.Q.$XI.Q./ / / W _ Q 0.q.r.r.y.y.r.m.e.' ,.] ] ` I I L m m c C n t n u t t u t u u t u t 0 5 0 5 5 5 y < y r 7 , 2 2 Q Q < f v B N U X.X.&.} } } u u u y y i i F F F _ <.S.4.J.4.4.2.2.5.2.$.8 8 v v F n n n C F J G G 2.A s.a.s.a.z.9.q.J ^ @.;.-.+.+.T E E k g f g 7 6 4 3 3 > > * * % % # % # # # # # # # : : : 7 b N N A A A U U Y U ( ( ( ( / ) ) ^ ) 0.3.3.3.n.N.3.N.G.G.G.G.G.G.A.G.G.F.G.G.G.F.G.G.H.G.H.G.G.H.H.!.H.L.H.*XL.*XL.*X*X*X*X=X-X1X=XeXeXeXwX1XwXgXwXwXcXuXcXcXzXzXzXiXzXiXiXuXpXpXyXrX",
"4X2X5X=X:X1X8X-X8X7XH.H.D.H.H.( W Q W Q W W q.r.0.y.y.t.e.e.,.] ` ] R I I m m s c a b n t n t t n t V n b b g 8 8 t 8 5 r y 5 r r t r , > 0 Q q.a c B L ! / ..-.+.X.X.} } 8 u u y F i q.F q.0.r.K.].K.S.K.4.=.k g r v w F B F N A F F G J S 2.1.v.F.c.c.j.q.F 0.0.@.;.-.+...Y E Z Z g g 7 7 5 4 4 4 * > 3 X 3 3 X X X # X # . # % % % - b b b n N A A U U A U U Y U ! ! ! ! _ ^ ) ,.,.,.<.,.n.f.F.Z.G.Z.Z.G.Z.Z.Z.Z.Z.Z.Z.Z.Z.F.F.F.Z.H.G.H.G.H.H.H.H.I.H.*XY.H.Y.Y.*X*X*X=X-X*XeX9X9XwX-XwXwXgXuXcXuXcXcXzXiXiXiXiXiXpXpXyX4X4X",
"5X5X5X:X:X1X*X1X-X&X$XF.Q.U.Q.R P L Q Q L q.W 0.0.0.r.r.e.' ' ] ] ( R I K m m m c 1 n V n C C n C n C b V b V b b g 8 t r t r y t t t u < , L q.c c B F P ( ( =.1.=.X.X.} k C u F F F J q._ 0.0.p.[ K.2.z K k k b v B i F F N G ! ! J G 0.=.1.&.0.F.c.z.Z.J q.q.0.;.:.-.-...T Y Z Z k g g 5 6 4 , > , * X 3 X X X X X X . . . . .   o f r b b b b b M N N A Z U U U U P ! G G G -.;.,.,.<.,.0.z.Z.Z.Z.Z.z.Z.Z.Z.Z.z.Z.Z.Z.Z.z.v.Z.Z.Z.F.F.F.F.F.H.L.H.L.Y.H.L.Y.H.*XY.*XT.*X-X=XeXeXeXqXwX1XwXwXcXuXcXuXuXzXiXzXiXiXuXpXyXyXrX4X",
"5X5X:X:X*X*X*X$X-X&X$XF.F.U.U.R U U L F q.W Q 0.q.r.r.r.r.e.] ( ` R R I I m a a a c V n b t n b n V b b V b V b b b g v t r t n n C C C V 8 U Q Q c v B U R ] =.=.=.&.&.E S C n n F F q.F q.0.0.r.k.;.=...z k k h b c F F F F Q ! ! G ^ ^ <.1.=.C H.c.F.F.J J 0.0.;.;.;.-.-.+.Y Z Z V g 8 5 6 6 4 * 3 * 3 X X * # X X X . . . . . O t 0 t b t b b b b Z M Z Z M M N N N N G G G +.( ' ;.,.;.j.j.j.z.z.z.l.n.l.l.j.j.z.j.z.j.j.M.z.Z.z.z.z.z.F.H.H.v.H.H.H.H.L.Y.Y.[.Y.*X*X-X*X:X-XcXeXeXqXqXeXwXwXcXuXuXzXiXiXiXiXiXpXpXtXrXrX5X",
"5X5X:X#X*X*XY.*X$X-X&XF.c.D.D.Y U U Q B Q L q.Q q.r.0.r.r.' ] ] R R I K m m a c a a 7 n V n b n b N b b b M M M b g b b b b n n n n S D D u < w q.q.C N U R ( -.=.1.=.*.X.Z Z N B F F F G 0.0.0.0.k.f.z ..T E Z N b B F F F Q Q ! ! _ ~ @.<.=.=...H.c.F.H.q.0.0.p.;.;.:.-.+.X.Y S Z Z b g 8 9 4 4 4 4 * X 3 * X X X X X . . . .   t 5 y 7 t 7 b b b b g V h M b M b m n N F F _ R +.] +.' g.j.j.j.j.j.j.j.l.j.j.l.g.g.j.g.k.j.j.j.j.z.M.z.z.z.z.v.H.H.v.H.Y.I.L.Y.Y.*XY.*X*X*X*X*X*XzX8XeX9X9XwXwXwXuXuXuXuXiXiXiXpXpXpXrX4XtX4X",
"#X@X=X#X#X*XL.*X-X&X&Xz.Z.c.F.R A U A N F Q Q q.q.r.r.W r.' ] ] R R I L h m a a a 2 a N b n b n b N M V M M M g b k b N n b C N G G G ~ } } } t Q q.q.] L I ` =.=.*.=.=.*.z Z M N n F _ _ _ 0.0.y.k.c.k.` T z k M N n F q.F Q W _ _ ) ) 0.1.1...T p.F.F.G.q.^ 0.0.f.f.1.:.+...Y Y Z V V g 8 9 9 4 4 4 * * + X * X X X . . . . . 0 5 y 0 8 r t r 7 8 b g g v g f h v r B B F F U ( ( ( ( f.f.f.g.g.g.j.g.g.j.:.g.g.g.g.f.g.g.g.g.g.k.g.k.k.k.z.v.v.v.F.H.v.Y.L.Y.Y.Y.*XY.Y.*X*X=X*XI.^.wX5X<X9X9X9XwXwX0XuXuXuXpXpXpXpXyXyX5XsX5X",
"sX#X=X#XT.#XY.*X$X-X-Xx.v.z.c.o.} Y A A G F F q.r.q.q.r._ ] / R R K K K h a a a 1 c 2 B V b b b b b b M M g b M M b N b N N A G ! ! ^ o.|  .} } w Q 0.q.' / R =.=.5.=.*.X.z k M B B L F _ 0.0.r.f.c.k.c.,.E Z Z M n F F Q Q 0.0.' 0.) ) @.=.=.=.E C U.H.L.q.q.0.f.f.g.,.:.-.-.Y Y S Z V V g 8 6 4 4 * 3 * * * # X X . . . . X + y 0 t t t t 8 8 8 b 7 g g f g f 7 v w v r y U U U ( ( ) @.@.;.f.f.;.f.;.f.;.;.;.;.;.:.;.;.f.f.g.g.g.g.g.g.k.g.c.c.z.v.v.v.I.I.H.G.L.I.L.*XY.Y.*X*X*X=X=X-X*X-X<X=X3X3XwX0XyXyXpXpXyXtXtXtXtXsXtX",
"sX#X#X#X#XP.#X*X*XY.I.v.v.x.z.X.} Y S S G G L q.q.0.W r._ ] / R R I I s c a a 1 1 1 ; = < b b b b M b b b k M b M b b N A N G G ! ^ ) @.#.#.&.&.H q.q.0.0.` ` -.=.5.=.*.z z l M m n L F F 0._ 0.y.k.m.D.F.k E K N B F Q Q q.0.0.r.' r.;.f.>.=...E Z H.H.H.0.0.0.f.f.g.:.:.-.+.+.Y Y S Z b g j 9 4 4 3 * * * * X X X X . . . 0 0 t t r 0 t 8 8 t 8 7 g 8 6 f 6 7 1 7 < r r y A U ~ Y F ) ) @.@.' @.;.;.@.;.;.@.;.;.@.@.@.;.@.@.@.f.f.g.f.g.k.k.k.c.v.v.F.H.H.H.I.Y.H.Y.*XY.[.*X*X*X=X*X=X:XeX=X*X1X,X3X3X3X4X0X4XrXrXrXrXtXtX@XsX",
"#XsX#X=X#X#XY.P.Y.Y.*XJ.J.v.z.&.X.X.} } S G Q L W W q.W / ] / R P K L m a c 1 c w = = = = < b n b b b M N b b N N N A N A G ! ! ^ ) ) p.g.2.%.%.&.q.0.0.w.y.R ` =.*.=.*.*.z h b v B F F Q _ 0.r.r.y.k.D.M.H.E U A G F J q.0.0.r.r.f.r.f.;.=.=.T E Z ' I.Y.0.0.0.r.f.h.<.<.-.-.+.~ Y Z Z Z g g 9 9 3 3 * 3 X X # X X X X . @ u u t t t y t t t t t 8 8 6 9 6 6 1 1 < w w w A A U U M ~ ! ) ( ( ) ) ( ;.( +.) +.( @.( @.) ) @.@.@.O.@.f.p.g.s.g.k.k.c.v.c.v.H.v.H.H.Y.Y.L.*XY.*XT.Y.*X=X#X*X{.eXiX{.-X*X5X5XeX4X3X3X4XrX@XsX@XdX5X",
"dX#X#X#XsX#X#XP.P.T.Y.K.J.x.x.1.X.X.X.} S Y ~ ! ! _ _ ) / / R R P K m m c a a 1 2 2 = q = = = n b b b n b N b C Z n S A G ! ~ ^ ) 0.f.f.z.z.x.2.a.J y.w.w.y.0.-.=.=.*.*.z z k m B B F F Q 0.0.0.r.k.c.m.D.D.3.Y G G _ q.0.0.0.k.r.h.r.k.y.=.T E Z z M H.[.0.0.p.f.f.j.,.<.;.-.+.Y Y E Z Z g j 9 3 3 3 * * * * X X X X X + y y b t t y t t t 8 8 8 8 6 9 6 6 > 1 < ; w < w A A A U U ! ! ! ~ ( ~ ( ( ( ( ( ( ( ( ( ~ ) ) +.^ @.) @.@.p.) p.p.f.k.k.k.z.v.z.v.F.H.H.H.Y.I.*XY.*X*XT.=XY.#X#X[.[.uXpXsX1X5X:X5X=X5X5X3XrX2X5X5X5X5X",
"@X#X@X#X#X#X#X#X#X*X#XL.K.J.x.-.=.+...X.X.} S ~ ~ / ! / / / R R K K m v a a 1 w w = = = = @ = + < N V b V n A A S A A G ! ~ ! ) ) f.f.M.z.Z.K.J.J.%.0.s.y.c.U.y.=.5.5.=.*.z z M M n N G Q 0._ r.f.y.c.D.D.F.F.N ! G Q q.0.0.r.r.y.k.k.m.0.=...E z M g H.[.p.p.0.f.j.j.<.,.1.-.+.( R E Z Z k g f 6 3 > 3 * # * * X X X 7 w n y v b t t t t t t t 8 g 9 6 3 4 , , 2 < ; < V C Z U A A G A ! U U ! ~ ! Y ~ ~ ! ~ ~ ~ ~ ~ ~ ~ ^ ) ^ ) ) @.@.@.f.f.p.g.k.k.z.k.F.F.H.H.I.H.*XI.Y.Y.Y.*X*XY.=X=XL.L.[.uXsX=X^.:X:X5X:X:X:X:XXXXX@X@X#X",
"#X+X^.^.^.{.T.*XI.L.*XI.S.S.l.` =.......Y X.Y Y Y ~ ( R R R P P P m m f a w w ; ; ; q = = ; = ; = - n C A A C G A G H ~ ~ ~ ) @.p.f.c.M.H.A.K.K.K.J.s.y.c.U.U.U.4.4.5.2.2.+.#.~ ! 0.0.0.0.s.p.c.c.c.M.c.F.D.D.1.! G _ 0.0.r.c.y.h.k.c.m.A =.z z Z k b 0.[.k.p.f.f.f.h.<.<.-.>.+.Y X.E Z k j j 6 6 3 3 * * * # X * + 3 5 r a B v v t b t t t t 8 8 6 6 4 6 > , - - ; 2 w Z A A n N N N N U A A U U U U U U ! U ! ~ ! ! ~ ~ ~ ~ ^ ^ ^ @.@.) p.p.f.g.f.k.k.k.c.F.H.F.I.I.I.I.*XY.-X=X*X#X#XL.}.L.G.=X=X#XL.1X#XL.:XXXXX.X.X.X+X}.+X",
"].^.~./.^.$X$X*X&X&XfX7X8XP.S.T ` T T T T T R E R Y U R R U U I K m v a a w w ; q q ; ; + ; ; + = * % A C J G H G ~ ~ ^ ) ) @.p.f.k.j.D.H.G.[.}.#XK.U.c.c.U.U.I.P.4.4.4.1.-.+.( ) _ 0.0.r.0.c.m.c.c.F.D.D.H.H.4._ J 0.0.0.y.y.k.m.D.m.m.=.=.T T l k m v [.f.f.f.j.h.j.<.,.-.-.-.` R T Z k k j f 6 , 3 3 * * % % 0 0 0 9 < r w v r v r v b r g 8 g 9 6 6 4 > , * - - ; C C Z r v v b N N N N N N A N A U A A U A U A G ! ! ~ ! H ~ ^ ^ ^ @.) @.@.p.f.f.j.c.M.k.c.c.v.H.I.I.Y.I.T.Y.T.=XL.#XL.L.L.#X*X=XL.R.-XY.L.L.A.{.{.{.^.{.].",
"!.E.!.!./.$X$X$X&X&X&X8X8XfXqXK.{ ` { ` E E E E E U U U K U K K M m v c a q w < ; ; ; ; ; ; ; * * * = O < G G ^ ^ ^ O.O.O.p.@.g.f.c.Z.F.H.!.}.}.#X#Xa.U.U.I.I.U.Y.S.4.2.4.2.+.( ) _ 0.r.f.k.y.c.D.c.D.I.H.D./.S.) 0.0.s.r.c.y.c.D.D.D.D.=...E z z g v r z.k.f.f.f.j.j.<.,.>.-.-.X.R E z h j j 6 x > > > & * ; 5 5 5 , y < r < w v c v r b b g 8 6 9 3 3 , > > - - - 7 C S , v v v b v b b N M N N N M A A Z A N A A A G G ~ ! H ~ ~ ^ ^ ^ ) @.@.@.;.f.f.f.k.f.c.D.U.I.I.I.I.Y.*XY.=XL.#XL.L.K.H.=X=X=XP.#XK.1XL.H.K.H.v.).]./.~.",
"E.E.A.D.D.H.Q.I.$X&X&X8XjX8XqX9XeXI I I I T E I E Y E K E U K M M v m w q w q ; w q q ; ; ; 4 * * % % % % % J ^ O.O.@.#.g.g.g.k.z.z.F.H.!.{.#X#X#X XJ.I.I.U.T.&XY.tX8.4.5.=.>.+.) 0.0.0.0.k.k.c.c.D.H.D.I.H.H.W.0.p.f.c.c.c.D.D.D.D.D.D.=.T E z Z h m v F M.k.k.j.j.<.<.<.1.-.` ( T E Z k k j 6 , , > > * 5 5 5 5 5 5 ; 5 < < 7 7 w v v r 7 f 6 x 9 3 6 > & & = & = C D g < 7 v f v v v v v M b M b M n N N n A N A A A A A G ! G G ~ ~ ~ ^ ~ ) @.) ) 0.f.p.k.k.c.c.c.I.I.Y.I.Y.*XY.=XT.P.#XL.L.#XT.=X#XL.l.}.:Xv.v.v.z.z.x.S.#X",
"l.x.#XM.D.D.D.&X$X&X&X&X&X8X8XeX<X0XK I I I I K E K K Z K Z K k h v f 2 w q 5 y 5 5 ; 5 4 ; * * * * * # #   O p.p.p.i.i.g.g.x.z.v.F.H.H.*X*X#X5X@X#X#XT.Y.&X&X-X-X&X4.4.4.&.1.+.) ) r.r.y.k.c.c.H.I.I.D.$XI.$X4.0.p.k.c.c.c.D.D.D.D.D.H.=.=.T z M k v r y M.k.j.j.j.j.<.,.-.-.....E E z l g j 6 3 1 4 0 8 r 5 5 5 5 5 5 5 w 7 7 < 7 7 v f 7 7 f 6 x 1 > > & & = = 6 H A < 1 7 7 < 7 v f v v v b b v b m b n b N A n n A A A A G G ~ H ~ ~ ~ ~ ) ) @.) ) 0.f.k.c.c.c.v.F.U.I.Y.Y.Y.*X#X#X#XL.L.v.=X=X=X#XP.L.K.K.2Xv.v.z.x.x.x.2.",
"%.i.#.O.v.I.D.D.U.$X&X%X&X-X8X1X1X:X6Xm K m K I K K K E K M Z M M h < q w y w 5 5 5 5 , ; 4 , * * % # X % X   . c i.s.x.c.z.z.z.H.H.H.!.[.*X@X@XdX@X@X-XT.-X-X-XeXjXaXaXdXsX#XL.j.0.p.f.f.c.c.D.D.D./.I.H.!.$X3.:.c.c.c.F.D.D.I.D.$X/.D.=...E Z M b v B F _ j.M.j.n.n.<.<.1.1.] ( T Z Z k h j 6 6 , 5 8 0 5 t 5 0 q 5 5 5 5 5 5 5 7 < 7 1 a s 6 f 3 3 > & $ * * & S S < < < < 1 < f < v 7 v f r g v b v v b b b n n n A n A A G A A A ! G ! ~ ~ ~ ^ ) ) ) 0.0.f.c.c.c.U.I.I.I.Y.*XY.#XL.L.L.L.K.=X*X=XP.#XL.Z.].K.XXv.z.j.x.2.x.",
"%.%.#.$.O. .| k.I.I.&X&X$X&X$X1X1X.X{.8XB L B M N K M K Z M k h b v q w w w w 7 5 7 , 6 > > > * % * # X . . O . o @ s.s.a.v.v.v.H.H.*X}.*X:X5X5XtX@XtXG.-XeX-XjXeX;XFXaXaXiXsXjX;XjXkXkXkXkXkXjX-X*X$XI.^.$X3.<.j.g.v.F.H.H.$XH.H.Q.$XQ.>.T T z M M v n F F m.z.Z.j.j.<.<.1.-.+...E Z Z k g j 7 t y 4 0 5 t 5 0 y 5 5 y 5 5 y 5 5 5 5 7 6 < 1 6 > x > > & & $ = f o., , < , < 4 1 7 1 7 7 f < 7 r v 7 v b b v b b n n n N A N A A A G G ! ! ! ~ ~ ~ ~ ^ ^ 0.0.p.k.s.c.U.v.I.I.Y.*XL.*XL.L.L.L.J.=XT.=X#XL.L.K.t.K.].+Xx.x.x.g.g.",
"i.#.$.$.o.| H H G G m.I.&X$X$X$X*X{.^.!.8XB m B m N M M M h M M v 2 ; q w < < 7 < < 6 6 > > * * # % O # O . O     O + d.v.P.H.L.L.L.Y.*X*X5X4X2X@XdXtX].-X-XjXfXgX*XFXmXvXzXVXeXxXVXjXxXxXhXhXxXMXhXxXhXxXW.b.h.h.k.z.L.H.L.H.$X/.I.$XI.=.-.T E Z b n n F F Q M.n.S.n.4.<.1.-.=...R T z k j g 6 7 t t y r < t 5 0 5 0 5 5 0 5 5 5 5 5 5 6 6 6 1 1 > > > & & * % Y - - - - , , ; 4 1 < < < < 7 7 7 7 7 r 7 v r b b v b n b n b C n A A A A S G G G ~ ! ! ^ ^ 0.p.s.c.s.c.U.U.I.I.Y.Y.*X#XL.L.K.H.*X#X=XL.L.L.L.x.W.S.W.(.s.x.x.%.",
"a.O.%.O.$.| H H G G C S S G.$X{./.^.!.!.H.:XB B B M M M M M b b ; ; w 2 < < 7 < 1 6 > > > > : # % # # O O O O O     + o _ G.L.Y.Y.*X*X:X=X=X4XrX@XdX@XtX8XjXjXgXjXdXFXaXmXvXuXcXVXhXkXxXxXxXMXxXMXxXxXR.N.C.k.m.M.c.v.L.L.}.$X^.$X$X$XL.>.=.T K A n F F G G ! r.Z.S.S.<.3.<.-.-.( T E Z l Z j 8 y C C u u y t y , y 5 y t 5 0 0 5 9 5 5 4 , 4 6 4 > : $ $ % * j 6 > - , - , ; 4 , < < 7 < 1 5 5 7 f 7 7 r v 7 r r b b b n b n N n A A A A C G A G G ~ G ^ 0. .q.0.s.c.c.v.I.H.Y.Y.L.*XL.#XL.J.v.*X*X*X#X#XL.L.J.H A.S.S.E.x.i.i.",
"#.%.$.$.o.| | H H C C C C b V G }.!.!.A.A.M.G.v b M M N M M b ; q ; ; < ; < 1 < , 1 > > & & * % % % X O O O O O + + + + + i Y.*X*X*X=X;X3X0XrXtXdXdXdX@XeXeXfXgXxXFXFXCXCXaXiXcXcXxXhXxXxXMXxXMXxXR.E.N.V.m.m.D.c.F.F.=X=X*X*X*X*X1X$Xv.=.=.E R U N N G G G ~ ! M.Z.S.n.<.<.<.-.-.X.Y E Z g g g 5 J C C u n n t y v n < , 0 y 0 9 9 9 6 5 4 , , , 4 > & * * % Z * ; * ; , - ; 4 , , , , < 7 5 4 < < r 7 7 8 r r t v r b b n b b Z n n n A G A G G H ! J H J 0.p.0.k.s.c.U.v.U.I.I.*XL.[.L.L.L.K.=X=X=XL.L.P.H.v.z.N.6.N.N.R.g.a.",
"i.%.#. . . .| S J S C C n n t t t r H G.M.j.h.h.k.b N M M b ; ; ; ; < ; < < 1 , 1 , > > > % % % # O O O O O O + + + + + + = e *X*X-XeX5X0X0XtXpXdXdXdXdX5XyXgXxXxXFXFXFXmXaXeXv.Z.Z.G.D.A.H.H.E.E.E.V.V.V.M.D.c.c.F.$X5X5X=X5X*X*X1X*Xp.>.>.T R A G G J ^ @.( @./ A.Z.n.l.<.<.-.+...Y Y Z Z g g 7 S C S C u n t n t r b n B B ; 0 8 5 5 4 4 4 , , , , , * * 9 ; ; , * ; 4 * 4 ; , ; , 5 + 3 0 4 7 7 5 7 7 r 7 r r r 7 b b b b b b n C A A C C A G G G J G 0.p.0.s.p.s.c.c.U.v.I.H.L.*XL.L.P.Z.v.Y.*X*X#XL.L.L.z.z.#.3.C.N.R.C.g.",
"i.#.%. .&.| | H C C C C C t n t r 8 y 5 5 H M.) ' <XV N b - ; ; ; ; < < ; , , 2 > > 6 h V Y $.:.z.v.Y.T.T.T.T.Y.Y.Y.T.Y.T.-X*X-X=XeX9XeX0XyXiXtXdXdXdXdX=XwXhXxXxXFXFXFXmXcXuXwXH.G.G.!.H.!./.Q.E.E./.V.D.D.D.U.I.V.*XsXsXrX5X5X5X1X7X].>.` ( ! ~ ! J O.^ #.@.+.;.m.Z.S.n.<.2.1.-...Y E Z Z V g 8 S J H C J C n n n n n v n n n B L < 4 4 4 4 4 4 > 4 * 4 ; ; 4 4 ; ; 4 4 + ; 4 , 5 , , } + 0 4 < 5 5 8 7 7 r 8 7 g t t b b t b b n b C n N C J G G G J ^ J J p.0.s.s.s.c.v.I.H.H.Y.L.H.G.L.L.z.#X*X=XL.Y.L.L.v.v.F.[ ] ] 3.3.C.",
"e.%.%.#.o. .| S S C C C C t t t u y y 5 5 5 5 5 s.) iXb C c.H.I.I.T.Y.&XT.-X-XT.-XT.=X-XT.T.T.;X;XT.=X=X=XT.=X*XT.L.Y.Y.Y.*XU.c.*XeXeXwXuXiXiXaXdXdXdXdXeXcXxXxXtXFXFXaXmXcXxXxXxX!.!.!./.!./././.E./.Q.F.D.U.Q.I.$XrXpXpXyXsX4XwXY.I.I.S.] ( ) ^ O.O.O.#.#.:.:.-.;.A.A.S.l.<.:.:.....Y E D Z V H C C C C t C C u n n n b b B B B M m N M M , 3 , > 3 , * 4 * * 4 4 4 4 4 4 0 ; ; 4 0 5 3 3 } 3 5 5 5 5 5 r 8 8 8 t t b b t b t b C C n C C J C J G J H J q. .q.p.s.k.s.v.U.v.H.H.I.H.L.L.G.H.H.Y.*XY.*X}.L.L.L.z.z.#.] t.[ ] ] ",
"' ' O.$. .$.O.O.i.p.c.c.F.D.H.H./.H.G.[.[.[.}.}.}.H.! 0XZ n Y.I.I.I.&XT.T.-X-XT.;X;XT.-X;X;X;X;X=X;X=X;X=X=X=XT.=X=X*XT.-Xn F Q Q P R ` G.0XzXiXmXaXFXdXtXcXxXMXiXFXFXFXbXcXcXMXMXcX^./././.!./././.H.H.I.I.I.I.$X$XiXpXpXpXaX[.I.I.T.&XY.I.) ^ 0.O.p.i.g.:.2.:.:.-.r.S.S.S.l.2.1.:.+.+.Y S Z H S S S C C n C t C t b t b u t t n b N N M M h k 8 , ; , V * * ; + @ 4 4 0 @ 0 0 0 4 0 0 + } + + 0 0 9 8 8 0 0 t t 8 8 t 8 b t b b b V n C C C C C J H H  .0.O.p.p.p.p.c.c.c.v.v.H.L.H.G.L.K.v.J.L.*X#XL.L.L.L.v.v.v.v.F ] ] ] ] ",
"' _ x.x.c.g.s.c.c.c.v.z.v.v.F.F.H.H.H.L.L.[.[.[.[.[.Y.G *XC J I.T.&X-XT.lX-X;X;X;X;X;X;X;X;X;X;XsX=X=X=X=X=X=X=X*XT.*Xs.n N N P I I { { { I { W [ t.:XaXiXcXMXBXFXFXFXmXaXbXbXMXBXJXMX^.^.^.^.^.$X$X/.I.I.I.I./.$X$XiXaXmX#X}.[.$XY.I.&X&X*X1X) p.p.i.g.x.<.l.<.2.1.;.V.A.S.l.2.2.1.+.+.X.Y | ~ ~ S S A Z C C n n V V b b g g 8 9 9 6 9 4 4 g g f g 6 8 4 * ; * * 4 0 0 4 0 0 0 0 0 0 0 0 0 + } 0 0 0 0 0 0 k 0 8 8 9 k 0 } 0 k 0 u D V C C C H J H H H ^ O.O.p.O.p.p.k.g.v.z.v.F.H.L.G.L.z.S.v.[.Y.[.[.L.L.L.L.v.v.x.c.! _ / _ ",
"_ _ i.x.a.a.x.z.s.x.s.c.c.v.c.F.H.H.H.H.L.H.G.L.L.L.G.L.0.H.C G U.T.T.-X;X;X;X;X;X;XsXVX;XsXsXeX;XeXsXsX=X=X=X=X=X=Xn v b m K m I I I l { I L L L Q 0.0.f.G.bXMXFXFXFXCXCXNXBXBXBXGXBXbX^.^.$X^.$X$X$X$X-XY.-X&X*X$XnX@X#X}.[.L.L.I.I.Y.T.&X&X*Xf.g.j.l.n.l.l.<.<.<.:.;.G.G.S.l.<.<.:.+.o.^ ( ~ Y Y A A A A N V C b b b g b b g g 6 6 6 4 3 * , > * , 4 ; * 4 4 0 + ; 4 0 0 0 0 0 0 } 0 0 } } + } 0 } 3 } u 0 0 u 8 0 } k 0 D 0 k u u D C C u J D H H H  .H  .O.O.#.i.i.g.k.k.M.Z.F.Z.F.H.F.v.z.L.[.L.L.L.L.v.v.H.J.v.z.H ! ! _ ",
"G _ 0.a.a.x.g.s.g.a.c.x.x.v.v.z.v.F.F.F.H.L.G.L.G.G.H.L.G.c.p.H q.Y.T.lX;XlXlXsXsXjXsXjXsXVXsXsXsXsXeX=X=X=X=X=Xp.u g M M h l m l l l l m l L L F q.0.0.k.Z.].BXFXFX#X}.1XuXZXBXBXGXGXBXBX{.$X%X*X1X-X-X-X&X*X$X$X%XtX#X#X}.L.Y.Y.I.Y.I.&X&X-X&X1Xi.z.n.S.l.Z.4.l.<.<.1.3.>.] ] ] 1.:.1.+.' Y ( U U U Z N Z b N N b N V V g g g g 9 6 6 4 3 4 3 4 * > C 0 5 < < 0 4 ; 4 0 0 } 0 0 } V 8 } 0 } } 3 } 0 } 0 } 0 } D 0 } 9 } 0 0 } u D u } D u D D | | | |  . .o.$.O.@.#.:.g.j.x.j.n.z.Z.z.Z.Z.Z.z.G.!.G.L./.L.H.L.v.v.v.x.v.F F G ",
"G Q J x.a.a.a.a.a.c.a.c.s.c.v.z.x.z.H.v.H.F.G.H.L.H.H.P.H.L.I.F  .p.&XT.;X;X;XjXeXVXsXsXsXsXsXsXsX=XsX=X=X=X#X} D D Z k k h l h l h s h c c c F F q.p.p.z.x.L.}.].#X+X}.}.{.{.*X{.1XwXMXGXBX1X*X$X*X1X-X1X1X*X*X1X*X%XyX}.}.[.H.I.I.I.&XI.*X&X1X%X-Xk.M.M.Z.S.n.n.<.j.h.>.>.>.` ` E z l M ( ( T U Y U Z A b Z N b Z V M b V g g k 9 9 6 3 6 4 4 4 4 4 o.5 5 7 5 4 4 4 5 ; 0 4 0 0 k k k 3 } 3 } + } } 0 } 0 u k } 0 } 0 0 } 0 k k V D u D } | } } | | | o.o.o.$.$.#.#.;.:.:.g.g.j.l.l.S.l.z.z.z.G.G.L.G.G.H.L.v.H.v.v.v.z.$.F G ",
"C G G a.g.a.a.x.a.g.a.c.x.c.x.z.v.v.z.v.v.v.S.F.F.L.v.L.U.v.L.Y.C p.p.-X;X;X;XeXeXuXsXsXsXsXsXsX5XsX=X=X=Xa.&.} } z z j h j h h s h s c B c F 9.q.q.s.c.v.L.SXFXDXXX#XXXXX:X#X{.*X1X*X1X1X,X*X1X8X8X8X8X9X1X1X1X1X$X%X/.-XxXzXH.I.I.Y.Y.*X$X1X&X$X1X$Xc.V.V.A.Z.n.n.n.,.3.>.>.` z z z z l U Y R Y Y Z A V C V Z Z b V V Z g g g g g V V V Z A U Y -.f.o.8 r 8 5 8 5 r 8 0 b ! ! ( ~ ^ ~ ^ ( ^ ( } Z V 8 8 8 } D k D } k } k } 0 D D D D D } H } } } } o.X.| &.$.$.$.+.$.$.1.:.:.2.<.<.<.j.j.j.l.S.K.S.K.G.G.S.H.H.v.v.v.v.c.C F ",
"F C A %.a.a.a.i.s.p.a.x.g.x.c.a.x.z.z.z.x.z.v.v.z.v.v.z.P.v.v.Y.Y.p Y.i.-X;X;XeXeXsX0XsX0X5X4X5X=X=X=X=XY.1.&.X.X.} k g k h s j f < v a y F 9.9.q.q.s.Y.AXSXFXNXGXAX@X#X@XXX:X:X:X:X1X1X1X1X-X<X8X5X8XeX-X:X1X*X1X1X1X-X1X1X1X8X%X8XxXiX-X*X&X*X8X&X$X1XI.V.V.M.A.n.M.n.,.,.=...X.z z j j j <.g.g.g.i.i.#.p.O.O.O.O.O. .O.O.O.O.O.~ ( @.) ) +.-.+.( ( $.8 8 t t r r b G H ~ ! ~ ~ ~ ( ^ ( ^ ( @.&.} @.^ ) ^ o.O.O.^ o.@.X.$.o.} A n 8 D D D } } | | X.} o.$.X.X.X.X.X.$.+.+.$.1.:.1.:.:.:.2.g.j.Z.x.Z.S.S.J.v.S.Z.F.z.F.v.v.a.J ",
"n A n a.a.#.a.i.x.i.a.g.i.g.a.g.c.x.x.z.z.v.v.x.x.v.v.v.v.P.I.v.I.Y.F Y.s.=X;X5X5XsX5XsXeX=X=X=X=X=X=X=XT.T.5.&.*.*.z k g j h 7 7 7 r w i i 9.q.w.I.GXNXAXDXDXAXZXUXUX@X@X5X5X5X1X<X:X8X1XeX5X8X3X6X3XeX<X<X:X1X1X1X8X1X1X8X1X-X8X-X8X8X$X8X7XuX9X$X8X$X$X$XQ.D.M.V.B.m.b.,.;.-.X.z } x x x 3 x a.%.#.O.$.O.O.i.O.p. .p.O.O.O.O.O.@.O.) +.) ) ( ( +.+.j.u u u A G G G ~ ! ~ ^ ~ ~ ^ ^ ~ ^ +.) ~ ) ) ( O.@.@.@.@.O.O.) @.@.@.@.@.@.@.@.) O.@.@.) ) ) O.@.G J 0.^ #.X.o.$.+.$.$.+.+.$.:.$.1.:.:.:.4.J.x.l.S.l.z.Z.z.z.z.v.v.v.v.C ",
"C C n %.%.i.#.#.i.i.i.i.g.i.x.s.a.g.g.x.x.x.x.x.v.x.v.x.v.v.v.v.U.P.Y.J v.v.=X-X=XeX5X=X5X=X=X#X=X*X=X=XY.Y.#X=.X.} z g g 6 5 5 5 w y i i 9.9.&XBXGXGXNXZXZXZXZXUXBXUXUXtX@X5X5X5X5XeX5X8X<X8X<X5X3X3X3X6X<X<X1X.X*X1X1X%X8X1X8X%X8X1X%X-X%X$X1X%X1X%X1X3X6X*XD.!.D.D.M.M.n.,.-...*.} *.k 9 3 3 > > ~ %.p.i.%.O.i.O.i.O.i.#.O.O.O.O.$.+.O.+.+.+.( ( ~ S A ~ Y H G ~ ! H ~ J ~ ~ ~ ^ ( ) ^ ) @.~ @.O.@.) ) @.@.@.@.@.p.@.@.@.@.@.@.@.@.@.@.p.) @.@.@.@.0.p.0.p.0.s.c.c.c.c.v.H.F.H.z.Z.z.z.l.g.g.2.2.J.2.x.2.2.l.x.z.z.z.c.z.z.v."
};
