/* XPM */
static char *result[] = {
/* columns rows colors chars-per-pixel */
"256 256 256 2 ",
"   c #000002",
".  c #02000B",
"X  c #0B000B",
"o  c #020013",
"O  c #0B0014",
"+  c #02001B",
"@  c #0C001B",
"#  c #090B16",
"$  c #13001C",
"%  c #180118",
"&  c #14010C",
"*  c #24001B",
"=  c #020023",
"-  c #090028",
";  c #130023",
":  c #1C0123",
">  c #13002B",
",  c #1B002B",
"<  c #1A0B26",
"1  c #090136",
"2  c #180137",
"3  c #121532",
"4  c #250128",
"5  c #270238",
"6  c #350339",
"7  c #301232",
"8  c #2C2839",
"9  c #44043C",
"0  c #0B0246",
"q  c #190247",
"w  c #190357",
"e  c #17144F",
"r  c #280247",
"t  c #370348",
"y  c #280357",
"u  c #380357",
"i  c #381858",
"p  c #2F164E",
"a  c #302B52",
"s  c #190669",
"d  c #290466",
"f  c #380467",
"g  c #391866",
"h  c #390676",
"j  c #301474",
"k  c #332D70",
"l  c #1C2957",
"z  c #460349",
"x  c #470357",
"c  c #4C1353",
"v  c #4B2B53",
"b  c #470468",
"n  c #580669",
"m  c #471768",
"M  c #480776",
"N  c #570577",
"B  c #481677",
"V  c #571778",
"C  c #561769",
"Z  c #670F74",
"A  c #482976",
"S  c #493577",
"D  c #512D6E",
"F  c #6A3075",
"G  c #651C59",
"H  c #35466C",
"J  c #524974",
"K  c #6A4C76",
"L  c #5B5163",
"P  c #863C7C",
"I  c #36128B",
"U  c #362D8C",
"Y  c #3729A9",
"T  c #491888",
"R  c #571887",
"E  c #581897",
"W  c #4E0C8E",
"Q  c #671786",
"!  c #6C1191",
"~  c #492689",
"^  c #572888",
"/  c #573887",
"(  c #492797",
")  c #582797",
"_  c #583896",
"`  c #48358F",
"'  c #682787",
"]  c #672898",
"[  c #673897",
"{  c #773798",
"}  c #73308C",
"|  c #5116AB",
" . c #6F15AC",
".. c #5737A7",
"X. c #512EAF",
"o. c #6638B9",
"O. c #7130AD",
"+. c #34488F",
"@. c #3A49AE",
"#. c #584588",
"$. c #514D91",
"%. c #654788",
"&. c #674798",
"*. c #734E92",
"=. c #546893",
"-. c #6E6B95",
";. c #534DAE",
":. c #6847A6",
">. c #714FB1",
",. c #5667AF",
"<. c #6F6AB2",
"1. c #5734CD",
"2. c #6738C5",
"3. c #7232CF",
"4. c #7033EF",
"5. c #651CDF",
"6. c #544ECD",
"7. c #6746C8",
"8. c #7648D8",
"9. c #7152CF",
"0. c #566ACF",
"q. c #736CCF",
"w. c #7848FB",
"e. c #7957FC",
"r. c #704FEB",
"t. c #5471F1",
"y. c #7967FA",
"u. c #7471F0",
"i. c #534FEA",
"p. c #3A44D4",
"a. c #8A3195",
"s. c #8518B1",
"d. c #8B33B1",
"f. c #9728A1",
"g. c #8C5097",
"h. c #8D6A97",
"j. c #8F4FAF",
"k. c #A951B2",
"l. c #916DB1",
"z. c #AB71B3",
"x. c #A35D9C",
"c. c #901ACE",
"v. c #8F34CE",
"b. c #A834D3",
"n. c #8E35EE",
"m. c #AC35EF",
"M. c #8C1AE3",
"N. c #9050D0",
"B. c #A758D6",
"V. c #AD50CF",
"C. c #906ED1",
"Z. c #AE6FD3",
"A. c #8749FC",
"S. c #9848FC",
"D. c #8858FD",
"F. c #9958FE",
"G. c #914EE7",
"H. c #A957E6",
"J. c #A748FD",
"K. c #B849FB",
"L. c #A858FC",
"P. c #B758FD",
"I. c #B250E8",
"U. c #8868FD",
"Y. c #9867FD",
"T. c #8877FC",
"R. c #9778FD",
"E. c #8E70E8",
"W. c #B767E6",
"Q. c #A768FD",
"!. c #B767FD",
"~. c #A878FD",
"^. c #B878FC",
"/. c #AE70E7",
"(. c #C46FD4",
"). c #C858FD",
"_. c #CC53F6",
"`. c #C867FE",
"'. c #D768FD",
"]. c #C778FD",
"[. c #D778FD",
"{. c #CB71E8",
"}. c #E778FE",
"|. c #EC6EFF",
" X c #D154E0",
".X c #C442DA",
"XX c #778DA9",
"oX c #728CFB",
"OX c #75AAFC",
"+X c #678BE5",
"@X c #908CB5",
"#X c #A68FB8",
"$X c #918AD1",
"%X c #B08AD1",
"&X c #8986FE",
"*X c #9787FD",
"=X c #9896FD",
"-X c #908FF1",
";X c #A888FE",
":X c #B788FE",
">X c #A897FE",
",X c #B797FE",
"<X c #B08DE8",
"1X c #99A7FE",
"2X c #8FAFFB",
"3X c #A8A7FE",
"4X c #B8A7FF",
"5X c #A8B7FF",
"6X c #B8B7FF",
"7X c #ADACE8",
"8X c #9EADCE",
"9X c #C78DD5",
"0X c #C788FE",
"qX c #D788FE",
"wX c #C898FE",
"eX c #D798FE",
"rX c #CF91E7",
"tX c #E788FC",
"yX c #F888FE",
"uX c #E798FE",
"iX c #F898FE",
"pX c #E78FEB",
"aX c #C7A7FF",
"sX c #D7A7FF",
"dX c #C8B7FF",
"fX c #D7B8FF",
"gX c #CFABE7",
"hX c #E7A7FF",
"jX c #FAA9FF",
"kX c #E8B7FF",
"lX c #FEBCFF",
"zX c #F8B6FF",
"xX c #E9ADEB",
"cX c #D0A6D8",
"vX c #97C9FE",
"bX c #B0C9FE",
"nX c #B2DAF2",
"mX c #C9C6FF",
"MX c #D8C6FF",
"NX c #D2D7FE",
"BX c #E8C6FF",
"VX c #FEC3FF",
"CX c #FECCFF",
"ZX c #F3C8FF",
"AX c #FED4FF",
"SX c #FFDBFF",
"DX c #F4D6FF",
"FX c #E8D7FF",
"GX c #D4E9FF",
"HX c #FEE3FF",
"JX c #FDEAFF",
"KX c #FFFEFF",
"LX c #FFF3FF",
"PX c #E7E8FF",
"IX c #C8C8D4",
"UX c #C085BA",
/* pixels */
"X X     % F z.z.z.z.zXDXAXCXVXAXSXHXHXLXUXUXUX9X9XrXqXeXuXZ.hXX * a.tXtXqXqXuX  . : 5 5 5 2 ; ; i m i v i i p 7 l.u.7.>.&._ X.....X.X.X.X.X.o.1.7.7.7.7.9.9.9.E.X.T ..l _ 1X*X-Xi               . o o ; ; > 5 : c D F J %.%.%.#./ S fXPXHXHXdXFXmX.     .   @ e p bX1X*X*X9.9.>.;...o.wX,X4X>X*XT.e.T.y.w L.F.Q.Y.Y.Y.Y.~.;X,X9.9.6.7.8.6.1.6.X.X.1...o.sX4X4X4X,X;.  o .   2 f f g M B M B B T R R O.8.N.N.9.9.E.E.,X;X&.= - o   . . o + + = - - - 1 3 -X<.$.<.J J J a l e 3 < > 3 > 2 3 2 < <.-Xu.$X2X1X-X0.6XmXk O ,     X X ",
". X &           v z.UX9XAXSXAXHXSXAXVXVXlX%X9XUXZ.(.rXqXuXjXrX/.  < ! [.[.].].5 O : 5 5 5 2 > ; r g 5 = . .       2 :...&.....O.....[ ..X.....1.6.o.2.7.7.7.U...T k j $.U.E.4X>X;X*X  .         . o o @ ; > 2 r r k D S F #./ %.#./ D 4XHXLXFXMXMXK         ; @ l $X6X3Xq.q.8.7.o.o.X.X.,X,X4X4Xr.D.| 3Xy.q F.F.Y.Q.R.R.U.9.9.9.7.6.7.1.1.1.1.1.1.X.o.X.O.fX>X;X;XfX>XU   .   . f f f B B h T M T W R X.9.8.9.E.N.u.,X*Xq.i g > - + o o + + # - = 1 1 e $Xk =.J L H a a 8 3 3 7 3 < @ + .   X < XX-X$X5Xq.l o <.FX-XdXg $ 4     ",
"      &           X X * h.pXCXCXlXzXjXzXVXjXZ.Z.(.Z.{.qXtXjXjXVX, X $ Q !.!.].B.O 4 : , $       o 2 > - @ o .       . :.&.:.&.:..._ ( ..) X.X.X.1.;.6.2.7.U...~ 1 j ;.9.,X>XE.6X4X>XA   @   .   . o + @ - ; 2 2 t m D D K F %./ %.D D D <XKXJXMXJXFX@     .   o + <.5X4X0.q.9.9.2.X.X.X.X.>X4X=X6.1.B &X>Xy.. | Q.D.7.7.9.7.7.6.6.6.1.6.6.1.1.1.1.X.X.| o.X.fX;X;X*XR.fX;Xk       f f m m B M B T T W E X.9.9.r.q.T.>X*Xq.A -Xq.+X-XnXnXbXnXnXnXnXGXGXGXnX= + # # H a 8 3 < < @ % < < 7 8 p 8 < <.-Xq.<.<.-.3 @X3XHXJXaXkX-.$ X ",
": 4 % & X       X   X X & & & v rXjXjXjXlXlXjXZ.Z./.{.].tXtXjXjXiX  O O : ! Q ] O O O .           t y r > @ o .         :.[ ........( X.( ( ( X.X.6.X.2.U...U 2 U ;.R.R.dX4X4X-XdX4X,Xp   . . o o o @ - > > 2 5 r D / %./ / / K S D S / S *.fXFXJXdX.   .   . o + - bXu.u.u.,.r.6.o.1.X.X.X.T.u.u.4.a 4.*X=Xy.+ 1 ( 1.r.7.6.7.6.1.1.p.X.1.6.@.X.X.1. .X.| X.) fX,X=X*XT.*XdX;Xk     r h h M B B B R T R E o.9.9.q.9.>X=Xq.+X-X-X=X1X-X$.$.,.7XPXGXGXnX8XGXo #   # <   X   . . 8 8 a a a a 8 8 < K l.-.J -.  a #X8XLXLXLXKXMXfX@ ",
"8 7 % % & .       X X X &         6 c z.zXzXzXjX(.W.{.].[.jXjXlXlX}.5 &     ! ] 4 O O .           u r r 2 2 ; ; + . O     ) ....| ( ~ I I Y U Y ` X.X.U.X.U e U 6.T.*X*X6X6X4X6X-XMX4X4Xo ; o o o + @ @ - > 2 5 r p &.&.:.>.g./ S D S J %.*.l.BXMXFXLX;   . . + o o >.+Xu.u.q.y.r.6.o.1.X.X.y.T.6.I S W i.&X1Xy.= 1 s 6.6.6.1.1.1.Y 1.6.p.X.p.1.Y | | | | X.( ) dX4X>X*X*X*X>XmX>Xk   @ m h m M W B T W W ( X.9.q.` 3X*X=X=X=X3X$.$.H $.$.=.=.=.=.XXXXGXnX8X.           .   8 a a 8 8 <   # # # < -.-.J $.8 J 8X@X7XLXLXKXKXKXDX",
"ZX% : % & X         &   X # & X X & & c c c a.iXjX[.qXyXjXjXjXjXjXjX!.N.  &   ] ] & O X           f u y r 5 2 > ; @ ; $     h X.( Y I I I I I U U Y y.X.j e U r.U.U.*X;X5X6X6XdXdX>XMXdXaX. , + o + - ; - 2 2 2 t t [ [ &.*.{ *.D D F #.#.:.l.,XMXdXMX. . o .   . o 2 q.oXu.u.u.y.6.6.X.6.6.u.oX@.s S | X.4X&X1Xu.= 0 1 Y 6.6.1.p.6.p.p.@.p.Y Y Y | Y X.X.| ( ) ( ,X4X>X;X=X*X*X*XdX>Xg   r f h T M E T W W ( o.q.$.=X=X3X=XU $.H $.$.J $.J =.=.=.XXXX8XnXGX  #   X # X . . 8 < # #       # # # O -.L J L <.K #X@Xl.JXKXKXSXHXDX",
"aXq.4 4 : X         % % % % O & * * * * 9 F Z Z F Z [.`.}.yXiXjXjXjXjXiXyXr & X ] % . .           f f f y u r q 2 > 5 2 >     R ( I I I I I I I U r.;.U l ;.y.u.T.T.*X=X5XmX6X6X6XdX>XdXdX6X  5 + @ - - > 2 2 r p r A [ [ [ :.>.S S D #.&.*.l.<XfX7X$XHX-   o o o o o 9.=X&X&X&Xu.r.7.6.2.6.u.2XoXd -.Y X.e.5XoX2XoX1 0 0 w Y 6.@.6.6.p.p.@.@.Y Y Y Y | Y ( ( ( T ( ,X>X3X>X3X>X;X=X;XfX>Xg o y y f h I I W ( T 1.U =XS ` J J +.J $.=.=.=.K =.=.+.J XX@X@X8X# 3 < # # < # %       .   # # # # # 8 8 L L IXNX@X8X@XC.7X4XJXLXHXBX",
"fXZX, t r x 5 % & 4 6 6 t 4 % 4 * * * 4 4 4 Z P Z C C C C I.I.iXiXiXjXiXiXI.!.    } X .           5 M f h f u y r 5 r y r 2     0 I I s I s j U 6.6.;.l 6.q.u.y.T.T.*X;X6X6XdX4XdXdXmX>XfXdX6X  r @ ; - > 2 5 5 p r u [ &.:.[ { S F / %.&.>.q.<XfX4X$XMXo o + o - + o &.0.1X=X=XT.y.6.7.6.6.u.2X2Xj -.X...@.u.bXOXvXoX1 0 0 e s 0.p.@.;.p.@.p.Y Y 1.| Y Y ( ( ( T T T >X>X>X3X>X3X>X>X>X;XdX>X` 1 2 r y d h I I ` ` ` ` ` ` ` #.#.#.#.=.J J J J =.=.-.=.XXXX# # # 8 < # 7 X         # # 8 8 8 L < GXa XXNXNXnX8XXX$X<.mXFXPXJXHX",
":X:.p D b x o 4 6 t t z x 6 6 6 6 9 9 9 9 6 9 z C C Z Z V N Q Q Q `.'.jXiXiXiXiXD   . .             M M h h h f f u u h f y y .   - I I j I ~ 7.7.T.k 0.0.u.u.T.T.&X*X>X5X6XdX6XdXdXdXdX>XfXdXdX8 p ; ; > 2 2 5 5 r r ) [ [ &.:.A S / / &.>.l.<XsX4X-XmX+ o 2 o + + o o 9.>.=XoXT.y.r.i.6.6.u.2X2XI =.X.;.;.6.bXbXOXvX+X1 0 0 0 s U p.@.@.@.@.Y Y Y X.I I y h ( ( T ( T >X=X>X3X>X3X>X,X>X=XMX6X=X7.7.> q q y d j j ~ ` ` ` #.` #.#.#.$.J J J J L =.L L L XXnX8X@X# X & X X   # #X8X8XXX8X8XnXIX8X8XJ NXbXbXbX$Xq.<.<.1XmXGXPXMX",
"U.U.D M M - 4 5 t t x x 5 6 6 6 6 z z z z z z z z z F Z Q Q Q ! ! ! ! ' b.{.jXjXqX[.:               . W W W T M M h b T B h f I . -   ~ ` _ 7.0.s ` u.,.0.u.u.u.&X&X*X3X6X6XdX6X4XaXdXfXdX=XfXfXdX8 r - > 2 2 5 r r p y &.:.&.:./ / #.%.*.<.C./.aXaX$X<X- o .   + . + o ;.9.;.u.&Xy.u.r.r.6.0.1X2XI S ;.;.6.;.u.bXbXOX2X+X1 0 s 0 w s U ;.@.Y Y Y Y 6.I I w - 2 h ~ T ( ~ ;X;X=X3X>X>X3X3X>X>X=XNX6X&X*Xu.> 1 1 q p p g g A ` #.$.$.J J J L L L L H 8 XX8XnXXXGXGXGXIX8XIXIXNXPX8X8X@X8X8XXX8X8XXX8XnXbXbXnX+Xq.q.,.<.k u.E.E.T.",
";.y R + - > 5 6 t t x b 5 5 6 t z z z z n c x n x x z ! ! ! ! E ! ! a.} a.O.a.d.W.jX/.j.              > T W W R W R T E T I T T X.o   . 9.C.E.k ,.,.6.0.0.u.u.u.&X&X*X5X3X6XdX6X6X4XaXdXdXfX-XMXkXl.7 2 ; 2 2 r p p p p O.&.O.:.:._ &.=.>.<.C.<XaXaX4XA - o o . 1 o + o d 7.9.X.&Xu.u.e.r.0.6.2X2XU l X.6.;.;.6.OXvXvXOXOX+X1 1 0 0 0 w U @.Y Y Y 8.r.I I q = - 1 u ~ ( ( ) =X*X=X;X>X>X>X=X>X=X=X=XmX5X*X*X&XT.T.> > 2 e p a k S J J =.=.-.L H 8 =.@X8X@XXX@X8X8XGXKXNXNXNXGXIXIXIXIX8XXXXX8XXXvXXXvXbX$XXXXX+Xe . 1 0 ( T.*X*X",
"U.2 + - > 2 5 t t t x 5 t r t t z z x n n n n n n n n x t ] ! ]  .a. .a.a.a.a.j.j.b.N.G.qX2   X         h W E E E  .E E W T h j ;.<Xd j = <XJ q.9.,.;.,.0.r.u.T.&X&X*X1X5X6XmXdXdXaXdXdXfXmXMX<XFXMXa , ; - 2 q 2 p y p p :.:.:.:.#.#.&.>.l.l.<XgX4XdX+ ; + o 2 2 2 1 = + 7.7.1.r.&Xy.y.i.r.i.=X=X~ 0 1.;.6.6.6.0.bXbXvXOXOX0.1 0 w q w 0 w U Y i.i.i.X.I y o = - 1 2 h ~ ( ( -X=X=X=X;X;X=X=X=X=X=X=X&XmX3X=X=X*X-X-Xq.- > 5 e p a a a H v a -.XX8XXXXX@XXXXX@X8XNX8XIXIXnXIXIX8X8XnX8XXXXXXXXXXXXXXX,.e l 1 - e 1 = = 0 *X*X;X",
"r.y - > 2 5 r t t t x t r t t t x x x x n n N n Z n n n b b N ] { s.O.a.a.d.j.d.d.V.b.G.P.v. .; O       . E E  . .| ] | E T j j E...#.=X1X&X0.q.<.,.;.0.0.u.u.oXu.&X&X5X6X6X6XmXdXdXdXdXfXMXBXBX-XfXMX- 2 - ; 5 r r y i g :.o.:.:.&.$.&.<.l.C.<X<XaXMX# > = + 2 q 2 2 2 = ( 7.U ( T.T.y.y.i.i.&XoX~ - X.2.6.6.6.6.oXvXvXvXOX2X0.= 1 0 q q w w 6.4.i.u.1.I w . o - > 1 2 r ~ ` ..*X*X*X*X*X*X*X=X=X=X=X=X>X=XbX>X>X>X=X-X-X$X<.3 3 3 7 8 l XXXXXXXXXX8XXXnXXX@X8X8XnX8X8X8X8X8X8X8XXXXXXX8XXXXXH l l H # 3 3 = 3 e l = = = 9.*Xq.",
"8.y M 2 q q r t t u r t t u u x x b b n n b N N N N N N N n n r O.{ a.d.d.d.d.d.j.V.N.V.P.v.O.u M N > > o . | | ]  .O. .( j g D.q.S :.j =XbXbXq.0.,.;.0.0.u.u.oX&X&X*X6X6X6XdXmXdXdXfXMXBXFXMXMXBX<XMXNX; 2 - - p e p l p k :.:.>./ &.>.>.<.C.%X,XaXMX> 2 - r p q r q q q d X.T ( ( R.T.y.e.r.&X&Xj = 1.;.2.6.;.0.6.2XbXvXvXOX2X0.= 0 0 0 w w 6.i.r.r.;.Y j o . o = > 2 5 q f ` ..&X*X*X&X*X-X*X=X=X=X=X=X1X3X-X6X3X4X3X7X-X-X-X$X<.e -.-.XXXXXXXXXXXX8XXXXXXX8X8X8X8X@X8X8X8X8X8X8XXXXXL H 8 8 l H H # = # = 3 l l e = = 1 R.,X",
"2.f W 0 r r t t u u t t t u x u b x n b n M N N N N N N N n N b n f O.s.d.d.d.v.v.V.N.G.L.v.m x N  .2 > 1 > h ) X. .o.X.~ ~ U.9.k ..` j d T.5XbX2X,.0.<.0.+Xu.oXoX=X&X6X6XdXmXmXfXfXMXBXMXMXMXMXBXMX$XfXNX- 2 > - p p i p g ;.:.:.$.&.-.-.l.l.<X<XdXMX5 3 2 r p q q q q q 1 y.y.| X.I R.y.y.r.oX&Xw + o.2.7.7.6.,.6.0.bXbXbXvX+XOX0.= 0 0 q q i.i.e.6.Y s 0   + . + = - > 2 q r g $.&X&XR.T.-XR.*X=X=X=X=X1X3X=X3X< 6X6X4X5X7X1X8X<.J =.$XXXXX8XXX8X8X8XXXXXXX8X7X8X8X8XXXXX8XXXXXL L L H 8 8 H H l XX# #   # 3 l a l 3 q 0 j ,X",
"U.d I q r y u u t u u x u z u x u x x b b M M M N N N N N M N N N N b { O.d.v.j.N.N.G.N.Q.b ^ f W E 2 2 2 1 ) | O.X. .X.( Y.9.e ( ;...( j y U.bX6X1X0.0.0.q.u.oX&X&X=XbXbX6XdXmXMXMXfXMXfXMXMXBXfXfXMXE.fXmX> 2 - - e p a i ` :.;.:.&.>.>.<.$X$X<XdXMXp 2 p p e r q q q q 1 j T.T.1.1.U T.y.e.oX&X1 # X.;.6.7.7.,.6.,.q.bXvXbXvXoX2X,.= 2 0 0 r.i.1.@.j +.;.j   o   o @ > 2 2 5 r y ` E.E.-X-X-X-X-X*X>X=X=X>X3X1X7X1X-.l.6X6X<.a H -.<.XXXXXXOXvX8X8X8XXX8X8X8X8X8X8X@XXXXXXX=.L =.=.8 8 8 H H H H =.H 3 # # 3 H =.XXXX2X,.k d ",
"0.- h w y y u u u b u x u x x x u x b b b b M M M M N N M n N M M N N Q u d.d.N.N.B.G.N.F.T O.u N ! q 2 1 q X.X.X.X.X.3.G.8.k ` 9.9.>...U j w >.bXmX1X0.q.+Xu.+XoX&X3XbX6XbXmXMXfXfXdXfXfXfXMXBXBXMXfXfX$XMXMX2 5 3 - p p a g ;.&.&.&.-.<.l.C.$X<XmX$Xp 2 p p r y q q q 0 q w T.*X*X*X1.X.T.e.oX=X= . o.2.7.7.6.;.6.6.q.0.5XvXbX5X+XOX,.1 0 q i.6.X.I j 0.u.2Xj   o   o @ > 2 2 2 r r A u.E.E.-X-X<X<X=X>X>X3X7X3X7X7X7X<.-.=.p J -.-.<.@XXX@X$X8X+X8X8X$X8XnXIXXXXXXX=.L XXXXXXXXH H 8 8 8 H L =.=.=.=.XXXXXX@XXX8XvXnX+.nXvX2X",
"bX&X- 1 o r y u b f b x x b x x x b n b b b b b f M M M M M M M M M N Z Q Q ] N.N.N.G.7.Y.r _ b T E W q q ( ....X.X.w.A.4.8.I :.E.9.8.o...I d y ` 5XbX5X0.0.+Xu.&X&X1XbXmXmXdXdXdXaXdXdXfXfXMXMXfXMXMXBXkX$XFX4X> p > - y l a _ ;.&.$.:.>.<.$X$X<XMX:.p y p y r q q y q q q q R.*X*X=X;Xy.X.y.u.=X+ o X.;.7.6.2.6.;.u.q.q.7.-XvXvXvX0.2X,.= 0 6.X.U j Y +.Y oX2Xk   o . o @ ; > 2 2 q r A >.E.-X<X-X-X=X=X3X7X>X<X7X<.l.l.$.a J -.-.<.XXXX@X@XXX@X+XXXXX=.=.L -.L XXL =.XXXXL H 8 H 8 8 8 H L =.=.=.XXXX7X7X8XnXvXnXnXnXGXvXbXbX",
"=XmX&X= 2 . @ > u b N b b b b x b b b M b b M h h b b M b M b M W N W N N R V V N.E.E.N.E.Q 9.) f E X.y q X.X.;.D.e.w.4.U.j ..r.r.C.N.9.o.( j j e k 5XbX6Xq.u.+XoX&XmXmXmXbXmXdXdXdXaXdXdXfXdXfXfXMXMXMXBXBX$XHX=.2 5 ; - e p p _ &.S -.<.<.C.$X<XMXq p i y p w y q q w q q q ..*X;X=X>X;X;X;X&X>X+ o 2.2.1.2.6.6.;.r.0.9.0.0.oXvX5XvX0.OX6.= X.U j Y k ;.+.2Xu.1Xk   + . o @ - 2 2 q q r g _ C.-X-X<X;X<X1X<.l.l.@Xl.@X=.p J <.<.<.@XXXXX@X$X-.J J $.J J J =.-.XXXXXXXXXXH H H 8 H 8 8 8 8 # XXL XXXX# 3 mXmXnXnXnXnXnXNXbX2XOX",
"&X=XaXT.- 2 o @ t M M M M b b b b b N b M M M f f h b b b M M b M M M N N R R V V ^ Y.G.Y.B h R.1 y o.y U ..` y.U.e.e.U I X.7.D.y.E.r.9.>...^ k d q ~ mXbX3X4X4X4XaX6XmXmXmX6X4X4X4X4XaXaXdXfXfXfXfXfXkXBXBXBX$XJXv 3 e > 2 2 p _ &.$.>.<.q.C.<X-XMXr ^ d p y y y q r w q q q q ;X=X>X>X;X>X>X=X3X+ o o.2.2.6.9.>.0.u.9.9.9.,.7.u.5XvXvX5XOX6.j j Y ;.j U U 2X2Xu.2Xk   + . o ; > > 2 q r r A _ :.$X<.l.<.l.C.l.@XC.$X%.p J <.-.XX@X@X-.=.J H J J J J $.=.=.=.-.XXL XXH L =.H L H L L H 8 H 8 # XXXX@X# < mXmXbXvXvXvXvXbX5X1X&X",
"u.&X&X,XU.- > o - 2 N N M N M n M M M M M M M h h f b h b M b M b M M M B V R R ' ' A Q.Q.u f ;Xq.= y d ..U.U.U.e.e.6.U ;.9.e.y.r.E.r.8.7.:...k 2 q q k dXdXdXaXaXaX6XmXmX6X6X5X4X,X4X4XaXwXaXaXfXfXfXfXMXMXkXBX$XHXa 5 2 > 2 2 e &.&.<.l.C.C.$X-XfXp ..y d y y y w y q q q q q T.>X>X>X>X>X>Xu.>X+ = 2.7.1.6.6.;.r.r.0.0.0.>.6.,.9.5X2X5X0.oXj Y 6.j s $.U 2X1X-Xq.1XU   = . + - > 1 2 r r r ~ #.>.<.<.l.#X@XC.$X%X&.a J -.<.-.J L J J J J J J H J H #.$.=.=.=.=.L =.L =.=.L H L L H L H 8 L 8 L @X. # 8 7X5X2X2X5XvX5X5X6X>X0.",
"r.i.e.T.:XU.- > @ ; M N N M N b N N N N N M M h h M h f f f b b M M M M M c. .d.d.O.N.O.o.r b Q.*X~ - h U.U.T.y.y.U U ;.r.y.e.y.U.r.8.8.7...i g g 1 q w j dXdXfXfXaX6X6XdX6X6X4X3X>X,X,X,XwXwXaXaXfXfXBXkXMXMXBXBXBXJXa 2 - - 1 2 &._ <.<.q.C.-X4XdXj ) g y y y y q y q q q q q ;.>X>X3X4X>Xu.r.=X+ = 7.7.7.7.6.6.y.u.r.9.7.9.0.7.6.6.bX5XvXt.j w d d j U U 5X5X1X1Xq.5X` . - o = > 2 2 q q r p >.<.l.l.@XC.$X%X$X%.$XS *.S J J J J S J J S k J J J J +.$.=.,.$.L H H =.L =.=.H L H L 8 H 8 8 L L @X8 8 H l <.=.$.;.+.@.( Y I | ",
"1.i.4.1.r.;XU.2 > 2 y M N W N N N N N N N M M I M h h h h f c.5. .O. .c.s.O. .O.{ v.O.] 3.A B 3.aX&Xq 0 U.U.y.y.j Y ;.t.i.y.e.y.y.D.r.r.D.q p d g 2 1 = y A fXaXdXfXaX4XdXdX6X4X3X,X,X,X:XwXwXaXsXfXkXBXfXkXkXMXBXBXSXJX3 r > > 1 r _ &.<.q.E.-XfXwXT ) d y d y y y w y w q q q q >X3X4X3X4Xu.u.;.= = 2.r.7.i.6.u.y.u.0.q.9.9.0.9.0.6.6.5X2Xu.( 1 q y l ` U 5X5X5X3X5Xq.5X$.o > o = > 1 2 r r p A <.l.C.C.$X<X%.7Xl.a D <.J J S J J J k J S J J S +.S $.$.$.=.$.=.H =.=.=.=.=.=.H L XX8 8 8 8X8XnXIX        $.$.+.@.U X.Y ( Y I ",
"I 4.i.4.4.4.Y.y.q 2 r M W N ! N N M M N N W h  .5. .5. .5. . . . . . .E  .! ] Q ^ d.O.j T o.2.3.y.3Xq.1 D.U.T.U @.;.r.u.&XT.y.U.y.U.E.9...y w d d 1 2 r = y g fXsXdX4XaX4X4X4X3X4X>X>X,X,XwXwXaXsXsXfXZXkXBXkXkXZXBXDXKXFX2 q > - 2 A ` j.C.C.$XfX;X( E f d d y y y q y y q r q q ;.3X>X4Xu.u.&Xu.= = 9.7.r.7.r.U.u.r.u.9.0.9.9.9.0.9.r.0.5XoXs 1 1 w d U ` 6X6X6X6X5X5Xq.7X;.o > + ; 2 2 2 p D D v l.Z.4X4XaX$X7Xl.a S <.J J #.J J J J $.#.J +.J J +.+.k =.@.$.=.=.=.=.=.=.=.XXL L H L l 8XJ NXnXGXJ # X   H +.+.U U ( Y I Y I ",
"I I 4.1.1.4.A.4.w.y 1 f W N N N N c.c.b.c.M.c.5. . .| | | W ! W W W W M M M m b m 3.V ) o.3.4.4.X.>X=Xj w.e.U ..6.i.y.T.T.y.T.y.y.u.E._ ;.I y p y 1 2 2 1 > r h fX,X,XaX4X4X4X>X>X>X,X,X,XwXwXsXsXsXkXBXkXkXkXkXZXZXCXCXJXMX2 2 - - r A l.C.C.E.BX,X^ E T d d y y y y y w y e y e ~ 4X3X&Xu.u.=X=X- = 9.r.9.9.9.T.U.y.q.r.q.9.9.9.0.9.r.0.5XoXy 1 1 q w k U bX6X5X6X6X3X3Xq.6X,.+ > > > 2 5 D #.#.%.%.E.,X4X4X>X3Xq.a J <.#.#./ $.#.$.#.$.$.#.J J $.a k k @.,.$.=.,.;.,.=.=.,.=.=.-.J J XXH H nXbX5XGXa 1 . + U +.U U I Y I I I ",
"I I X.4.4.w.w.4.I w.y 2  .M.M.M.M.c.c.c.c.s. . .| | | W I M h h h h f f u v.L.O.M ] ] O. .3.4.n.X.>X>XT.7.U $.,.9.y.U.U.T.T.U.U.T.T.U.;.;.9.e e d = 1 q y 1 1 w h >X>X,XwX4X4X,X,X;X>X,X,X,XwXaXfXfXkXBXkXZXBXBXZXZXAXAXDXJX$X, , + @ m <.C.C.=.kX>X) ) O.f f d d y i e p e p e r e 4X4Xq.u.+X=Xy.  = 6XC.8.u.r.aX=XT.u.u.q.r.q.9.r.r.0.9.5XoX..1 1 2 y q U 6X6X6X6X6X6X6X4Xq.dX<.+ 1 p 2 3 S %.%.&.%.&.*X4X4X,X3Xl.a S >.#.$.$.$.$.$.$.$.$.$.$.l k k l l U @.;.@.,.,.,.,.,.,.,.,.=.=.XXH H J nX2X5X2XnX# 1 = +.U U U I I I I I ",
"I I I 4.1.e.w.Y I I e.f q M.c.M.c.c.s.s. .! ! W I W h h f y y q d 4.T E ..O.) L.) ] ] X.| 3.5.X.5.1.>X=Xw ..6.r.y.U.U.T.T.T.T.T.U.U.;.7.9.q.e e e 2 0 q q 1 1 q y Z.>X,X,XwX>X>X,X>X,X>X,X,XaXaXfXkXkXBXkXZXZXZXZXZXAXAXDXfXJX#.; > @ p D C.Z.aXfX,X) ] X.f g g i p d g p d p w e r ` q.q.+X-X&X-   + 6X4XE.q.u.r.5X*XT.y.q.u.q.9.q.u.q.u.bXoX;.1 1 q q T U 6X6X6X6X6XdX6XdXdX$XmXl.; 3 i < 2 #.&.&.&.&.&.>X4X4X>XXXp S <.#.$.&.;.&.=.&.$.$.k k k k k a k k ;.0.0.0.0.,.,.,.,.+X=.l XXJ H =.H vXvX5X5X2XbX= = U U I I U I I I I ",
"I I I I w.w.r.Y I I I w.f W  . . . .! ! R T M h u y y q 4.5.d I I W | o.E n.S.L.] ] | | 1.3.4.o.1.o.aX&X6.X.9.U.R.T.R.U.T.T.T.T.T.,.6.,.0.q.$.e e q 1 1 q q 1 q y ) /.;X,XwXaX,X>X>X:X,X,XaXwXaXfXfXBXkXBXkXZXZXCXCXAXSXAXCXBXJXS ; $ @ k Z.$XfXkX,X_ [ O.g g i g g g i g g y l p e ~ q.q.oX*X&X+   o dXdX>XE.q.q.>X3X1X;XE.u.C.u.q.u.u.u.6X&X0.- 1 1 2 I k 6X6X6X6XdXbXmXdXmXmX$XFX$X= 5 p 2 &.&.#.&.;.:.&.4XdX3XC.p S :.&.;.:.=.,.&.;.k S k k k k k k k k U ;.0.6.0.;.,.,.<.+X,.,.+.J =.J H XX5XbX5XvXnX2X1 l I j s I I I I I ",
"4.4.4.4.w.w.i.| Y I I I w.h | | W W M h f f y M 3.q s d d h I I ( | o.X.v.n.G.L.] X.|  .| 5.4.1.1.| r.&X=Xw e.U.U.Y.R.U.U.T.U.T.*X0.<.0.q.t.q.e e e 2 q 0 0 0 1 q h T /.:XwXaX,X>X,X,X>X,X,X4XaXaXfXBXBXBXZXBXCXDXCXAXHXAXAXAXLXJXD < 5 i l.$XaXfXwX/ [ O./ g g g v g a g g e p p e ( q.q.E.=X=X-   + 6XdXdXE.C.C.u.aX5X3X=XE.u.u.E.+XE.u.5X+X+X1 = - q j k 6XdX6XdXdXmXmXMXMXFXMXC.mX$X@ 2 p A $...:.;.&.:.&.6X,XC.i S :.&.$.,.:.:.J k k k k U k k k U k U $.6.6.0.0.,.0.,.+XXX+Xo H =.=.H 1X1XvXbX5XvX5XnX-.k 6.7.1.4.i.8.4.4.",
"3.3.1.5.5.1.4.1.X.| Y | 4.4.w | I h d 5.| 1 0 q y y d d I I W Y X.| 3.3.3.n.n.R | ] ..X.X.3.4.1.| W I =X=X0 I D.U.U.U.U.U.R.U.T.0.<.0.q.+Xq.XX` U k + 1 0 0 w 0 w d h T C.,X4XaXfX>X>X,X4X4XaXdXfXfXkXBXkXZXZXAXAXSXHXHXHXSXAXAXKXLXi : . A Z.wXkXaXa *.>.[ g v k g A g g l a d d k ` q.+X+X1X=X.   = 6X6X6X6XE.E.E.q.dX5X3X3X3XE.E.E.T.u.4Xq.-X- = 1 w g j mXbXmXmXmXMXMXMXNXMXmXmX<.mX$X- q p :.&.$.:.q.9.9.N.>XXXa S &.;.&.>.$.k k g k A j U k U k k k U ;.6.,.6.<.,.,.0.2X,.l e e =.=.J 1X1X5XvX5XbXvX5XGX3 6.1.6.7.1.3.3.3.",
"1.5.1.5.5.s i.i.r.4.1.1.4.5.= Y | s | I 0 q w y d I I I I | | X.5.1.5. .3.3.3.( ) ) X.| X.3.4.r.i.4.X.T.3X0 h I D.D.D.Y.U.R.T.0.q.0.0.<.q.+X3X0.q.=.w 0 0 1 w 0 w s s d I C.4XaXaXdX>X,X4X4XaXdXfXfXMXkXBXZXDXDXAXSXJXHXHXJXHXSXSXKXLX: : p sX,XkXaXC.>.g.>.D k m k g g g l g e p _ ` :.E.-X=X0     = 4X4X3X4X4XE.q.E.9.5X3X3X3X3X*XE.u.E.3X,.q.0 = 2 y g p dXdXmXmXmXNXNXMXMXmXdXdXdX<.6X-X; r >.9.q.9.>.;.:...$.C.a S :.:.&.k k A k A j A j k U k U U U U ` ,.0.>.<.6.,.<.,.+X3 3 3 =.J 5X1X1X5XvXbXbXvX5XvXGX0.;.X.1.;.o.2.2.",
";.;.X.Y 1 s 5.e.w.w.w.w.4.1.I W 4.1.Y I w f I 5.5.I I | | | 4.1.X.| 1.| | 5.4.I ( X.| X.1.1.w.4.r.r.r.e.1Xs s I D.D.D.D.U.U.9.0.0.0.q.+X0.7X3X,.5XbX2X= 0 0 0 0 0 w w s s k C.dXdX6XdX3X4X4X6XdXdXfXfXBXBXBXCXAXHXHXHXSXHXHXHXSXAXSXKXHX; 5 S <XfXaXl.g.j.l.D D m v g k g g g i / _ _ [ +X=X-X-     = 6X4X4X3X,X>Xu.q.q.,X3X3X3X3X5X=XE.u.4X0.q = - q g A e *XmXMXNXFXmXMXMXdXdXdXdX6X4X<.6X-X+ g ;.[ _ _ ` k k k a p S :.k k k A k A k A j k T k I k U U k @.6.<.0.,.,.0.+XoX3 3 3 3 k +.5X5X7X+X5XvX5XbXvX2XbXvXoXoX+Xq.q.q.6.",
"y.u.i.i.I s s 1.D.D.e.4.5.| I | n.w.w.1.1.X.I j d s d I | 5.1.1.| | | Y | | I I ( X.| X.1.r.8.r.i.i.i.8.vX;.s I I w.w.e.e.U.6.0.0.+X0.0.H 5X,.=.vXbXPX0 = 0 1 0 k 0 0 s s j k E.6XdX5XmX3X6XdXmXfXmXfXBXBXZXDXSXHXHXSXSXSXSXSXSXSXZXBXLXdX# ^ ,XsX4X<X>.>.l.D D D k A i k i g k [ _ &...E.1X3X-     = 4X6X3X3X>X>X>Xu.C.q.aX>X3X3X3X5X3XT.9.+X+ = 1 e g g q q.,XNXMXmXmXmXmXdXdXdX4X6X4X6X<.dX<X; ` A k k l p p a <.-.a S $.#.k A k k A k B j j j j I k U U ` ,.0.,.<.,.q.<.oXe 3 3 0 l 1X1X1X1X1XvX5XvXvXbX5X5XnX5X1X=X=X*XT.y.",
"y.y.y.e.Y 0 s I U.e.1.4.p.I | | 5.Q.0 I e.i.1.1.Y I I w s I I | | Y | | Y | I Y ( ( Y X.i.4.4.i.i.8.i.6.&X@.s I I Y w.w.e.6.6.0.0.0.+X+X1X1X+.H +X5XNXGXw 0 0 1 &.$.1 e e l k k <XmXmXmX6X5X6XdXmXmXMXMXBXDXHXHXSXDXAXAXAXSXAXAXAXCXZX,XLXC.r F fX,X<Xg.j.l.*.D S v A A m g i $.#.&._ _ >.1X5X-     = 6X4X4X4X3X3X>XR.q.C.q.4X3X3X3X3X3XmX6X5X- - 1 j g k p l.-X$XdXdXdX6X6X6X6X4X6X4XdXdXdX<.6X-Xp p e E.<.<.q.C.,X>XC.a A #.*.k a D k B k A ~ ~ ~ j U k k @.q.6.<.,.,.2X1X+ 3 e 3 e l =X1X2X=X-X5X5X5X5XbXvXbXvX5X5X$.=X>X*X*X",
";X*Xe.y.i.0 s I 4.e.w.i.s I | 5.| 5.Q.~.R.0 I y.r.i.p.Y s s s s I | I Y I 0 I I ( | ( r.1.4.6.r.6.i.i.6.p.vXe I I I i.4.1.6.0.0.0.0.0.1X1X+.,.H =.2XPXPX0 = 1 1 #.l.$.s 0 e k U $.4XNXNX6XdX6XmXdXmXMXMXFXHXSXDXDXDXDXDXDXDXDXDXZXZXZXBXHXLX>.D >.wX<X>.<.l.*.D D D D k A a :.#._ _ &.:.l.3XB       + 4X4X4X4X4X,X>X>XT.q.E.R.3X3X3X3XmXmX5X1X1 - y g g A e <.*X-XE.dX6X6X6X6XdXdX4X6X4X4X4X4X<.4X$X<.C.q.C.C.3XdXfX4X>X<Xl k S #.D k D k A k j k T k ~ I U U 0.,.7.,.-X$X7Xl e 3 e l +.$.=X=X2X=X2X2XvXvX5XbXbXbXbX6X6X4X3X>X;X",
"*X6.y.e.i.I w s I Y 4.1.I | 5.5.W W F.~.~.~.R.e.s I w.i.i.1.U 1 s s I I I I I I Y ( r.4.r.i.i.1.i.i.6.i.p.OXs U I Y Y 5.i.6.0.9.0.t.=X1X=X=.H H l XXbXnXGXw 1 1 j =.l.$.j j e $.&.<.dXGXNXbXmX6XfXmXMXMXFXFXBXFXFXBXFXBXZXBXBXBXBXkXkXkXZXLXLX&.D /.<X>.9.j.C.S S S S v S k %.%.%.#._ -.@Xq.1       + 6XdX4X4X4X4X4X>X,X-XE.C.4X4X3XdXdXmX$.` y ;.p k k k p <.*X&X-XE.6X6XdX6X6X6X6X4X4XaXfXfXaX,Xq.p E.-X3X4XdXdXfXdX>X-XE.e k S #.S S k S ` k A U U A ~ k U ,.<.,.q.5XbX= l 3 e e k $.$.=X=X=X&X2X2X5X5X6X6XmXmXmX6XdX4X,X>X;X",
"R.6.y.U.w.Y 0 s I 4.i.| I | 5.| W W | F.~.~.R.*XT.R.*XI I t.i.p.p.U | s I I I I U 1.i.6.6.i.1.i.6.i.i.p.0.p.s U U Y Y p.6.0.i.0.0.+X2X2X+.0.H H 3 XX=.GXnXl = 1 w S @X-.k k k a $.:.6XmXPXNXbXdXbXMXNXMXMXFXMXNXMXMXBXBXBXBXMXfXfXfXfXfXfXBXHXJX%.D <XS j.q.N.A S S S S S &.#.#.#./ $.h.7Xl.-       - dXdXdXdX4X4X,X,X,X3XE.C.C.dXdXdXmX3X-X1 - ;.&./ k A p ;.*X*X&XE.E.3X6X4X5X3X6XdXaXaXaXaXfX$.E.k g R.;X>XaXdXdX4X3X-Xq.<.e k k #.<.S S S #.S S J U S $.U $.0.<.4XbX+.k e e e l g _ $.>.&X=X-X,.2X2X5X5X6XbXmXmX4X6X4X4X;X;X",
"6.1.1.i.e.i.1 s | 1.p.I Y 5.5.I | W | n.Q.~.R.~.*XT.R.oXT.t.U U t.i.p.@.I s I p.1.1.7.1.1.1.6.1.p.1.p.p.p.t.s U U U Y t.i.0.0.t.t.OX=XH ,.+.H l l =.XXGXnXGXe = 0 e #.@X=.J k k $.,.$X6XfXPX6XbX6XmXmXmXmXMXmXMXMXMXmXMXfXfXfXfXfXsXfXsXsXsXfXJXMX-XA >.<.N.<./ S S A S #.#.#.#.J %.7XMXZ.q.1       - 6XdXdX6X4X4X4X4X4X,X4X-XE.E.dXMXMX1X2X1 3 =.;.:.;.~ e ` *X*XT.&Xu.u.=X4X4X4X6X6XaXaXaXaXaXu.*Xq.d y E.R.;X4X4X3X<X<X$Xq.J e a S #.-.S S k k ` H S U #.k k ,.<.6XbX1 e 3 e l e e l e U =X*X=X3X$X2X1X1X5X5X6XmX6X4X4X>X;X;X",
"i.1.1.w.e.i.s s | Y 5.I | 5.| I | W I | Q.R.R.R.*XT.T.T.T.&X&XoX0 Y t.y.t.6.Y 1.X.;.X.1.1.p.1.p.Y Y t.t.+Xt.p.s Y Y @.p.0.t.0.t.OXOXvX+.0.+.H H 3 3 =.GXGXGX+X# 0 0 g $.= =.l k H ;.<.7X6XmXNX6XmXbX6X6XmXmXmXmXmXmXdXdXdXdXaXfXaXaXaXaXaXaXaX>XJXdX6X3 <.>.C.>.^ A A A S / S J J <XgX7XE.C.A     . r mXdXdXdXdX4X4X4X4X4X4X>X-XE.<XfX3X7X6X3 3 $.;.;..._ U k >X*X&XT.T.T.u.4X4X4X4X6X4X,X4X,XaX=X$.=Xq.k y E.$X<X-X-X-X$XE.q.#.$Xe a J J =.k J S k ` k U k k S J =X6X3 l e l e e e l e l e $.*X=X>X<.-X-X2X1X5X6XbX3X3X3X>X;X9.",
"1.1.1.4.A.i.Y Y 4.Y 5.p.5.I I | W I | | 3.Q.Y.R.R.R.T.T.&Xy.oXu.oXoXt.w oXu.t.Y X.@.@.@.@.1.p.p.6.i.p.t.t.+X+XU Y +.@.t.p.0.t.oXOXOX+.,.=.H H l 8 3 =.nXGXnXGXe 0 1 0 1 + J k k k #.=.7X7X6XmXNX6X7X5X5X3XmXdXdX6X6X6XdX6XaXdXaXaXaXaXaXaXaXaX4XMXFXMX4Xm >.9.:.` A ~ N.S S S l.%X%X<.<X<.<.&.    . o DX6XdXdXdXdX4X4X4X4X4X,X,X$X-X-X4X5X>Xa e k ;.$.....k ;.=X&X&X&Xu.T.E.>X4X4X4X4X3X,X,X;X=X;X;X,.1Xu.` y $X%XC.$XE.+X$Xq.-.J mXa a k $.$.k U $.k S S k J S #.a 7X1 l e 0 e q e e e e e e q.q.E.<.<.$X-X=X1X5X6XmX3X>X>Xy.i.",
"6.1.1.P.3.e.i.X.5.i.4.i.4.I | I | | | | I S.F.D.A.D.U.y.u.u.t.y.u.oXu.oX=X@.oXt.t.i.0.i.p.p.i.p.p.p.p.t.t.t.OX@.@.+.p.t.t.0.t.+X+XOX+.0.+.H H l 3 # J GXGXGXGXPXU 0 = = + H J a k H $.XX7XdXmXmX5X1X1X3X5X-XmX6X6X6X6X6X4X4X4X4X4X,X,X4X,XwX4X,X4X$XMXmXbXp <.9./ ~ ~ ~ A k q.C.$X$X-X<.*.&.&.3   o o HXDXdXdXdXdX6XdX4X6X,X4XaX4X<X3X3X-Xa e p g $.;.;.` U ;.=X*XT.&XT.T.T.u.3X,X3X4X,X>X*X*X*X=X*X=Xu.>XE.&.3 $XC.q.q.q.q.q.;.;.H bX%.a a k $.` $.` / #.#.$.$.$.k . e 0 0 e e 1 e 0 e e e e :.q.<.<.,.,.$X-X2X3X5X5X3X1X>X9.6.",
"7.1.1.1.4.4.1 1.i.4.4.1.5.I I | I I W W | W Q.Q.Y.4.4.4.e.y.e.t.u.oXoX&X&X=X=X&XoXu.Y j t.p.p.i.p.p.t.t.t.t.t.+XU @.t.t.t.t.t.OXOX+.@.0.+.+.H l 3 # 3 vXGXGXnXGXGX+.1 = + a -.l k J #.$.6X5X3X6X6X-X1X1X1X7X$X5X5X3X3X4X3X4X4X4X4X,X,X4X4X,X,X,X,XdX6XmXNX>.q :.` ~ _ k g E.C.l.-X>X-.&.-.%.%./   o + JXJXFXdXdXdXaXdXdX4X4XaXaXfXwX>X4X3Xq a a k ..U ;...U $.*X*X*XT.T.T.y.E.>X3X>X>X=X*X*X*X*X*X*X;X>X4X3X-X$Xp p e p #.;.,.#.q.=.#.6XJ 8 p i a a a a k a k k k 8 3 = l 1 1 2 1 3 0 3 2 e 3 e >.>.$X<.<.-.+X-X1X3X5X1X=Xu.t.9.",
"6.1.3.4.n.4.| 5.w.1.5.1.5.Y I I | | I | E W Q.Y.Q.Y.w.4.4.i.4.5.w.e.&X&X&X&X=X1X@.oXt.Y s p.i.p.t.p.p.t.t.t.+Xt.+.+.p.t.t.t.OXt.+.+.@.+.H H H l 3 # . +XvXnXGXGXGXGX1 # # 8 XXa k J $.$.<.7X7X-X3X6X-X1X-X7X3X$X3X3X3X3X>X4X>X,X,X,X>X>X,X>X>X>X>X>X4Xq.PXNXm 2 k _ j N.G.9.>.-X*X$.#.J J J J %.. 2 @ JXHXDXMXdXdXaXdXaX4XaXfXdXaXaX>X3X6Xe a k U ..Y ..Y ;.Y -X*X*X*X&XU.T.y.U.>X*X*X=X*X*XR.R.*X~.*X;X>XBXfX<X<X:.C.<.<.,.,.<.;.<.` 2 J -X$X$X5X$X=.l.<.p e 8 J mX5X. e 1 1 1 1 2 1 0 3 0 2 3 >.<.7X-.<.=.-.<.-X1X5X1X+Xu.q.9.",
"8.1.r.S.A.d | 5.4.4.i.4.i.5.| I I W | I | | 4.Q.Y.Y.D.4.4.4.5.i.i.i.y.T.T.&X&X=X+.p.oX+XY I p.p.p.p.0.t.t.t.0.t.t.Y t.p.t.OXt.OX+.@.@.+.+.l l l 3 # = =.nXnXGXGXGXGX1 o . < XXa k H J $.=.-X-X=X=X7X5X-X2X1X2X-X$X1X>X>X>X>X>X3X>X>X<X>X<X*X<X>X>X>X>X>X+XFXNX2 r k E.9.>.q.R.;X$.#.#.S S k J %.8 - ; JXJXHXDXmXdXfXaXaXdXfXaXsXfXaXdX3X1Xg S k ( U U ( Y Y U =X*X&XR.R.&XT.T.y.y.&X&X*XT.R.R.R.~.*X;X;X:X4XAXdXi >.8.>.o.E.U.;X3X$XXXq.<.-.$X-X$X$X@X$Xq.XXJ <.1XbXbXe = e - 1 1 1 1 1 1 2 0 2 A >.<.<.<.<.,.,.,.oX2X1X+Xu.r.0.",
"8.r.8.L.A. .3.h 1.w.4.3.4.4.5.W W W | W W W | Y.F.F.F.F.4.4.5.5.5.5.5.4.e.y.T.&XoX=Xi.oXoX@.s I t.p.p.t.0.0.0.t.+X+.@.0.t.t.t.@.@.@.+.+.+.l l e 3 # # H vXGXnXvXnXGX1 o + 3 XXH a H $.$.$.-X-X7X=X=X3X3X$X-X8X+X$X+X>X3X=X>X=X;X=X<X*X-X-X-X<X<X*X*X;X=X3XbXGX<.r u.9.:.E.T.*X$.$.#.J S a D D J %.O < LXJXHXDXDXMXfXfXfXaXdXaXaXaXwXdXq.~ ~ S ~ ( Y I I ( U U *X*XT.T.&X&X&X&Xy.r.r.*XT.T.T.Y.R.R.R.~.;X,XwXZXgXr C.^._ j T >.~.:X4XaXdXdX6X$X7XFXNXmXbX6X1X$X$X1X3XNXbX. 0 - - - - - - 1 1 1 2 e >.>.<.<.q.=.,.,.,.u.5X&Xu.q.6.",
"r.8.D.L.| 3.3.W W 8.r.G.8.8.4.O.| E W E | E E F.Q.F.F.F.D.e.5.5.5.5.5.5.4.w.e.U.&XoX&Xu.oX+Xt.s I Y p.p.0.,.0.t.t.@.@.t.t.OXt.+.@.p.+.+.H l l l 3   1 3 nXvXnXvXvXvX+.. + + J J k k U ` ;.,.1X1X=X=X=X3X3X$X+X$X+X$X$X-X>X;X=X<X-X<XE.<XE./.-XE.<XR.-X<X>X$XPXGX_ >.;.E.R.*X$.$.$.J k k k a a S #.- < KXLXJXHXSXfXBXfXaXsXaXaXwXwXwX3X=X1 S A ~ | s s I I I X.*X*XT.T.T.T.&XT.&XU.r.8.U.U.U.U.Y.R.R.~.~.wXlXfX<X5 N._ o.~ g T O.,XwXwX,Xl.IXv 7X7X@X$X-X$X$X-X6X=X1XmXmXk + w = = - - - - > 3 2 r S <.<.<.q.q.<.>.<.+X2X1Xq.u.u.",
"E.8.Q.A.o.v.T T T e.r.G.8.8.4.3.W E E E E E | n.!.!.Q.L.F.F.F.4.5.5.5.5.5.4.n.A.U.U.T.oXoXu.oX+XY 0 l t.@.t.0.,.,.,.+X+Xt.t.+.+.@.+.U +.U l l e = o 3 = vXnXnXvXvXvXGX- + + J J d k ( ` X.;.1X-X1X-X-X=X3X3X$XXXq.$X+X$X$X-X<X-X<X$X/.E.$XE./.-X<X-X<X*X;X3XPXPXNX$.$X*X*X&.$.#.k k k a g a a A 3 2 > HXHXLXLXHXBXfXfXsXaXwXwXwX:X0X>X4Xq F ' ) | s s I | I Y U.R.U.T.T.T.u.T.y.u.y.r.8.r.U.U.Y.Y.R.:X0XzXVXaXZ.5 &.m _ C.O.g T ^ C.aXZ.%X#XcX7X<X-X<.$X1X-X3X-X=X1X1XmXbXX 1 = = = = = - > 2 2 > 2 :.$X<.XXXX<.q.0.&X&X-Xu.E.u.",
"u.U.Q.X.3.B T T ~ G.G.r.G.4.G.v.n.E E E E E X.] `.`.P.L.L.L.L.F.4.5.4.5.5.M.5.m.D.U.U.T.u.oXoXoXt.p.e s t.,.@.@.,.+.,.0.,.+.+.+.p.U +.U U l l e 3 o 3 3 vXnXnXvXvXvXGX3 + + a J e j U ( Y ;.q.1X=X-X=X*X=X3X>X+XXXq.XXq.$X<.-X-X$XE.$XC.E.C.<XC.E.<XE.<X-X<X-X6XNXA *X*X;.%.$.$.$.k k k l l p k p r - FXFXHXJXAXfXsXfXsXsXaXwX0X0X0X;X;Xb *.[ ]  .d d h I W I D.D.U.U.U.y.U.T.y.y.y.y.r.8.2.D.Y.Q.^.^.hXzXAXh.l.} D A l.~.E.A m V [ >.z.%X%X#X7X<X-X-X<.=X-XE.-X=X1X1X6XmX,.= w = = = = - - - 1 - 2 &.4X<.q.q.q.q.3X1X&X&X-XT.E.",
"q.~.8.2.3.~ T T ~ ) D.G.r.8.n.G.n.] E E E | | ) ].'.!.!.L.L.F.F.F.4.5.M.4.M.5.M.L.D.U.y.T.oXt.t.oX+XI s I @.0.,.,.,.XX@.,.l @.@.+.+.U U s l e 3 3 o 3 1 =.nXvXnXvXvXGX- + + e J s s I I X...;.=X=X=X&X=X=X=X=X>Xq.q.q.+Xq.$X<.-X$XE.q.C.C.$X$XE.-XE.<XE.<X-X<X=XNXr q.&.$.$.#.` +.k k g l e e q e q 1 MXDXDXSXfXfXsXsXsXwXwXwX0X0XwXaXG.R g.*.{ s.f f f W W W D.D.D.D.D.D.D.y.e.e.e.e.y.e.8.3.Y.Q.^.jXjXlXCXh.l.F D { 0X:X~.C.i m A *.K g.%X%XC.%X$XE.T.E.*X-X-X&X=X=X1XNXmX  - + + + + = - > 1 2 2 r >.<.XXq.+X4X3X1X&XoXu.E.u.",
"U.~.>.3.I B ~ ~ ~ ~ G.e.A.G.G.4.G.3.E E ) E E ) S.'.`.`.!.L.L.L.F.J.S.4.M.M.M.4.3.S.D.U.U.y.oXoX+XOXi.s I @.@.@.+.0.,.+.H l +.,.k U l +.U l l e 0 3 e 3 H nXvXnXnXvXGXk o o 2 k d s I I Y ..;.&X&X&X&X&X&X*X*X=X=Xq.XX<.XXq.q.>.E.C.C.E.C.E.C.C.C.E.E.-XE.$X-X>XNXe i $.,.$.$.k U k l l p e e j p q 1 BXMXDXDXfXaXsXsXsXaXeXeXwX0XaX*Xu D h.a.s.W f f f h W I Y.F.A.D.D.A.8.D.D.r.w.r.r.e.e.r.8.Y.qXuXzXlXCXl.%.g.%.j.%.eX0X;XZ.i v D F %.*.C.$XC.$XC.E.E.R.E.&X&XoX=X2X1XNXq.o q o o o = = > > > 1 - :.<.q.+Xl.dX3X=X=X&XT.E.u.",
":X7.9.8.I ~ ~ ~ ~ ~ G.G.w.G.3.n.3.n.3.E E E ( E 3.P.`.].].!.Q.L.L.F.L.L.4.M.n.3.3.5.A.D.U.y.y.&XoX&XOX0 s U 6.;.0.,.,.+.H +.@.H +.l l H l U l e 3 3 l l 3 nXOXnXnXvXvXGX- o - a w s I I ( ..X.6.&X&XoX=X&X*X*X*X-X=Xq.q.<.q.XXq.,.C.C.C.q.q.C.C.E.$XC.E.-XE.>X=XPX5 p + $.$.U U k k k s l e q l s e y fXfXFXBXdXaXsXwXsXeXeXwX0X0X,X;Xr K h.g. .b b b b h f h Q.Y.G.F.F.G.A.8.4.A.r.r.w.r.r.w.A.].uXuXzXlXAXh.%.} g.B.rX*.hXwX<Xl.v 7 D %.*.*.j.C.C.q.E.E.E.E.u.oX&X=X2X1XNXNX. = . . o o = - 1 1 - - i <.q.q.&.mX3X3X=X-Xu.q.u.",
";Xq.N.~ ~ ~ ~ ^ ^ ( X.A.G.r.G.4.4.n.3.| W ( E | G.n.S.!.!.^.!.Q.Q.Q.Q.Q.!.3.3.3.3.3.3.D.D.Y.R.T.T.oXoX0 s I 0.t.0.@.+.,.+.+.@.l l l H l l l l e 0 H l l 3 vXOXnXnXnXvXnX= . + e y s I I ( Y Y 1.T.&XT.&X&X*X&X&X=X*X*X<.q.<.q.<.<.<.q.q.C.C.$XC.C.C.E.C.C.$X=X3XGX5 q . g ` +.S k k l l e e j j e d k dXMXFXBXaXaXaXwXeXeXeXeXeXqX4X,Xb h.l.a.s.f b x b M u f !.Q.L.F.L.D.G.8.N.3.3.4.w.w.G.G.!.qXuXjXjXlXSXh.8 g.C.Z.<XkX*.sXaX,XZ.5 m } %.g.*.O.>.9.9.C.E.U.E.u.&X&X=X1X5XPX3X. - . . o = = - 1 - 1 - 4XXX<.,.NX6X1X=X&X&XE.q.",
") C./ U ~ ^ ` ^ ) ~ ~ A.w.A.4.n.4.3.4.3.W I | 1.4.n.M.3.!.!.!.~.~.Q.Q.!.^.].n.v.N.3.3.4.D.~.R.R.R.&X=XY s j 0.0.0.+.H +.+.@.H l l l l l l l l l l l H a 8 OXvXnXvXvXvXnX+ . o e d s s I Y | | X.r.oX&XT.T.&X&X*X*X*X*X*Xq.<.0.<.q.q.,.q.l.q.l.C.C.q.E.C.+X$X7X7XPX2 2 o . U U k k k l l l e j k j U / dXfXFX4XaXaXwX,XsXeX0X0XeXqXaX,XF #Xx.{  .x f b b n u b ^.!.Q.H.L.G.G.G.N.8.3.v.v.n.G.!.tXuXiXjXjXVXSXZ.D l.{.Z.<X<XSXAXkXsX,X$ i ' *.*.*.{ O.d.>.9.E.D.q.E.u.&X=X1X3XPXPX  +   . . o = = 1 @ = - q.q.<.,.mXmX5X=X*XT.E.>X",
"C.C./ ~ ~ ~ ^ ^ ~ ~ ( A.A.r.8.4.r.4.3.4.5.| W n.4.3.n.3.3.L.!.Q.Q.^.^.:X].].0X!.N.A.G.G.4.w.~.~.;XT.=X1Xw j 0.0.@.+.+.+.=.,.k H H 8 H 8 l l 8 3 H H l H l 8XvXnXvXvXvXnX0 1 o 1 l w I I W Y X.1.1.T.y.T.T.T.T.&XR.*X*X*X-Xq.0.<.<.<.<.>.9.<.q.q.q.C.C.E.C.E.-X5XGX2 o o o + U S k k j l e l k U $.$.#.mXMXFXaX4XaX,X0XeX0X0X0XqXeX-Xg *.#Xj.s.! b b b b M b b ].^.Q.H.Q.L.H.G.G.G.3.3.3.3.3.[.tXuXiXjXzXCX*.J j.Z.z.Z.rXrX<XkXZXsXwXv t F F } { :.d.O.N.[ 9.D.q.q.T.&X*X=X1X5XPXmX      . . o = = + + + + <.,.<.mXdX3X=X*XT.q.>X",
"$X-./ ^ / ^ ` ( ) ( ) o.A.w.4.w.4.3.4.1.4.| I 4.4.5.4.n.4.v.S.L.Q.Q.^.^.].qXqXiXhXH.G.G.G.8.w.;X;XR.3X3Xq d 6.;.+.l +.+.@.+.H l l H H 8 8 8 l L L J H 8 H +XnXvXvXvXvXvX2X1 . 1 w s s I Y | X.1.2.u.T.T.U.T.&X&XT.&X*X*X*X*Xq.<.0.<.,.q.<.<.<.q.q.C.q.q.E.E.3X6XPX1 + o o o l k k k j l e U $.;.$.&.$.NXMXFX6XaXwX,X:XeX0X0X0X0XfX>Xr *.%Xg.a.n x n n x n x x ].^.!.W.H.L.H.G.N.N.v.v.3.3.J.P.uXiXjXjXlXsXz.< Z.z.Z.Z.%X9X<X<XZ.zXsXeX5 D F } g.a.d.O.O.N.N...9.r.U.T.T.*X=X5XmXPX  +     . o + = = + o q ,.q.,.mXbX4X;XR.R.wXp ",
"l.*./ / / ) ) ^ ) ) ( ) A.A.w.n.4.4.4.4.1.1.| w.n.4.5.5.3.5.5.n.F.L.L.!.^.[.uXiXjXhXQ.H.G.N.G.G.:X:X,X4XU y ;.U U +.+.,.,.l H H l H l H 8 l =.J J H H H 8 XXnXvXvXvXvXvXnX=   1 e 0 I I Y | Y X.X.r.y.T.T.y.T.T.T.T.T.*XE.R.E.0.>.,.>.>.,.<.:.<.<.<.q.C.+X$X1X6XGX2 + + + + = k k k k l l ;.:.;.&.;.&.mXPXNXdXaXaX,X,XwX0X^.].].aXaXc h.l.a.a.n n x c n x x t qX].W./.H./.H.B.G.n.N.N.v.P.L.I.tXjXjXzXlXwXC.7 l.C.l.*.%X<X7X9X<XJ kX%X, i F *.K *.O.d.j.d.o.^ E 9.q.T.T.*X*X>X6XJXPX        o + + - o - > k 0.q.mXdX6X;XR.;X:Xl.",
"l.>.&._ _ _ ) ) ) X.X. .e.w.w.4.4.4.3.1.1.1.1.A.4.4.p.5.5.5.5.5.3.S.F.L.[.[.tXtXuXuXuXQ.H.N.N.N.N.:X;X,XT.r ` U U @.,.,.H k H k H l H H 8 =.=.=.J J J H l ,.vXvXvXvXvXvXGX= # # e w d I U X.X.X.X.6.u.y.T.u.T.T.E.U.U.E.T.T.E.E.,.>.;.,.<.9.>.;.<.9.<.q.q.oX3XbXGX2 - + + + + = k k l l ;.7.;.;.,.;.&.NXPXmXdXdX6X4X,XwX0X].^.].aX;XF l.j.a.s.x x c x G t z t eX0X{.Z./.W./.B.B.N.V.v.).P.P.I.H.jXjXlXeXj./ m j.k.B.*.Z./.<X<X%XcXl.<X& p K F g.*.d.O.d.j.d.^ ~ ~ o.e.U.T.*X>X6XNXFX. =     . o + = . - - ~ q.&XmX6X3X>X;XwX*.%X",
"#X*._ _ ] ) ..) ..| | X.3.w.A.A.r.4.r.4.1.4.w.w.w.4.5.5.5.5. .5. .3.J.P.`.'.[.[.tXtXtXuX^.G.G.N.G.8.Y.,X,Xq ~ k ;.,.0.u.H +.H H H l l l H XX=.=.=.$.H H 3 l vXOXvXvXvXvXnX1 = + q w s I U ( X.X.1.X.2.7.6.9.u.u.u.E.E.T.E.E.E.E.E.>.,.>.>.,.,.<.;.<.q.q.q.=X3XmXNX2 - = = = + = e k j $.,.;.<.>.:.-.-.GXPXmXmXdXdX4X4XaXwX:X^.`.,Xo.g.@Xg.a.s.z x z z x z z 9 eXeX<X/.Z.Z.W.B.B.B.N.'.`.`.P.I.H.tXzXqX0Xl.4 D j.j.N.C./.Z.<X%X<XsXkXkX*.8 F K h.g.*.j.>.O.j.A ~ T ~ U 8.U.R.*X4XMXJXfXX       o o +   o o d $.4XdXdX>X-X#.wX&.C.",
"C.*._ ] _ ] O...] | X.| X.A.w.w.r.r.8.4.4.e.w.w.w.i.5.5.5.5.5.5.5.5.M.J.).`.`.'.[.[.tXqXqX].G.G.N.G.N.G.,Xg k 9.;.0.0.H H H H H H H l l =.J =.=.=.+.+.H l l vXOXOXvXOXvXNX,.= o 1 w d j Y _ X.X.X.8.1.6.7.7.6.7.7.9.>.N.D.E.u.E.E.u.<.;.,.>.,.q.q.<.9.q.q.=X3XbXGX2 > 1 = = = = 1 k ;.$.$.<.,.:.:.,.>.NXPXbXmXdXdX4X,XaX,X:X^.].>XD K h.a.a.Z x x z z x z 6 6 eXeXrX<XZ.Z./.Z.B.B.}.[.'.`.`.I.Z.B.iXqX0X/.8 i j.N.C.Z.C.E.Z./.<XsXkXZXkX7 L K K *.g.g.j.j.N.A ^ ~ ~ ~ T X.R.;X4XfXFXDX+ -   . o o       o o A MXdX4X;XC.aXg j.%X",
"Z.>.O...O.....o.1.o.3.1.2.e.D.A.w.r.8.r.w.e.D.e.w.w.1.5.1.5.5.5.5.5.5.M.n.P.!.`.`.].[.].0X0XqXn.n.2 2.o.8.j y o.>.q.u.H U H +.H H H H XXXXXXXX=.=.=.=.+.l l vXvXOXOXOXOXoXNX+ . > e y j I ( X.X.X.6.2.2.6.7.7.9.>.7.7.7.o.7.2.8.E.U.Y.<.<.<.q.<.<.q.<.q.q.1X5XbXGX0 2 > - = = = 1 e ` ;.$.;.<.<.<.-.,.NXNXbXmXmX6X6X4XaXwX:X~.dX,Xx K l.} s.b x z z z z z z 6 rXeX0X9X9X%XZ./.Z.iXtXtX[.`.].{.W.Z.uXqX0X&.m [ j.j.B.C.Z.Z.E.Z.Z.sXsXZXrX4 v K h.h.h.g.j.j.O.} / ^ ~ ~ ) ( ` D.,XMXSXfXaX.     . o .       o A fXaX>X<XE.wX^ -.cX",
"C.>.o.O.O.o.o.o.1.2.1.1.1.4.D.e.A.G.r.3.A.D.D.e.e.w.w.1.4.5.5.5.5.5.5.M.n.n.n.L.!.^.`.`.].].].0XA.3.| ) I ..;.;.7.0.k +.H H k H H l +X,.=.=.=.=.J =.=.+.+.l OXOXOX+XOXOXOXNXo . - r e j U ( ( X.X.2.6.o.>.2.7.;.7.o.2.o.2.2.7.3.8.8.G.E.*XE.E.0.<.q.q.q.q.1X1XmXNX2 q 2 - = = = 0 e k ;.$.;.>.,.,.<.<.NXNXbXbX6XdX6X4XaX4X,X:XdX>XD F h. .s.x x x z z 6 z 6 6 rX0XrXrXZ.Z.Z.Z.jXiXtXtX[.].].W.W.H.uXqX>.* F j.v.N.N.C.B.C.Z.Z./.wXsX%XsX4 8 g.K K h.h.h.j.j.j./ [ ^ ^ ) ) ] [ ..;XFXfXkX2 > . . o . .     . %.C.,X,X<XaXm i Z.gX",
"V.j.N.v.3.2.3.2.3.5.3.3.3.3.D.D.E.r.r.D.D.D.e.D.e.e.A.4.4.5.5.5.5.5.5.5.n.n.4.n.S.!.!.`.`.`.^.].^.L.X.I d d y 7.9.t.+.H U H H l l XXXX=.XXXX,.=.=.H =.+.l U +XOXt.+X+X+XOXbX= = = 0 y k ~ ( _ ..9.2.2.;.7.;.7.o.o.2.o.1.2.2.2.2.2.8.9.8.N.R.E.E.E.q.q.q.u.=X5XnXNX1 q 2 1 - = 0 e e e ` $.;.,.<.,.<.,.NXnX5X5XdX6X4X4X4XaX:X;XmXaX^ K >.! ! b x x z x 6 z 6 6 rX0X0X0X%X<XZ.jXiXyXuXqXqX].{.W.W.W.eXeX/.a i N.j.j.N.N.C.Z.E.Z.,XeXhXSXzXh.7 F K g.P h.h.l.x.j.%./ / [ [ [ [ _ O.O.F.BX;XsX. .   o . .       *.%X<X,X<XhXC F %XcX",
"N.N.v.N.3.N.4.3.5.3.4.2.3.7.D.D.D.e.Y.D.D.U.D.U.e.D.w.4.4.5.5.5.5.5.5.5.4.n.n.n.4.M.S.P.!.!.!.`.^.A.Q.h w 1.d y i.k U k l U k l +.,.,.XX,.=.=.=.=.+.+.H l +.p.OXOXOX+XOXOXvX6.= = 2 q j k ^ _ ..;.2.>.7.7.1.2.1.1.o.o.o.2.2.2.2.2.2.3.8.8.8.R.C.E.r.q.q.u.-X3XbXmX- q 0 1 = 1 1 2 e e p ;.;.,.,.<.,.<.NXmXbX5X5X5X3X3X,X,X:X;X4Xw [ %.a.! ! x x u x z z z 6 6 rXrX0X{./.Z.W.iXiXiXtXtX[.].{.W.W.W.eX>.*.D v O.j.N.j.N.C.C./.Z.wXeXsXhXVXrX4 C F F g.g.h.h.h.h.K %.} { [ [ ) X.] O.o.8.;XhXy , . .           . gXz.,XwX% 5 j.gX<X",
"V.B.N.v.G.v.G.3.4.4.1.4.4.4.G.U.D.U.Y.Y.F.U.D.D.D.A.A.A.4.4.4.5.5.5.5.5.n.n.4.n.M.4.4.5.J.L.L.!.Q.A.F.U.d 5.s w d j k k U l +.k 0.0.,.,.=.,.=.=.=.=.$.+.+.+.t.OXOXt.t.+XOXvXvX+ + 1 0 y I ~ _ :.7.>.;.1.2.2.;.;.2.X.1.o.1.2.2.2.2.2.2.8.8.8.G.R.q.C.9.u.E.T.3XdXbX- 2 1 1 = - 1 0 0 e e j $.;.,.:.<.-.NXbX6X5X5X6X3X3X4X4X;X>X3Xr m %.{ s.Z b x x x x z z 6 6 9X0X<X<X/.W.yXiXyXtXtXtX[.].W.W./.B.eX&., } v O.>.N.:.C.B.C.C.Z.wXeXhXsXVX,X% z F F F } g.x.l.x.h.*.*.&.[ [ [ [ o.o.O.7.G.Q.fX+ ; > . . . .     rXsXwXeX% 6 z.BX9X",
"I.H.G.V.n.G.n.n.4.4.4.4.8.8.8.D.U.R.Y.Y.Y.Y.F.D.D.D.S.D.4.4.4.4.5.5.5.5.5.4.5.M.n.4.5.5.5.5.n.J.L.Y.w.e.| 5.y.0 s I I j k l l 0.,.;.,.,.,.,.=.=.=.+.=.H +.+.@.t.t.t.OXOXOXOXvX# 3 3 0 s j I ( 9.>.>.6.7.;.7.;.2.o.2.X.2.o.o.1.2.7.1.o.2.3.4.8.8.D.8.8.r.E.E.>X6XmX= 2 1 + + = 1 1 0 e e e U $.,.<.,.<.NXbXbX5X2X3X>X3X>X4X;XmX6Xy A { O.! b b x x x x z z 6 6 z.rX^.W.].W.yXyXtXtX}.[.[.{.W.Z.B.B.wX/.v v v O.7.N.[ N.C.B.C.Z.eXeXeXeXwXwX, t V F } } a.g.j.x.K *.h.*.*.[ &.O.:.O.o.N.G.U.eXAXfX+ > . o o o o <X%XZ.hX4 t %XxXW.",
"W.H.H.H.S.n.G.w.4.n.n.4.G.D.G.U.Y.R.R.Y.R.~.Y.U.F.D.D.A.w.4.4.4.4.5.4.4.5.4.4.5.4.4.n.M.5.5.4.5.F.Y.e.y.e.1 Y - 0 I j U s U 0.;.6.,.,.,.,.,.,.;.,.=.@.+.+.+.@.OXOXOXOXOXOXOXOX# 3 3 0 w j I ( ;.7.;.>.,.;.>.7.>.;.o.o.o.1.o.o.o.o.o.1.o.o.3.3.8.o.D.9.u.u.u.*X6X6X+ 0 . . + + = 1 1 0 e e e $.;.=.,.-.NXmXbX5X2X2X1X3X4X4X>XFX1Xg D { { W f b x b x z x z t 5 g.^.^.].].qXtXtXtXtXqX[.].!.W.Z.B.B.wX>.L D c v.j.j.j.l.C.C.Z.wXeXwXwXwXhXsXj.5 C Z ' } a.a.j.l.g.*.*.h.*.g.*.g.>.>.>.N.C.Y.~.;X,XSXMX+ > .     j.l.l.& O 6 { rXW.",
"P.I.L.J.J.n.n.n.A.S.S.S.A.D.D.R.~.R.~.~.R.R.R.U.U.F.D.A.A.4.4.4.4.4.4.5.5.4.4.4.4.4.4.4.4.5.5.5.5.4.i.y.y.0 s s 0 I I j U 6.6.0.,.,.,.,.=.@.=.,.=.=.,.+.+.Y Y t.OXt.OXOXOXOXOX@.3 - 0 s j U X.6.6.o.7.;.7.;.;.;.7.;.X.1.2.o.2.X.X.o.1.o.X.o.8.8.2.) D.r.r.u.*X4X3X+   . . o + = 1 1 0 e e l k $.,.-.<.NXbX5X2X2XOX3X5X3X>X,X7Xo.~ S :.] W f f f u b u x x t 5 F ^.].].^.0XyXtXqX}.[.[.].{.W.Z.B.B.%.5 *.D m O.j.N.C.C.C.Z.$XwXwX0XwX0X0XhX^., m Z ' { a.g.j.j.B.*.-.g.*.>.g.:.g.>.j.9.G.R.~.~.:X,XFXSXMX+ ,   @ g.j.t 4 5 V ].!.",
"L.L.P.L.K.J.J.L.F.S.F.F.F.Y.Y.~.~.R.~.R.R.R.R.R.T.U.D.D.D.4.4.4.4.4.8.4.4.4.4.4.4.4.5.5.5.i.5.5.5.1.5.5.y.s I X.X.s s j Y Y ,.6.6.,.;.,.,.,.,.=.=.=.@.+.+.@.@.t.t.t.OXOXOXOXOXOX= - 0 s j I 6.;.;.7.;.7.;.7.1.o.X...1.X.X.1.X.1.o.X.X.o.1.o.2.8.8.) X.A.r.y.*X4X3X  =   . o + = 1 1 0 q e s l U ,.:.-.bX5X5X2X2X2X3X1X1X=X;X6Xa v / { | W f d f u b x x z t 6 C ].].`.^.uXiX}.tXqX[.[.`.{.Z.Z.B.N.<XK K b V ] N.C.l.Z.Z.z.Z.0X0X0X0X:X0XC.:X$ u V ' { a.g.d.d.k.*.g.g.h.g.*.:.O.O.>.9.N.Y.Q.R.;X;X:X,XMXDXZXo , O.%.{ x t ' !.!.",
"L.L.P.`.).P.P.J.J.S.L.F.Y.Y.~.;X~.R.~.~.*XR.R.&X&XT.U.D.D.w.w.4.4.4.4.4.4.4.4.4.4.4.4.4.4.5.5.4.i.5.5.p.Y Y Y 1.6.i.s U I I @.p.0.,.,.,.,.=.,.+.=.=.,.+.+.+.+.t.t.OXOXOXOXvXOXvXo w 0 s s I 6.;.;.6.;.;.;.6.1.X.1.X.X.X.1.X.X.X.X.o.X.X.X.o.o.o.9...X.A.r.y.*X4X6XI =     . o = = 1 1 0 0 e e a $.=.-.bX5X2X1X2X2XOX-X2X*X1XmXp k %.:.W I d d u f f b u u t 6 F ].].!.].uXiXiX[.[.].'.].W.W.Z.B.B.<.h.u c B D >.Z.C.z.%XC.Z.rX:X0X0X0X0XhXwXt t } } { a.d.a.f.j.{ g.*.g.*.g.O.:.>.O.o.Y.F.Y.R.~.~.~.;X;X4XDXBXAX/ A N.V n { H.!.",
"[.'.'.`.).).).P.L.L.L.F.!.Q.~.:X~.;X~.R.*XT.T.T.T.&XR.U.U.U.w.w.w.8.4.1.4.w.4.4.n.4.4.4.i.4.i.5.4.1.1.Y s s 1 Y i.k k +.s j U +.@.,.@.,.=.,.,.=.+.=.+.+.+.+.Y t.t.t.OXOXvXvXnXvX. 0 0 s s @.X.6.6.;.;.>.X.X.X.Y X.X.1.Y X.X.X.X.X.X.X.X.X...o.;.:.` ( r.D.y.u.=X=X3X  1   . o + = 1 1 1 0 e e e a -.-.bX5X2X2X-X+X8X=X&X=XbXvXy g &.[ I h d y f u f f x u t x *.].].^.^.eXuXhX].[.].^.`.W.W.B.B.*.t c p x m V } l.C.%XC.Z.,X:X0X0XqX0XwXZ.hXzX6 Z F ! a.] d.d.d.{ :.*.g.*.O.:.[ o.o.L.F.F.F.Y.Y.Q.R.~.~.~.;XMXSXg N.[ O.R d.B.L.",
"].'.'.'.).).P.).P.L.!.!.Q.~.~.^.:X~.;XR.R.R.T.T.T.&XT.U.U.U.w.w.w.r.1.4.1.4.4.A.4.4.w.4.4.4.i.4.i.1.Y I s @.Y 0 s k @.$.+.U U H +.,.@.,.@.,.,.=.=.=.+.l +.+.+.t.OXt.t.vXvXvXnXvXU 1 0 0 s 1.6.X.6.X.;.;.X.X.X.| Y X.| 1.Y X.1.X.| X.X.) ......&...j Y 8.e.D.i.=X3X5XI +     . + + 1 1 1 1 0 e e l =.-.5X5X2XOX8XXXOXOX&X=XnX=Xg k $...I d y y f u y f x x x } %.].].^.].uXhXhXuX0X].^.W./.B.B.*.c 7 m t i m V S j.Z.l.Z.Z.rXwX0X0XwXwXwXwXVXwX5 C Q ! ! a.a.d.d.] [ *.*.{ { O.O.O.G.F.L.F.F.F.Y.Y.Y.Q.Q.~.~.~.~.B o.O.N.) d.N.'.",
"[.].[.[.'.`.`.!.].`.^.!.Q.Q.^.~.~.:X;X~.R.R.R.T.T.T.T.T.T.U.y.r.r.r.r.r.4.w.w.w.A.w.4.w.4.4.4.Y 1.1.U s @.p.OX1 e U l +.@.@.U U H +.,.=.=.=.,.+.@.+.+.+.+.+.@.@.t.OXOXvXvXvXvXOX2X- 0 0 s @.1.@.;.X.;.;.;.X.X.Y 1.Y Y | | | Y | | ) X.) ) ......:.y j 1.D.6.r.i.1X=X1X. 1   . o + = = 1 1 0 0 e e l -.2X1X2X8XOX2X-X+XOXoXvX0 U k _ I h d y d y d u b f x } } P :X0X].0XeXhXsXkX^.].^.W.Z.B.{ m / 7 m r i c m F j.l.C.C.C.0XwX0X0XeXeXsXeX0XwX% x Z Q } ! s.s.d.} { { *.[ [ O.] ) L.F.F.F.Q.F.F.Y.Q.Q.Y.Y.Y.R.Y.o   o.C.N.v.b.'.",
"`.'.[.[.[.`.[.[.].].!.!.Q.!.Q.~.~.~.~.~.Y.R.R.T.R.&XT.T.R.U.R.e.e.8.r.r.8.w.e.A.A.w.w.4.i.4.w.i.1.Y j @.6.i.2Xs 0 e j k j @.@.+.l +.k ,.$.=.@.+.=.=.H H H +.+.@.+XoXoXOXnXvXbXOXOX= s e @.1.@.X...;...;.X.( X.X.| Y | | Y | | X.( | ( ......:.....j d j 6.1.i.i.t.1XbXI +     . o + = 1 1 1 0 e p a H 1X5X1X2X$X+X8XOX2X-XvX1 e A _ s I s s s y d f u b } [ *.*.0XwX0XeXhXkXkXsXhX/./.Z.C.*.i / C.8 i 5 p v v D >./ N.C.C.:X0X0XwXwXeXwX0XzXwX^ u ! Z ! s.Z a.s.v.} { { { ] ] ] S.S.S.F.F.L.F.Q.Q.L.F.Q.Q.Y.Y.D.O.    r Q.N.n.P.",
"].].[.qXtX[.}.[.].].`.!.!.!.!.Q.Q.Q.Q.Y.Q.Y.R.R.R.*X*XR.R.R.R.U.r.r.r.8.r.e.e.A.D.D.e.w.w.w.4.1.Y U p.6.i.t.2XoX0.1 0 e k l k +.@.l H l =.=.=.=.=.H H l U +.+.@.+X+Xt.+XbXbXbX=.OXo 0 0 p.Y X.Y Y X.@._ X...Y | Y ( Y Y | X.Y Y X.( ( ( ( ;.....` U w d 1.6.1.p.1.t.oX2X  1   . . + = = 1 1 0 0 e l a 6X2X2X2X2X8XOX2X+X1XbX0 e U ..I I s 0 s w f f f } } } { *.].wXwXeXhXhXhXfXkX/.Z.Z.:.c _ j.wX8 v 5 7 i i C ^ A &.N.~.^.:X:X0X0X0XwX0X:XeXqX6 N Z ! Z s.! s.d.{ { *.] { O.G.S.J.J.S.F.F.L.L.L.Q.Q.Y.F.Q.F.G.G.  . O 5 c.m.J.",
"[.[.tXuXtXqX[.[.].`.^.!.L.Q.Q.L.Q.L.F.Q.Y.R.U.R.R.R.*X~.;X;X;XR.r.r.r.8.9.U.U.D.D.D.D.e.w.r.4.X.I e.1.1.i.y.2X2X2X2X,.- 0 l l e +.U k H H =.=.=.=.+.k H H H U @.t.+X+X+XbXnXbXbX2Xe 0 0 X.@.Y X.X.( X.` U ` X.( | Y Y | Y Y ( | ( Y X.( ` X.......` e w s w.p.1.1.1.i.bXs =     . o + = 1 1 1 0 e a l 5X2X8XOX+X8X-X2X8XbXvX0 l k ( I j s w w y y f E ' [ ] } %.^.0X0XeXeXsXsXeXaX^.N.&.m &.j./.aX8 v < 7 p i i A A A >.Y.~.^.:X:X0X0X:X:X:XsX:X, b Z ! ! s.s.a.s.} } { } O.] J.S.J.S.J.S.S.F.F.L.Q.L.F.Q.F.F.A.3.  . @ 5 t W m.",
"uXtXtXtXtXqX].].].`.!.!.!.Q.F.L.L.F.F.F.Y.Y.Y.Y.U.R.R.R.R.R.R.;XU.r.8.8.8.y.U.U.U.D.D.e.r.4.X.I U 6.8.r.e.X.1XbX2X2XOXOX;.1 e l l l +.l a l $.=.=.+.l k k k H +.+Xt.t.+X2XbXbXnXvX5X1 X.@.X.X.Y ( Y ( $.( Y ( Y I | I | Y ( ( Y ( X.( ( .._ Y X.X.X.0 w w s p.p.p.p.p.t.OX  1   . o o = 1 1 1 0 e a l =X1XOXOX-X+XOX+X2X8X;.s l #.U j s w w y y y ) R E ' ' ' ' Q.^.^.qXeXeXeXaXaX>.{ D *.N.~.dXfXa v < , 5 t i m g B ~ Y.~.^.^.:X:X0X0X0X0X0X0X, x n N Z Z ! s.a.] } { ] ] H.G.S.S.J.J.L.S.J.L.F.F.Q.F.F.F.G.8.n.  . @ r u u N ",
"n b.|.yX}.}.qX[.].!.!.!.!.L.Q.F.F.F.F.Y.U.F.U.Y.Y.R.R.R.R.R.~.*XU.r.C.r.q.U.R.Y.Y.Y.U.j r.2.T 1.2.8.D.U.....5X1X2X2X5X2X2XOX+.1 3 l a + k a a H J H k H k H H +.0.+X0.0.+XnXbXbX+X+Xo Y U U ( U U I ~ ~ ~ I T I I I I I I I U I U I ( ( ` ..2 ` Y ` 1 0 w s p.p.p.p.p.i.OXs =     . o = = 1 1 1 e l e 2X2X2X+X+X+X+X2X2X2X= 0 l +.k j s e y y d B R E ^ E ' ^ ' L.Q.^.0X0XeXsXwX:X>.N.<.C././.<XkX8 v % : 2 r y A B B A G.Q.~.^.^.0X:X0X:X0XwXeX{ 6 ! N W ! ! ! ! ! ] { } V.H.S.J.J.J.K.L.L.L.L.Q.F.F.L.F.F.A.4.3.5 . ; t u u x ",
"b c.b..XyXtX[.[.`.^.^.!.!.!.L.F.L.F.F.Y.Y.U.U.U.T.R.*XR.R.R.*X;X;XE.E.q.G.Y.R.R.R.Y.Y.G.7.( I o.7.r.U...:.U ` =X5X1X2XOXvX2X2XOXk 1 3 e 3 . k a H a a a k k k k ,.q.q.XXq.mXbXbXXXOX. k j s y d d y y g y s y d d s d j j s s j j d d j j j j j j U 0 0 0 w s i.p.p.p.p.t.oX  1   . o + = 1 1 0 3 e e =X=XoX2X+X+X+X2XvXbX1 e s $.U j l s l p j h g R R R Q Q Q F.Q.Q.0XwX0X,X:X;Xq.K Z././.<X7XDX8 v & @ , 5 r g j g _ O.R.Q.~.^.0X0X:X0X0X0XsX0X5 n N N Q ! ! ! Q } } ] I.I.H.J.I.L.P.P.P.L.L.L.L.L.F.F.S.G.v.v.M . ; t t u t ",
"x ! c.b.b._.}.[.[.].!.!.!.!.L.L.L.F.F.Y.U.Y.U.R.R.*X*X*X;X*X~.;X>XE.q.E.q.R.;X~.~.Q.E.7...B o.2.A.U.o.:.` ` ~ ` q.5X5X5X5X+X5X2X2X2Xl + 3 3 o . k a a k S k S ` ;.<.0.q.q.1X6X3XoXq.u.k 6.;.s ` U I j y 2 1 1 1 1 1 0 1 1 0 0 1 1 2 1 1 1 1 0 q 0 0 1 0 w 0 0 s p.Y p.p.t.i.+ =     o o = = 1 1 0 e e 2X2XOXoX+X+X2X2XvXvX1 0 k $.k k s e p k B h h M R Q Q Q F G.Q.0X:X0X:X:X;X;X*X7 /./.<XkX<XBX7 i O @ ; , r g m m o.o.N.Q.~.^.^.:X0X,X0X:X:XwX$ x b N N ! ! ! v.} } V.B.I.I.H.L.L.L.L.P.P.P.!.P.L.Q.F.H.H.v.v. .. o 5 t u t ",
"t M c.c.b.b.m.}.].].].!.!.!.P.L.F.F.S.D.F.D.Y.U.R.*X=X;X*X*X;X;X;XU.G.8.N.E.~.~.;XC.N.o.A o.8.G.F.o.~ ~ ` ` ` U U 6.1X2X2XvX5XXXbX2X2XOXl - - = . . i k a k k ` ~ 0.q.q.q.C.6X4X<.,.` 1X3X=X1X=X&X=X-X=X1X=X=X=X>X=X=X=X=X=X=X=X=XoX=XOX2X=X1XoX;.k U # 1 s 0 s 5.p.p.p.i.p.0 1 1   . o = = = 1 1 2 e =XoX=XoX2XOXOX2X=.+X0 e k U I j w d I j B m m b R ' Z Z V H.!.].0X:X0X:X;X*XC.p l.:XgX7X<XMX: v O o - , B g g g o.o.o.H.Q.~.~.^.:X:X,XwXsXeX; t x b N N Q ! s.] N.B.B.H.I.!.L.L.!.L.L.Q.!.!.L.Q.L.L.L.H.N.v. .    . t u x ",
"t u s.c.c.b.b.b.K.qX`.^.!.!.!.L.S.S.S.A.A.F.U.R.R.R.*X;X;X*X;X;X;X~.r.9.G.E.~.~.C.N.>.^ :.9.G.F.o.T ( T ~ ( _ ` U ` $.1X2X5X5X5X5X+XbX5X2X-Xe - = + . . e g A U U q.9.q.q.q.gXdXq.` e 3X3X>X3X=X>X=X=X>X4X>X;X>X>X>X>X>X=X=X=X=X*X=X=X-X=X=X1X1X2XOXOXOX. 1 w I 0 p.p.p.i.i.s s 0 . . . + + = 1 1 1 e &X&X&X&XOXOXOX2X+X1 l e k k j s s j j j M M b b b V Z F V B.L.].:X0X0XwX,X&.N.v v gX<X<X$X>.# i # o @ ; [ g g B o.O...O.Y.Q.Q.~.^.~.:X,XzXhXN., R b n N R W ! ] V.Z.H.H././.L.L.L.L.Q.P.!.Q.Q.L.!.L.H.G.d.V R o   . @ 5 b ",
"f u ! s.s.c.c.b.v.v.P.].`.!.Q.L.S.L.F.S.A.F.Y.Y.Y.R.R.*X*X;X>X;X;X;XE.G.q.G.~.[ G.>.] >.N.G.Q.^ ( ( W ( ( T ( ` ` ( U U oX5X5X5X5X5XvX=.bX5X5X$X3 + = o o o r k j 9.q.9.q.9.4XaX-X- k *X*X&X$.u.U e *Xu./ ;.u.T.wX4XaX4X6X4X4X>X>X=X=X>X3X3X1X1X2X2XOXOXoX1 1 0 s s Y Y i.i.I 0 I =   . o + + = - 1 1 &XoXu.u.&X&XOX2X2X+ 0 e U j j 0 U I j h h b b b x x V D V N.Q.].0X,XwXwXaX-.: D v [ wX<XE.<.O c o . o - [ g g ..O...O...N.Y.Y.~.~.~.^.;X:XhXwX$ x b b n W Q ! d.N.B.H.W.H.Q.!.L.Q.L.L.Q.!.L.P.L.L.L.H.^ ^ R N t   O $ > 5 ",
"r r n  .s.b.c.v.v.b.b.J.`.].!.!.F.J.S.S.S.F.F.Y.Y.R.Y.R.R.;X~.;X*X;XR.E.G.G.,XN.N.:.Q.N.G.H.^ ) E T T T T I ~ U ( ` ~ U ` 6.5X5X5X5X5X6XbX-XNXbX5Xq.  - + + o o e 9.9.9.9.9.R.<.;.q ( E.*X*XR.T.T.T.U.T.U.E.E.y.E.r.9.9.9.9.6.2.;.;.;.:.;.;.;.$.;.@.@.0.OXOXY = 0 s 5.p.t.i.4.0 s | 0 . o o + = - 1 0 oXT.y.u.oXoXOX2XvX1 0 w U j s U I I j h h M b b b x u C C N.G.0X0X0XwX,X,XZ.& 8 v %.C.-XE.>.o p O   o ; g m g :.O.O.O.] O.Y.Q.Y.Q.~.~.~.~.:XwXo t x b b N W N G.N.B./.H./.W.Q.!.Q.Q.L.Q.L.L.Q.Q.L.^ ^ ^ ^ V V O.  O ; 2 5 ",
"t r 5  .s.c.b.c.v.n.v.J.n.J.!.!.L.J.L.F.S.F.Y.Q.Y.Y.~.Q.~.;X~.~.~.;X~.G.E.C.R.E.C.>.N.B.N.N.^ ~ ( T ( T T T T T I ( ~ ( ~ ` ..5X5X6X5X6X5XbXbXmXPXmX3Xl o - + o o 0 X.9.9.9.9.u.k y j ) ..~ 9.R.R.R.U.U.E.R.E.E.r.q.r.8.9.9.7.;.;...;.:.;.:.:.;.$.;.;.2Xt.OXoXu.= 0 I p.i.p.s 0 s | s 1 . o + = - 1 1 y.y.y.y.y.oXoX2XOX0 0 w j j 0 U I I j h h f b x x u t c m j.^.^.0X:XwX,XwXgX% 8 v K /.C.C.>.. % O   o - g g m >.o.[ ....] O.Y.Y.Q.Q.~.~.~.hX0X2 5 u x b V u b N.N.G.Z.C././.Q.Q.Q.Q.Q.L.Q.Q.Q.O.^ ^ ^ ^ ^ V V M X @ ; 5 r ",
"r u 5 ! s.s.s.c.v.v.m.m.b.n.n.P.L.L.L.J.F.F.F.Y.Q.Y.Q.~.:X~.~.~.;X^.;XE.C.R.E.C.N.#.5 , ] B.^ T T T T T T T I I T I ( ( ( ( ( ` =X5X6X6X5X6X6XbXmXNXFXbX-X- @ - + - i y ( 9.D.E.+ j X.| E E E E E T >.R.Y.E.E.G.C.8.9.9.9.9.7.>.:.o.:.;.;.:.;.$...;.@.1X1Xu.=X&Xt.0 1 s t.i.Y 0 s | s s 1 . + + = 1 1 y.w.t.y.y.oX&X+XU 0 w w I 0 0 I I k I d h h b u u u t 5 u O./.~.^.,X,X7XgX$X$ 7 a ] [ E.E.:.  X O . o @ g m / >.{ [ O.[ ] ] G.Y.Q.Q.~.R.Q.Q.wX[.; N u M b b B N.N.C./././.H.Q.Q.Q.Q.Q.Q.Q.N.) ^ ^ / ' ^ V A V B O ; , 5 r ",
"t u r b ! ! s.c.v.v.n.n.n.n.n.M.n.L.L.F.L.F.L.F.Y.Q.~.;X;X~.~.^.~.^.~.~.Y.G.9.j.:.C.E.~ + 2 u R T T T T T T W T T ~ ( ~ ( ( ( ( ` 9.4X5X6X6X6XmXmXmXNXMXNXdX$.o - - k m [ ] ( ..1 h W E | E E | E E E E E ^ :.E.G.E.N.9.9.9.>.;.>.;.:.:...;.;.;.;.@.;.=X1X=X=X>X=Xu.I 1 Y 1.s 0 I | s s s 1 o = = = 1 e.e.e.e.e.oXoXoX+ 0 w s I 0 0 j I I j I h f f u t t r 5 5 O././.<X<X<XrXBX/ : 5 c ) ] ^.E.:.    .   . - g B O.>.O.O.[ O.O.] ) Q.Y.R.Q.Y.R.~.eX:X@ u t f f M V N.B.B./././.Y.E.Q.Q.~.Q.F./ _ [ [ _ / / ^ A B B V 5 ; , 5 5 ",
"t u b t ! s.s.s.s.v.m.M.m.n.n.n.M.n.n.L.L.L.F.Q.Q.~.~.:X:X~.~.^.~.~.~.;XN.9.>._ C.E./.,XE.[ + > r r h T T T T W T T ~ ( ( E ( ( X.` ;.4X5X6X6X6XdXmXMXFXMXmX-X3Xe - ^ A D ~ &XT.2.r y d h W E | E  .E E E E ] ^ ) ) ..9.>.9.>.>.:.:.:.....$.;...;.@.;.t.1X=X=X>Xy.=XoXy.= 1.1.s s I s h j d 1 = = 1 1 e.w.e.w.e.y.&X1X= 0 w s w 0 w 0 I I h h h M f u u r 5 5 , j.Z.Z./.%X<X<X%.: 5 5 c ] [ ] R.;.    . . . @ m g >.d.>.:.{ O.] ] ] v.Q.Q.~.~.Y.R.:X:X. u b b b M R O.G.B.G.E././.Q.Y./.Y.^ / _ / _ / / ^ ^ ` ~ ^ ~ A R , , 5 t ",
"t x b u ! ! !  .s.m.m.b.M.m.n.n.n.n.b.n.S.Q.Q.Q.Q.^.^.:X:X:X~.~.~.~./ E.N.>.C.E./.~.^.qXsX;X9.r ; 2 5 @ M E T W ( T E ( ( ) ( ( ( ( ....>X4X6X4XdXdXdXMXBXMXmXdXfXq.C.$.7.u.,X>X*XT.o.q y f M W W | E ] E E ) E ' ) ^ ) _ _ [ >.;.:._ ;.....` ;.` ..;.;.1X>X>X>X>X6.=X&Xt.s 1.0 I | h d d j j q + 1 1 e.w.e.e.e.u.=X=X1 0 d 0 0 0 0 0 w j I h h b b u t r 5 5 , >.Z.$X%X%X%X<X*.  ; 5 D [ ' { ~.&.      . . 2 B B j.O.j.>.{ { ] ] ] O.O.Y.Y.Q.Y.Q.U.^.. M b N n ] c.O.d.N.G.G.G./.E.Q.` / / &._ [ / / ^ _ ^ / ^ ^ ^ A N.2 5 r t ",
"x x b b C ! ! s.s.b.m.m.b.m.m.m.n.m.n.v.v.n.Q.!.^.~.:X^.;X^.~.~.~.^.~.N.N.C./.;X0X0X^.!.eXq.aXR.~ . @ 2 O @ > E E ( E ) ) ) ) | X.X.......U.,X,X4XaXaXfXfXMXfXfXaXsX,X,X>X,X,XT.aX>X*XU.( q y f M W W E E E E  .] ] ' ) ^ ) ^ ^ ^ ) ^ _ ..$.....;.U ;.;.1X3X3X4X>X>X>X=X&Xu.U.w I Y h h h h j A q = 1 w.4.w.4.A.y.;.r.0 d 0 0 0 0 0 q 0 d B B M b b i t t 5 4 , *.Z.%X%XC.$XE.;X  ; 5 ^ ) ] { g._ .     o . f R { 7.d.j.{ >.{ { ] O.O.O.v.Y.Y.R.Y.) G.- f M M  . . .3.s.3.v.G.E.Y./ / _ #._ _ / _ / / / / _ #./ / / / / 2 5 r t ",
"x u x b x Q ! } b.m.b.m.b.m.m..Xm.I.b.b.N.b.N.H.^.0X:X:X:X~.^.^.~.&.C.>.>.~.0XwX:X:X^.^.!.kXkX>.wXE.m X ; 5 O @ - r h _ ) X.) X.) ..| ..X.o.7.,XwX,XaXaXsXfXfXsXsXaX,X;XwXwX,XwX,XaXaX>X;XE.o.d r f M ! W  .E E E E ) ^ ) ) R R T T ~ T j ) U $...$.$.;.6X5X4X>X>X;X=X*Xt.=Xy.= I | W W M B B B B y - A.A.n.A.A.T.u.= d 1 1 q 2 2 2 2 2 q M M N m x z c r 5 4 : K %XZ.C.C.Z.C.C.  @ , ^ ' [ { j.S o     O o R R N.O.j.o.>.{ { ] ] O.{ O.] N.Q.Q.^.D.3.r f M  . . . .O.d.s.3.3.] ^ _ #./ / _ _ _ / ` _ _ #._ &.&.&._ &.%.5 r t u ",
"u x b b n Q Q a.I.b. Xb.b.b. Xb.I.b.b.I.b.B.V.N.B.:X0X:X:X:X:X~.~.~.l.C.j.0XhX0X0X0X:X^.^.qXkXZXzXhX:X9.b + , - @ - > 2 W T O.O.O.O.O.o.o.O.o.O.0XwXwXwXsXsXfXhXsXsX0X0XsXwXaXwXwXwX,XwXsX,XR.E.9.b u b N W Q ! E ] ] E ) R W T T B T T T A T ~ ~ ` $.$.4X6X5X5X3X=X=X;X*Xy.*Xy.1 | W E B ^ F R N N u K.m.S.S.S.Y.T.= d 1 1 1 1 2 2 2 2 2 5 V C C x i t 7 5 4 < F z.C.l.C.C.C.:.o @ u ' [ [ >.C.N.o     X O O.E N.O.O.O.>.d.{ [ { O.O.O.O.O.O.!.^.~.  f M  .!  . . .O.3.3. .E ~ ^ / / _ _ _ / _ _ _ _ &.&.:.&.&.&.&.&.&.r r t t ",
"i m m m C Z F Q .XI.b.b..XV.I.I.V..XV.b.V.V.N.k.B.j.j.wX0X:X:X:Xj.Z.>.j.C.z.wX0XqXZ.Z.j.g.{ uXzXzXVXsXkX;X&.$ ; , @ - ; 2 2 r ] o.3.o.v.3.7.3.v.v.^.eXeXeXsXsXkXkXhXwXH.hXhXsXeXwXwXwXaXwXwX7.,X;XE.9.R x f b W M ! E E W R T V T T T T T ~ ~ ~ ~ k ~ ` $.;.q.3X5X3X3X;X;X;XT.*Xs 1  .E ] V ' V N Q N v.K.K.J.L.~.~.- h 1 1 1 1 > 2 2 , 2 5 5 C c c t 6 7 7 7 4 D C.l.C.l.C.K V @ ; R ] } :.j.Z.j.        @ O.O.o.8.d.o.O.O.O.{ { d.O.d.O.v.d.S.^.F.- y W W E E  .O. .E B T R ^ ) S _ / _ / _ #.#.[ &.&.:.&.*.>.*.>.-.>.>.t p i ",
"i i m m C m V I.V.I.V.V.V.V.V.V.V.V.k.V.V.N.k.V.k.N.j.j.B.:X/.^.^.N.*.N.W.l.0XqX0XF F F F } F *.VXVXVXVXC.hXE.D $ , 5 - > , 5 5 t b V v.N.v.N.N.N.N.I.eXeXuXsXsXkXkXsXB.eXhXkXkXeXsXsXwXaXwXsXsXE.wX;XE.q.b u x b M W W W W R W T R T R ~ ^ ~ ^ ~ ` S S $.;.<.0.q.5X3X>X>X;X4X,XU.+ t u ] } } Q Z Q Z m.b.K.K.J.:X:X1 b f M > > > > > > , , , t c c 7 9 p 7 < 4 c l.j.N.l.C.*.  @ ; ^ } O.j.Z.B.A >       O O.N.d.7.O.d.o.O.d.{ { j.d.O.v.d.d.O.G.G.2 W W W W ! E E h M T T T ^ ^ ^ i _ ` _ _ _ _ &.:.&.*.-.>.*.-.*.l.-.%Xp p p ",
"i m v m D D C W.I.V.V..Xb.V.b.V.V.V.b.k.k.V.v.k.j.j.j.j.{ :./.Z.C.N.j.B.j.N./.0X0XZ.S F K F K } } uXCXVXCXCXC.aXC.m ; 5 5 ; 2 5 5 r t x Q Q V.N.G.H.I.H.uXeXuXhXhXkXkXC.eXsXkXzXVXsXsXsXsXsXeXaXsXwX:XsX:XR.<.r c i f b f W W W R T ) ~ ^ ( ~ ` _ ` ` / #.<.>.<.q.0.&X4X>X>X4X,X;XY.; u : } a.Q ! Q Z b.G.v.K.K.P.^.2 r 2 u M - - - ; - ; : % $ 6 v c 8 7 7 4 < p l.l.j.C.C.:X  + , ' } *.j.Z.*.; u         3.N.o.N.o.v.>.d.>.O.o.j.[ N.d.O.O.v.] r r u N N W W u f h h M B B V ^ ^ ^ g / &._ :.:.&.*.:.>.*.>.-.j.<.l.l.l.p p i ",
"v g v m D C F B.V.b.V.V.k.b.b.k.k.b.k.f.k.d.d.d.d.d.a.{ { ] O.N.N.>.N./.N.N.{ 0X].0Xz.F F K K F K } g.VXCXCXCXCXZXaXl.t 5 5 % 4 5 5 6 t z x b s.V.W.W.W.W.qXuXeXhXsXkXZ.:XkXfXhXzXkXkXkXsXeXsXwXwXsXsXsXsXkXwX-X>.i v x f f > W W R R T T ) ) ` ` _ / ` ` <.q.q.q.<.q.q.>X>X4X4XR.;Xr 5 ; : F a.Q Z Z G.V.H.B.K.P.G.E.N.y , r f + @ @ @ $ % & X X v v 7 7 7 4 ; 5 g.j.>.l.C.C.  + { [ { j.F l.*.r x r       v.N.N.j.7.>.v.j.O.d.N.H.j.d.o.O.3.] > ;X2 r u M r r y y f f f M B A A R ^ ^ ^ &.&.$.&.:.:.*.*.>.<.l.l.l.l.@X@XD a v ",
"k v k m m A `.B.N.V.v.b.b.k.k.f.b.k.b.d.f.d.a.d.a.{ { j.d.{ ' j.>.j.N.N.j.j.j.].qXqXqX*.K } K %.K K %.F uXCXCXCXCXzXkX0XS * 4 6 : : 4 5 6 t z x x n ' !.W.W.qXhXsXkXkXZ.Z.kXkXfXkXZXzXhXsXhXeXsXsXsXsXhXfXkXBX>.,XE.9.d v i u u W W W W T T T ) B ~ ` ` $.q.<.q.q.9.q.9.9.u.dX4XaXaXR.@ r % 4 x ! Z Z b.V.I.I.B.[.5 ^.Q.N./ > r x + O @ O O O X . . v p 7 4 4 ; ; g.>.j.Z.C.N.. @ ' ' g.z.%X} 2 m u r .   @ N.2.o.v.N.O.>.O.O.o.d.O.O.O.{ O.V 2 ) sX:X1 2 5 y y u y y u f f g m m B A A ^ ^ #.&.&.*.:.>.>.<.j.<.<.l.C.l.%X&.v i ",
"v g v g D m ~./.0XN.v.v.d.d.d.d.d.d.f.d.a.s.{ a.d.d.a.] ' j.C.~.:XeX/.N.N.>.d.V.0XqXqXuXF %.K K K *.K F } g.lXCXCXCXCX<XhX<XD 4 6 % * 4 4 5 6 6 z z x n Z Z {.0XhXhXhXZ.%XkXkXhXsXsXhXhXhXeXsXhXsXsXhXsXkXkXkXkXsXE.wXR.9.y p 5 y u M M W W j B T ~ ( ` _ q.q.q.9.<.q.9.<.9.E.aXaX>XaXY.; c ; 4 4 Z Z B.B.H.V.B.H.t qX0X:X;Xj.= 2 u X O X X     .     v p 4 4 : @ *.>.j.C.-.O.O - } { g.(.z.> x x u r t   2 N.3.v.7.3.j.N.o.] d.O.O.] ] >.V p O.O.sX:XE.>.r R 1 r y u f r u u i g m B B A A A m :.&.>.*.>.>.<.<.C.l.l.C.fX%XA v ",
"i g i A g m N.N.C.H.].j.d.d.d.f.f.d.f.f.a.} d.a.! F B./.<X;XwX^.~.Q.N.O.d.>.j.d.qXqXeXuXrXF K F P K K g.g.K *.xXCXCXCXVXCXeXhXC.c 4 6 % % 4 4 6 6 t z z x G G F sXhXkX<XZ.kXkXsXsXsXsXsXzXkXhXhXhXfXhXkXkXkXkXfXkXsXsXC.sX;X9.p > 2 y d y f h B j T ~ ( ` 9.9.9.q.6.9.q.q.q.7.>XdXfX>X4X5 4 $ : 4 : n B.V.`.`.[.{ C [ c eXwXaXE.@ , t . .               c c < % ; { >.l.Z.>.o $ a.} *.Z.%XF t m u r r t   b F.2.8.8.3.3.3.v.O.] ' E Q { j.i N.>.j.7.wXE.fX>XR.C.a T 2 r y u f r y u g m B A A A i >.>.<.>.<.l.N.<.C.C.wXsXwXA i ",
"i g i g g g /.C.H.N.] N.0Xd.a.] ! f.a.f.s.a.Q a.^.:X0XeXiXB.j.O.O.>.O.j.j.d.d.j.qXeXuXeXhXZ.F F P %.K K K *.g.*.g.VXCXCXCXAXCXVXsX%.% 4 9 * 4 * 4 4 6 6 z z c c G F l.wX/.sXkXhXhXsXeXsXhXZXzXkXkXkXkXkXBXkXkXhXkXkXkXkXkXfXfX,XC.g q M u f j h T T T ) ( o.q.9.7.9.9.7.9.q.<.9.fXBXBXBX4XO t O $ : : W.H.W.j.{.6 } B.C.C.J ZXfX<X2 : 6 7                 c D 4 ; { >.l.$Xj.  @ ' { x.9Xz.5 C b u r r t t N.G.>.o.N.3.N.b V R R d.V ] u A H.j.8.8.N.3.Y.aXaX-XBXaX4X;X/ / 2 r r u g i u g m g A A / >.>.>.l.N.<.C.<.C.sXwX:XA ^ ",
") p i d g f Q./.C.C.H.N.d.' qXf.{ f.s.! Z { ].[.[.I.{.j.*.j.O.d.d.d.O.O.d.v.k.d.V.uXuXuXhXjXj.K K F *.P g.h.h.h.h.h.uXCXCXAXCXCXZXzX0XC * 4 * * * * 4 9 9 9 z c c F C G G %XsXkXhXhXsXhXsXsXVXkXkXkXkXkXkXkXkXkXsXkXfXkXkXkXkXkXsXR., u  .f B T T T E ( ) ..8.8.7.7.7.7.7.>.9.>.q.FXFXBXFXl.$ t O O $ H././.^.N.m j.Z.C.Z.Z.C.<XkX<Xv O 7 c                 t v , { j.%XZ.^.  ; { a.%X%X2 m C u u t t r , S.Y.o.>.3.3.r u b N M u d.2 ] v.N.>.j.7.j.j.8.Y.aXaXaXaXE.FXfXfX4X>.A 2 r u i m i g i g g / >.>.C.<.C.C.N.,XwX0X:Xg A ",
"~ y y y g f Q.Q.N.C.<.N./.O.j.d.V.! d.W.d.k.V.V.W.W.!.{.>.d.O.>.O.j.O.N.d.N.V.j.N.uXuXuXuXhXhXF K F g.*.*.g.*.h.h.g.g.j.ZXCXCXCXVXVX/.hX/.c 4 6 * * 4 6 9 9 9 z c G v C z G 9 K wXsXhXsXsXsXsXZXZXsXZXCXkXZXkXkXkXhXfXkXkXkXZXkXR.,XO.u E f h B T W ) ( ) ( 9.8.8.7.1.7.7.7.9.>.7.-XDXHXMXZX, > . . O B.Z./.0X< D j.Z.C.C.$XZ.7X4XCXsXK X 4 6                 t c :.l.%XC.C.X d.{ Z.(.' z ' b u t r r 5 ; ^.Y.7.o.t r r y b b ! Q b Q d.N.d.N.N.N.N.N.>.8.Q.,XaXaX4XaXaX<XAXBXfXdX-XD p i p g g p g g A &.q.q.l.C.C.aXwX:X~.A g ",
"T E y y y d F.F.9.9.N.j.>.qX/.} :XeXwXN.d.v.v.B.V.W.W.`.{ j.j.d.O.v.O.v.v.d.d.N.k.[.uXuXhXiXuXuXF K K } *.*.g.g.j.h.h.g.g.rXVXCXCXVXVXlX0XwX>.4 4 * * 4 9 9 9 z c c v c t C v p z 7 *.sXsXsXwXwXVXZXAXAXZXzXzXkXkXkXkXkXZXkXkXZXZXfXC.p N u b B B R T ) ) X.r.8.8.3.7.2.7.;.7.;.>.>.6XJXKXLX4X. 5 . . B.C.C.C.p %.l.C.z.z.C.Z.%XkXAXHXkXl.. % 5                 t j.aX%XS B.O ' ' Z.z.7 V C x t r 6 5 : @ Q.Q.G.E W u 2 r b Q x 2 C.  ] P.d.3.j.j.N.N.>.>.d.~.aXaXaXaXaX,X4X4X&.SXBXBXMX4XD p p i g m g m S C.C.C.,XwX,X:XC.C.d ",
"h T y y y y Q.Q.N.9.9.>.^.^././.eXkXzXsXwX[.N.V.H.H.!.!.O.j.O.O.j.O.N.j.N.N.b.k.V.W.tXuXhXuXjXhXqXF K %.K g.*.g.*.h.g.h.h.g.j.VXVXVXlXlXlXlXlXwX% 6 * * 4 6 9 z c z F v t v c C p 9 7 7 4 z.aXwXwXCXDXZXkXVXkXkXkXkXkXZXzXZXZXkXzXC.:Xp m u b B B T T T ( ( r.8.8.1.2.;.o.7.>.7.;.<.>.HXKXFXDXJ o r   C.C.wX@ v %.j.C.$XC.@X#X%XBXBXCXAXhX%XX O 4                 { wXsXC.x $ { Z.z.5 C C C x t 5 5 2 @ o F.2.M x W u 2 r n Q.m C.sXg . ! N.N.N.N.N.j.j.>.9.N.;X4XaXaXaX,X4X4X4X4XaX,XJXFXFXBXdX/ p i A A k A q.q.4X,X,X;Xp ` wX",
"g M | y y d F.F.L.>.>.^.:X/.E./.:X/.sX;X/ kXsXqXB.I.W.!.j.O.N.j.v.N.v.v.b.V.V.V.V.V.uXuXuXhXiXhXjXZ.F F F F K *.*.*.*.h.g.h.x.g.rXlXlXlXlXlXVXwXC.* 6 * 4 6 7 9 9 p z c 6 c v m v v 7 6 5 4 $ 5 %X,XZXZXZXBXkXZXZXzXkXZXZXkXZXZXBXzXfX^.D Q f M B W E ( ( ) E.8.8.7.2.6.o.2.;.>.>.:.<.<.KXJXfXMX. @   l.j.%X5 %.%.D %.Z.#X#X%X%X#XkXkXVX:XzX<X4 X 4               { Z.hXC.  C Z.z.' c ' C x u 5 5 5 ; o $ ..:.f N y t M r r >.[ zXlX:Xp O x N.N.N.N.j.9.j.N.>.N.wXaXaX4X,X,X,X,X4X4X4X4X4X4XHXDXDXFX$X/ i g A :.,X4X,X>X;Xp ~ dX",
",Xh W w y B F.Y.Q.>.A ^.Q.N.E.Q.N.Z.:X^.kXVXzX#.kXqXW.!.O.j.N.j.N.v.N.v.v.V.V.V.I.I.[.uXuXuXhXjXhXhXF D F F F %.} g.*.g.g.g.h.x.l.j.lXVXzXlXVXAXzX6 4 % 4 4 6 6 6 c 7 v 6 p c v c v c 7 7 4 4 % $ . , sXZXZXCXZXZXZXZXZXZXZXkXzXzXBXC.E.v ' u b M T W ( T | 7.G.8.1.7.7.2.:.>.>.>.>.>.-.%XLXJXJX7XX , l.<X*.v K D L D K #X#X%X%X%XaXfXzXVXsXlX0Xi X %             { N.B.C.; ' B.j.p F Z C x t 5 2 , @ o r >.G.l.r r u A _ ) / >.jXlXwX~.  5 n N.N.N.j.j.N.>.N.l.N.wX4X,X,X,X,X,X,X4X4X4X4X4X4X6X4XHXDXDXFX$.p i A ,X>X;XE.g ` fX",
",Xh T E y o.H.H.F.>.~.Q.E.G.E.H.9./.^.0X0XqXlXZXZXZX>.uXd.o.d.d.v.v.N.N.B.H.I.I.I.W.W.uXuXuXuXuXiXhXuXC G D F } K F *.*.g.g.j.j.x.x.x.Z.ZXlXCXCXfXfX* 4 * 4 4 6 t 7 c v 7 c F v v c v v 7 4 4 % % O     X %.AXCXZXCXZXZXZXzXzXBXBXzXwXaXv C t f b M I T W ( ( r.8.7.7.o.2.;.;.>.>.,.&.<.-.6XPXPXFXa   %XcX: K v v D F K h.%X%X#X%XC.sXkXzXVXCXVXeX*.  & :         d.j.B.N.b n F p C F V b x r 5 5 > .   V >.C.Q.t E g ] .._ >.H.zXlXVXVXD ; t V H.O.>.N.j.N.N.j.C.N.wX,XwX,X,X,X,X4X4X,X4X3X4X4X4X4X6X6XJXFXFXMXS y E.;Xp k _ wX",
"aX~.M R E F.H.G.L.L.Q.E.N.G.L.N.N.B.^.0X0X0XqXeXCXzXkXsXaX^.N.N.N.N.N.b.G.V.I.V.I.B.W.tXuXuXuXuXjXuXuX[.m D D F } } a.g.g.g.g.x.j.z.F g.*.zXVXCXSXSXF * % * 4 6 6 6 7 G G G D F v m v c c i 4 4 $ . .     X 5 t ,XCXCXCXZXVXZXzXzXBXZXkX^.6 t t b M M T I W T r.8.7.2.o.:.:.>.:.:.:.:.-.-.&.PXPXMXdX  l.#Xp K v L v K L J z.#X%XZ.Z.sXzXzXlXCXCX<XuXC.  O 4       d.V.V.j.j.' :.N.j.V V b t 5 5 ,       ^ >.l.~.O G.o..._ N./.zXzXlXlXqXsX, 7 p b j.d.j.N.N.N.C.N.C.N.wX,X:X,X,X,X>X>X,X,X4X>X4X3X4X4X4X4X6XdXFXFXFX3X*Xl ~ X.^.",
"aX,XM R ] Y.Q.L.G.G.H.y G.G.N.9.9.H.^.^.].0XwXqXwXeXkXkXkXaXwX:XN.v.N.b.G.I.I.I.I. X X[.uXuXuXiXuXuXuXuXV.c C F F } } *.a.>.j.g.F } g.F g.F z.CXAXaXFX4 4 * * 4 7 7 C v v C v c C v c a c c p % O X X . .   X 5 6 r c fXCXCXZXZXZXZXzXE.;XX x 5 u u b W T T R D.G.8.7.o.o.o.;.:.;.&.:.-.-.&.-.KXLXJX<XK < 8 L L L L L K K *.#XC.%XZ.<XhXzXlXVXVXCXeXzX/.% O :     d.v.B.V.  C.0X>.j.d.N b r 5 , 5 4     [ >.Z.>.  H.2.>.G.Q.Y.jXjXjXzXzXeX0X4 v 4 > N.N.N.N.N.N.Z.N.E.B.wXwX:X,X:X,X:X>X>X,X>X,X,X>X>X>X3X4X6X4X3XFXFXFXC.h o.G.",
"].wXQ.B E Q.L.G.N.N.8.N.E.Q.N.8.9.B.~.].].0X0XeXqXqX0XeXkXkXsX,X:X:XN.V.B.H.H.B.W.I.W.`.uXuXuXuXuXtXuXtXeXC C C F ' } } { g.j.a.F P } K F P g.g.lXHXLX%X* 4 * 4 6 9 c c c c c v v c D c p G G v c 4 : O   O O % 5 } ' @   g.ZXAXZXCXVXlXsXv 4 ; r u f M R R W Q.G.9.>.2.>.o.:.:.&.&.&.-.*.-.*.l.LXFXDXJ L < L v L L L K K K g.Z.Z.%XZ.hXzXzXlXVXCXAXeXVX0X6 & *   d.d.B.} . 4 { >.j.j.O.u r 5 5 5 5   o N.E.Z.C.  u Y.^.^.Q.H.jXjXjXjXzXlXlXA c   4 < N.N.N.B.C.Z.B.B.E.B.wX:X:X:X;X;X;X:X;X:X>X>X>X>X,X3X4X4X6X4XdXdXdXZXwX5 y ",
"N.O.N.^ t Q G.N.N.N.Q.G.G.N.3.N.N.B.^.^.^.].0XqXwXqX0XeX0XeXfXsXaXwX,X0XB.H.I.W.H.W.I.W.qXuXeXqXeXuXeXeXeXqXi m C ^ } } { F F ' F F F P P F F P } x.fXHXv % % 6 6 6 7 z p 9 c c c c c 7 F F F D v c 6 4 % X       : } } '       rXCXCXVXC.>.O . 4 t x C V R R !.Y.G.8.>.>.:.:.&.&.*.-.&.=.*.-.-.MXBXdXgX#X< L v L L L L J K K $X%X<X<XhXhXzXlXVXCXCXCXAXVXqXm # * d.d.d.[ . , ; { d.d.O.' b , 5 5 5 , , C.Z.C.    @ qX0X^.H.zXjXjXjXjXjXzXlXzX: % 4 4 : N.B.B.B.W.E.Z.H.H.H.qX:X:X:X:X:X:X;X;X;X>X;X>X,X>X4X6X4XdX6XdXfXfXDXfXr ",
"N.:X0XuXfX].' N.Q.^.].H.N.N.N.j.N././.].0X].0X0X0XeXwXqX0XqX].sXfXsXaXwXwXwXW.W.W.P.P.I.[.uXuXqXeXqXeXqXeXeX].u m V F } F g.} F F G F P P P F P F P g.pXkX& 7 7 4 4 4 7 7 9 7 c c %   X X 4 F F F v c p 5 % X       % { C.{         $ qXlX:X  t $ r u M V R Q ^.!.B.N.7.>.>.O.>.&.=.%.&.%.&.&.%.fXfX7XfX@X& v v G L L K K K %.g.%X9X<X%XzXlXVXVXVXCXAXCXCXhXiX>.& ' Q 2 eX  ; $ : *.d.{ Q V b 2 5 5 4 r &.C.l.    ; Z.^.Q.H.jXiXjXjXzXzXzXVXjXeX& 4 8 4 4 B.Z.B./.Z.W./.W.W.H.qX:X:X0X:X:X:X:X:X;X:X;X>X,X4X4XaX4XaX4XdXdXaXVXkX",
"kXqXqXqXzXkXsXd.N.[.qXL.N.N.N.N.N.H.].^.^.0X].0X0X0XwX0X0XqX].0X].kXkXhXeXeXwX:XI.I.I.L.H.sXeXeXeXqXwXwXeXwXwXN.t g B z.#XUX#Xl.h.g.g.P P f.g.a.a.g.a.Z.z.D F 7 7 * * 4 * 7 7 X               K F F v c p 6 4 O         Z.wXrX% % X O X . c O $ . , t b M R ^ O.^.Q.C.N.j.>.*.*.*.&.%.#.#.#.#.#.,XaXK sX%XX v v v L L L h.K K -.l.%XcXcXzXzXVXVXCXCXAXAXAXAXhXxXZ.C m c eX  O @ ; : } ] Q Q V N t 5 2 n C./.j.  o ; , ^.^.].iXjXiXjXjXjXzXVXVXlXX % v 7 4 5 V./.W././.{.W.P.!.W.qX0X].:X0X:X:X^.:X:X:X,X,X4X4X4XaX4X4XaXaXaXaXzX",
"wXtX].qXqXsXzXsX' x { N.B.N.N.N.V./.].^.].].0X0X^.0X0X0X0X0X0X0X0X].].sXsXsXhXeXeXR.I.J.G.0XeXeXwXeXwXwXwXwXeXeXb b 5 6 t m K z.Z.UXz.z.x.g.g.F F G } k.F g.9X#XC 7 7 4 % X X X X               7 K F F v c 7 5 # .       eXsX*.  l./ S &.C.:X^.j.2 t b N V ' ~ ].^.H.C.j.l.g.>.&.&./ / / #.#./ >.aXdXfX$XX p v v D L K K K h.h.h.cXcX9XUXVXVXVXVXCXAXAXAXAXAXAX&.*.d.Z.eX  o O $ O O ' Q Q R N b u o eXC.<X    ; - 5 H.^.jXjXiXjXjXjXzXlXVXVXzXz 6 8 v 4 4 z V.<X{.{./.W.W.).W.P.qX0X0X:X0X:X0X:X:X:X,X,X,X,X,XaX4X4X4XaXwXaXaX",
"sX0X].qXuXhXhXlXsXc x Z 5 5 5 5 u } /.].W.].].^.0X].].0X0X0X0X0X^.^.!.H.`.wXsXhXhXeXwXC.G.!.sXsXeXaXeXaXeXaXaXeX:.6 r t t z z z z.d.g.} *.*.g.h.l.l.l.l.z.F *.z.ZX%XG * * * < % & & O X X       X   F K F G v c t , O       fXC.. qXkXkXsXsXaXwXwX0X~.N.n R ^ V 0X:X~.Z.C.j.>.*.%./ / / S / / S / 4XaXkX<X  7 a v D D J K K h.K h.@XIXcXcXZXVXVXCXCXAXSXSXSXSXSXCXeX[ wXeX  . o . X o @ ' Q Q R N b ' O.Z.$X.   @ , r x ].].jXjXjXjXjXlXVXVXVX/.lX4 8 L v 7 6 v k.].<X{.`.{.W.W.W.W.qX0X0X0X0X0X0X0XwX0XwXwXwXwXwX,X,X,X4XaXwXwX",
"wXqX0XqXhXhXkXkXZXhX6 x C 5 5 5 5 5 z /.{./.^.].].].].].qX].].^.!.!.L.P.L.I.`.eXeXsXsXeXwX9.wXaXaXaXsXwXaXsXaXN.i O.U.C.E.R.^.:XwX0XwXwXeXeXsXsXhXVXhXrXl.v F } g.hXDXkX7Xh.K & & % * % O & X X & & % D g.F F F G c 7 4 $ O t IXO X c wXwXsXsXsXhXhXhXzXkX~.B.] eXwX:X/.C.j.>.*.[ / / / / / / / A aXaX$X,X  7 i v D D F K K K h.g.h.%XgXcXxXCXAXCXAXAXSXSXJXSXSXAXeX[ eXeX    o . o . O ; Q Q Q N b >.H.,X@   @ @ 2 t b !.qX].jXjXzXlXVXCXAXVXCXJX& 7 L L 7 7 v D z.rX^.{.^.{.^.].!.`.qXeX0X0X0X0X0X0XwXwXwXaXwXwX,X,X,XaX,XwXwX",
"eXeXqXqXsXhXhXkXhXZXsX6 c Z 5 5 5 5 5 6 B.].^.{.^.].0XqX0X].^.!.!.Q.L.L.H.J.I.N.^.wXwXeXeX,XwXzX~.:X,XwXwX~.R.N.G.T :XeXeX0X~.~.:X:XqXeXwXeXeXeXwXzXhXkXrXl.F F } g.g.D VXDXJXHXBXcX@X*.& X O O X % < % 7 K %.} F F D F v t v v -.& o 6 ZXCXCXCXVXlXlXlXlXlXlXzXwXkXwX:XC.l.j.*.[ [ / ` / S S ^ A aXaX;X,X  < i i D D K *.*.K -.*.g.h.9X9XgXAXSXSXSXHXHXJXJXJXHXSXzXzXsXhXO : % $ O O o O $ Q Q W Q >.:X0X    @ ; 5 u n } uXqX0XlXlXCXAXHXAXSXSXAXG 9 L L v 7 9 c D k.0XrX0X0X].].].].].eXeXqXwXwXwX0XwXwXwXeXwXaXwXwXwXwXaXwXwX",
"wXhXqXqXhXhXhXkXkXAXZXhXt c C 5 4 5 5 5 6 } ^.^.^.].].0X].^.!.!.L.L.L.L.J.H.n.N.v.O.!.;X;X;X;XkXsXsX;X*X;X;XG.8.d ( ..:XwX0X^.:X:XwXeXeXuXeXeXsXVXzXzXeXkXrX-.G F a.g.v v v CXHXSXDX%XHXDXgX%Xh.v   % O % 8 g.K K F G 7 a -.#XgXgXh.: % X VXAXAXCXVXVXlXVXlXVXVXAXSXCXBX/.C.>.:.%._ / / S / S A A C.aX;X4X. > i A D F / %.%.} *.{ g.g.k.rX9XZXCXSXLXLXLXLXLXJXJXSXVXsXhXsXeX; 4 % : $ O O X @ Q Q d.g.^./.    @ , r x V ] `.eXhXeXAXHXJXLXHXSXSXAXVX* v L L 8 9 c D F j.eX0X0XqXrXqX0X0XqXeXqXqXqXqXeXeXqXwXwX0X0XeXwXwXaXeXwXwX",
"wXeXuXqXhXhXhXkXkXkXAXCXhX6 c 4 4 5 4 5 5 6 x `.].].0X].].!.!.!.L.L.S.n.G.n.n.v.v.3.O.O.Q.~.R.,XaXsXkXwXR.>.j T j ( 2.F.wX:X:X^.:X0XeXhXhXhXhXhXzXkXBXZXl.kXrX*.F %.x.v v v G %.AXSXHXSXFXBXfX@XHXMXgXh.L * #XK D a v @X#XgXsXgXrX%XD % O . %.CXCXVXlXlXlXlXlXCXZXCXBXkXsX,XfX:.[ / / ^ ~ S S A ~ / aX>XaXp ; i D S F / } %.} { *.:.:.j.W./.9XzXCXAXJXKXKXLXKXLXJX%XZXJXHXkXhX5 7 7 4 4 $ O o @ Q ] >.:X;X      5 t n ' a.} hXzXVXVXJXKXJXSXAXAXCXAX* < L K v 7 z C D F x.eXeXrXqXwXeXqXeXuXuXeXeXuXuXeXeXqXqXeXeX0X0XeXsXwXwXeX",
"eXsXeXtXhXhXhXkXkXkXkXHXZXZ.t m 4 4 4 4 5 5 r t B.0X].].`.!.!.P.L.H.S.G.n.G.b.v.3.d.v.O.] E F.,X,XwXaXsXBXkX:XX.j ( 8.F.r.wX:X:X:X0XeXhXjXhXhXhXhXsXkXZXSX-.hXZ.G %.g.c c c v v D 9XBXDXDXDXFXBXBXfXgXfXLXBX#XL L K h.%X#XrXrX9X%XZ.l.} : O   v VXlXlXVXlXlXZXhXkXZXkXfXaXaXwX,XkXE./ / A A S A A A 4XdX4X4 # D D D / F ' _ [ [ O.{ { d.k./.{.kXzXVXCXSXLXKXKXJX#XLXLXLXLXLXVXCXt v 8 7 6 * O X @ ] >.:X,X        4 C { { { qXZXVXAXSXJXAXAXCXCXVXzX' 6 L h.L 8 6 c G F F z.sXsXeXeXeXeXhXhXhXhXuXhXhXeXeXeXeXqXqX0XeXeXeXeXhXeX",
"uXsXuXuXuXhXhXhXkXkXZXkXHXVXg.6 C 4 4 4 4 5 5 6 t [ ].`.!.!.P.L.L.J.H.S.n.n.G.n.v.v.3.O.] ] V V sX,X,XkXwXDXsXo W X.N.Q.Q.0X0X:X:X0XeXhXhXzXzXlXzXsXfXzXCXCXhXZ.G a.t p v v G D G D F eXMXMXFXFXDXPXFXMXZXBXKXHXl.# v z.rXrX%X%Xz.l.h.g.%.4 O . 5 l.l.j.h.l.j.l.C.ZXkXfXfXaXaX,X,X,X>XMX/ ^ A S A A 4X4XdX>.$ i A D D ^ / ' [ [ [ { { { j.Z.Z./.hXzXVXCXAXHXl.#XKXKXKXKXLXKXLXBXHXD v v 8 7 4 * @ 5 g.~.aXX         5 { g.g.g.VXAXVXlXCXCXVXVXVXVXlXlX* 7 L h.8 6 c C C F } l.kXhXhXhXsXzXzXhXhXhXhXkXhXhXuXeXeXqXeXqXeXuXuXuXuX",
"eXuXuXuXuXuXhXhXkXkXZXZXzXHXZXF 6 c : 4 : 4 5 6 t t C ^.P.!.P.L.J.J.S.G.S.n.n.n.v.3.v.o.O.] C ; M 3.,XsXsXsXDX- . . ^ Y.D.S.0X0X^.^.eXuXjXzXVXVXzXCXCXCXVXlXSX*.D g.6 p v c D C D F F K F sXfXfXfXBXBXFXJXLXKXKXl.%X  8 % 7 v #Xz.h.h.*.K F 9 % # % *.l.j.*.j.>.*.wXkXfXfXfXaXwX,X4X,X4X,XaXfXD D g ~.dXMX2 O i m A A ^ ^ ) ] ] ] { O.d.{ j.Z.W.uXhXzXlXhXl.kXLXKXKXKXKXKXKXKXKXKXHX*.L L v 8 7 5 o 7X/.aX&         : 4 *.g.j.eXlXzXzXhXlXVXlXlXlXlXCX* & L #XL t t C G F F g.x.kXkXkXkXzXkXzXkXhXkXkXkXhXhXeXuXeXuXuXuXuXuXuXuX",
"uXtXqXuXhXuXuXhXzXkXkXZXVX-.SXlXz 9 c % 4 , 5 5 5 r t t H.P.L.K.L.J.S.m.n.G.N.v.v.v.N.d.O.u r 2 r ] O.Y.ZXkXBXBX, . o    .D.D.].0X:XeXhXzXlXzXhXsXAXVXVXlXzXlXVXF a.6 c c G D F F F K } F } %.hXaX7XfXZXSXHXLXKXKXl.gX: 7 7 7 < 7 i g.*.K F F 7 % $ & *.g.*.*.&.&.wX,X,XsXsXsXaX4XwXaXaXdXdXdXfXPX>.%.dXfXC.@ i m A B ^ ) ' ) ] ] ]  .a.d.d.d.N.0XuXjXl.l.CXAXSXHXJXKXKXKXKXKXKXKXKXKXZ.h.K L X O # 9X^.fXX         4 4 4 F j.l.hXhXhXuXlXlXlXlXlXlXkX{ * 7 h.K v 6 c D F } *.g.j.kXkXkXZXZXkXkXkXkXkXzXkXkXhXhXuXuXuXuXhXhXuXuX",
"tXuXuXuXuXuXhXhXhXzXZXZXZXBXl.AXlX4 z x : : 4 5 5 r r t u { L.K.K.J.J.n.S.b.n.v.v.v.v.O.M u t r 2 O.O.O.I 9.aXBXo o     .   O.~.].:X0XeXuXhXhXhXhXAXCXlXzXzXlXzXc 6 t c C D D F F } *.{ *.*.g.*.Z.kXBXBXZXSXHXLXKXKXfXfX8 7 8 8 8 8 < O 8 K G L v % % $ -.*.*.*.*.0X:X;X;XBXfXfXsXfXfXfXfXfXfXMXBXBXfXdXfX[ + i m B B R R ) E ] ] O.O.d.d.j.j.k.k.^.N.C.zXlXVXAXAXSXJXLXKXKXKXKXKXKXKXKXBX@X& & % ; l.<XkX*         4 5 4 : t g.qXhXhXeX^.lXlXlXlXlXlXlX* * L @Xv t c G F F } g.g.h.BXZXZXZXkXzXzXZXkXkXZXkXhXhXhXsXuXhXhXhXhXuX",
"uXuXuXuXuXhXjXkXhXhXVXDXZXzXZXVXAXhX4 6 % : 4 5 5 6 r t u f N J.J.J.J.J.G.m.G.N.8.v.] T M f f u r E L.2.~ >.<XaXHX; O @   . X   ].0XeXeXuXsXuXhXeXAXCXVXzXzXzXlXVX& X p C F F } *.{ g.g.a.j.*.*.g.eXkXkXkXAXSXHXLXLXKXLXZXK 7 a 8 v 8 7 # & & 8 v c $ $ O c >.*.>./.~.~.~.R.sXsXfXfXfXkXBXBXBXMXMXdXaXaXfX9.@ i i B B T R ' E E  .O. .O.O.v.N.j.j.B.qXjXjXzXlXVXCXAXSXHXLXKXKXKXKXKXKXKXJX%Xv * 4 4 B.<XJX4   .     : 5 5 4 4 5 Z.uXuXuXhXlXVXVXVXVXCXZX* X 8 h.K v z c F F } F g.g.l.BXCXAXDXZXBXkXkXZXkXZXBXzXhXhXhXhXhXhXhXuX",
"hXuXuXuXhXjXhXzXzXhXhXCXZXZXkXkXVXCXeX4 z % 4 4 5 5 5 t u u f f n.J.S.n.G.m.n.v.v.] E R M f y r 2 u S.8.) >.E.R.R..               . !.eXeXuXuXhXhXVXAXCXVXzXzXzXzX} *   4 } { g.g.j.j.j.j.j.j.l.j.l.fXkXkXZXCXAXHXLXLXLXLXSX-.7 L L L 8 8 7 & #     # % % # < j.-.N.R.Y.R.E.E.aXaXaXaXfXfXfXfXfXfXfXfXdXfXN.# u f h B T W R E ] | O.O.s.v.d.v.j.N.Z.uXiXiXjXzXlXVXCXAXSXHXLXKXKXKXKXKXKXKXKXv v 7 4 Z.l.eX4         O z 5 4 4 4 : ].uXuXuXwXVXCXCXCXCXkXj.4 4 L K v z c G F F a.a.g.l.l.ZXDXCXDXZXZXkXkXkXZXBXkXkXkXhXkXkXhXhXhX",
"hXhXiXhXjXhXzXkXzXkXkXhXZXzXzXkXkXVXCXeX4 z * * 4 5 r t t u u u b  .S.S.G.n.G.O.M h h f u u u y r r F.A.2.o.E.;Xr.~.    .   X       2 5 !.eXeXhXhXVXCXCXAXlXzXlXlXVX&     % d.j.j.j.j.k.j.l.V.j.l.j.j.hXkXkXZXZXCXSXLXLXLXLXl.l.7 L L L L v 8 8 O         X X O #Xj.C.C.C.C.q.C.aX4XaXaXdXfXfXfXfXBXfXdX>X:.> y f M M M E E E  . .O. .O.d.!.I.N.N.j.!./.uXjXjXzXlXVXVXCXSXHXJXKXKXKXKXKXKXKX8 8 p 6 Z.Z.z.% <         x t 6 4 5 4 t 0XhXhXkXCXCXCXAXAXAXCX* X 8 K D z c G Z F ' { g.x.z.9XZXZXDXDXZXZXBXBXkXZXkXkXkXkXkXkXzXkXhX",
"hXhXzXhXhXjXkXzXZXVXkXhXhXCXzXkXzXkXCXVXZ.4 z * , 4 5 6 r t t u u f W n.n.n.E W T B h m m g u u y y n.S.G.8.R.,XU.aX$         . : .   5 t r P.eXhXzXVXlXlXCXVXlXVXhXN.*     & j.k.k.B.l.B.j.B.l.B.l.V.W.sXhXkXkXVXAXSXJXLXLXHXl.#X8 v L L L L 8 7 #           . O #XB.C.q.>.&.[ / ~.~.~.;X:XdXdXfXBXMXmXMX6Xa 2 f h M W W E E E  .]  .3.O.v.`.^.B.N.Z.!.^.0XuXjXjXzXlXlXCXAXSXJXLXKXAXJXKXKXh.v v 7 Z.Z.t L 7 X       x x 6 6 5 5 6 W.].hXkXVXAXAXAXAXCXVX* X * L L v z n F Z a.} a.j.l.<XgXBXZXZXAXZXBXZXZXZXZXkXkXkXzXkXkXkXzX",
"zXzXkXjXzXzXlXVXCXCXzXhXhXhXZXzXkXzXzXlXVX} 6 z 4 : 5 5 5 t r u u u u b v.E E W W T T B B m m f f d h A.w.w.R.aX,XwXu $       . .       5 r t t B.hXzXjXjXzXVXSXCXVXlX&       X u V.B.B.B.Z.Z.B.B.C.Z.l.0XsXkXkXkXkXCXSXHXLXLXHXAXwX% 7 v L h.L v 8 < X .         X h.C.C.j.>.:.&.~.~.R./.C.N.dXdXFXMXdXmXMX% v 7 o h W W E E E |  . .O. .d.d.H.H.W.W.].].^.qXqXuXzXzXlXVXCXAXSXHXxXZXSXKXKXKXv v v %Xz.v K 8 %     . c x x 6 5 t 6 x qX[.sXkXAXAXAXCXCXkXZ.* & 8 K G z G G Z } } g.j.z.9XcXgXZXZXZXDXZXBXkXBXZXkXkXkXkXkXZXzXkX",
"ZXZXzXlXzXlXVXCXAXCXVXhXhXhXuXhXzXhXhXzXlXlXZ 6 9 4 4 4 5 6 r r t r y 2 r f | E E E ^ ^ A T B h h f h D.Y.;XfXMX>X:XwXO @         .     @ 5 r t u x I.hXuXjXjXlXCXAXN.0X*         6 W.B.Z.B.Z.B.B.C.B.Z.Z.wXkXsXsXkXZXCXAXHXJXLXHXZXfX; * 7 v L L v 8 8 & X         v K %XC.<.>.&.C.;X~.R.;X,X4XdXMXfXdXdX3X&X7 i 5 > + W W E E |  . .3.O.v.O.N.H.I.W.].0XqX].^.].].qXzXzXVXVXCXwXsXkXVXHXKXKXAXv D #X*.KXK v * #     c c z 5 6 6 t 6 `.qXqXsXAXAXAXAXCXCXCX4   4 v v G c Z F } a.a.j.z.<X9X9XgXBXZXZXFXZXZXBXZXZXBXVXBXZXZXDXCX",
"CXAXAXAXSXCXCXCXCXVXlXhXhXuXuXuXhXhXhXzXlXzXlXz 6 * % * 4 4 4 5 r r r r 2 2 r  .) ) ) ) ) R T T I I 1.w.U.R.;XfXMX:XwX~.O         .       r r 5 2 > u u ).uXuXuXzXVXAXVXX         . & H.H.H.W.H.W.B./.B.B.Z.eXsXsXsXkXkXCXAXLXKXLXSXDXSX3 % % 8 8 L 8 8 < X #       v v D C.l.>.>.:.,X:X>X:X;X,XaXdXdXdXmXdXdX$ p p 2 ; @ > E E  .| |  . .v.v.v.N.W.W.W.qXqXqX[.`.^.0X0X0XlXzX/.:XaXhXZXAXLXZXKX%XK g.#XKXL L < #     7 6 c c c z 9 t C qXqXuXC.AXAXAXAXAXVX* & & v D C C Z F a.{ { j.j.<X9XgXcXgXBXZXDXDXZXZXDXAXCXDXZXZXZXAXDX",
"AXZXVXZXVXlXlXzXzXzXzXzXjXhXhXuXtXuXhXjXzXzXVXjX* 9 * % % % : , @ r r 2 q 2 2 2 T O.O.] E ) | 1.3.3.4.1.U.T.=X3XdXMXwXwX*.@     . o o @   . 2 , > > u u u u K.tXiXjXzXVXlX%         X O ' W.W././.H.W.W././.].eXsXsXkXkXBXCXSXLXKXLXHXDXl.J & X 8 8 8 8 8 &         $ p a c :.E.N.9.E.:X:X;X;X>XaXdXdXdXdXdX3X1 5 p 5 2 - > q r W  . . . .s.v.V.B.H.W.W.qXqXqXqX0X].].0X0XeX9.E.;XsXsXzXAXJXLXSXPXl.l.hXKX#XK 8 < X * * 4 4 : % c c z t qXeXuX^./.SXSXSXAXfX0X9 & * v G n F ! { { a.g.l.9X9XrX<XgXgXZXDXDXAXSXDXDXDXAXSXAXHXSXDX",
"ZXzXZXkXzXzXzXzXhXzXjXzXjXjXjXuXuXtXhXjXzXzXzXVXjX* 6 % & O O 6 5 5 5 5 2 2 1 > - f O.X.O.4.8.8.3.1.7.3.U.T.*X>X4XfXfX4XaX. + . . . o + + ; ; 2 > ; u f u f x f d.iXjXjXjX. %         o O u H.!.!.!.W.Z.C.B.C.wXeXfXsXfXkXBXAXJXKXKXKXHXHX%Xl.  & & & < 8 < &   X   o r p p v #.E.q.9.;X,X;X;X:X,XaXdXdXdXdX4X6X% t t r 2 1 2 y f f |  .c.s.d.v.V.B.W.{.].[.qX[.].].].^.0XQ.>./.:XsXkXZXSXHXJXHXSXz.z.Z.KXKXh.v 8 * 7 < < < 7 c p * c z } eXuX<XrX/.AXSXHXSXHX9 & % c v C Z ! } { { d.V./.9XgXgXgXgXgXDXSXHXSXSXSXSXSXAXDXAXAXZX",
"ZXkXkXzXzXzXkXhXhXhXhXzXjXjXiXiXiXhXiXhXlXzXzXlXlXeX4 6 & X 4 5 5 > > > 1 2 > 2 2 2 3.8.4.8.8.3.r.4.7.8.e.U.&X*X>X4XdXfXBXdX. +     . . o o o 2 - = y f f f b b b b { iXjXjX&           . @ O !.B.N.C.B.Z.B.C./.wXfXfXsXfXfXZXDXJXKXKXKXJXHXLXaXL &   & * * 7 &   . . 5 7 p p i S E.q.9.;X:X;X~.4XaXfXdXdXdXdXMXa r r r 2 1 2 y y h M W ! s.s.b.b.V.W.{.W.qX[.0X].].^.].Q.^.E./.,XsXDXSXAXSXSXAXSXj.Z.Z.fXKXL K < 4 4 4 * % t 9 9 z % 6 z qXqX^././.W.ZXAXSXAX6 % % : c C V F } { O.g.k.%X9X<XgXgXgXMXgXHXHXSXSXDXDXCXDXCXZXZXZX",
"zXzXkXkXhXkXhXzXhXjXhXhXiXiXuXiXuXiXiXuXxXhXuXiXiXiXn z 4 4 % : ; > > > > > 1 2 1 1 2 o.8.4.r.r.8.6.3.i.6.y.T.*X=X>X4XfX,XMXT o         . . . o y d y d d f b b b M M ! *.qXK &         X o + . N.N.Z./.E.B.B./.^.sXsXfXsXsXsXBXSXJXKXKXJXSXSXKXLXX X   & L L < X     2 5 r p 7 p i E.q.q.;X~.;X4XdXMXdXMXdXdX6XR.- r q r q q r u f N N N n ! d.N.V.Z.{.{.0X0X0X0X].0XQ.Q.~.:X~.aXkXBXCXAXSXAXAXDXB.Z.j.j.hXDXK 7 4 4 4 % % 6 6 6 9 9 z 4 C [.Q./.W././.<XSXDXeXz % % t x Z Q } { g.{ C.<X<X%XrXgXgXgXxXgXBXDXDXCXZXZXZXZXAXZXCX",
"ZXzXzXkXzXzXhXxXhXzXuXtX{.(.k.(. X(.Z.(.(.iXzXjXjXjXf.9 z % % ; ; ; - ; - > 2 1 1 1 1 0 s 8.8.r.8.i.i.8.9.y.T.T.*X=X>XaXdXaXaXo o           . . o h d d d f f b b N W !  .b.B.&           . @   . j./././.Z.Z.^.:X0XsXaXfXfXaXaXfXDXHXLXLXHXZXDXJX<X-.7 v L L 8 %     > 2 5 5 r r r p _ q.Y.;XR.;XdXMXMXMXMXMXMXMX  2 q q q q q y d M N N n n Z Z k.V.W.<X{.wXqXqXqX!.^.^.:XwX<XwXfXkXZXZXAXAXAXAXZ.j.l.l.iXsX7 6 4 4 % * 4 6 6 6 6 9 6 9 4 ).B.Q./.H./.:XwXJXCXz % $ 5 z m Z ' [ { { j.Z.%X9XrXgXgXgXIXIXgXBXDXZXZXZXAXCXAXCXZX",
"ZXkXhXeXrXeXtXqX[.{.{.{.(.k..X Xk.k..Xk.(.V.uXjXjXVXzXZ 6 x x $ $ @ ; - > > > > 2 = 1 - = 1 1 X.8.r.7.r.r.r.T.&X&X*X>X,X4XdXmX=Xo =             . w d d d d h h M W !  .c.s.! O.}           o O . o v <X^.<X/.<X:X:XwXwXsXsXfXkXaXfXfXDXHXLXKXKXLXSXCX% 7 L v v <     2 2 2 2 2 2 r r r k 7.*X;X;X4XNXMXNXNXNXNXmX0 - 1 1 2 q q y u M N W N n Z ! a.a.B.rX].eXeXeX:X:X^.0XwXwXl.:XsXsXZXzXCXCXAXAX0Xj.j.0XeXg.KXc 6 * 4 : 6 6 6 6 6 6 6 z 9 t I.b.H./.E./.:XwXJX6 ; $ ; t b V ' } [ O.{ j.W.<X%X9XgXgXgXfXxXMXxXDXDXZXAXDXSXDXCX",
"hXsXeXrXuXqXtXqXrX{.{.{. Xk.k.k.k..Xk..Xk.k. XpXuXjXlXlXa.6 z x $ @ ; - ; > + - - 1 - 1 = = 1 = = 0 r.7.i.r.y.u.&X*X*X>X3X4X=X6X| + -           o 1 w d d f h M W W  .M.s. .v.s.O.s.F       . O   . o @ <X:X<X0X:X:X:XwXwXsXsXfXkXsX:XaXaXfXZXJXLXHX<XD 7 v v v 7 X   5 r q 2 2 2 2 2 > > y *X>X>X>XaXNXFXNXNXGXmXNXo - 1 1 0 q w y f M W n n N ! } { a.k.%XrXhXrXwXwXeX:X0X0X~.0XeXsXkXzXVXVXCXZXSXj.j.uXZ.h.kXKX*.5 % 4 6 6 4 9 6 9 9 9 9 9 b.b.s.N.H./.~.,XfXv.t @ ; 5 u V ^ ' ] ] O.] >.Z.<X%XgXcXgXgXgX9X%Xl.AXDXZXZXBXBXkX",
"sXeXeXrXqXuXqXrX[.{.{.(.V.V..Xk.k.k..Xk.k..X.Xk.b. X].zXjXB.5 x x @ @ O ; ; > > - - 1 = 1 = = = = = + = T 8.y.T.&XT.*X*X>X3X3X3X=X1 1 >   . . . 0 2 2 d d h h M W ! M. .s.v.v.c.c.c.s.d.' O   O     . @ : %X:X:XwX:X0X:XwXwXsXwX:X:X,XwXwXaXMXDXLXJXZXfX% 8 8 v 8 &   > 5 q r q q 2 2 q q 2 y >X;X;X>X6XFXFXFXFXFXPXp 1 1 = 1 1 q y f b N n N N ! ! { j.j.Z.z.%XrXsXeX0X0X0X].0X0XeXhXhXlXlXVXVXzXSXJXKXAX*.Z.%XKXKXZ.6 6 4 4 4 4 4 6 6 6 6 6 z v.b.d.{.E.Q.:XsXd.N $ $ 5 t b V ^ ] ) ] ' D V } / F ^ / V V F ' F F BXZXBXBXkXkX",
"sXeXeXqXtXeXtX[.{.{.(.V.V.k.k.b.k.f..Xk..Xk.k.f.b.f.b.f.a.V.m 5 : 5 5 5 - ; - - - - = 1 = 1 = = = + + + + o 6.y.&X&X*X*X=X>X>X;.3X&X- 2 . . . 1 q 1 q q h h W W | M.s.d.v.v.c.3.c. .s.d.s.O.Q , O   . o : 7 l.0XwXwXwX0X:X^.^.~.~.^.:X:X,XaXdXBXDXJXDX<Xp 7 c a 8 %   o r r r 2 2 2 2 2 q q q q R.>X>X>XmXFXFXGXFXFX=X- 1 = 1 1 2 y u b N N N N N ! a.d.l.z.@X%XrX%X<XqX].].].0X:XqXeXkXzXzXlXVX0XAXSXJXKXK v %XJXKXLXHXZ 6 9 9 * * * * * * 6 6 v.G.V.W N N.~.sXN n u ; 6 2 : r v K l.#X#Xh.*.D ^ ' V V D ^ D V Z F Z sXkXkXkXhX",
"eXqXrXtXqXuXtX{.{. XW.V.k.d.f.f.f..Xf..Xf.k..Xf.f.f.a.Q N b.N.H.hXB.V @ $ ; > 2 = = 1 - 1 = 1 = = 1 = = o + + y.T.&XT.*X*X*X=X=X*X5X>.1 0 . + 0 1 1 q 2 0 I W W M. . .M.M.c.c.c.c.s.c.s.s.{ a.' ' X   # ; 6 p D wXwXwX<X<X^.^.~.Q.~.:X:X,X,XaXfXFXHXHXBXaX% 7 7 7 < X   q r 2 2 2 2 1 2 2 2 2 q q r.>X>X4XdXFXFXPXJXPXo = = 1 > 1 y y f N N N N Z } { g.l.l.z.z.%XZ.W.Z./.].^.].G.wXuXhXzXzXlXlXN.AXSXJXLXKXv < 4 SXKXKXJXZX!.4 9 9 * * * * * 4 x B./.].x u b ^.kXt , $ @ 2 ; ; 2 6 v h.#XIXUX#Xh.F [ V V V V C V C G G 9XkXhXsX",
"eXqXqXqXtXqXqXqX{.(.V.V.g.a.f.f.f.f.f.f.f.f.f.f.! Z v.V.H.P.P.`.[.jXzXZXsXG.f o = - > 1 = = = 1 1 = . o + + = 0 r.&X&X*X*X*X*X>X3XdX3Xw 0 w q 1 q 1 0 q q d W M. . .c.m.M.M.c.c.c.s.c.s.s. .} } ' i t ; ; 5 . @ , Z.wXwX<X<X/.~.Q.~.~.:X:XaX4XaXMXFXSXSX<X5 7 7 4 < .   r 2 q 2 2 2 1 2 1 2 q 0 2 q g >XdXmXFXPXPXJXJXe 1 = = - 1 q t u b B M V N ' { g.g.j.l.V.Z.W.Z.W.B.B.G.:X~.eXuXhXzXzXzXlXC.AXSXHXJXKXh.7 O W.W.].JXAXhXhXqXJ.6 9 z 4 4 4 5 0XsXkXZXx t a.!.;Xt t > 5 r 2 > - > 5 v *.@XUX8Xh.h.' R C b m c n n G c k.hXuX",
"qXrXqXtXeXtXtX{.{.W.V.k.a.a.Z f.f.f.f.f.f.P G f.B.H.!.`.`.[.}.`.P.!.^.:XZXsXwX,X;Xr.d + = = 1 - = . o o o + = - j u.&X&X&X&X&X=X5X4X4X&X1 d s d s y w w q w  . .| c. .M.M.M.c.c.c.c.s.d.d.a.! Q F c r   o       X p } 0X0X/./.Q.Q.Q.~.:X:X,X4XaXdXfXFXSXBX4X@ 5 4 : O   B r 5 q q 2 2 2 2 2 2 2 q 1 2 g MXMXNXPXPXLXLXKX+ = = = - 2 r u b n C C V ' [ *.*.d.g.j.z./.W.B.B.G.N.G.G.H.eXhXhXzXzXlXB.AXHXHXJXHXKX7 7 r W.I.I.K.hXhXeX[.uX].s.z z z z n hXuXwXrX0XwXwX0XaXwXN.y y > r r 2 - > , v D h.#X@Xh.' d.R x m c n G c z g.eX",
"rX{.qXtXqXtXqX{.{.V.j.d.a.' Z a.f.f.a.F a.N. X'.`.[.[.[.'.`.`.).`.!.!.0X:X~.~.~.wX,X,X;X*X4.w 1 0 . . o o + = - j I i.9.r.r.u.u.E.U.R.w.I I I s s s s s s I 5.| 5.M.M.M.M.M.c.c.c.f.d.d.a. .] 5 o $ @ O @ O @     5 r z /././.Z.~.Q.~.:X;X,X,X4XaXaXfXDXPX,X> 4 , ; .   i t r q 2 2 2 2 2 2 2 1 2 2 w y g mXMXNXPXLXKXKXo > = + - > 5 t x b V C V V ' ' { { { j.j.B./.E.G.G.N.N...[ ) ~.jXjXzXzXB.AXSXHXJXKXKXZX6 O W.I.K..Xm.b._.eXqXqX].uX,Xt x x ]./.Z.aXgX;X:X;X~.wX,XsXR.r u , 2 t 6 4 ; , 5 v L K K K O.d.n Z z z 9 9 z a.",
"F [.qXtX[.qXrX(.V.k.d.a.} ' a.f.g.a.N.Z.].[.tX}.[.[.[.[.'.`.`.`.).).).!.].^.^.Q.Q.R.U.T.wX>X>XI 1 q . o + + = - q I 7.r.9.q.u.q.C.T.e.1.Y T.&X&X&X*X&X*XR.Y.F.S.M.M.M.M.M.c.M.c.c.v.s.s., O @ @ @ O @ ; ; ; ; $ $ 5 : 4 4 j./.Z.B.~.Q.~.~.:X,X,X,X4XaXMXDXFXaXO < @   @ . 2 2 2 2 2 2 2 1 2 2 q 0 q y p g g 6XNXPXJXKXKX4X- + + + ; 2 r u m V C C N V R ! } ] ] j.d.G.N.G.N.G.G.[ ) O.N.N./.zXzX/.AXSXHXLXKXKXKXv 6 t I.m.m.m.m.b.b.m.qX].qXqXqXhXfX! N.:X%XwX:X~.Q.~.sXsXaXsXsXsXE.t x 5 5 t 5 : % * 6 v L D ] f.Q 9 z G G c 9 ",
"6 G }.}.[.{.{.W.V.j.a.{ { {  Xa.B.!.].qXqXqX[.qX[.[.'.].'.`.`.`.`.).P.!.P.`.^.^.!.~.R.R.;X;X4X3X( 1 w o + + = - 1 I 1.9.9.u.q.C.q.&Xr.Y 1.7.u.u.t.r.t.6.i.4.1.i.S.M.M.M.M.c.c.b.c.; ; ; @ @ @ @ @ @ O $ ; : , ; : 5 c 5 ; , B Z.C.B.Q.~.~.~.:X;X:X:X,XdXBXFX4X3 $ v o O   + - ; - - > > > > 1 > 2 q q y g k g 4XNXPXLXKXKXo o + o ; > 5 u x C b b b N V R Q Q ! O.O.N.G.N.G.G.] ..) 3.N.N.B.H././.AXSXJXLXKXKXJXSX4 6 I.I.m.m.m.b.b.b.c.c._.|.yXeXqXwXN.Z.<X,X^.H.0X~.;XBXkXkXfXsXkXAXsXD x t 4 5 5 : O O : 7 v Z a.Z Z 9 9 9 9 ",
"* * z [.[.(.(.Z.j.j.*.j.j.'.N.j.[.].].0XqX[.qX].[.[.'.'.'.`.'.`.`.P.P.P.!.`.`.^.^.^.~.:X:X>X3XdX3X( - q y + = - - d X.r.9.u.E.$X=XE...;.4.1.i.y.y.t.r.6.1.1.1.5.5.n.5.M.M.c.> 2 , , : ; ; ; @ @ @ @ $ $ ; $ , ; : , t t t , @ > N.N.N.Y.Q.R.;X;X;X>X>X,XfXBXMX4X. > -X@ @     . . . o o = - = - 2 q w p e g k k *XFXJXKXKXp > o o @ ; 5 t u b 5 t b N b N N R R Q j.>.B.G.G.G...) ) v.8.G.H.H.B.B.Z.AXHXLXKXKXKXLX*.6 b I.J.b.m.m.b.b.b.b.c.s.b.qX`.0XaXZ.<X;X/.N.7.:X:X,XBXZXBXBXDXBXBXzXkXC.r t : $ , , % O $ 6 Z f.Z f.9 6 * ",
"* & & 6 {.W.Z.k.k.l.k.z.[.Z.k.*.`.].].].qX[.qX[.[.].].'.`.'.'.`.`.).!.P.P.P.H.J.I.H.].wX,XaX4X4XdX5X( 1 q y + - > q j r.r.q.E.=X&Xq.;.7.r.6.7.y.y.q.r.i.i.1.1.5.5.1. .2 t r r 5 5 2 , , ; ; ; ; ; @ $ ; ; $ $ @ ; ; t i t t r , . V j.G.Y.R.R.;X~.;X;X,X>XE._ _ ;.4XdX,X< ; @ @ @ - -     . + - 1 2 y y g g k k U 9.PXLXKXKX@ o + o ; , r t , 5 5 t t u N M N W R ] O.G.G.B.] ) ) ) v.G.G.G.H.B.N.0XeXwXJXKXKXKXSXAX4 6 ! I.K.m.m.b.m.c.b.b.c.c.s.s.).`.E.~./.G.8.o.o.,XwXfXZXDXSXSXSXAXBXsXaXwXwXO.t 6 % : O : 6 c s.f.f.f.Z 9 ",
"G & X & X V.Z.z.Z.z.%XeXZ.l.Z.{ O.].].].qX[.].[.'.[.'.`.'.`.`.).).!.P.P.P.P.J.b.v.v.v.3.3.8.4X6X6XNXmX$.- r y - + o 1 w q.q.=X-Xu.;.;.9.9.7.8.7.u.r.r.r.8.i.4.4.4.M.M.u u r r r r 5 , , > ; - ; ; ; ; : ; $ $ @ O @ t t u t t r r > r >.G.Y.R.R.D.>.~ o.G.A ..1 i -XNXSXLX$X<.-.%.&.A 2 r . o - 1 q q y g g j S S ` ` MXLXLX. @ o o @ ; 5 @ ; , 5 r t u u u N M N R j.d.G.G.O.X.X.o.v.G.n.H.J.N.j.0XeXsXZXZXKXKXKXHXsX7 % I.I.m.m.m..Xm.m.b.b.c.s.s. .! 7 s.E.N.7.o.o.>.wXkXBXFXSXJXJXHXZXBXfXwXwXkXhX;X5 t     % 4 4 Z Z Z P Z ",
"Z G * & X   z.9X<XgX%XrX%X^.*.} ' ^.].].].].[.].].`.`.'.`.`.`.`.P.!.P.P.`.P.v.v.v.c.3.3.2.7.o.o.o...6XbX&.1 r 2 r o - 2 e C.-Xu.;.;.6.U.7.7.9.7.9.y.y.r.r.4.4.3.M.n.M. .y u u r r r 2 5 , > > ; ; > ; : ; ; @ @ @ o 2 6 5 5 5 r 5 2 2 2 G.G.8.N.>.) o.8.j O.; 2 p 6XdXMXDXKXLXLXbXJX4X2 - r o = > q q y i d g U ` ` ` ` dXJX4X- o o o ; . o @ ; , 5 t t u x b b M N ] O.H.O.O.]  .v.G.A.S.H.J.d.v.0XqXhXkXZXJXSXHXkXSXt t C I.I..Xm..Xm.c.b.c.b.c.s.s.s.! 4 4 ! o.8.Y.Q.~.:XaXZXHXJXLXHXFXBXkXfXsXsXCXCXlX^ 6   & & * Z Z f.G Z ",
"Z G G G & & & UXMXcX{.%XrXj.%.} ' `.^.].].].`.].].].[.`.`.'.).`.).`.P.!.S.S.v.v.v.3.O.1.o.2.o.1.6.r.7...Y ` w + - 1 y I ~ ` E.q.;.9.u.7.7.7.7.7.7.7.8.3.4.5.3.4.5.4.4.M.M u y r r r r 5 , , , > > ; ; ; ; ; - @ @ o ; r r 2 2 2 2 > > ; 7 l.E.C._ o.G.j T S e r g dX6XMXFXLXJXJXFXMXHX3Xi 2 y + > 1 q r y g ~ U U U ( ..;.;XLX+   o -     . . @ ; 5 5 r u u b b M n M d.3. . .X.O.n.m.S.G.J.J.v.v.].qXeXhXZXHXSXAXVXkXDX6 t V. Xm.m.m.b.m.m.m.M.c.c.s. .s.4 4 : $ 5 G.~.~.Q.>XkXDXJXLXLXJXSXFXBXHXAXAXAXAXsXaX6 9 & * & f.G P G ",
"G G G 9 9 9 * & G (.cX7Xl.*.' / Q G.Q.^.^.`.`.`.`.`.].].`.`.`.).!.P.J.J.n.S.G.v.3. . .1.o.1.X.r.7.o...;.0.q.1X2X2X0.w y w w k ` ` ` ~ q q 1 + o o o = 2.3.4.4.M.3.M.M.M.M.f u y y r r 5 5 , 2 , : ; : ; ; ; @ @ o O o 5 5 2 2 , 2 < ; p a m y :.o.8.j B E 1 p e aXdX;X4XdXHXFXMXMXfXdXFX3X> q y 1 q q ~ :.;.~.U ` ` _ ;.>.9.,Xg 2 >         . O @ : 5 r r u u b b M N ! d.O.o. .O.G.G.m.J.J.J.v.v.0XqXqXhXZXSXSXCXCXhXkXG t 9 I..Xm.m.m.m.m.b.b.b.c.c.s.s.! * % $ ; 5 6 O.~.;X,XBXHXJXJXJXJXHXHXLXJXSXDXZXCXZXsXx 6 & & G P G G ",
"G G 9 9 Z Z G (.eX$XfXz.*.%.' F ' O.Q.Q.Q.Q.^.^.`.].`.`.`.`.).`.K.J.J.n.J.S.J.3.3.5.1.1.X.X.8.1.X.( 6.0.u.u.&X5XvX5X2X2X2X&X1X5X> r y q o + o o . . o o O f 3.n.n.M.M.M.M.M.f u u t t 5 5 2 , , , > , : : : $ @ @ @ O r 5 5 5 5 ; 4 p c m u r @ G.k ~ &.i p p p dXfXkX>X6XfXBXMXMXdXdXdXMX>X2 q R ;.o.o.o.;.` ` U ....;.7.9.:X;X> >         . o @ ; , 5 r t u b b M M N O. .O.O.v.S.J.J.J.J.L.v.v.].qXeXuXzXSXSXCXVXkXVXl.F ! f..Xm.m.b.m.b.m.m.M.c.c.s.s.s.6 * % ; t 5 5 r b sX>XBXHXfXaXaXdXDXSXJXHXDXDXZXZXVXzXsX9 * * Z P Z ",
"G Z f.Z Z Z.gXkXz.eX<.l.*.F ^ ' ] d.L.H.Q.Y.Q.!.!.^.^.`.!.`.)._.K.K.J.J.J.L.L.3.O.5.| 1.5.5.| ( r.i.u.u.oX&X6.0.=XvX+XoX=X2XbXbX5X$Xp - 2 q r o o o . o o o o @  .M.M.M.b.M.c.x u u t r 5 5 , , , , , , : : ; ; @ @ @ 7 r 5 , , 5 t i b r ;   o o A >.q q S a aXfXfXfX*XMXBXMXMXMXfXdXaXfXwXr ) O.2.o.o.7.~ ` ` ....;.;.9.:X:X..N.1 5 .   . X o O ; , , 5 r u u b b b N ! d.3.O.J.J.J.K.J.P.K.v.v.[.qXqXuXkXAXSXVXzXhXZXqXF a.G .Xb..Xb.m..Xm.m.c.M.c.c.s.s.s.& % % ; t 5 t r t u /.4X4X,X,X,XaXBXDXSXSXDXZXZXZXlXuXiXv 4 * G G ",
"f.Z Z Z.rXeX%X9XZ.l.g.z.*.F V ' O.d.P.E./.F.F.Q.Q.!.!.^.`.).).K.m.m.J.J.J.L.L.v. . . .5.1.| I 1.r.y.T.&X0.7.,.9.0.=XbXbXOXbXbX5XPXPXGXmX-Xy 2 1 r q o . o . . .   . t c.b.M.c.! u u u t r 5 5 5 4 , 5 4 , ; ; ; @ $ ; 4 7 ; 4 r i b u 2 . . ; @ : u e g p S i aXfXfXkX,XdXMXMXMXMXmXE.:.E.N._ O.8.>.o.7.Q.` _ _ ` ;.:.9.N.,XR.C.( G.r 5 @ . . . O @ ; , 5 r r u u b b M W O.d.v.P.P.P.P.K.P.J.v.v.[.qXqXuXhXCXSXVXlXlXzXsXZ Z G .Xb.b.b.b.b.b.m.m.b.b.b.b.c.s.* & % % : 5 r 6 2 2 5 D rX,X,X;X,X,XBXBXAXSXDXBXkXkXlXlXiXZ.* f.f.",
"f.k.Z.{.tX{.{.Z.z.j.a.V n F ' [ d.N.B.0X0X0X0X^.Q.Q.Q.Q.).'.K.).K.K.K.P.L.Q.J.S.3.5.c. .W 1.r.e.U.T.9.6.9.0.9.,.9.q.=XvX1X1XbXNXNXNX$XPXPXMXdXE.g ; 2 5 5 2 .         . N c.b.c.b x x t t t 5 5 5 4 4 4 4 , : : : ; % $ : 5 t x x r @   @ o : u A ~ 9.` k J fXfXfXaX,X:X4XmXmX:.&.:.&.G.N.B >.7.>.o.B r m / ` ..:.;.7.9.,X:XR.C.C...H.V t t O . o o O ; > 5 r t u f b M N ! 3.N.P.P.).!.P.P.G.d.v.`.].[.uXjXVXHXCXlXlXzXuXG Z G k..X.Xb.b.b.m.b.m.b.b.n.c.d.s.! & & % * % r , 2 , 5 6 / Z.B.wX<X:X,XfXBXZXSXDXBXkXzXzXjXyXpX* f.",
"V..X`.{._.I.V.V.j.d.! Z n n n { V.j.N.qXeXeXwX0X0X0X[.`.'.P.P.P.P.).P.P.!.P.L.J.n.3.W 5.1.r.D.U.6.9.0.0.0.q.q.q.q.q.q.=XbX=XmXNXNXPXNXNXNXmXFXJXMXfX-Xb + > , 5 5   .   . n v.b.c.b x t t t t 6 5 5 5 5 4 5 4 4 , O @ % 5 p u t , o o . : u ` S $.>.:.$._ &.fXfX,XwX,X;Xi &.:.&.&.&.C.C.k >.8.u 5 5 5 r p A &.:.:.>.>.E.:X;XR.R.E.N.C.C.j.t t o o . o @ - > 2 r u u b M B W O.H.P.!.`.!.!.).b.v.v.].[.[.qXhXlXLXCXVXlXeXpXf.P a.f.k.b.b.b.V.b.b.b.m.b.b.b.b.c.s.4 X % 4 4 4 t 5 , 5 6 t ' C.C.B.H.:XwXsXZXVXZXZXVXxXhXuXiXyXpXf.",
"* k._.I.I.V.V.V.d.a.s.Z N n x 4 ! V.N.H.eX0XwXqXqXqX[.[.`.P.P.P.P.P.!.`.!.P.L.G.n.W 3.w.A.D.7.6.6.6.9.9.9.u.q.q.0.q.u.q.1X1X1XNXGXPXNXNXNXmXmXMXFXJXHXfX,XU.N O 5 t     X   n d.b.f.x x x t z t t 6 6 6 7 5 5 5 O O 4 6 z t 5 $ . @ , u ` >.>.>.>.<.<./ >.kXkX,X;Xr y p / &.&.a v C.C.A 2 r - - > > 2 2 r q #.:.>.>.>.R.:X;X;X;XE.E.Z.C.*.^.5 t o o . o @ ; 2 5 r u f b M N ] N.`.).`.`.`.`.d.v.N.'.[.[.qXhXzXHXAXVXVXeXuXv Z f.Z k.b.f.k.b.b.k.V.b.m.b.b.c.c.s.n * 4 , 4 , 4 , 5 5 5 5 t ' C.B.C.N.V.0XsXVXzXVXlXzXhXuXjXjXtXjX",
"G * z b.b.V.b.k.d.f.a.! Z Z n z 4 9 d.V.0X0XqXqX[.[.'.[.`.P.P.P.P.P.!.P.L.!.L.K.O.G.S.L.1.3.1.8.r.q.r.q.0.r.q.u.q.q.E.u.u.-X1XNXPXPXNXmXmXmXmXNXMXMXBXfX>.kXeX].$ 5 t       X n d.k.a.x x z x t z t t t 6 6 ; O % 7 6 p 7 : O @ 5 u %.C.C.C.l.l.l.C.@XZ.$X:XV A i p p y &.:.-.C.D >X6X-.[ > 2 q y 1 - > 2 2 2 >.>.9.0XR./ ,X;X:X~.~.E.Z.C.C.j.u 6 5 . o o @ > 5 r t u f M M N 3.).`.`.`.`.).O.3.v.[.].[.qXuXzXSXSXCXVXuXuXqXZ Z G b.k.b.k.b.b.k.b.b.b.b.m.b.! n b 4 4 : > , , , : 5 t 6 7 c F B.B.B.B.V.B.B.hXzXkXzXjXjXjXjXzXjX",
"jX*     s.b.b.k.k.f.a.Z Z Z Z n z 4 6 } 0XtXqX}.[.[.[.P.P.P.P.P.P.P.!.P.P.L.V.G.B n.2.2.4.3.r.4.r.r.9.r.r.u.u.q.u.u.u.u.q.-XE.4XFXNXNXmXmXmXmXmXmXNXMXaXwXsXeXhX].$ 5 6     . . z b.b.n n x x x x x i t $ $ : 5 6 7 7 : . X 5 x *.Z.C.l.C.$X%X7Xl.cX%XC m C V >.N.i p p :.*.<.N.<.DX$XJXBXdX$X~ 1 2 r u f 2 r r >.:XwXwXE.` :X;X~.~./.E.B.C.C.F V r r X O @ ; > 5 r u u f b M W G.`.`.'.`.`.d.d.O.].].].qXuXjXAXHXAXVXeXuXqXF a.G f.f.k.f.k.b.b.b.b.b.b.! s.! Z N N , : ; ; ; ; ; , 5 5 i 7 C ' C.B.B.B.V.V.j.a.{.zXlXzXjXzXzXjX",
"iXV.*     x d.d.j.s.s.! Z Z n x x z 6 6 6 d.tX[.[.'.[.P.P.P.P.P.P.P.!.P.L.J.P.b  .3.3.8.4.r.r.r.r.r.e.y.r.r.u.u.q.E.u.q.u.u.C.-X4XmXmXbXmXbXmXmXmXMXfXdX,XwXsX].uX].* 6 z       . z k.d.C n C C c v c & % 4 6 6 6 4 X 4 4 c h.<X%X%X%X8X#X%XgXl.' V c % D ' j.j.N.N.B u :.<.C.-.:.dXdXmXMXmXDXMXdX3Xg f r i A A p ( :X:X0XR.A :X;X~.~./.E.G.C.9.>.j.5 t O O $ ; 2 5 r u f b N R ! I.`.'.`.`.O.v.v.[.[.[.qXuXhXVXJXSXVXjXhXeXZ F f.f.f.f.d.d.f.b.v.d.s.f.s.s.!  .! E ; ; @ @ $ $ ; : , 5 6 t v C ' B.B.j.b.N.d.d.d.a.d.zXjXzXlXjX",
"jXjX& &     & Q d.a.! Q Z n n n z z 6 4 4 n Z K.'.'.'.P.P.P.P.P.P.P.P.P.L.!.N.] v.s.4.A.w.w.w.e.e.e.e.e.r.e.y.u.y.u.r.r.u.E.$XE.u.3X6XbX6XbXdXmXmXdX4X,X,X:XeXeXiXtX^.4 6 z   .   . 5 k.d.C C C C 4 $ : 4 6 6 4 O 4 4 hX%X%Xh.h.h.@X@X#X%.O.' ' ' 5 4 ' } a.d.j.>.N.8.T :.E.>.p *XE.fXmXMXMXMXfXaXZXMXdX4X>...m A A ^ E Y.:XC.k ~.~.~.Q.E.G.C.N.9.>.A r t 6 ; ; , 5 r y u b b M Q d.I.).`.`.d.d.v.[.[.].[.uXhXlXHXHXVXjXjXuXj.F a.Z j.f.d.f.d.f.b.s.d.c.d.c.s.O. . .W : $ O O @ @ ; : , 5 t p F F C N.N.v.N.d.b.d.a.{ { Q W.jXjX",
"VXiXtX&       & n a.! ! ! N n n z z t z 4 x n Z ! '.'.P.!.).P.).P.P.P.Q.H.!.V v.v.3. .A.A.A.e.D.e.e.e.e.y.y.e.e.E.u.u.E.u.C.E.q.9.q.3X6X6X6X6XdX4XaX,X,X,X,X0XuXuXiXtXP.: 6 z     . . 4 V.d.F 6 : % 4 5 6 4 6 5 F Z.%XrX#X-.h.-.h.} d.d.a.d.{ ] t t 5 { { { >.O.O.>.>.o.C.d S D 9.E.E.fXmXMXMXfXdXfXfXfXDXMXfX6XE.7.^ / ^ R 8.E.A ~.Q.~.Q.Y.F.N.N.j.j.O.V x t : , , 5 r u f M N W ! d.V.'.).O.d.d.N.[.[.qXqXiXlXSXLXCXzX0XhX/.} Q Z d.d.d.k.b.b.f.b.b.b.c.v.m.n.n.4.3.2 O o O o o O ; > 2 5 t C V F m V.k.N.d.d.d.a.a.a.a.Z Z { ",
"Z V ].F &       & , N ! Z N N n x z z x z 6 Z N ! Z ! I.P.P.`.P.!.!.!./.0X! d.b.v.O.E F.S.D.D.D.D.e.e.e.e.U.y.y.U.r.u.e.E.C.r.r.r.r.q.=X5X6X3X>X>X4X,X>X;X;X^.0XqXuXiXqXH.2 6 x . . . . % } * , 5 6 5 t t 5 B.z.<Xz.C.z.z.-.} j.j.j.d.j.d.d.Q x c t { } [ [ ] [ O.[ N.N.>.;X$Xg m 8.E.Y.fXMXFXBXfXfXfXfXMXfXfXaXMXdXdX>Xk / / ' ^ S.Q.^.Q.Q.Q.G.G.N.N.>.O.O.t u : , 5 5 t u b M N Q d.v.v.I.v.d.d.v.v.[.qXqXuXzXSXKXAXlXeXhXqXZ P a.d.b.b.b.b.d.b.d.m.m.m.b.n.c.O. .O.r , 5 . . o o @ ; , 5 5 C V V V c N.d.v.j.j.d.a.a.a.! Q Z ",
"Z N b.Q Z         & 4 x Q n n n n n n n n n ! Z  .s.s.s.] `.P.`.!.^.!./.<X{ B.G.v. .| L.F.D.D.D.D.U.D.y.e.e.e.e.y.D.8.e.N.r.q.8.9.9.9.9.R.&X*X;X>X4X>X>X;X~.~.^.].qXqXuX0XH., t x     X t 4 4 5 x x 6  Xj.Z.0XN.C.N.l.{ V.V.k.j.j.j.d.d.j., 4 5 x m F V ' ' ' { N.N.N.:.>X:X;X<XB A 8.R.R.kXfXDXBXBXBXBXBXMXMXMXfXfX4XfXdXaXaX..E ' ^  .P.!.Q.L.Y.G.N.9.N.>.u t u r 2 5 r u c m N Q ! d.d.d.d.d.s.O.s.O.H.tXeXzXAXJXAXlXhXhX0XV n Z } b.d.V.I.I.I.b.I.b.v.v.O.X.| h F.Y.[ ; 2 . . o o @ > 5 5 m V C m n z N.j.d.d.d.d.a.a.} a.Q ",
"! b.n ! x u x t     % :   b Z n Z n Z n n n ! ! s.s.s. .s.u W.!.^.^.:X0XF V.B.v.O.| |  .F.D.D.U.U.D.e.D.e.e.e.D.e.y.q.q.8.9.8.9.8.7.7.7.7.u.*X=X>X3X>X;X;X~.Q.~.^.].qXo.jXqXB., t x   . 4 c n x b B.N./.B.B.V.N.d. X.XI.V.V.k.k.N.j.j.d.2 5 5 5 , V D F ' } d.N.N.B.:.X.~.~.R.R.E.~ ~ 8.Y.Q.kXBXZXBXZXBXBXBXBXMXMXfXfXdXaX*XfXfXaXaXU.v.Q Q v.H.L.J.G.N.N.v.O.!.M u u 2 5 r u b C C V d.d.d.s.{ O.s.O.s.s.d.eXzXCXHXHXVXC.uXeXH.x n ! I.I.I.V.N.V.v.v.d.O.O.) G.F.Y.Q.~.aXq.; 2   . o + ; , 5 b V C b b x u N.d.j.d.j.d.a. .} ! ",
"b.! { s.b b b x n z         6 Z Z Z ! Z ! Z Q s.O. .s. .Q Q  .C 0XwXeXj.j.N.N.v. .| W W F.U.D.D.D.D.D.e.e.e.y.r.q.r.G.C.r.r.8.8.8.7.7.7.7.7.E.*X>X>X;X*X*X~.R.~.~.^.qXqXiXuX[.N.5 t x C c z ^.N./.]./.G.N.v._..X XI.I.I.B. Xd.k.b.k.' 6 5 5 5 5 5 C V } { d.V.B.H.&.O.^.Y.F.U.Y.R.Y...E N.F.!.CXAXAXDXZXBXBXBXBXMXfXfXsXaXfXaXaX,XsXsXwXeX~.n.! ! m.K.b.n.G.N.3.1. .y u 2 r r u x b C ' O.{ {  . .}  .] O.s.d.qXVXAXJXCXlXzXuX0Xv.b b b.b.v.v.c.O.O.] ) 2 G.F.Y.Q.~.~.^.!.HX4X+ 2 . . o @ > , m m x x b x b t v.v.k.d.d.s.a.f.! ",
"s.d.d.N n b n N n n N N 4       n Z ! Z Z Z n s.s.s.d. . .{ *.l.t N wX*.l.N.N.d. .W W I F.F.F.Y.D.D.e.e.e.e.e.r.r.u.E.q.8.8.8.7.o.o.2.2.o.7.9.R.>X*X*X~.R.R.Q.Q.!.Q.!.!.H.`.[.I.d.5 u d.j.N.~./.W.N._.K.K.K._.K.I.b._. XI.I.b.b.b.t t t 6 r 5 r ' F } { j.j.N.V.[ O.7.L.F.F.D.U.Y.D.U.8._ G.!.^.SXHXSXAXAXZXBXBXkXfXfXfXfXaXsXsXaXaXeX:XhXhXeX0X^.V ! s.m.m.n.8.3.3.3.y y r 2 r y u x n ' ' ] ' Q ! Q ] ] ] O.{ Z.CXAXSXzXkXjXeX0XO.z d.d.O. . .E T j G.G.D.Y.~.:X;X;X~.G.wXHXBX. > . . o - > u f g u f f b x t v.j.d.d.d.d.d.b.",
"O.d.R N N N N N N N Z Z N n x X   6 Z Z n n n !  .s.s. . .O.j.Z.rXC.2.3.l.B.d.O.W W W T o.D.D.D.D.D.D.e.D.e.e.E.G.u.C.r.9.r.7.o.;.o.>.o.o.7.7.>.;X;XR.U.E.r.r.8.G.G.G.H.L.`.[.`.B ] N./.^.W.C.[._._.K._.m._.K.K.K._.I.I._.I.V.v.m c i u t r 5 ; V F } a.d.N.B.j.d.] !.P.L.L.F.Y.D.F.F.D.F.O.H.^.].HXJXHXHXAXZXZXBXkXfXsXsXsXsXsXsXeXeXeXeXeX^.eXtXtXtX[.n. . .m.n.3.1.y 2 5 r - 2 5 r 5 n N V V V V R Z R Q Q ' { { /.AXlXzXE.iXqXQ.] !  .E R R 3.3.8.G.D.F.R.^.;X^.E.G.9.C.DXJXFX. - . . o @ f u u b u f x f b t b.N.v.v.d.b.v.",
"d.! Q Q Q x N N Z N Z N Z N Z Z n 9 & n G n n Z s.d.d. .v.O.N.%XrX[ j.[ r.j.O.R W W h I I D.F.D.D.A.D.e.D.e.U.U.U.E.u.8.7.o.o.o.o.o.o.o.o.>.7.9.9.9.u.N.r.8.8.8.v.G.G.H.I.[.[.`.u x Q F d.W.I.I.I.K._.K.K.K.m._.K.I.I.I.I.I.d.V V B b x r , > u V } { g.j.V.v.j.] wX).`.P.L.F.F.F.F.F.F.F.Q.v./.^.].HXLXJXHXAXCXZXzXzXhXhXhXhXhXhXhXuXuXuXuXeXqXqXqX!.tXqX].^.D. .| | 3.n.f 5 r ; 2 + @ 5 b b b M V n V V V V ' } [ ' } *.zXsXE.eX^.Q.] W  .o.2.3.8.G.E.F.R.~.;X~.q.G.C.N.G.aXDXLXHX. + > o + y u f f u f u f u u u N.v.v.I.b.] ",
" .Q ! Q ! N N N Z Q Q Z N Z Z N n Z Z n n n n n d.s.c.s.d.N.B.0X{ j.j.l.j.9.F.N f h h I I F.F.D.e.D.D.D.U.D.U.U.E.T.D.>.2.o.o.o.o.o.X.o.o.7.o.j.j.q.r.9.8.r.r.G.G.n.H.n.J.'.}.J.d.] 5 x   . m I.m.I.m.I.m..X_.m..XK.K.K.K.s.O.' R V r 2 , 2 , A ' &.[ j.B.V.d.' d.'.`.).!.!.F.F.S.L.L.F.F.Q.!.N.W.^.qXLXKXHXSXAXCXZXlXzXhXuXhXjXuXuXiXuXuXuXuXtXtXqXtXqX[.Q.0X:X~.Y.w.5.W 5.W ; , 5   . o u f f u b b b m B C V D V R ' } ' ' P.qXqX^.L.r O.O.3.8.G.G.U.~.~.R.N.9.N.G.q.q.C.C.PXPXJXFX+ + - o u d f u i u y u y y u y v.S.v.! d.",
"O.! N Z N Z Q Q N Q N N Z N Z n Z Z n G n Z n n ! s.c.d.j.N.W.N.j.d.d.v.d. .! X.h d h h | 3.e.w.w.w.w.r.r.8.r.q.C.9.7.>.o.2.o.o.X.o.2.o.o.o.2.>.9.9.9.9.9.8.4.G.G.n.G.I.H.[.tXj.5 i } 6     X o , b.I.m..X.XK._.K.K.K.I.d.s.O. .u t r 5 2 5 m A [ { j.N.N.O.] j.W.'.).'.).).P.L.L.J.L.L.L.!.!.`.W.`.].xXKXLXHXSXCXCXlXlXzXjXjXjXiXuXuXuXuXiXuXtXtXtX[.[.].].].~.w.;X~.Y.D.e.q | > > , 2 - + y t u u u f b x m C m Q N ] [ *.a.{ ] H.!.Q.W ] 3.v.N.G.Y.^.Y.:X9.9.9.C.q.N.C.N.C.gXNXFXPXBX> + - u f f f u u h f f h h b b v.3. .v.",
"Q ! ! Z Q Q Z Z Q Z N N W Z N Z Z n Z n G n n n Q d.d.b.v.B.W.} j.d.v.d. .! W N  .I h 1. . .A.D.A.w.w.4.e.8.E.N.9.7.9.7.o.1.2.2.1.o.o.o.o.o.>.7.9.9.8.8.4.8.8.3.n.G.S.G.H.}.qXqX5 t c ' 5     X O O : f..Xm..Xm.m.K.s.] n b b u t r r r 5 r D } &.j.Z.N.{ } :.j.'.'.'.'.).`.).P.].J.L.K.L.P.!.`.].[.[.qXzXKXJXHXAXCXVXlXzXjXjXjXjXjXiXuXuXuXuXtXtX[.[.[.].`.].^.~.Y.U.r.~.Q.Y.D.w.4.f - ; , N M M M N M N N V D V V N V V ' ' ^ Q Q ] !.2 M R O.G.E./.E.9.>.N.q.q.>.C.q.l.9.C.9.MXMXmXFXmX2 + T T T B B B g f f u y h 8.R. .v.3.",
"! ! ! F Q Q Q Q W Z W Z N N N Z Z n Z n n Z n n n b.b.d.V.W. .s.s.f. .! ! N M M b M 4.3.3.5.4.A.w.A.w.D.e.E.N.q.>.9.8.o.2.o.2.o.o.o.o.o.o.o.o.j.o.8.8.8.3.8.4.G.G.m.G.I.H.[ tXqX, 7 u m Q 5   . . o $ : 5 ! c.d.b.N N N M m x x u y r r r D ' [ g.N.B.*.} >.N.].].'.'.'.'.'.).}.[.I.L.P.P.P.`.`.'.[.pXqXuXVXKXJXSXAXVXVXlXzXjXjXiXiXiXuXtXuXtXtX}.[.[.[.[.[.`.^.Q.Y.Y.D.D.U.e.R.Y.F.F.D.3.2 2 u u t u t u u x u u u u x m m D m C M m n m ] ) . r N.>.9.>.N.9.C.j.q.j.q.9.N.9.C.>XmXmXmXMXMXq f f f y q ~ C.-X*X=X;X>X>X:X:Xo. .",
"s.] ! } } Q Q Z Z ! Z Z Z Z Z ! n Z n Z Z n n n n ! d.N.I.j.Q a.a.s.! n M N b b f u u ! n.3.3.S.D.D.D.U.C.9.<.N.>.9.9.7.3.2.2.o.2. .2.O.X.o.o.7.o.8.4.8.8.4.G.v.N.G.G.I.I.^ iXuXt 5 6 x V Z 5   . o @ ; 4 5 Q ! Z N V V M M b b u u u r r ^ [ [ D Z.>.l.*.j.j.].[.[.[.[.'.`.`.}.}.P.I.W.P.`._.'.'.}.[.pXpXpXVXKXJXSXAXCXlXzXzXjXiXiXiXiXuXyXtXtX}.}.}.}.[.'.`.!.Q.Q.F.Y.F.D.D.U.D.Y.~.L.Q.F.A.3.3.8.3.7.>.9.j.l.N.>.7.N.j.N.N.C.C.C.N.C.N.2 C.C.. ; B >.>.>.>.<.l.>.<.9.q.9.9.9.9.mXdXmXdXMXdX9.q.q.E.E.;X,X,X4X4XaX9.9.9...G.O.",
"d.{ { } Q Q Q Q ! Z Q Z Q Z ! n n Z G n Z G Z n n Z b.V.V.Z ! a.! Z n n x x x x x u u u u d.n.L.F.F.G.N.N.C.9.9.N.9.9.8.7.7.3.2.1.o.o.2.3.3.O.j.v.8.8.3.N.8.G.G.H.I.V.H.W.(.iXuXD 4 5 u C Q Z t . . o $ , 5 . n Q Z R Z V n n m b i u t ' ' &.j.C.*.N.*.j.l.0X].qX[.[.[.'.'.`.yXyX).P.).).`. X_.'.{.}.{.qXpXjXCXLXJXSXCXVXlXzXjXjXiXiXuXtXtXtX}.[.}.}.[.'.'.'.`.!.L.Q.F.F.D.D.D.D.D.F.D.F.2.!.F.L.L.L.L.H.Q././.Q.G.G.Y.Y./././.<X/./.E.:XC.p :X>.o > > / <.l.>.9.>.7.7.>.9.9.7._ 9.>X>X,X,X,X+ N.*X;X,XwX4X>.,.>.>.>.:./.E.B.C.",
"C.g.] ! Q Q Q Q Q ! ! W Q N N Z Z n n n n n G Z n Z V.I.n Z Z N n n x x x x z x x x u u u u { L.Q.E.E.N.C.9.C.9.9.9.C.9.9.3.3.2.3.3.O.3.O.v.N.O.O.O.3.N.n.N.n.G.H.B.I.B.Z.W.iXqXc : , t b Q a.V     . @ O     . N Q Q R V V V m m b x i ' &.*.Z.*.x.*.g.l.V.qXqXqX].].'.'.'.`.tX}.I.).I._.I. X_. X{. X'.rXpXuXxXSXHXSXSXCXVXlXjXjXiXiXyXyXtXtX}.}.}.[.}.'.'.'.`.).P.L.L.L.Y.F.F.D.D.F.D.F.n.Q.A.J.L.T o...p > e p _ N.G.H.Q./.^.W.<X/.C.aX,XB r ,X&.o : 5 r &.>.:..._ ( ( ( ( ~ ~ ~ ;X>X>X>X,X+ y ) ` _ $.%.*.&.:.:.B.E.E.E.B.E.",
"C.N.d.] ! ! ! Q ! Q ! W ! N N Z Z Z n Z G n Z G Z Z k.d.n ! n n x x x x x z x z t x t u x b b c N././.G.C.9.q.N.9.9.9.9.8.7.7.3.2.3.7.2.O.O.O.d.O. . .O.O.O.G.H.V.B.W.Z.V.(.yXtXc ; , 5 u C } d.Z   X           . Z Q Q V V V V C m b { { *.B.*.l.*.*.j.l.qXqXqX].[.].'.`.`.'.}.}.).K.K._._..X_._. X X X|.}.pXuXxXSXHXAXVXVXVXzXjXiXiXyXyX}.}.yX}.}.|.'.'.'.'.).).).P.L.L.F.F.F.F.D.A.D.D.F.S.L.F.J.L.L.L.!./.{.!.Q.Q.!.!.^.^.^.0XwXeXsXC.,XE.5 C.C.#.o > 5 ; g ~ ~ ~ ( U ( ( ~ ~ ~ 9.>X>X>X,X+ r y ^ / / #.%.&.#.E.E.E.H.E.C.Z.",
"N.8.N.O.] E ! ! ! ! ! ! W ! Z Z n n G n n G Z n f.Z Z x Z n n x z z z t t t z z x z t x x u z u } { N.E.G.N.N.8.8.8.7.8.7.8.8.3.3.3.]  .O.O.{ { O.O.O.] O. .a.d.v.B.Z.W.W.W.yX[.`.; $ 5 t C Q f.d.x                 V ' Q Q V Z V m C [ { B.*.j.*.>.j.j.B.eXqXqXqX].[.].'.'.}.}.|.'._.K._.m.K._..X_._._.'.}.tXuXiXxXSXSXCXVXlXjXjXjXiXyXyXyXyX}.}.|.|.'.'._.).'.).).P.P.L.J.L.F.F.A.D.S.A.S.F.D.n.L.F.L.L.!.{.:X!.!.!.Q.Q.^.^.^.].0XsXsX,X,X;Xm [ N.8...o , r - j ~ I ( ( ( T ~ ~ ~ ~ ;X>X>X>X- y r u A / S / C.Z.E.Z.E.C./.C.C.",
"N.9.v.o. .E Q E W ! ! ! ! N N N N Z Z n Z n f.s.Z n f.Z x x z z t t t t t t z z x z z x t z t x m } { { Y.E.G.9.8.8.8.8.8.3.4.o.|  . .) O.O.O.O.] ] {  .] O. .a.} } a.k.W.W.[.[.`.$ @ , r x Z ] s.! 6 4 4             ' Z F Q Z V C g.{ B.>.j.&.*.j.j.j.qXeXuXqX[.[.'.'.'.|.yX}.}.|.K.K.m.m._..X_..X_._.'.'.}.tXtXuXxXSXSXCXlXzXjXiXjXiXyXyXyX}.|.}.|.'.'.'._.).).).K.P.L.L.S.F.F.S.F.A.D.F.F.F.L.n.n.J.!./.rX^.!.P.Q.!.!.~.^.^.:X0X:XwXwXaX,XR.u o...T o.O > q - T I ~ ( I ( ~ ~ T ~ C.>X>X>X- r y i i m :.C.C.C.E./.E.C.E.C.N.",
"N.9.9.3.o. . .  u !  .! ! ! W ! N Z Z Z s.f.Z Z f.f.d.s.z t t 9 t 6 t t t z t z x x 6 z t z t i x } } ] ' j.E.G.8.8.8.3.8.| | | | X.X. . .O.{ O.O.] ] ]  .} } { } } Z Z F ' I.[. X] @ ; 5 z V Z Q Q Q @ 4 4 4 4         ' ' F F V F { V.B.j.*.*.*.j.j.W.qXuXuXqXqX[.[.'.[.|.}.}.}.}._._._. X.XK.K._._._.'.'.}.[.tXpXiXxXSXAXCXlXjXjXiXyXiXyXyX}.|.|.'.|.'._._.).).).P.K.K.J.L.S.S.A.S.S.S.S.S.F.F.F.G.v.v.H./.^.!.!.!.!.!.^.^.^.:X^.:X~.;X;X;X*Xu 2.X.~ 2 T.q > 2 y ~ I ( ( T ~ ~ ~ ~ ` >X4X>X- y i y r i i C.C.C.C.C.C.B.C.N.C.",
"7.9.N.3.E E W t   . ! E ! W ! ! ! N s.s.s.Z s.f.d.b.b.b t t 6 t 6 t 6 6 6 t z z 9 6 9 z z z z c z D } ' ] ' ) G.G.G.2.| | 1.| | | X.| O.O.] O.[ ] ] ] ] [ ' } ' F Z V F ' Z m x m t + @ 5 t N C N O.d.j.tX} 7 4 6 6       ' ' F F j.V.'.g.[ *.g.j.g.{ V.}.tXuXuXqX}.[.'.'.|.}.}.}.}._.I._..X.X.XK._._._._.'.'.|.}.pXpXuXxXSXCXVXlXjXiXiXiXyXyXyX}.|.|.{.'.'.'.)._.P.P.).P.P.J.S.S.S.A.S.S.F.S.F.F.F.F.F.N.j.V.N.Q.!.!.~.~.^.^.~.^.~.~.~.;X;X9.T.y.2 X.1 2 2 U.w - 2 I X.( ( U ~ T ~ ~ ~ &X4X>X- i y y i g i m C.C.C.C.C.C.C.N.9.",
") ) E E W R W  ..   5  . .! ! W s.s.s.! Z s.c.c.b. .f.a.t 6 r 6 t t t z z z z z z z z z t z z t c c } ' ' ' R R W 3.5.4.2. . .| |  .| | X.] ] ] ] ' ' ^ F ' F F F { } F G '.j.N.W.qX0Xj., C m d.j.j.B.B.W.jXjX^.6 7 7 6 4 X F ' ' Z.B.g.[ { F V Z ' } } a.g.{.uXtX[.}.[.[.}.}.yX}.}. X_.K.K.K.K._.K.K._._.'.).'.'.}.tXpXuXxXAXVXlXzXzXjXiXyXyX}.}.}.}.|.{.'. X X X_.K.P.K.J.J.S.S.S.S.S.S.S.S.S.F.F.F.Y.Q.N.N.j.N.N.G.!.^.~.~.^.Q.~.~.:X~.R.U.*Xy.W X.q 1 q 0 T.U - > ( 1.2.2.1.......~ ) 4X=X> y B u y i g a m j.C.q.C.9.E.9.) ",
"] ) ) E W  . .E o   o W ! |  .c.s. .! N c.M.m.m.s.s.s.! t r 6 t 6 t z z t z z G x x z z z z t c c x ' ' ' n b b f f 2.4.4.4.3.| | ) ) ) E ] ) ' D V D D D F j.g.} F C j.N.B./.].>.[.jXuXtX0X/.V v c t F V.d.zXlXlXjXj.4 4 4 c k.{.V.*.c X 4 G C Z F } a.a.j.x.k.k.{.[.[.[.tXyX}.}.}.P.I._.m.I.K.m._._._._._._.'.'.[.}.pXpXxXlXCXVXlXzXjXjXiXyX}.|.|.{.}.'.'.{. XW.I.P.K.P.K.K.J.J.S.S.J.S.F.F.F.F.Q.Q.~.!.^.B.B.k.N.j.9.N./.Q.Q.~.~.~.R.R.R.R.r.T.6.1.q q q q w &XoXy 1 X.X.o.X.......o.:.=X>Xq y g g i u i g m g >.:.[ _ [ [ ] ",
"_ ) ) o.X.E M h ]     ;  .c. . . .! M.M.m.m.m.c.c.c.f.s.N 5 6 t t t 6 x z z z z z z x z z z z t t t c x b b b N W N W W n.8.n.4.3.| ( E ^ B B B m b i c F F C v Z.k.Z./.0Xj.j.j.>.B.B.C.Z.eXjXuXqX0XZ K K K L k.V.W.[.uXqXt 7 * (.* 4 6 v c c C F F F } a.a.g.x.j.k.k.V. XyXyXyXyX}.`. XI. X_.I._.m._._._._._.'.'.}.{.[.pXpXxXCXCXVXlXjXjXiXiXyXyXpX|.}.|.{.}. X{. XW.I.I.P.K.J.J.K.J.J.L.J.L.L.Q.Q.Q.~.~.Q.~.L.B.N.N.N.N.N.N.~.~.~.:X~.*XR.&Xy.&Xu.> y q y w d j =X&X0 1 ( ( ( ..( ( _ _ 7.mX6Xr i B f i g m i g &.&.:.[ [ [ _ ",
"..O.O.( B u ] 8.G.wX8.  f  . .W | M.M.m.m.M.m.c.c.c.s.s.s.6 t t z z z z z x z G G z n z x z z z 6 5 5 c n V Z W N N W M M W n.r.G.r.N.) h f u r r 2 b u 6 ].j./.rXeXZ.Z.C.j.j.j.j.N.N.C.Z.Z.E./.zXjXjXhXqX} K K a.k.k.k./.k.Z.(.ZXHXZX4 6 c c v G F F F a.a.a.g.k.k.k.k.V.k.tXiXyXtX'. X XI.I._..Xm._._._._.).'.'.'.{.}.pXpXpXxXAXCXlXzXjXiXiXyXpXyXpX}.}.(.{.{.`. XB.I.I.I.P.L.K.L.L.K.L.L.P.Q.Q.Q.Q.Q.Q.Q.Q.Q.E.N.N.G.8.N.N./.,XwX;X~.R.*X*XR.y.&X7.d y y d j I ( =X2X6.w I I T I ~ ` 7.9.6XdX*Xy g m A i i m g _ :.&._ _ [ _ ",
"O.) B g y 8.G.G.G.0XaX:Xf W  .3.M.n.n.n.n.n.M.n.M.b.c.c.s.t 6 t x z x x n z z z z z z z z t 6 6 6 6 6 C C V Z N N M b b b f u O.G.G.8.8.2.E r u u 2 A :.C.~.qX].].^.9XZ.Z.l.N.j.j.C.z.C.Z.Z.Z./.^.^.0X^.VXlXjXhX:.a.D C.Z.<XrXeXhXVXJXz.4 c 7 c c D F F F a.g.g.g.k.k.j.k.k.V.qXtXtXtXW.I.I._.I._._._._._._.{.).'.'.{.pXqXpXpXhXxXSXCXlXzXjXiXiXyXpX}.pX}.{.{.{.W.W.(.W.W.I.I.P.P.P.L.P.P.!.P.!.P.Q.Q.Q.F.F.F.F.F.Q.N.N.v.N.N.E.:X:X:X:X;X;X*X*Xu.=XoXj j d d h I ( X.1X1X2Xe j j h >.9.<.9.T.dX6X#.y f B i f i m _ [ [ [ :.[ >.",
"A g r :.N.E.E.Y.8.8.,XsX:X4.3.n.n.n. .n.M.n.n.M.M.M.c.s.s.! u x x x x z z z n n z x x n n z z 5 5 5 6 z c C C n b b b u u r r r f 8.3.3.o.o.8.g 9.>.U.;X0X0X].qX].].W.Z.Z.z.z.l.j.C.l.C.C.Z././.:X0XeXuXhXjXlXVXAXCXZ.9XeXwXjXuXZ.l.SXLXF 4 c c v G G F P P P a.g.g.x.x.k.k.k.z.{.yXtXW.W. X_.I.I.)._._.).`.`.'.{.}.[.tXpXpXpXiXxXxXSXVXlXjXjXiXyXtXpX{.pX{.{.(.{.(.W. X{.W.W.W.!.W.!.!.!.P.H.L.P.L.L.F.F.F.F.F.F.F.Y.G.N.G.N.N.^.~.~.~.~.>X;X=X*Xu.&XI j j j I Y X.1.2.5X1X3Xj ;.;.7.>.9.9.9.6X6X4X2 i m A g g _ &.&.&...j.>.[ ",
"p &.q.G.E.Y.Y.N.8.N.~.,XR.;X  u n.n.n.n.M.n.M.n.M.b.v.c.s.! x x x x x x z x z z x z z n G n c n C c z 4 C m c x x u u t r r 2 , ; @ T o.O.2.) A O...Y.:X0XqXqX].].].^./.Z.C.C.z.l.Z.Z.Z.Z.Z.<X<X:XqXeXhXjXlXVXAXHXSXHXeX{.0XZ.Z./.z.eXLXKX* 7 v c c v F F F P g.g.g.g.g.x.z.k.x.k.Z.uXW.W.{.W.W.{._._._.{.`.`.'.}.{.[.tXtXxXpXxXxXxXzXSXlXzXjXiXiXpXpXpX{.{.pX{.{.(.W.Z.Z.W.{.W.{.^.W.W.W.L.!.L.L.L.S.F.S.F.F.Y.F.Y.Y.Y.D.N.G.G.~.~.Q.Q.Y.~.;X,X>XE.=X7.~ ~ T Y | X.6.( 6.5X5X2X$...7.7.7.7.9.>.dX6X3Xm i A D g :.&.&.>.>./ S m ",
"l.C.E./.~.9.N.9.N.8.) aXaX,Xe.  >  .4.n.4.n.M.M.M.M.c. .! W N b x x x x x x x x n z n 9 6 4 % : 6 C Z C k.k.{ Q t r r 5 2 > ; @ @ @ O 2 E X.f [ ) ] ..O.o.qXqXqX].].^./.Z.C.N.l.l.%X%XZ.%XZ.<X0X0XeXhXhXzXVXAXAXSXSXSXSXqXB.Z.Z.Z./.*.9XLXKX% % %   X & % 4 4 7 9 9 c c G F F F F a.a.(.W. X X{.{.W.{.W.!.{.{.].[.pXyXpXtXpXpXpXxXxXjXVXSXlXxXjXiXpXpX}.pX{.{.{.W.(.(.W.(.Z.(.{./.W.W.W.P.L.L.L.L.F.S.F.S.S.F.D.D.Y.Y.F.Y.F.G.B.Q.Q.F.F.Y.Y.R.*X>X>XE.=X_ ( ( X.X.6.I X...0.bXbX2X2Xj ( 2.6.7.8.T.6X4X=Xi g A S [ <.>.%.S v p :.",
"E.E.~.;XN.l.l.N...[ ] aXwX;X:X2 o + q n.n.n.n.v.n. . . . .! W b b x b x n x x n n 9 6 6 5 4 % % $ < 6 C { V.B.H.H.G.H.O.C ; ; - ; @ 2 > - 8..._ ..] O. .O.O.) [.0X[.].^./.B.C.j.j.z.Z.%X%X<X<XeXeXsXzXzXVXCXCXCXCXAXAXhXsXB.C.Z.Z./.g.0X%X%XKXz.% *       & % % % * 4 4 6 7 9 9 9 c x c C Z d.d.v.d.d.v.d.N.N.N.V.V.k.(.V.Z.(.k.(.(.z.UXUXAXCXlXzXxXxXpXrXpX{.pX(.(.(.Z.Z.(.Z.(.Z.Z.Z.B.B.V.I.b.G.m.n.G.S.G.G.G.G.G.F.A.F.Q.!.O.S.F.F.F.A.D.Y.T.*X*XE.5Xo.....>.7.7._ ..;._ &X2X2X2X2XU - h 7.3.;.6X4X>X>.g m A >.%.D A i 5 <.C.",
"<X~.<.N.j.C.>._ [ ) ..) aXaXfXR.  o + - W M.n.n. . .| !  . .! b b b n x x n n x z z z 9 6 X O O O @ @ $ 6 V.B.B.H.H.H.F.F.G.N.( X.5 e.7.u.T.T.9.] ) X. .O.3.O.v.] ^.].`.!./.C.N.l.C.C.%X%XgXgXeXhXkXlXlXVXlXCXCXCX<XsXhXxXwXB.Z.Z.Z.l.uX%XZ.Z.%XKX4 % %   X & & % * * 4 * 9 6 9 6 9 z z x n n N Z s.d.s.v.b.k.k.V.V.V.V.(.V.V.(.k.(.z.(.z.UXCXCXzXzXxXxXpXrXpX{.{.{.(.9X9XZ.Z.Z.V.Z.V.V.V.H.G.G.G.b.V.n.n.N.G.3.G.G.G.G.G.G.G.G.3.S.S.n.n.A.A.D.U.U.R.T.B A ~ ^ ) X...( ~ I ( I =XoX5X1X6.d f X.( 4X3X3X=Xr g m ^ m p 5 j.<.C.Z.",
"Z.l.l.N.<.&.[ _ [ ..] ..aXaXBX,XE   o ; - r E |  . . . . .!  .N M b b b n x x x x x x z t $ % & O O O O + t C B.B.H.H.H.H.E.8.o.R.| > q f | R.;X;XX.| o.O.c.v.d.v.d.O.O.~./.B.C.N.B.Z./.rXrXsXzXZXzXzXlXlXCXCXCXeXeXeXeXeXsX,Xj.Z.Z.Z.j.rXZ.Z.Z.Z.eXh.% *     & & % % * * 4 * 6 6 6 6 z x x n n n N N ! s.d.v.b.d.V.V.V.k.k.k..XV.k.V.z.z.UXz.AXlXxXxXpXpXpXrX{.{.rX{./.W.Z.V.B.V.V.k.B.B.V.V.b.I.G.G.b.G.n.v.n.N.G.v.G.B.H.G.n.n.n.n.n.4.w.w.A.A.e.7.r.g g A ~ ~ ) X.X.X.X.( ( ( u.oX1X1Xy d d T 7.u.>X=X=XB B p 3 &.>.<.C./.<X",
">.<.l./ %.} %.[ _ [ O...~.aXaX,X>X  . o @ ; ; f  .|  . . . .! W W M n M b Z C Z n n t 6 7 4 < $ O . . .   ; u t m H.H.G.H.N.9.9.R.8.2 r q q q r 2 W 3.| o.3.s.s.v.O.3.d.v.O.>.>.>.N.j.C.j.l.Z.kXZXAXCXVXCXAXZ.eXeXeXwXeXeXeXsX<XB.Z.Z.Z.0XZ.Z.C.Z.Z.g.hX* * *     & & & * * * 4 4 6 6 6 z x x x x n n N N Z !  .c.c.f.b.k.b.k.V.k..Xk.k.UXk.x.UXAXxXxXxXpXpXpXrXrX9X(.{.W.I.H.B.B.k.V.V.V.N.V.B.V.G.V.n.G.n.v.G.G.G.G.G.G.G.v.n.n.n.n.4.4.w.w.e.w.w.X.r.q j g g B ^ ~ ( X.X.X.X.( X.oX1X1X=Xy d h h =Xu.=X=X*Xj _ :.>.9.C././.>.",
">.:.F / / %.%.%.[ [ [ [ o.dXaXaXfXD.      o - > > W  . . .E | ! M M M C ' Q Q n t r , ; v 7 4 % X .         5 r r t b H.G.D.8.9.7.u.2 y r y y r y r r r     N 3.O.O.O.R ) ] ] O.>.j.N.l.j.C.l.z.C.z.z.z.l.eXgXsXsXwXeXeXsXsXhXhX%XC.z.B.tX{.Z.k.z.z.h.F v c * % *   & & & * * * * 4 4 6 6 6 t t z x b x n n ! ! s.s.s.f.b.k.b.k.b.k.k.k.k.x.k.x.x.lXlXxXxXrXpXrX{.{.{.Z.W.Z./.B.B.B.V.V.V.V.B.B.G.b.v.I.b.G.G.v.v.G.b.G.G.m.n.S.S.n.4.4.4.w.w.e.e.w.1.1.h u.u.k j j ~ ` _ _ ..;.;...X.q.1X2X..d d h h + *X=X*Xd ;.>.N.E.E.>.&.&.",
"A V / ~ S / / [ %.*.&.{ O.fXfXdX4XdX>.    o o + - > y  . . . .E W y } } } N u 5 5 5 W O.m 5 5 2 :           o 2 , 5 , 5 M E.r.q.>Xy.q y y y d y y y y y u r     .   r R Q ] ] O.O.:.j.l.C.l.C.N.C.l.l.#Xz.gXrXrXrX0XeXrXeXeXeXsXhXZ.z.j.Z.qX/.B.C.z.h.F 7 g.g.x.* * * & & & & & * * 4 4 4 6 5 6 t t x x n N N ! Z Z s.s.s.s.f.d.f.k.k.k.k.x.x.x.x.UXxXxXxXcXpX9XrX(.{./.W.W.W.W.Z.B.V.V.B.B.B.I.B.V.H.n.V.n.v.G.G.B.G.H.G.n.J.n.n.n.4.4.4.4.A.e.e.w.1.;.q 9.u.oXoX~ k B ~ ~ ..` ..X.X.o.1X2X&Xd d j X.9.( ~ q.y ) q.G.G.` _ _ [ ",
"A ~ A S ~ ^ / _ / [ *.>.*.D MXfX,XdXBX4Xg   o . o = - > f  .| b { g.*.Z u t r 2 S.2.F.kXkXsX,X .@ . o o       + @ @ @ u y o.G.E.9.U.( y d d d d f f f f d u u 2   . o 5 r t t V j.j.>.j.k.l.j.l.l.z.C.z.l.z.Z.{.^.<X0X0X0X0XeXeXsXhX/.C.0XtXrXZ.z.Z.x.K 6 k.x.x.iXx.* * & X X & & & % % * 4 4 4 5 t t x x n n N Z Z Z Z s.Z ! f.a.a.x.f.f.f.f.x.x.x.UXxXxXxXxXpXpXrXrX/.{.Z.W./.Z.B.Z.B.B.B.V.B.I.G.I.B.n.I.G.m.H.H.H.G.G.J.n.m.m.n.n.4.4.4.e.e.y.U.1...y X.&X&X&XoXoX$.g U I U U X.( X.X.=XOXoXd d Y X.6.y 0 y j R 7.~ ) ) B A ",
"A T A ~ ~ ^ ^ ^ ^ _ [ :.>.j.MXfXaXdX4XdXfX&X    + . + @ ; r *.l.*.V r r 5 O.| 4.Y W wXeXsXfX>XBXfX>XC.q   . o 2 2 u r r r y E.r.9.&XU.y d h d d d f f h f f f f b ; o @ 6 t t t c C D C j.%Xl.j.l.Z.l.z.z.l.z.C./././.0X0X0XqXeXuXeXhX/.{.tX0X{.Z.z.z.} 4 x.k.x.k.x.CXF * * * & X & & & % : : 4 5 6 6 t u x n n Z N N N ! Z ! ! Q a.Z a.f.P f.f.x.x.x.UXxXxXxXcXcXrX{.(.{././.{.W.B.B.Z.B.W.V.B.I.H.I.H.V.n.I.G.H.W.H.H.I.m.n.m.m.n.n.n.A.4.e.D.U...r.( d I u.2X2XoX=X1XoX;.d j I U I Y Y X.oXoXj s I U 6.U ;.u.y B ~ f d ] j B ",
"A j j ~ ~ B ~ ~ ( ) [ { j.>.&.MXMXfXdXaXFXFX4X_   . o o @ l.j.A u r 2 r.1.w.( Y ( 8.:X0XwXwXaXsXfXsXfXaX4X;X>.g r u g f r u g E.>X*Xq.y h d h d f d d f h f f b b b u ; 2 t t x z C C C G m c 5 x z.l.z.z.l.j.l.C.{./.^.^.0X0XqXeXeXuXjXhX].tXrX(.Z.Z.x.%.k.(.k.k.k.k.}.lXG * * &     X & & % : 4 4 5 r t x x b n n n n N n n Z Z F Z Z Z P P P a.a.x.x.UXxXxXxXxXrX9XrX/.{.(././.Z.W.W.Z.B.W.W.B.H.H.B.I.H.G.H.J.H.I.H.m.J.m.H.S.m.S.n.n.A.D.U.U.Y i.q f I u.0.oX2X2X1X2XoXoX@.j j I I I I Y oXoXj j d j e ;.1Xk r j h u d ..j ",
"j j A T j T T T R ) O.o.7.>.>.dXdXMXMX6XdX4XfXMX>X    + . D b r G.;.6.e.I Y I Y Y Q.Y.~.~.:XwX,XaXaXwXwXdXdXfX,X>.r r u g f y [ R.*Xq.d d h h h h h h h f f h b M b N C x 6 t x x x b c x 6 4 4 4 4 7 F F F j.j.k.N.]./.^.0X0XqXeXeXuXjXzXlXuXpX9XZ.Z.k.z g.k.k.k.k.k.k.k.yXjXz 9 4       X X % % , 4 5 6 r t x x b n b n n n n G Z G Z Z Z Z Z Z a.P a.x.%XxXxXxXrXrX(.(.<X<X/.W.W.Z.W.Z.W.Z.W.H.W.B.H.H.I.H.H.H.H.J.P.I.m.J.J.J.m.m.J.S.D.A.D.U.7.6.d d W Y &X&X@.2XvX2XoXoXoXoX@.s I I I I U 6.;.Y w e ..k >.2Xp y h d y u ) ",
") j j B T I I T T o.2.o.O.o.>.;XaXdXdXfXfXfXdXdXHXdX>.  *.i q.>.E.` ;.( ( ( ( X.e.F.U.Y.Y.~.~.:XwXwX,X,X,X*X>X-X4X*X/ r f g h M E.;Xy.h f I h h h d d h h h M M V N C V V V t t u x b b 6 5 5 4 : : $ % : c G Z G C { './.^.0X0XqXeXeXuXzXCXSXqX{.(.(.z.*.g.k.k.k.k.k.k.k.k. XjXiXx 9 4 X . X & O % : 4 4 5 r r t t x x x x x x n z n G G Z G Z Z P Z P P g.UXxXxXxX9X<X9X/.(.{.Z.(.W.Z.W.Z.W.W.W.W.W.H.H.H.B.H.H.H.H.P.P._.I.K.K.K.J.J.S.S.A.w.e.1.1.y h d q oXOX2X2X-X2X2XoXoXoXt.t.;.s s I I @.6.U 0.q.e j ` =X1X+ y W y y d ",
"y ( h j h W T | 1.o.X.2.O.o.o.8.,X4X4XaXdXBXMXmXfXmXFX>X&.q.;X<.<.9.6.7.7.6.1.1.D.e.e.D.D.U.Y.~.:X,X:XU.E.R.*X>XMX4X;XE.i r f h M ;Xu.q h h I h h h h h h h M B B C V V V V V N u u t r 5 5 5 5 4 : 4 % % $ $ z V Z V F Q Z Q j.iXuXuXiXjXVXZ.CX{.(.z.(.% a.g.k.k.k.k.k.k.k..Xk.|.|.|.x 9 6 &   & O % $ ; , 4 5 5 t 6 t z x x z z x z z x Z Z G G Z Z P Z P g.z.cXcX%X9X%XZ.9XZ.(.<XZ.{./.Z.(.W./.W./.W.Z.W.H.Z.H.H.S.L.K.P.K._.m._.K.J.J.n.n.w.4.| X.s h q w oX&XOX=X2XOX;.oXoXoXoXt.oXt.6.s j s ;.U 6.u.q.j ` =XoX&X  y h w y ",
"y y T j j I X.1.1.X.o.3.3.o.O.o.*X;X>X4XaXfXBXFXmX<XfXi p r <XC.C.q.9.q.r.8.8.r.r.w.w.w.e.e.Y.R.R./.q.C.E.T.*X*X;Xq.4X>X&X` y i h ( E.7.h h h h h h h h h h B B V V V B B V V V V 5 t r 5 5 4 , $ O .             4 Z ' Q F F Q } Z ' { Z.zXCXHXjX(.(.(.F P a.f.x..X.Xk..X.X.X.X.X.XiXjXyX9 6 6 % % O X O % : , 5 4 5 6 6 t t t z z z z z z z Z n Z G Z Z F P F %XcXcX%X%X9X/.9X/.9X(././.{./.W.Z.W./.W.W.W.W.W.H.H.I.P.L.K._.m._._.m.J.J.n.n.A.5.4.Y d I y w e.u.=X2X1X=X2XoXt.2XoXoXoXt.t.t.@.e U j ( +XoX` ` 0.=XoX=X  y q y ",
"w y y T X.o.1.| | 1.| X.3.O.o.o.~ *X>X>X4XaXC.<XgXMXBX; D p p a -XE.R.E.U.D.D.r.r.r.r.r.r.y.r.U.7.9.9.9.q.u.T.-X=X*X>XdX3X*Xu.> f >.T.9.f T T h h h h h h M M M B T B V B V V t r t r 6 6 5 4 , ; O o .                 ' Z ! } Z a.F } } K a.} (.a.g.V.F a.} a.f.k..Xk..Xk..X.X.X.X.X_.jXjX}.6 9 6 & & O $ $ % : 4 4 4 5 5 6 6 6 6 t 9 9 z 9 z z n G n G Z G F F UXcXcX9XZ.%XZ.Z.Z.(.(.(./.(./.{.{.(.9X/.Z./.W.H.H.J.J.J.K.).m.K.m.K.m.m.J.n.4.I 4.q h I y q 2 u.&X&X1X&XOXOXoXl t.oXoXoXoXoXt.t.6.U U 7.&Xu.X.9.=X&Xy.X.  y w ",
"w q w y d h | X.1. .| 3.| o.o.o.o.R.*XR.;X>X,X4XMXfXfX7 p i i p r C.*XT.E.U.9.9.7.8.8.r.8.r.8.o.>.>.q.9.9.q.$X-X-X-XT.*XdX*XA A _ q.R.9.j B T h h h h h h h B M B V B B V V r r r r 5 r 5 5 5 : : ; O X .                   Z } } Q a.} } } g.k.z.g.VXlXzXiXtXk.f.k.k..X.X.X.X.X.X.Xm.m..XV.jXzX[.6 z 5 % % $ : % : : 4 4 4 4 5 6 6 6 6 9 9 9 z z z z n Z G G Z F F UXUXUX%XUX9XUX%XZ.Z.Z.(.%X(.Z.%X/.9X{.rXZ.W.H.H.H.J.J.K.)._.K.m.K.m.J.n.S.n.| 1.y h I q q q u.&X&X1X2X&XoXoXoXoXY t.t.oXoXoXoXoXk d ..oX&X;.s &X=XoXu.2   d ",
"> q y y y y d d d W  .X.2.o.X.2.o.) ;X:X;X>X,XfXBXfX. D a v i a a v p -XE._ R.R.U.8.8.8.8...X.o.;.7.>.9.q.q.C.E.T.C.O...>.~ / :.9.,X&Xq.` B T T h h h g h M h T N B B V i t t t t t r 5 r 5 5 , : ; O O . X                     6 } } } a.j.B.'.j.V.F ^.].{.W.tXiXjXiXyXk.k. X.X.X.X.X.Xm..X|.I.jXjX).c z 6 * 4 * * * % : : , 4 6 4 4 6 6 6 6 9 6 9 z z x c G C G D G UXUX#X9XUXZ.Z.z.Z.z.Z.Z.(.(.9X(.9X9X{.Z./.H.I.I.J.K.K.P.)._.K.m.m.J.n.n.w.5.5.s I d q q q y.y.&X1X&XoXoXu.t.oXoXt.p.oXoXt.oXoX0.w d ` k &XI oX=X&Xy.r..   ",
"  1 q q w y y d d d d d W O. .h M h ,X>X>X,XdXFXMX>X; p i v D D D D D 7 &.~.~.~.~.~.~.!.] [ ..o.2.>.<.9.N.q.$.o...o.:.o.~ >.;.>.A E.*XE.R.B B T B h h B h B B B V V V t t t t t t r t 6 6 5 5 4 4 ; O O . .                     . X O { k.B.j.j.V.' ' F qX].].].[.[.}.pX}.}.|. Xb..X.Xm..Xm..X.XK.qXzXzXP.c z 9 4 7 4 * : % : 4 * 4 4 4 4 6 6 6 6 9 6 9 9 z x c c G v v #XcX%X#X#XUX%Xz.Z.Z.z.z.Z.Z.z.%X9XrX(.W.W.B.L.P.P.K.)._._.K.K.K.K.J.S.n.4.Y f I r q w q I y.u.&X&XoXoXoXu.oXt.oX+XoXY t.oXoX0.j w j ( U ( u.;.=XoXy.X.o ",
"- . > q w y w y d d d f d M h h M g C.>X>XaXBXMX>X  i p a D D K K K 3 S >.:X:X:X^.^.~.~...[ o.>.>.>.:.N.O.[ O.O.>.2.8.A >.&.>.>.q.,X*XE.<.B T R m h m h b B M u 2 .   @ t z p t t t r r 5 5 5 5 , ; % $ O . .                   4 : ; ; [ [ >.^ ^ / ^ ^ ' yXyXiXiXyXiXiXiXyXyX}.yXyX|.|.m..X.Xm..X_.'.jXzXlXI.c 9 9 4 4 4 * % % % : * 4 4 4 4 6 6 6 6 6 9 6 6 6 c v c v v UXUXUXUXZ.z.9X(.z.z.Z.UXZ.z.z.z.z.Z.W.Z.I.P.P.K.).)._.'._._.m.K.J.J.S.4.| f I y q q q 0 e.e.y.u.y.u.t.t.t.oXoX+X+Xt.t.p.oX0.@.q y g j k u.&Xr.&Xy.t.y ",
"w 1 . - q q y y w y y f d T B M h h O.,XaXFXFXfX>Xo > p m S K %.*.8 D D <X:X:XwX,X:X~.~.C...:.[ o.{ O...:.>.>.>.9...:.y $.>.C.g A ~ ..E.9.g A T B M r ; @ @ @ ;   .       p z p t t r t r 5 5 4 4 : ; $ $ o .       5 5 5 5 5 5 G.:XR.;X;X>X<.&.~ ^ ^ ^ ^ ] jXiXiXiXiXiXiXiXyXpXyXyXyX|.|.|.yX}.).b..X'.jXjXVXVXI.9 c 9 4 4 * % % % % * 4 * 4 4 4 4 4 6 6 6 6 6 6 6 c c v L %X#X#XUXUXz.(.z.%Xz.z.z.z.Z.z.z.z.k.j.V.I.P.K.).)._._.'.K._.).P.P.] n.d f W q r q q q w.w.y.U.y.e.e.y.y.u.oXt.+Xt.t.t.@.oX,.j y d ~ j u.u.i.*Xy.e.1.",
"h w q o - q q y y y y d h M B h m f i aXfXFXdX4X>.5 2 p A &.*.<.S v v l.,XwXwX<X<X/.;X/.:.[ { :.:.>.O.>.>.9.j.>.9.>.A ) >.^ A m g y r 5 2 g ; @ ; , 5 o O O .               p c z p t r r 5 5 4 , , ; $ $ 5 6 r 7 2 , O.wXE.R.~.R.;XR.*X*X;X=X>XE.$.~ ~ R E O.iXiXiXiXiXiXyXyXyXyX}.yXyX}.yXyX}.}.yXyXyXyXjXzXjXlXlXV.9 9 7 4 % % % % % % 4 4 4 4 4 4 6 4 6 4 6 6 5 4 5 p c F #XUXUX#XZ.UXz.z.Z.Z.z.z.Z.z.z.z.k.j.k.H.P.P._._.).).'.'.K.K.K._.E n.r M W r q q q w 5.w.w.D.e.e.w.w.w.e.y.t.y.t.t.t.oXU t.@.w d j w X.u.y.y.U.y.e.",
"1.q w d   - q q q y y y W T B m f f u ) FXdX4X&X  o 2 p A &.<.%.a a a 4XgX%X<X<Xj.D A D m c i c i b m V [ >.N.C.>.) g t i p r 2 ; Y.:.;.9.q.q.&.; . @ ; ; . O ; X . X         u p t p t 6 5 5 r 5 t t 7 5 4 C 0XC.C.;X>X>X;X,X,X:X>X>X>X;X*X*XR.R.E.U.) ) ) ) v.tXyXyXyXiXyX}.yXyX|.|.yX|.}.yX|.}.}.yXyXyXiXjXzXlXzXVXVXk.9 7 6 4 * * % % % % * 4 4 4 4 4 4 4 4 4 4 4 4 4 % 7 F z.#X#XUXUX#Xz.z.z.z.z.z.k.l.l.k.k.j.j.W.P.K.P.P.).).'.).K._._.n.v.x M W r r q q q 0 4.4.D.A.A.w.4.4.i.i.w.t.e.y.t.t.U oX0.s w j I d e.e.e.U.e.e.",
"w.I 0 y h   - q r q w h h M h h f f y u MX4X=XE.- o 2 p A &.>.p p a C.7X$XF D m A D m c i i i t i t t y t u t g u k / [ ' <.<.>.q.q.E.u.Y.R.,X;XC.<.^                           c t m t p t 4 , : 5 G.%X7XgXdXaXfX<XfXfXaXaXwX:X;X;XR.R.T.E.E.G.E.9.8.8.3.] E  .n.].}.}.yX|.}.|.|.|.|.|.|.|.|.|.|.|.}.}.}.yXiXjXjXzXlXzXCXCXf.7 7 6 : * % * * * * 4 * 4 4 : 4 % : : : ; $ $ $ : F z.z.UXUXx.z.z.UXz.z.z.z.k.k.l.k.j.j.V.I.).I.).).'.'.|.K.)._.m.3.b W r r r r q w q 4.w.w.D.A.4.w.4.4.4.i.e.i.t.t.oXoX@.u.;.w d h d I w.w.e.D.e.",
"w.i.q q y y   - q q r W M M h f f u y r _ 3XE.    . 1 e k &.3 p a i S m D A D v c [ %.a c i i t t p r t p u i D >.>X=X-XC.$XE.*X*X*XR._ _ $.E.3XMX4XE.C.C.q.C.C.C.C.C.C.7XD O   5 5 5 : % &.C.@X@X%X<X4XsXkXfXfXaXwXwX,X,X;X*XR.9.8.E.N.C.G.C.9.9.9.1.2.o.o.o.|  .m.`.'.}.}.|.|.}.}.|.|.|.|.'.|.|.'.|.}.|.yXyXyXiXjXzXlXAXVXSXCXa.7 7 4 * 4 4 * * * % * % : % % $ $ @ @ @ $ $ @ % K z.z.z.#XUXz.UXz.z.x.k.l.k.j.j.k.j.f.W.W.P._.).).'.|.|.m._.K. .b ! r r r r y r y n.4.A.F.D.A.n.w.4.4.w.w.e.t.t.u.oXoXoX6.U w d I s 4.4.4.1.A.",
"w.w.h q y h q . = r d M M b f f y y r 2 u &Xu.. > o > r a , 2 i r A m i m i p p p a *.%.F a p p p t t i g t >.<.>XC.q.q.mX-X%.$.$._ #._ $._ C.-X4XfXfXfXfXsXaXsXsXhXhXkXkXSXZXgX%.^ %.<.<.l.C.<X,XaXwX,XwX,XwX<X~.~.E.R.E.N.o.2.>.r u ] 7.9.9.7.2.2.o. . .o.3. .O. .m.`.'.'.|.'.'.|.'.|.{.|.'. X X|.|.}.'.}.yXyXiXiXjXzXCXAXAXVXSXAXF 6 4 * * 4 * 4 % O % % O % @ @ O @ @ O @ O # $ g.z.z.z.#Xz.z.z.z.x.x.j.k.l.j.x.j.j.V.W.W.P.).`.'.|.|._._.m.W n ! u t r y r r r h A.A.D.L.S.A.A.n.w.w.e.e.t.y.y.&X&X0.u.;.0 w I w h 4.4.4.S.",
"A.w.w.2 q y r q   @ W M h f y y r 2 2 > 1 T.o X 2 - + > ; 2 2 ; , m i i r p r 7 7 p *.%.%.%.c p p t g p >.q.C.*X<.<.C.C.C.%.$.%.` $.$._ ` _ ;.6XdXfXMXfXfXfXsXfXsXsXhXwX:./.;XkXaX~.  4 N.~.;X/././.E./.C./.Z.E./.C.E.N.>.O.>.>.9.A r r u u v.2.2.2.1.2.5.1. .3. .3.O.J.|.)._.).'._.'. X X X X X X X X X X|.}.}.yXyXiXzXlXlXCXSXJXHXSXVXG 9 7 * 4 * % % O % O O O O o O o o O O O @ O g.h.z.z.#Xz.z.x.l.j.x.g.j.j.x.j.g.a.W._.W.).).).|.}.yXW m.M.N ! r r r t r y u u S.S.S.L.L.F.S.w.w.y.e.y.u.y.&X*X-X&XoXi.i.w s I d 4.4.n.4.",
"L.D.A.I q q f q q   q f u y q 2 2 > > 1 + j         . . o o 7 , u p 5 ; 5 r 5 5 5 5 p %.K %.%.>.m p l.l.C.-X*X>X<.>.C.<.l.>.&.#.#.#.#.` #._ #.#.#.<.dXfXdXaXwX&.[ :.&.&.&././.R.wXwX/   $ r u :.C.C.C.C.C.N.C.C.N.:.:.>.>.o.9.j.j.N.5 r y u f f M 4.2.3.2. .3. .3.3.v.m.'.).P._._.)._.'. X(. X X X(. X X X}.}.}.yXyXiXjXjXlXVXAXHXHXHXSXAXzX9 6 4 * % % % O O O O X o O O o o O O O O O h.z.z.z.z.l.x.j.x.j.g.j.j.g.j.x.g.j.(. X{.).'.'.|.yXJ.v.b N ! y u r t u u u y J.J.S.L.Q.L.F.D.D.U.y.T.T.T.*X*X&X&XT.y.X.w w f d h 4.4.4.",
"L.Q.D.A.1 r r - ;     > r q 2 y 2 > + m Q.G.        .     O * p >     + 2 5 2 2 , 4 7 *.-.%.%.&.<.l.C.E.<X<XC.<.>.<.<.<.<.<.#.#.` #./ J ` #./ #.#.#.J #.-.*.>.*.*.*.:.&.&.&.;X<X;XZXwX,   : 6 t t p O.>.j.>.:.[ *.:.>.>.>.j.<.j.>.>.5 r r y u f h h W  .v.3.O.3.3.v.J.J.m.|.'.|.'._._.'._. X X X X X X X X{.|.}.}.yXiXiXiXjXlXCXAXAXAXAXSXSXAXxX6 4 4 & O X O X . . . o X . O o o o X O & g.h.z.z.h.x.x.j.x.k.g.f.g.g.g.g.a.V.{.W.`.'.|.|.|.N.m.n N t t t t t t t t u m.J.J.P.P.!.L.F.D.U.U.R.R.T.r.r.w.U.R.T.i.w.w d W h 5.n.n.",
"! M d y 3.W f o       . 2 r 2 @ W n.w.A.A.G.PXo     .       X         o ; ; @ ; : , 5 7 %.%.%.%X-.h.p <X<XC.J >.>.<.>.<.j.<.#./ S #./ / #.#./ J / J #.g.>.-.>.*.>.*.:.:.&.&.<X;X;X;XfX,X& . , r r u x m ' ^ [ [ :.>.*.j.>.>.j.>.>.>.] 5 5 r y d f h M W Q W v.G.n.K.J.K.K.).|.).'.|.|.|._. X X.X.X X.X X X X|.|.}.tXyXiXiXjXzXlXlXlXVXCXAXSXHXHXSXrX* % $ X . X O . . . o . . . o . . o X O x.l.z.z.h.x.l.k.j.x.d.j.a.x.j.a.x.(. X{.{.'.|.yXV `.n ! t 6 t t t t t u x t _.K.K.P.P.!.Q.Y.R.R.R.D.U.r.D.r.r.~.=Xy.;.d w M f W W  .",
"f y ( h | D.A.8.7.2.X.( y P.3.M.n.n.n.A.A.A.Q.        o     a         . o     . @ $ : : %.%.l.l.h.L v v p *.>.g.*.>.l.>.-.>.&.J / #.J S S k %.S S / J -.-.-.h.-.<.*.-.*.*.<.&.<X<X;X,XsX,X  o 5 r t i m V / [ [ &.:.*.>.>.j.>.>.o.>.>.2 5 r r u f f M T W W ! v.v.v.v.b.m.K.).}.)._._.|._._.|. X X.X.X X X X{.}.tXyXiXyXiXiXjXzXzXzXlXVXCXAXSXHXHXHXAX%XX O O .     .   . . . . . o X X . O . h.h.h.x.z.x.j.g.j.g.g.j.a.a.x.f.k.(. X X'.|.}.V.|.4 Z t t t 6 t z z t z z _._.).P.P.Q.Q.Q.Y.F.U.D.G.G.G.r.G.r.;XU u.r.q d  .| W M ",
"d T o.n.G.F.eXqXqX!.L.].[.Q.N n.m.m.J.S.S.S.X.fXe O     O                         o $ $ 7 *.%Xv *.v p 4 4 7 *.>.g.*.:.&.&.&.&.#./ / #.#.#.#.J / J J K S g.-.h.<.*.<.*.>.*.-.&.*X-X;X;XAXaX*X  O 5 r t i m ] _ [ :.>.>.>.>.O.>.O.>.O.o.5 , 2 r y f f M M W Q E v.v.v.v.n.n.V.n.I.}.'.|.|._.|.|._._._. X X X|.|.|.tXyXyXtXyXiXjXiXjXjXjXlXlXCXAXAXHXHXSXJXSXl.    .         . . . X . . . . O O X h.l.l.x.j.x.x.g.g.x.g.f.f.g.g.f.{.{.{.|.|.yXyX}.& n z t z z 9 9 z z 9 z _._._.).).!.!.L.S.D.A.G.8.F.G.U.G.C.C.aX&X0.I w I h y 3.",
"2.F.A.n.A. .O.n.v.S.L.P.tX].+ ! J.K.m.J.J.8.B ,XfXFX  .             .   .   . . O O $ : , *.l.#.v # : : < : < D >.*.*.*.*.%.[ #.#.#.#.#.#.J #.J J S S S K -.-.h.h.-.*.*.&.&.:.*.>X;X*X;XfXaXm   @ 5 t u m m / &.*.*.*.:.*.>.:.>.>.>.>.>.; 5 r r i f f M T E E v.n.v.v.v.n.v.G.b.I.[.'.|.|._.|._._.|._._.|. X|._.}.}.tXtXyXiXiXiXiXjXjXjXzXlXVXCXSXHXJXJXkXJXAXl.              . . X . . X . . O % x.l.h.x.x.j.j.d.f.g.j.j.g.f.x.k.{.{.'.}.}.yX}.9 4 6 9 9 9 z 9 z z z z Z '._.'.).`.P.L.S.S.A.A.F.D.D.D.G.y.D.q.;.T.7.f q w.j E ",
"A.A. .W ! ! W c.G.n.J.P.`.qX].   .K.J.O.| O.O.o.AXDXBXq.. .   9.dXE.*XfXdXaXwX>XC.A , O $ v %XX . % % 4 % 4 < 4 5 *.*.*.%.%.%./ %.%.J J #.#.#.J %.J K J K K -.-.-.<.-.*.&.&.&.&.;X;X;X;X;XdXaX@   > r t u i ' [ { &.:.:.:.:.:.>.>.j.9.j.@ 2 5 r y u g b M T E v.v.N.n.G.v.v.b.n.n.V.tX'.|.|.|.|.|._.|._.|.|._.'.'.'.{.yXyXtXyXiXyXiXiXjXjXzXlXVXCXSXJXLXKXKXz.KXSX*.  .             . . . . X . X % h.x.l.x.j.g.x.g.j.g.f.k.f.x.k.{.{.|.yXyXyXyXn * 9 9 9 9 z G z z z z x '._.'.'._.P.J.J.S.S.D.A.S.D.A.D.G.D.G.9.*Xu.( I X.8.Y.",
"M M R W W W E  .v.n.n.L.!.[.tXn.  s.G.v.v.N.G.3.fXZXSXSXfX*XE.>X=X>X4XFXZXMXaXBXBXkXBX&.D a C.<XX . & < * < % < < < v *.&.%.%.%.%.%.%.K K J K K K J K J J J #.*.*.-.*.&.&.&.&.&.<.*X-X>X>X,XFXdX  . > 5 r t u / [ &.{ :.{ >.:.O.o.>.>.>.5 ; 2 r y y f h M T E v.v.v.v.n.G.v.v.v.v.b.G.[._.|.|._.|.|._.|._.|.|.'.'.[.|.{.{.'.[.tXuXuXiXjXjXzXlXVXCXAXHXJXLXKXKXKXgXKXJX*.                  . . X X X < z.l.x.x.j.g.d.f.g.j.a.g.f.k.k.pX}.}.yXyXiXP * * 9 9 9 9 z G z G x x '._.'.'._.).K.L.S.J.S.F.S.S.A.D.A.G.r.8.U.~ s r.Y.1.| ",
"W T W W ! E ! ! v.8.G.J.P.`.tXqX  , r S.G.n.v.O.) BXBXBX,X,X>X4X4X>XJXHXDXDXBXMXC.%.<X>.4 D Z.$X<X8   % < % < : < < 4 < *.%.%.%.%.J K K J K K J K K K J K J J %.*.*.-.*.%.&.$.&.#.>X>X>X>X>X>XMXaX  . 5 5 r t D [ [ &.:.:.{ >.>.>.j.9.j.E.@ > r r y u g M B  .v.v.3.N.G.v.G.v.3.v.3.v.B.|.'.|.|.|.|.|._.|.|.|.|.'.'.{.}.{.{.W. X'.[.tXuXiXjXzXlXVXCXSXHXJXKXKXKXKXKXHXLXHX*.                . X . X O 8 h.l.x.x.x.x.g.j.x.f.x.k.x.x.}.}.pXyXiX}.Z 9 * * 9 9 9 9 z G z x 9 b.|.|.'.).P.K.K.P.K.J.S.S.S.A.A.A.A.3.3.8.q y h h h h ",
"M T W R W ! E  .T v.n.G.L.P.[.0X  , ; 5 v.O.O.R B ;XBXfXaX4X4X,X,X4XDXAXDX,XC.9.>.:X/.*.p J <X%X%Xl.-.  X % $ : < 4 < 4 4 a %.%.K %.J =.J K #.K J J J J %.J J J #.&.%.%.&.&.#.&.#.C.;X>X;X;X;XaXMX>X  O , 5 5 t D [ [ { :.j.O.>.j.o.>.9.>.. - , r y u f g M O.o.>.v.o.v.G.n.N.N.v.o.v.v.N.|._.|.|.|.|.|.|.'.'.|.}.}.{.{.'.{.{. XW.W. X[.qXjXjXjXlXVXCXDXJXJXKXKXKXKXKXKXJXKXHXK                 . X & O v x.j.g.j.j.f.x.f.x.k.f.f.f.x.yXyXyXiX{.{.* * * 9 9 9 9 z z z z t t |._._.).P.K.P.P.P.L.J.J.S.S.S.A.A.L.w.r.d q W T M T ",
"T R W ! R E ! E  .3.v.G.F.).].0X+ , , ; 2 E R f y ( fXaXkXMXBXMXMXJXfXE.~.R.Y.C.>.:.C.&.i *.wX<X<X%Xh.%X  X   % < 4 < 4 < 7 7 J K K K K #.J J F J J S J J J S J S S %.%.%.%.&.%.&._ *X;X=X;X>X>XDXfXi   $ , 4 5 u _ [ [ :.O.:.O.o.j.>.9.9.r o ; 2 r y f f M  .d.d.3.3.d.v.v.G.N.N.o.v.N.N.N.[.].[.[.}.|.|.'.}.[.}.}.[.{.[.'.{.`._.W. X{.I.Z.pXqXzXlXVXCXSXHXLXKXKXKXKXKXKXKXLXKXLXL             . . X O % v x.g.g.g.f.x.f.x.x.x.x.f.f. XiXyXyXk.yX* * * 9 * 9 9 z z 9 9 z 6 '.'._._._._.K.K.K.L.J.J.J.S.S.S.n.n.4.A.X.2 f h W M ",
"W W W E E E  . .] T v.N.P.`.uXQ , , 5 5 2 > f r 5 > kXSXJXJXJXHXR.,X:X:X~.~.Y.C.C.Z.N.5 D l.*.aXwX<X7X%X7X    4 < < 4 < 7 < < 7 a K K J J J %.J S S S S S S S D D S S #.&.%.&.$.#._ C.;X>X>X;X,X,XFXMXO . ; , , 5 V [ [ [ { :.>.>.O.>.j.>.G.  - 2 r y y f M O.3.3.O.v. .3.N.v.v.v.v.v.O.d.V.V.].[.[.[.[.[.}.[.}.}.[.[.}.{.{.{.{.W. XW.(.(.(.(.Z.Z.rXrXCXAXHXJXLXLXLXKXKXKXKXKXKXKXKXLXF   X & .       X & % D g.f.k.g.g.x.f.f.f.f.f.x.x.yXjXiXP pX* * 9 * 9 9 * z G G 9 9 9 .X'._._._._.P.K.P.K.J.J.J.J.S.J.S.n.3.n.4.+ f W M T ",
"W W ! W ! ] ] ]  .O.J.P.P.] qX  r 5 , 2 5 > > r 2 r :.4X4XR.E.E.*X,X:X:X:X~.~./.E.:X*.p F D l.l.sXaX<X%X%X%X%   & % < 7 < 7 < 7 7 3 D J #.J S S S S S S S D A S S D S S #.%.%.%.#.&.%.>X>X>X>X,X,X4XfXfX  O 4 < 4 5 [ [ [ :.:.{ o.>.>.7.>.N.  . - 2 r y d M 3. . . .3.3.O.v.8.N.N.N.N.v.d.N.j.B.0X[.].[.[.[.[.tXqXtXqXtXtX{.{.{.{.W.(.W.(.Z.(.(.(.Z.9X(.xXxXJXKXLXJXLXKXKXKXKXKXKXKXKXKXKXv   &       X O & $ F x.j.x.f.k.f.f.x.x.f.f.a.k.iXxXx.iX* * * * * * G z G z z z z Z '.|._.'.'.).P.P.P.K.K.J.J.J.J.J.n.n.n.n.W r b b W ",
"W ! W E E E !  .! ] O.`.`.^.:X. u ; , 2 , , > ; > 2 r C.C.C.-X*X,X,X,X:X:X:X;X;XE.<Xp m &.D <.l.l.<XaX7X7X%X#XK   & < < < < < 7 4 5 5 5 S D S S S S S D S D k S S D A D A $.%.%.%.%./ -X;X>X:X>X,X,XaXSXkX  $ 4 4 , V [ :.{ O.:.O.>.>.9.>.7.f   o 2 q y y f  . . . . . . . .3.O.o.v.j.N.N.j.j.V.Z.0XqX].[.qXqXqXqXuXtXqXqXqX{.`.{.W.{.{. X{.(.(.(.UX9X9XUXUXUXcXgXHXJXLXKXKXKXKXKXKXKXKXKXKXKX8 X &     X O & & F g.a.x.f.x.f.x.f.x.x.f.f.k. XiXiX* 9 * & & * 9 G 9 G 9 z z z '._.|._._.).).P.K.P.L.K.J.P.J.J.J.n.n.1.n.W u N x ",
"b ! W ! | ! E W ] ] ] P.].0XN.@ @ @ ; > , 2 , > t u u _ C.C.C.;X,X,X,X:X:X:X:X:X>.C.7 D *.D l.<.l.<.-.dX4X%X%X@X@X  # < < < 5 4 5 5 , 2 5 g S S A S S A A S D A A A m D A A %.%.%.$.#.&.:X>X;X:X:X,XwXsXCXkXX < 5 5 4 [ [ { [ O.>.>.>.3.>.2.2.  . - 2 r y f  . . . . . .|  .|  .O.O.d.j.j.j.j.j.k.{.qXqXqX0XqXtXeXuXuXuXqX[.[.].{.{.W.{.{.{.(.(.9XUXcXUX9X9XUXUXcXUXcXIXLXKXKXKXKXKXKXKXKXKXKXKXLX7 X O X X X & % F g.g.f.a.x.P P P f.x.k.f.x.x.x.9 * 9 7 7 9 7 9 G 9 G z 9 z |._.|._._.).P.P.P.J.P.K.J.J.J.n.S.n.4.q M.3.u u N ",
"n b W | ! M W  .! E ! O.N.~., 2 @ O @ ; ; > .     t r m E.E.q.aX>X>X;X,X,X:X,X:X~.l.i [ 7 J <.l.l.h.l.l.l.gX7X%X%XcX    4 < < 2 , , 2 5 2 2 5 m A k k A A k k A A D A A A A A #.&.&.*.&.,X,X,X,XaXsXfXkXkXCX~.< p 8 7 x ^ ^ ^ ^ ^ ^ ) ^ E T T r ; o o o o > b b b b x b b b u y y u u t t t t 5 5 4 x iXiXyXtXuXtXqXpX[.{.(. XV.{. X XI. Xk.(.z.z.z.x.z.z.z.#Xx.h.z.x.x.h.z.gXBXBXCXDXSXHXJXLXLXKXKX#X% 7 v 7 7 6 6 (.(.(.k.k. X XUXk.k.x.UXUXUXP jXUXL G L L G h.G G G G z 9 z _.|._._.).P.K.P.K.P.P.J.J.J.n.n.4.| | 5.L.2.5 u ",
"x W N W ! W W ! E E E v.H.H.  r O o o o             r r C.E.E.>X:X>X,X:X,X,X,X,X:Xp D / p D <.l.l.<.l.@X@XBXfXcXcX%X@X    5 < , , , 5 2 2 5 r q r k A A A A A D A D A A A A A A A l.<X<X,XaXwXaXaXsXsXaXeXwXSXsX. v K v m b b m g g m M B T h . F ; o . . o ; 5 , : : ; ; ; ; - @ @ , , > ; ; % % O O t uXtXtX}.}.[.{.(.(.V.V.(. X X(. XV.z.(.k.k.z.UXz.x.x.#X#X#X#Xh.h.h.#X#Xh.@XcXBXAXAXSXSXJXgXKXKXz.< 7 7 7 9 7 6 (.(.(.(.(.k.UXUXUXUXpXf.UX(.jXjXjXUXG v v v P P P P G * 9 '._._.).).).P.P.L.K.L.J.S.n.n.n.5.5. .n.A.Y.X.5 ",
"5 x x u W W ! W c.d. .] ^ N.@ c o .             .     , C.E.<XE.;X;X,X:X:X:XwX:X;Xp D p 7 J l.l.XXl.@Xl.@X$XcXMXgX8X%Xl.a   @ > > > , , 2 2 2 r 5 r i g A k k m A S A A A A A S S / l.C.Z.aXaXaXaXsXaXeXwXwXwX<.AXC.L K @ m m ^ R R B g f ~ 4X&X..F : . o o O : : : % O O X . . . . . .   O O X . X   X z tXtX}.[.{.{. XV. XZ. XV.V.V.k.V.k.k.z.x.z.x.z.UXUX#Xx.UXh.#X#Xx.#Xh.z.z.h.h.l.BXDXAXSXHXBXKXKXz.* v c 7 6 7 9 UX(.a.UXUXUXpXUXUXUX(.{.pXpXiXjXlXlX(.G 7 & v 7 * & & * _.'.'._.).P.).K.K.L.L.J.J.n.S.A.| | 5.| Y.].F.T ",
"u , < r x M.c.d. .E R M u u @ r O .               .     ; R.~.E.;X~.:X,X:XwX,X>.C.S %.p 7 #.l.<.<.l.l.l.@X#X#X#XK mX<X$Xl.=.  o > > > > 2 2 2 5 2 r r r k A B A A A A D A A A A D / ' l.C.<XaXaXaXsXaXeXwXwXwXwXwXkXsX> K ' V B f u ^ ;XT.*X;X;XPXfXF t . + > W r 2 , : % % O .                 O X   X . 6 }.[.'.{. XW.I.V.V.k.k.k.k.k.k.k.x.x.x.x.x.h.#Xx.x.h.h.x.h.h.h.h.x.h.h.h.x.h.h.xXBXDXDXAXBXKXJXl.4 v 7 7 9 7 9 9X9X9XUXUXx.pX(.(.{.pXpXpXpXpXiXxXZ.jX9Xv * & h.* & &  X'._.'._._._.m.K.P.K.K.J.n.n.4.W 5.M. .P.Q.].F.",
"Q.3.I c.; 5  .E W M u O.2 :X@ , t .               .       p ,X;X;X~.:X:X0XwXwX/./ %.%.p a %.C.l.@Xl.@X#X$X#X#X$X@XFX4X7X$Xl.C.    ; ; > , 2 2 2 2 r 2 r r r k A A S D S D S S S / / / F j.l.aXaXsXaXsXaXsXwXwXwX:X,X,XCX,X5 u V r.C.E.R.;XE.R.T.MXdXBX. t . o : n.m. .6 6 5 4 % $ o .                 X X X 6 [.`.{.{.Z.V.k.k.k.j.k.j.x.x.x.h.x.h.x.h.h.h.h.h.x.h.h.P h.g.g.h.h.h.g.h.x.x.h.x.fXBXBXDXz.LXJXz.* v c 7 * & * z.UXUXx.UXpXpXpXpXpX}.pX(.pXpXiXzXjXAXxX{.v * * * & z '.'._.|._._._.).K.K.K.J.n.S.| | 5.|  .J.L.L.].",
"!.!.!.F.7.y N M y 2 y d T ].> @ 5 . .             .         /.,X:X:X:X,X,XwXwX;Xv *.v p i *.C.l.$X@X@X$X#X#X#X@X@Xl.7X3X<X$Xq.-.    ; - > > 2 2 2 q r q r r y A D A A A A D S / D / / / / >.C.aXaXaXsXsXsXeXwXwX:X:X:X:XfXkX. 9.E.R.R.;X;XR.R.E.G.MXBXMXI t   o 2 m.m.m.m.c.r 5 4 % O X                     & 5 (.Z.k.j.k.z.z.z.UX#X#Xz.l.h.h.g.h.P h.P L P K K L P L P F K K *.K g.g.g.g.h.g.h.eXfXkXBX%XKXJXh.7 * * % % & 4 cXUXUXpXpXpXpXpXpXpXyX(.(.(.pXiXlXlXCXAXxXG L 9 * * '._._._._._._._._._.m.K.n.3.W 5. . . .n.L.L.!.",
"!.!.!.!.uX!.Q.T f  .E O.3.qX^.o > t                 .       p <XaXsX,XwXwXwXwX<X-.l.D g a *.$X@X$Xl.@X#X%X8X%X@XC.@XC.<.3X-X$Xq.<.o   < ; - > > 2 2 2 q r r r r r A A k A D S F / %./ / #.F S <XaXaXaXeXsXsXaXwXwX,X,X;XZXZXQ.a G.^.;X:X~./.Y.E.8.aXfXkXkXR.r ; o r M.m.m.m.m.m.n.r : O X                         { ' F m c v 7 4 4 % 4 < * 7 7 7 8 9 7 7 v v v v v 7 7 L F F K K K P K *.g.g.g.x.z.Z.UXz.x.g.z.ZXCXVXlXlXzXzXxXpX}.{.pX{.pXyXpXyXpXz.(.UX(.pXjXzXlXjX(.* v G v 7 _.).'.'._._._._._._.K.J.S.E  .m. .s.s.s.L.L.!.",
"!.`.`.!.P.8.[.Q.f ; 5 s.L.tX0XR + ,               . .       5 #.:XHXkXsXaXwX>.l.-.h.F S k -.C.%X$Xl.#X#X#X8X$X@X$XC.$Xq.q.-X>X$Xq.<.g   o ; - > > 1 2 2 2 r q r y r g A A A S S / [ [ F S S S *.l.aXaXsXaXsXwXwXwXwX,X,XCXkXkX8 v V R.~.R./.E.N.8.Q.aXaXfXdXfXo - o 5 m.m.m.m.m.m.m.m.m.u .                       % K $ O . . . X .   X X X & & * & * * * * c c 9 v G D F K D F K F K K } g.g.g.g.x.h.g.g.g.z.9XeX%XVXVXlXzXzXlX(.pXpXpXpXyXpXyXyXpXx.z.k.UX(.jXzXjXiXlXlX* G L v 4 '.`._.)._._._._._.K.n.v.W v. .O.s.s.s.m.P.`.",
"`.P.L.P.P.L.N.qX!.y - 5 N L.qX].. ; t             . .   .     #.&.<XSXDXfXsX/.8 h.l.%.S S j.$X$X#X$X#X$X$X#X#X$X$XXXl.l.C.<.>X=X$Xq.>.U   . @ - ; > > 2 2 2 q r r r r r S S S S #.#.S S J F F S &.&.wXwXeXsXeXaXwXaXwXfXZXZXfXsXL v i [ E.E.E.9.9.2.4X4XaXaX4XfXf @ . 7 m.m.m.m.m.m.J.J.J.P.).u X                     F % : % 4 4 4 4 % % % * * * * * & * 7 K 9XxXP 7 7 9 v v F K F F F F K P g.g.g.g.F #X%XrXhXxXeXz.gXxXhXjXjXjX(.pX}.pXpXiXpXiXpXx.x.x.k.UXpXVXlXiXlXVXG * G P L '.{.).)._._._._._._.m.N  . . . .d.s.d.s.).!.",
"P.L.P.H.L.H.L.o.tX].y 5 x R yX[.N.o ,               .         6 &.aX%XZXKXZXwX< l.l.*.%.K l.$X%X$X@X#X@X%X$X$X$Xq.l.C.+XC.<.q.S =XE.q.<.;.    @ ; - > > > 2 2 2 q 2 r r r p / / S F J S S F J #.J #.&.C.wXaXsXwXsXwXaXsXZXCXfXDX7 K v a f C.9.9.2.o.R.,X,X,X4XfXMXr.O : p m.m.J.J.m.K.J.P.P.).H.B.B.c   X X X         X c . % % % % % 7 Z.CXzX<XrXxXVXCXVXAXAXSXHXAXZXcXg.4 7 c G D F F F K F g.g.F hX%XrXhXhXeXrXxXgXz.9X9X9X9XpXpXpXpXyXiXyXpXiXyX(.x.x.x.x.yXjXlXiXjXVXpX& * G L }.}.'.).).)._._._.m.c.W M. . .3.s.d.s.s.s.).",
"x b.m._.I._.P.).N.P.v.2 b x N.qX].. O 5                         *.fXsXkXLXJXZ.p #X#X*.*.&.C.<X$X%X%X#X$X@X$X$X$XC.$XC.XXq.C.q.q.q.4XT.q.q.;.    o @ @ - > > 2 2 2 2 2 5 r r 2 S S S S K K / %.K / J #.%.>.eXwXwXwXwXwXwXkXZXVX<.BX-.K v a t R 2.1. .X.:X;X>X,X,XaXfXfX. - i J.m.J.J.K.P.P.P.d.W.B.j.*.O F Z.VX,X%XF O % O %.wXkXVXCXlXsXhXhXhXlXVXVXCXAXCXCXAXAXSXVXSXAXAXZXfX%X5 t v v F F P K z.#X9XsXsXsXrXxXsXrXpXpX#Xz.(.z.UXUX9XpXpXpXpXiXiXx.x.z.z.k.pXpXiXlXjXiXVXCXiXX 9 G k.|.'.).).)._._._.m.!  .s.s. .s.c.d.c.s.! n ",
"n Z n f.I._.K.).v.P.O.5 b Z H.tX[.].. ;                         v sXsXsXwXsXsXc #X%Xj.>.h.C.<X%X%X$Xz.l.C.%X$X$XE.C.q.q.C.q.q.C.q.q.*X&Xu.9.;.-   + O @ @ - ; - > > 2 2 2 5 5 ; 5 S S J %.J #.K %.S F #.%.[ ;XwXeXwX:XwXsXkXCXkXsX- h.L v 8 6 y X.| | ^.:X:X:X,XaXaXaXkX5 $ v H.J.J.P.I.P.P.B.B.j.>.} V ' } C v F sXCXHXKX<X*.<XDXVXzXsXhXhXhXlXlXVXVXhXVXVXCXCXCXCXCXVXZXHXAXCXBXkXZ.v 7 z v l.%XsXeXsXeXeXrXgXpXrXrXrXpXz.z.z.UXUXUX(.pXpXx.x.x.k.x.z.x.UXpXpXpXiXzXiXlXlX9X& & 9 L }.'.).).)._._.b.M.x 5 x N Z ! n N z Z Z Z ",
"&   X     4 C Q Z b r ^ O.N.H.A qX^.. o 5           O .         . sXaXsXfXsXHXX %X%Xl.C.l.C.<X%X%X#X%X$X$X$X$X$X$X$X$Xq.u.q.q.q.q.q.q.9.&Xu.q.9.q   o o + @ - @ ; - > > 2 2 2 $ ; , %.#.J #.K K *.K #.S ^ / &.>.eXwX:X,XeXkXVXZX,XBX  -.D v p 5 2 W | n.^.^.:X0X:XwXaXkXCX) . F I.H.I.I.H.V.N.N.j.O.{ C ' { { C m c 5 X zXwXh.$X,XzXwXeXlXhXhXlXzXjXjXzXlXVXCXCXCXCXCXCXZXzXZXJXSXAXkXzXzX*.Z.sXwXsXwXeXgXeXsXrXgXrXrXcXcX9Xz.z.x.UXx.x.x.x.x.x.x.x.x.k.UXpXpXpXpXpXiXjXiXlXlXpX  9 & }.}.}.}.}._.|.P.J.. G g.7 % % * * % &   X ",
"& & & & .   v Q u O ; 4 O 5 B.H.B.qX^.  @           O O . .       eXwXsXhXCX%X    9XZ.Z.Z.%XrX7X%X$X$XC.C.%X<X-XE.+XC.C.E.q.q.u.q.r.q.r.U.*Xu.u.9.` O   o o + @ @ - ; ; > , , @ 2 % > 7 %.%.%.-.K -.K / S / / / &.:X,X:XwXsXzXAXhX;XE.5 K v v 5 q 5 h | ^.].].^.:X0XwXsXBXSXhX  K V.H.I.N.V.N.d.O.O.5 m ' } d.V C C x t O   % X %Xh.hX~./.wXVXVXeXsXhXhXzXVXVXVXCXCXCXVXVXzXZXkXkXC.SXeXF *.l.Z./.rXwXrXeXrXrXcXrXgXrXrX9X9XUXx.x.h.x.x.g.x.x.x.x.x.x.UXpXpX(.k.x.x.z.G 4 G 6 9 * c C }.jXiXiXyXyXyXyXG.).M % *   & *         * ",
"g B ' O.N.N.H.!.N.m , $ : , o O.&.uX0X. . 4       % O O X .       D eXwXhXVXC.    . *./.<X%XsXgX<X<X%X%X$XE.<X$X-XE.-XE.u.u.E.q.q.q.u.q.q.r.*XT.u.9.;.    . . . o o + @ ; ; > o $ > > < 4 K K -.*.*.%.#./ S / S / :.,X,XwXsXkXCXZX:XfX& @XL v 6 r q q u Y.].0X].].:X:XwXsXkXZXAX: K V.v.N.N.d.O.{ ] 5 i Q { { V V C m c t $   $ 4 O % j.:X:XCXVXSXeXuXhXzXlXVXVXCXVXVXCXVXVXzXkXkXrXZ.j.F j.k.Z.Z.W.rXrX%XrX9X(.Z.z.x.x.x.x.h.x.UXx.x.x.P P P P P P G G G G G G G 9 * 4 9 G G &   X 4 k.yXiXyXyX[.|.'.'.[.P.P.b & & & & * s.O.R ",
"'.).'._.'.).].^.B.qX/.[ t < 5 5 C N.uX:X  $       : $ O O X         eXeXhXVXC.        v rX%XDXaX,X<X<X<XE.$X>X>X*X-X-X-XE.u.u.q.u.q.u.q.u.9.q.T.&XE.q.;.X   .   . o o O @ @ $   o ; ; ; : < r *.-.-.*.%.%./ / / / / >.wX,XwXsXkXZX:X,XfX# K v i r r r r | ].qXqX0X0X].0X0XwXfXfXSXR K d.d.O.O.O.] ] 2 i V  .s.V V V C C c t ;   $   . O O 6 0XVXlXVXeXsXkXzXVXVXVXVXCXVXVXlXzXzXJXJXSXD X       X X & % 4 7 6 v v G v G F G P G P P P P P P P P P G G G G G G G 9 * * 9 G a.9 X X & v z B.B.[.}.}.}.}.}.}.[._.c. .v.m._.|.'.'.).",
"'.|.'.'.'.'.[.[.^.0XN.hX/.j.5 7 v F jX0X@ O 4   : : : $ $ . .       l.sXsXzXC.X         a %XkXfXwX<X<X<X<X*X>X>X>X*X;X-XE.u.u.U.E.u.u.r.u.q.u.q.k *X&Xq.q.@       .   . o o .   . @ 2 ; ; ; : , K g.-.#.%.#./ / / / $.>.,X:XwXfXCXkX;XwX    K D u r 2 r y n.qXtXtXtXqXqX].^.0XsXkXSXr O.d.O.] ] ] O.2 u V ] O.V ^ V V B M f t , X O   X   O 4 u V ].zXVXsXhXzXlXVXVXCXVXlXlXzXkXHXJXeXAX4 %     X & & & % * 4 4 7 9 7 v G L P G G P P P g.P P a.P P G P G G G G * * 9 9 G F * &     8 G `.Z.B.'.iXyX}.}.}.}.d.! N N Q '.).I.'.'.",
"|.|.|.|.}.}.}.[.[.0X0X0X0XlX:XC.$ 8 h.uX:X  #   5 5 4 $ $ O . X       eXsXzXsX          % F kXsXaX,X:X;X;X*X>X>X=X;X>X*X&XT.T.u.u.u.u.u.u.E.u.u.u.E.6X*XE.C.-   . . .   . .       o O ; $ @ ; : % 5 h.-.&.&.#.#.#./ S $.C.;X,XsXZXCX;XwXE.X : D c t r r r ] m.[.tXtXtXtXqXqX].:XwXlXzXX [ ] ' E R > 5 u V ! O.W R V B B M f f u O     .     X   , x u b qXzXkXzXVXZXVXZXZXzXzXhXAXkXVXAXHX%.& % X X X & % % 4 4 * 7 7 9 8 9 v G F G F a.P a.a.P P f.Z Z G f.G z 6 6 c c F * *   & 7 L 7 V.{.W.[.[.[.[.[.'.).G.% 6 n s.Z m..X|.|.",
"|.|.|.|.}.}.tX}.tXqX0XeXeXeXeXZ.sXZ., 8 *.F . t v 7 7 4 % $ O .       fXhXzXwX      O   X 5 h.fXsXaX>X;X~.*X;X>X>X*X>X>X*X&XT.T.T.T.U.y.E.y.E.E.E.E.E.E.R.T.u.k       .   .         o @ @ @ @ ; < : 2 K -.&.#.#.#./ / #.&.>X,XaXBXSXfX,X,X    7 D t r r t W 3.J.`.iXuXiXuXqXqX].^.jX^.0Xb R V B V 2 r u B ] O.R R ^ R V B m M @ o o     X     . o o b V V V ^ [.AXzXZXkXkXkXkXzXkXHXZXzXzXzXlX& * X X & % * * * * 7 7 7 9 7 9 7 9 F G F a.a.} a.f.Z f.f.f.f.f.G 6 C G P c 4 & & v P L * : [.'.`.'.'.[.`.!.J.I.* G Z G b..X|._.|.",
"}.|.}.}.}.tXtXtXtXtXuXeXuXuXeXhXuXh.zXrXp 5 . v v v v 4 4 $ O X X     c hXkX:X      O 4 . : i *.sXaX,X;X;XR.*X>X>X;X>X>X*XT.T.&XT.T.T.T.T.T.R.T.T.E.U.E.;.R.E.u.<.        .         . o O @ @ @ ; ; ; ; 7 *.%.%.#.#.S #.%.C.>XdXMXHXFX>XR.q     v C x 5 t u G.3.P.L.iXiXiXuXqXqX0XuXjX:Xr B B m J.r r u B E O.V V ^ V T M u u r 5 5 > ; +     . @ O   u V V V R R V H.fXBXBXBXBXkXkXHXhXjXhXjXCX*.% * X % * % * * 7 4 5 6 6 6 6 t t x C Q a.f.d.s.f.f.d.f.f.a.Z c } a.} t : 4 F K         [.`.`.P.K.W.B.N.{ s.9 G Z G f.Z .X|.|.",
"}.}.}.tXyXyXtXiXuXuXuXuXeXhXuXhXhXhXhXlXHXFXK F c 8 c i p t @ O o       kXzX<X      % , 5 : : i D E.,X>X;X;X;X4X>X>X>X,X;X*XT.*X&XT.T.R.T.R.T.*XT.T.T.T.T.T.4XT.u.9.    .       .     . o O $ o . O @ $ - J K $.$.#.#.$.%.,.>X4XmXPXLX6X6XMX      D c t r t b.J.3.P.L.iXiXiXuXuXqXeXuXjXeX5 m m g r y f V ] d.^ V R T b W M M M M b b u u +   . ; - O . . M V V V ^ V A B j.>XZXBXkXkXAXuXhXhXzXlXlX% 4 & % % 4 * * 4 4 4 5 5 5 5 6 6 5 x R ! O.d.d.c.d.b.v.d.{ Q a.d.t 4 5 F g., O %     V.`.!.B.N.N.N.B.k.* z G f.f.f.f.G f.|.",
".X}.yXyXiXiXiXjXjXjXjXjXhXhXhXjXhXzXlXVXAXJXKXSXh.$ D 7 7 6 6 7 O & O   *.VXl.    X % , 5 , , p m p C.E.;X;X;X,X>X>X,X,X*X*XR.*X*XR.*XT.*XR.&XT.R.T.T.T.T.U.T.T.&Xu.u.    .       .   .   .     . . o @ @ 5 L K %.=.&.%.=.$.<.3XdXFXKXNX6X6X$     . C u 6 t x S.J.v.L.L.iXhXuXqX0X0XwXeX~.~.m f f u u g R ] d.^ ^ R E W W W W W W N W W W M - ; + > ; + o   B B B V A B A D D V } E.kXhXVXhXhXhXzXzXAXl.% 4 $ $ * 4 % : 4 5 4 5 5 2 2 , y r q T O.d.d.v.b.v.v.O.O.d.F 4 t } j.5 @ . o .   5 Q.!.N.G.G.W.qXhXG x Z f.f.G f.Z Z Z ",
"f.a.}.yXiXjXjXjXjXjXzXjXjXjXlXzXlXlXlXVXAXHXKXKXgXCXcXv D G 4 4 5 4 X O   %XV..   X ; 5 4 , ; , v i - C.C.E.C.;X,X:X;X,X;X*XR.*X*X*XR.*X*XT.R.T.T.&XT.T.T.T.T.R.E.-XT.E.p                   . . @ O O @ ; ; D J K K &.=.&.&.-.$X6XNXPXPX3XNXGX@     - x r r y F.F.S.8.P.L.uXhX:X0X0X0X0X0XU.8.B B u u M R ] d.E ]  .!  . .E ! W W M M f f B ~.8.o - - ; @ + o r B B m m B C B A A V R ' B.lXeXsXsXhXkXlXVX5 4 $ % % $ : ; , , , , 2 2 2 q 2 q 2 h o.o.v.v.N.v.O.M f h p &.h.y 1 - o o . o . F.R.Y.].qXL.kXd.G x f.f.Z f.Z Z f.f.",
"f.f.f.k.iXjXzXlXzXlXlXlXlXzXeXlXVXVXCXCXAXJXLXKXKXLXh.zX: sXeX} c % : % & D &     O : , 5 , ; - i g a , q.E.-XE.E.;X:X:X;X~.R.*X*XR.*X*X*XT.T.R.T.T.T.R.&X*X&X*X-X9.>X*XT.T.  .   .           . o @ O @ @ ; p D J K %.K &.*.-.<.6XmXPXLXmXmXmX        , r q y G.F.F.F.8.Q.Q.wX^.:X:X0X0X:XsX:Xy T h g M R O.d.O. . .E E W T M h f d Y.R.;X>XaXaXdXE.o - ; ; o o + g m m m m B B B B V R Q Q { 0XZXsXkXsXC.AX>.$ : O @ $ ; ; > > > 1 > 2 2 2 2 2 2 r 8.8.G.3.3.2.o.y g %.<.>.2 1 - + + - + o E.&X>XaX>XfXaXd 4 ! f..Xa.Z f.P f.f.",
"f.f.f.k.j.iXlXlXlXVXCXCXzXsXhXCXCXAXAXAXSXSXHXLXLXrXhX<XeX< zXhXeXqX*.6   t       O : 5 , > ; @ v g v i , <.E.-XT.U.U.wX,X;X*XR.*XR.*XR.T.R.&XT.*X&X*X&X&X*Xu...;.9.G...~ ) [   .   .       . . . O ; ; @ ; > m D J K %.*.$.<.<.$XmXFXPXPX6XNXNX+     o 2 q y y U.U.D.F.r.Q...e.:X:X:X,X:X:XR.Y.E T j B 3.] E E E W T M f S.F.A.D.Y.U.Y.R.~.~.;X7.FXMXq.o ; @ @ o o f f f m m m B B A B R R Q { N.N.:XSXaXfXkXkX2 ; ; O - @ - - - > 2 1 1 2 1 1 - > _ N.8.8.8.8.a S -.<.*.e q 1 - + 2 1 - - $.=X1XNXbX6XmX*X# ; * & z f.f.f.f.f.",
"f.k.k.k.j.k.k.lXCXCXlXzXkXzXzXAXSXSXSXSXSXHXHXzXrXrXhXjX9Xg.4 (.lXjXhXqX^.{       @ , 5 5 2 ; @ m m g i i 2 >.T.T.U.T.R.~.,X;XR.*X*X*XT.R.&XT.y.;.2.9.8.8.9.8.8.8.G.o.~ R.q._ -               . . O @ ; > ; ; i v S J %.%.*.A <.C.mXFXPXPX6XNXmX        . p w y T.&XT.T.D.7.;...8.,X:X,X,X,X>XwX3.T T E E E W I B o.F.D.D.Y.Y.Y.Y.Y.Y.Y.~.8.7.7.7.;.FX*XMXq.o - > o . - i f f M m M B B B R R R O.N.N.N.G.,XHXq.ZX<.o - o + = - = - > - > > > 1 > > 1 u.q.E.q.2 <.*.-.&.p p 3 2 - = = 2 > - = -X1XmXNXbXmXNXp o & % * & * * G f.",
"& z k.k.k.x.k.z.9XCXCXAXAXCXCXHXJXSXSXSXHXHX9XrXcXcXeXhXzXCXO 4 Z.iXhX} jXeXD     $ 5 5 5 5 > - v k v i v p 3 l.R.T.R.*X;XR.R.;X;Xr.X.o.X.X.1.2.2.7.8.7.9.N.9.9.r.o.U ..g E.-Xg     . .           o @ @ ; 5 - 5 v D F J K %.%.%.&.-XBXPXJXFXdXNX$X  .   . o r e C.=X*XR.T.7.>.o...7.,X,XaXaX,XT.R.E W W h o.F.Y.Y.F.Y.Y.R.~.;X;X~.;X8.8.7.7.7.2.2.o.o.fX4XdXfX<.. ; + . . u f f h B M B B B T R R ..9.N.8.C.N.G.~.HXMX2 ; > + + o + = - - - - > 1 - - ;.-X<.;.=.#.=.$.a l e 3 2 > 3 > > 1 > # -X-X1XNXbXbXNXmXf p :   & & * * * "
};
