/* XPM */
static char *d22172d024f64139b34b7e97f74a9dfb3678FJECuBNrFvUw[] = {
/* columns rows colors chars-per-pixel */
"32 32 164 2 ",
"   c #390F0D",
".  c #33100E",
"X  c #3D140C",
"o  c #3B0E16",
"O  c #380D18",
"+  c #3B1210",
"@  c #470F07",
"#  c #4E0C04",
"$  c #460E09",
"%  c #540D0C",
"&  c #4C1405",
"*  c #4D1905",
"=  c #44130B",
"-  c #4D140B",
";  c #42180B",
":  c #4E1809",
">  c #531403",
",  c #5A1403",
"<  c #521C05",
"1  c #5B1901",
"2  c #53150B",
"3  c #5C140C",
"4  c #531A0C",
"5  c #5B1A0B",
"6  c #420D15",
"7  c #430E1C",
"8  c #441314",
"9  c #4B1412",
"0  c #4C1912",
"q  c #441419",
"w  c #4C1718",
"e  c #491819",
"r  c #531611",
"t  c #591612",
"y  c #531910",
"u  c #581912",
"i  c #631605",
"p  c #681706",
"a  c #641D05",
"s  c #6A1D06",
"d  c #641D0B",
"f  c #6C1C0B",
"g  c #731D04",
"h  c #731D08",
"j  c #671D18",
"k  c #5E210A",
"l  c #4D2615",
"z  c #4D241D",
"x  c #5D2314",
"c  c #5B2911",
"v  c #5F201A",
"b  c #562B1A",
"n  c #5B2A19",
"m  c #642205",
"M  c #6D2306",
"N  c #632309",
"B  c #68230A",
"V  c #67280D",
"C  c #732303",
"Z  c #7C2303",
"A  c #732803",
"S  c #7C2C04",
"D  c #74230B",
"F  c #7A250C",
"G  c #742C0A",
"H  c #7D2C0A",
"J  c #6F3407",
"K  c #7D3204",
"L  c #77330F",
"P  c #7E320B",
"I  c #672210",
"U  c #6A2212",
"Y  c #6C2A10",
"T  c #612C1A",
"R  c #692B1A",
"E  c #782E16",
"W  c #732F19",
"Q  c #663316",
"!  c #6D3215",
"~  c #6B341B",
"^  c #6C391F",
"/  c #733315",
"(  c #7C3F12",
")  c #72351D",
"_  c #7A3318",
"`  c #5D392E",
"'  c #6F3521",
"]  c #733422",
"[  c #822706",
"{  c #892605",
"}  c #842C05",
"|  c #8B2C04",
" . c #852408",
".. c #852D0B",
"X. c #8A2C0B",
"o. c #932404",
"O. c #912D05",
"+. c #992D06",
"@. c #922C0B",
"#. c #992E0A",
"$. c #833105",
"%. c #8C3105",
"&. c #85320A",
"*. c #8B310B",
"=. c #8C3808",
"-. c #923403",
";. c #953B04",
":. c #9D3C03",
">. c #9C3F02",
",. c #9D3904",
"<. c #9D3D07",
"1. c #953009",
"2. c #943408",
"3. c #90300C",
"4. c #94300C",
"5. c #9E3709",
"6. c #983908",
"7. c #9B3F08",
"8. c #9C3C08",
"9. c #993E0F",
"0. c #9D3D0C",
"q. c #852C12",
"w. c #8C2E12",
"e. c #8E2F12",
"r. c #892F15",
"t. c #942B12",
"y. c #912F11",
"u. c #9A2D15",
"i. c #843210",
"p. c #853311",
"a. c #8A3311",
"s. c #8A3214",
"d. c #933812",
"f. c #A03807",
"g. c #A33B0B",
"h. c #A33D09",
"j. c #944705",
"k. c #9E4204",
"l. c #9A410D",
"z. c #83461A",
"x. c #984C18",
"c. c #A64301",
"v. c #AC4504",
"b. c #AD4901",
"n. c #AA4B05",
"m. c #AE4906",
"M. c #AB4F05",
"N. c #AE4708",
"B. c #AD430C",
"V. c #AC4E08",
"C. c #B14602",
"Z. c #B34F00",
"A. c #B44E01",
"S. c #B74E05",
"D. c #B2470B",
"F. c #B14A0B",
"G. c #BA4D0C",
"H. c #B35004",
"J. c #BE5203",
"K. c #BF570A",
"L. c #C25304",
"P. c #C95201",
"I. c #C4530B",
"U. c white",
/* pixels */
"` ' ' ] ' T T z n W W ] ^ ) ) ] ] ] / / ~ b l l Q / / / ! ! / / ",
"' 3.3.+.O.f f 2 s @.@.y.p.*.*.O.*.*.1.1.X.d 3 t F +.+.+.O.X.*.*.",
"Q } } | S a a * m } } } $.%.%.| X...{ { Z 5 r r s [ [ [ [ ..} } ",
"Q } } | S a a * m } } } $.%.%.| X...{ { Z 5 r r s [ [ [ [ ..} } ",
"c s s d 5 - - $ 2 3 3 p C D D f a a a a < ; X X * m s s a a a a ",
"x 3 3 6 8 e e 9 0 w w y a y 4 8 8 8 e e q 9 r r 2 , 1 1 < 0 4 4 ",
"R 5 5 8 G n.n.M.M.V.V.m.b.>.>.C - 8 - - p %.N.N.S.A.Z.Z.H.H.m.m.",
") N N < } f.f.0.8.g.g.5.6.d.d.X.C 2 5 5 Z 2.9.9.7.8.<.<.,.,.h.h.",
") N N < } f.f.0.8.g.g.5.6.d.d.X.C - 5 5 Z 2.9.9.7.8.<.<.,.,.h.h.",
"] v v 4 } ....H X.#.#.@.*.....@.Z t U U X.{ [ [ X.@.O.O.{ X.3.3.",
"E f f i o.X.X.} } %.%.*.*.@.@.@.C 4 I I &.X.H ..&.r.s.s...} O.O.",
"! 5 5 < } %.%...X.X.X.X.*.%.%.| A 5 U U X.y.e.e.e.e.*.*.%.y.u.u.",
"] j j u F X.X.&.X.r.r.p.&.} } } C 5 s s } X.*.*.*.@.1.1.| X.@.@.",
"] j j u F X.X.&.X.r.r.p.&.} } } C 5 s s } X.*.*.*.@.1.1.| X.@.@.",
"Q N N < M C C g g h h h C C C s , - 2 2 a g C C C g S S S A C C ",
"z 9 9 6 6 8 8 > > - - = = 8 8 q o O o o = - - - & = e e q 6 % % ",
"( >.>.<.k.k.k.-.d 7 7 9 G ;.;.<.k.l.l.l.k.k.k.k.;.k + + = J j.j.",
"z.F.F.D.v.C.C.c.A - - < $.B.B.v.b.m.m.m.v.v.v.v.>.M 2 2 i %.C.C.",
"/ { { { | | | ..F 5 5 s } ......} ..a.a.*.%.} } } A u u f } e.e.",
"/ { { { | | | ..F 5 5 s } ......} ..a.a.*.%.| | } A u u f } e.e.",
") X.X...*.*.*.*.H 5 5 d } X.X.X.X.@.@.@.{ X.3.3.@.Z r r d S X.X.",
") X.X.X.&.&.*.O.Z 2 2 d { O.O.X.y.4.@.@. ...e.e.X.F t t p $.-.-.",
"_ +.+.@.-.%.%.O.Z 4 4 N } y.y.e.*.*.a.a.*...&.X.%.Z 3 3 p } %.%.",
"] q.q.F D D D F s 8 8 9 s D D D C C A A A Z Z Z C a 9 9 y B D D ",
"] q.q.F D D D F s 8 8 9 s D D D C C A A A Z Z Z C a 9 9 y I D D ",
"z > > & - 9 9 : * X X 6 # > > 1 1 > & & 2 2 2 2 - = . .   @ , , ",
"~ H H P G 9 9 ; < V V H S S S P P K G G x q q q 0 Y L L L G %.%.",
"x.I.I.I.>.5 5 8 a 7.7.K.L.G.G.F.J.P.L.L.=.< & & M C.P.P.L.J.L.L.",
"] t.t.@.} h h 3 M X.X.X.| { { { X.X.@.@.[ p , , D ..| | @.q.X.X.",
"] t.t.@.} h h 3 M X.X.X.| { { { X.X.@.@.[ p , , D ..| | @.q.X.X.",
"^ p.p.&.K M M 5 M ......&.&.&.a.*.*.X.X.H B d N A q.e.e.X.H H G ",
"U.U.U.U.U.U.U.U.U.U.U.U.U.U.U.U.U.U.U.U.U.U.U.U.U.U.U.U.U.U.U.U."
};
