/* XPM */
static char *dec7fc4b73714adcb3fab449b77dea75n7eKcwuwZZ5JOYp4[] = {
/* columns rows colors chars-per-pixel */
"256 256 256 2 ",
"   c #2F2F2F",
".  c #3F3F3F",
"X  c #4B4B4B",
"o  c #5B5B5B",
"O  c gray42",
"+  c #7B7B7B",
"@  c #8B8B8B",
"#  c #9B9B9B",
"$  c #2F2313",
"%  c #372B17",
"&  c #3F2F17",
"*  c #4B371B",
"=  c #5B431F",
"-  c #47331B",
";  c #533723",
":  c #633F2B",
">  c #6F4733",
",  c #7F533F",
"<  c #8B5F47",
"1  c #9B6B53",
"2  c #A77B5F",
"3  c #775363",
"4  c #6B4B57",
"5  c #5F3F4B",
"6  c #4B2F37",
"7  c #371F23",
"8  c #CBB3A7",
"9  c #BFA39B",
"0  c #AF978B",
"q  c #A3877B",
"w  c #977B6F",
"e  c #876F5F",
"r  c #7B6353",
"t  c #6B5747",
"y  c #5F4B3B",
"u  c #533F33",
"i  c #433327",
"p  c #372B1F",
"a  c #271F17",
"s  c black",
"d  c black",
"f  c black",
"g  c black",
"h  c black",
"j  c black",
"k  c black",
"l  c black",
"z  c black",
"x  c black",
"c  c black",
"v  c black",
"b  c black",
"n  c black",
"m  c black",
"M  c black",
"N  c black",
"B  c black",
"V  c black",
"C  c black",
"Z  c black",
"A  c black",
"S  c black",
"D  c black",
"F  c black",
"G  c black",
"H  c black",
"J  c black",
"K  c black",
"L  c black",
"P  c black",
"I  c black",
"U  c black",
"Y  c black",
"T  c black",
"R  c black",
"E  c black",
"W  c black",
"Q  c black",
"!  c black",
"~  c black",
"^  c black",
"/  c black",
"(  c black",
")  c black",
"_  c black",
"`  c black",
"'  c black",
"]  c black",
"[  c black",
"{  c black",
"}  c black",
"|  c black",
" . c black",
".. c black",
"X. c black",
"o. c black",
"O. c black",
"+. c black",
"@. c black",
"#. c black",
"$. c black",
"%. c black",
"&. c black",
"*. c black",
"=. c black",
"-. c black",
";. c black",
":. c black",
">. c black",
",. c black",
"<. c black",
"1. c black",
"2. c black",
"3. c black",
"4. c black",
"5. c black",
"6. c black",
"7. c black",
"8. c black",
"9. c black",
"0. c black",
"q. c black",
"w. c black",
"e. c black",
"r. c black",
"t. c black",
"y. c black",
"u. c black",
"i. c black",
"p. c black",
"a. c black",
"s. c black",
"d. c black",
"f. c black",
"g. c black",
"h. c black",
"j. c black",
"k. c black",
"l. c black",
"z. c black",
"x. c black",
"c. c black",
"v. c black",
"b. c black",
"n. c black",
"m. c black",
"M. c black",
"N. c black",
"B. c black",
"V. c black",
"C. c black",
"Z. c black",
"A. c black",
"S. c black",
"D. c black",
"F. c black",
"G. c black",
"H. c black",
"J. c black",
"K. c black",
"L. c black",
"P. c black",
"I. c black",
"U. c black",
"Y. c black",
"T. c black",
"R. c black",
"E. c black",
"W. c black",
"Q. c black",
"!. c black",
"~. c black",
"^. c black",
"/. c black",
"(. c black",
"). c black",
"_. c black",
"`. c black",
"'. c black",
"]. c black",
"[. c black",
"{. c black",
"}. c black",
"|. c black",
" X c black",
".X c black",
"XX c black",
"oX c black",
"OX c black",
"+X c black",
"@X c black",
"#X c black",
"$X c black",
"%X c black",
"&X c black",
"*X c black",
"=X c black",
"-X c black",
";X c black",
":X c black",
">X c black",
",X c black",
"<X c black",
"1X c black",
"2X c black",
"3X c black",
"4X c black",
"5X c black",
"6X c black",
"7X c black",
"8X c black",
"9X c black",
"0X c black",
"qX c black",
"wX c black",
"eX c black",
"rX c black",
"tX c black",
"yX c black",
"uX c black",
"iX c black",
"pX c black",
"aX c black",
"sX c black",
"dX c black",
"fX c black",
"gX c black",
"hX c black",
"jX c black",
"kX c black",
"lX c black",
"zX c black",
"xX c black",
"cX c black",
"vX c black",
"bX c black",
"nX c black",
"mX c black",
"MX c black",
"NX c black",
"BX c black",
"VX c black",
"CX c black",
"ZX c black",
"AX c black",
"SX c black",
"DX c black",
"FX c black",
"GX c black",
"HX c black",
"JX c black",
"KX c black",
"LX c black",
"PX c black",
"IX c black",
"UX c black",
/* pixels */
"u y y y y t y y y t r y y y t t y y r r r e w r r w t e r r t t t r y r r t t e e r r t y y u u t t y e e r r r r r e e e w e r r t t t y r t r r t r r t r r t y r r t r t t r t t y u u t ; y y y u y y y y u u t t y y t r r y t t t y t t t y u r t y y y u u u y y u y t y y t y y e r r r t t t t t r r e t u t e t t y u t t r r t t y y t t t y t r r e t r r r r r t y t r r e e u t t r t t r t t r r y r r t r t r r r r r r y r r t t r r t y t t X y t y y y y y y t t y t t y u y u i t y u t y y X y y y u u u u ",
"y t r t r t t r r r e e t r e e r r e e r r r r e e e w e e r t t O t r r e e e e w w w e w e r r w w w r r e e e e e r t t t y t t t r e r r r r t r r e e e t t r r r r r t r r t t t y e t y t t r e r y t y t t y t t t r t t t r r r r e r r r r t t t t u y r e e w w w w w e e w q q w q w w e e e e e r e r q e t t y y r t r r r t t r e r r t r e r e e r r r r r r r t t t t t t r r r e e e e w e e e r e e e e e w w w e w w w e r e w q w r r r y r r e w w w e e w w e e w w w w e e e r e r r r w w r t t t y u ",
"t e r t r r t t r w e e e t r r r r e r r r t t w e e w w e r y y t r r r r e e r e r r r e e w e w e e e e e w q w w r r r r r r e e r r r r r r r e e e e r r r t y t r y y t t t r t y y t t t e e r t y t y t t t r r t t y r r t r r t r r r r y y t y y u y r t e e q 0 w e e e w w w e w e w q q q e r r r r t t y t t y r t t r r r y y t y r t r r e e r r t t t t 6 y > e w e e r r t r r e e e e e e e r r e e e e e e w e w w e e t e w w w e r t y t t e w 0 @ e e e w e e w r r r e r t t q e t t t t y y y t y u ",
"i t r e e e q r e e e t r e t t r r r t t e e r r r e e e r t y y r r r r r r r t e r r t r w e r e r r e r e e r e e r r r r t t e r r t t r t r r e e t t t t t t t t t t r r t t r t t t u t t e r t y t t r y y y t t t t t r r r r r r r e e r t t t y t y y r r e e w w e r e w e r e w e e w w e 0 e e r t t t y y y y y y t y t t r t y y t t r r w e r r r r r t u t w w q e r r r r y t e t ; y e r e e r e r e e e e e e e r r r e r e e e e e t t y r w e q # w e e e w w r r r r r e r r e w e t t t r t t t t u u ",
"y e t t e e r t r e e r t r e t t r r t r r t r r r t t t t t t t t y t r e r r t t t r y r r e e e r r r r w r y r r r e r r r e r r e e r r t t r e t t t r t t t y y t t r r r r r y t y y t r t t r r r r t u u r t t y y t e r e e e r e q w r t t t t y u u r e e w w w r e e e e w e e r r e w t r t r t t t t t t t y y y y t t t t t r t t r r e e r r t r t : y 8 q r t r r r e e e t r e t u r q r r r r r r e r e e w w w r e e t e r e e e w r t y r e w 0 w e w w r e e r r e r r t r e e r e r t t r r t y t u u ",
"y r r r 0 e r r r e e r t u r r t t t y r t r t r t t t t y y u t t t t t e e e r t t > y r r w e r t t t y t t r r e e e r r r e r e e r r e t r r t t t r t t r r r t t t r r r r t y t y t r e t e r t t t t t y r y t t t t t t r r e r r e r t t t u y y u y t t t w w e e e r e e e r r r r w w r t r t t t r t y t t y y t y y y y y y t r r t w e e e r t t > e 0 q t t r r e r r r r t t r w e 9 0 r r t t r r w w w e w e e e e e r e e e e e e e r y r w q q r e e e e e t r r r r r r t r r r r t t t t y y u y u u ",
"y t r r e r r r r r r y y t t t y t r t y t t r r r r r y y y y y y y t > r e t t r r : : t t y t r t r r t t e e r t t r r r r e e r e t t r r r t y t r r t r e r y t r e t r r t t y y y r t e w e t y r r r t y y y t t r r t t e r r r e e r t t y t t y y y r e e e e r e e r r e e r r r e w e r r r r r r r t t t t t t y y t > t r t t t r r e r t t r t y w w t t t r r r r r r r r t r e e e 0 w r e r r e e e w O e e e r r e r t e e r r e e r r X t r w e t e r w r r r t r r , t r e e e r t r e t t y u u u t t ",
"i t e e w r e e e e e r r t t t e r t y t r t u r r r r t t t t t r r r t r r t t y e t t r r y t r t e r t t r r t r t t e e r r r e e w e t r y y r r r t t r t r r r r e r r r t r t y y t u y w t t w w r y y t t t t y r r r y r t t e r r e t e e r t t t t r r w e e e r e r e e r r e w q e r r t r r t t t t y y y t y y t r t r e y u t t t e e e e r t w r t r r , t t e t t t r e t e e r e t y y e r r e e w e e e e e r r r t r r e e r r r r r u r t e r e r t e e e e r e r r r r r r r e t r r r t y u y u 6 i ",
"i y t t q e r r r r e r r r r r t r t t e r i i w e t r r r t y t r r r r r e t t y u y r t r e r e e e r t r t r r e r r t w t r e e e r r t r r r e t t t t O r r r r r e e r r t e t y u r y y r t r r t y y y t y t t t y y y t t t t t r r t r r r t y t y t r r e e e e r r r e e r r r r t t r t t r i y r r t y y y t y t t r t t r - u w t e r e e e t t q r t r e r r r r r r r e e r t r r e t u t e e r e e w e w e e e r r e e e O e e e t t r t u y r w w e e r e e e e e e e r e e e e r r r r e r r t y y u u i ",
"u t y y y r r r e e e r r t r r t r t t t t t r q r t r t r r r r r r t r r r r t r y t t t t r t t r y t t r e r r r t e r w e t r e r t r r r t y t t t r r t r t t t t t t t r t t t t y y y i y t y t t t y r r t t t t t y y y y r t r r r t t t t t t t u y t t r r t r r t t t r r e r t r t t r r r t w e t t t y y t y t t t y y y y w w e w r w e e r e e t r r r r r r r r r t r r t r e e w e y e q e r e e e r r e e e e e e r r e e r e r r t y u t w w e r r e e e e r e e r r r r e e t t r y t t r t t y u u u ",
"u t t y u r e t e r e e r t t r t r t t r r r e e t r r t r t t t e r e e r r r , r y r t t r t t t r y r r e r r t r r r r e r t e r e e e e e t t r e e r r t r r r r t t t r e t e t u u u t t y i i y r e e w t r t t r t t t t t y r t t r r r r r r t t y y t r t r r t t t t t r e e r r r t r t t t t t r e r t y y y y t t t t y y y t e e e e e e e e e r t r r r r r r r r r r r r r e w w w w e q q r r e e r r r t r t r r r r r r e t r r r t t u e w w e e e e e e e e w w e e e r r r t r r t r r r r y y y u u ",
"y t r t t t r r e r r r r r t t r t y t r t t t r t t r t t y u y t t e r r r r r r t r y t t r t t y t t t r t e r e e r e e e t e r e e e e r r e e e r t r r e t u w t t r r r t w e t u u y r r u u r t r r r r r t t t t r t t t r r r r t r t t y t r t u y r e r r r r r r t t r r r t e O t r t y t t t r r t y t t y y r t t r t t r e e e e e r e e r r y e e r r e e e r r r r e e r e w e w w w w t r r r r t t t r r r r r r r r r r r r r r t t y t r t r r e r t r e e e e r e e t r r t t t t r r r r t y y y y ",
"y y t y t t y t t t r t r t t t t t t y t r r r r r t r r e t y y t y t t r e e e r y y t t t t t t t y y y y t r e r r e e t y y r e e e e e r t t t t t t r e e e q q t t t y y y r t t u y u y y y t t r t t y t t r y y y r t t r r t t t r t t t y y r t y t r r r r r r t r r r e e r e r r r r r t t t t r r t y t t t t r r t t t r w w w w e e r r r r r t q r r e e e e r r e r t r r r r e r r t t t t e r e t t e r r r r r r t r r r t t o r r t y t t y r r r r t r r r r e e r y y q t t t r t t t t y y u u u u ",
"; u y t t t t y t t t t t r e e t r t y r t t t r r r e r t y y y t y t t t t t y u t t y y e r y t t y t t y t r e t r r e u i e e r e e e e r y u t t e r r r w w e r r r r t t r w y r y u u u u t r t r t t t e r r e t r r t t e e r r r r r t y y t t t t t e w e e e r t r r e e e e e t r r t t t r r r e r t t t t r r r r r r t r w q w w e e r r r e r e e e e e e e r e e e w e r e e e e e r t t w e e e e e e e r r e e r t t r e r r O r r r t r t , t r e r t t r r r e w r t r 0 q r t t t r t t t t y u u u u ",
"u y y r r t r t t t e e t r e e y y t y t t y t y t t t y ; u u y r t t t t y y y y t y i u t t t t r r t t y t e e e r r e r e e r e r q q r y y y t y t t r r e e r r r r r y r w r y r r y ; y r e t y t t t y r e r t t r r t t u y t t t r t t t t y y y y y e t t r e r r e e e w e e t t r t t t r r r r r r t y t r t t t e r r t e w q e e e r t r r r r r r e e e w w e e e w w r r r e e e e e e t r e r r r r r t t r r e r r r e e r e r r r r r r r r e e e e e w e r r e r e e r e e r t r e e e r t t y t y u u ",
"y t y t r r r r r r e r r e e r e r r y r r r r r y t t y t t y y r r t t t t t t t y ; u t w t y r r r t t t e e w e e e r r t u r r e w e r r t t t y t r e r r + r r r t y t t t t r u t y y y t r y u r t t t t r r t y r t y y y y t t t t y t t t t y y u u t r r t t t t t t t r r r t t t t t t t r r t r r t y y t t y t e r r t e e e e e r t t r r r r e e e w w w w w e e e r r r r r e r r r r r t t t y t t t t r t t r e r r r r e r , t e r y t r e e e e e e e e e e e r r w r e w e r r r r r r r t y y t y u ",
"y t y t r e r t t r e r t r t r e r r e r r r e e r r t t r r t t r r t t t t t r e r y t r e y u y t t y t r r w e r r t t t u u r r e w r r r t t r t y y r r e e y e r t t r t y y r t t y i y y : y u t e r t y r t t t t t t t e t e r t t t t t y y t t y t t t t r r r r t t t r r r r r t t r t r t t t r e t t t e r t r r r r t r e r e e r r r r r r e e e e e w w w q e e r t r r t : t r e O e e w e r t r r e e r r r t t t r r t r : w r r r t r r e e e e t e r e e e w r t 0 e e e r r r r e e t t t t y y u y ",
"y t y u y r r t r r r r t t r r t r r t t t t r e r e t t r r r t r r t t t t t t e e y u u y y t t y t r t r r t t r t r t t y y e e e w r r r r t r t r t t t t y t e t r i i r t t t t r y y e t r y u : e r r t r e r r e r r r e t r r r r e r r t t t t t t r e e r r r t t r r e e e r r r t r r r r t r r e r t r r r t e r t t y t r e e e e r r r r e w e e e e e e e e r t t y t t y t t r r r r e e r r r r r r r r e e r r r e r O e w q t < r r r r r t t r r r t r r r e r r w t t t t r r t e t ; w t y t y y y ",
"u t y t ; u y r t r r e r r r r t t t r t t y t r r t r r r t t r e r t t t t y t y y y u u u y t r y t t r r r r r t r r t y u u t e e r r t r r r r r t t t r t u y r r t i u r t t t t y u u t y r y u u e r r t r e t t r r r t r r r r t e r t t t t y t y t e r r t r r t r r r r r r r t t t t r t t t t t r r t r t y u e r t r t t t e r r r r r r r e e e e r r r e e e e r t t y t y t e t u r r r r r r t t t r t e r t t r t e t r r t t t r t t t t r r r r t r r r r e r t r t t t y t t t r r t e r t y t t y y ",
"y t y y u u i y r t t r t y t t r t r r t t t r r r r t r e t t t r r r r r t t t u y t y y u y t t t t t r t r r t r r r r y u y r e e e r r t r r t t t y u y t t t t r t t e e t t y t t y u u t t t r y r r t y r t t t t t t r r r i u r t r t t t y y r t e e r r e r r t t r e r r t r r r t t t r t t r r r r y r r y r w t r r r t t r r r r r r r r r r r r r e e e r e r t r t t y ; t y i u u t r r r r t y y t t r r t t t y t e r t t t r t t y y r r r r r t t r r t r t y y t r t t u t t t t r y y t y t t y y ",
"y y t r t y u u t t r r y t e e e r t i r r t t t r r r r e r t r e e e r r t y t t y t t t t t t t t r y y t t y y r t t t t y y e e r r r r r r r r t y y y y y t r y t u i y y y t y y y u u t r t r r y r w r t r r r r r r r t e e y q q r r e r r r t y t r r e e e t r r r e r r r r e e r r r r r r r r e e e e r t t w r r r r e r t e r e e e r e r r r r r r e e r r e r r r y y t y y : i u t t e t r r r t t r e e r t t t t e e r r t t t 5 t t t w e r r r r r r r r e r r t t t r t y y r r t t t t y t t t t y ",
"y t y r t t r y t r r e r r r e r r r r w t t t r t r r e r t t r e r r t t t t r r y t t r t t t t t t y y y t y y y y y t r y y e r r e e e r r t r t t t t t t r r t y t u u y u t u u y u 6 r t u t r r t w r e r t t r e r r r r r e w r e r t r t r t r r r w e e e e e e e t t t e e w e w e r r r e e r r e r w r y q r r r t e r r e t r e e e e r r e r r t r t r t r r r t r t t e y r > y r w e t t r r e r r t t r t r e e r e e e r t r r t y y t e w e e r r r e r r e r r e t y t t t r t e t t t t t y y t t y ",
"u y t t r r e r r e r r r r t e e t r e r y y e r r r r r e t t t t t t t t t t r y t r r t y y r r t t t t t t y t y y t e e y y t r e e e r t t r r r r r r r t t r r t r r t t y y y y u y y t r r y t r t w r e r t r e r t r r t r r r r e r y y t y t t t r r t y r r t t y y y t r e e e e e e e e w e e e r e r y e w t e e r e e e e e e r e e e r e e e r r r r e r e e e r r t t e y r e r e 0 q y r r e r t r r y t y t t t t e w e r t y t t r y t e r r r r r r r r r e e t r r t t t e r r r t t t t y t y y t u ",
"y r t t r w r r r r t t t r r r r r e r r r t t r r e r r t y t r r t t y y r r t y t r y y y y t t t t y t y t t t y y y y r t y r r r t t r t r r t r r r t t t t y t t t t r t t y u y u t u y r r t y t u t t y t t t t t y t t t t r r t r r t y y t r y r y y y u y t y u u u y t t e r r r e r r r r r r e e w r t q r r e r r e e r r e e e e r r e r r e r r r e e e t r t r r r t r t r r e e e t t r r t t t r t t y y t t t : t e r r t y y y t r t t r t r t r r t t r r r r r r r r e t t y r r r t t t t r t t y ",
"y t t t r e r t r r r t t t e e e r e r r r t t r r r e e t r r e t t t t r r t t t r t t t y y t t t y t y y t t t y u t t t y t t t t y t r r y t t t r r t t t y y r r t i t t t t y r t u u r e r e t r u t t y t y r y t r t r e t t t t r r t y t r r r t y y y t y & u y u t t t y t e t r e e r r w w w e e e r e e t y r t r r r e e e r e r r r r r r e r r t r r r t y t t t r r y y t t t y t t t t t r t r r y y r t t t r t t r e r t y t r t r y r r r r e r r r r r r t r r r t t q w r y t t r t y y t t t y t ",
"y t t t t y t r r t e e r t r r e e e r r e e r e e e t r r r t t t y y u y t t t t t r e t t e r t t y u y y t y y y u u u y y u t t r t t r y y t r y t r r r t t t r t t y w e y t y t r u u t r r r t r r t r y t r t t t t t r e r r t r r t t r r t r r u u y t t ; % t r u t y y y u t w t e w e q e e e e e w t e t y y r r t t r e e r r r r e e r e e r r e r r r t r r r r t r r t y r w r t r r r t y t r t r r r t r t t r t t r r t t r t t t y t t t r e r r t r r r r t r r e r t q r y y t r r t t t t y y y t ",
"r r t r r y t e e r e r y r t r r r r r r r e e e e e r r r t t t y u u u y y t e e w w e t r e r t y y y t t t t t t y u u y 6 u r e r r t r e r e r r r y t r r t t r r y r w r t r t t y u u y r r t y t r t t y t r t t y y r r t t t t r e r r r r t t y u y t y y y r e t y y y t r t y t e 0 w q r r e e r e r r r y y t r r r r r r e e r t t r r e e e r r e e t y t t t t t t t t t r w y t r e r r t t t r t r r t t t r r t r r r r t r r r t r y t r e r r r r r r r r r e e r r e r t y t r r r r r r r r t r t r ",
"t t y y r y y r r t r t y r t t r r t r r r r r e r e r e e r r r t u y t y y y t t t t r e t r r t t t y y t y t y t t u y u t y r r r y t t r e e r t r r r e r r t r e r t t r r r r t y u y t t r t t r u u e e r r t u y r t r t r r r t t t r r r y y y y t r r y t t u u y y y t t t w e e w r t r r r r r r t r r r t t r e e r r e r r e r t r r e r r e r r r r t r t t t t r r r r r u i t w r t t t t y t r r r y t r t t t r t t t y y y t t t y y r r r y t r t t e r t e r r e e w t t r t t t r r r r t y r y t ",
"t y t r r y y r t y t r r r r r y r t r r r t t r e r r e w t t t y y t t t t t t t r r t t r r t t t y t y y y y y y y u u y u u t t t y y r t t r r t r r t r t t t r r r t r r t t t t t y y t r e t t y y u y e e r t r t r t y t r t r r t y t t t t y y y y r t t y u u t t t r r t u e y > e w r e w e r r t e e r r r r r e e r r e e e e e e e r e r e r r r t t e r r r r r e e t t r r t w q t e e r e t r e t t t t t t r t t y y t t y y y y t y y r t r r t t r r t t e e r r r r r t t t t y y t r t t r y t t r ",
"r t t t t y t y t y t r r t r r r e t y t r t t e e e e e t y y y y t y t t t t t t r e e t t t r t t t t e t y t t t t u u t y y t t t t t r y y r r t t r y r r r e e e e r r r e e r r t t y t r r y t e e e y ; t r r t t t t t t t t r r y y t t t t t t u u y y y t t y r t t r e w r e t y t r r r r t t t w e t t t r t r r r r r r e r e r r r r r r t r r r r r t t t t t r t t t t t t r r t t y y t t t t t t t r r t t t t t y y t y t t y y r y y y y y t y t y t t t t t r r e r t t t t y y t t t t t t y r r e ",
"r t r t y y t r e r t t t r r t r r t r r r t t r e e r r t t t t t y t r r r t t t t r r r r t t t y y y r r t t t t r r u t y u t y t y y u u y t t t r r r t t r r e e r t e e t t r r t t t r t t e q r t t y ; u r t y t t r r t r e t t t y y t t t t y y y t t y u t t t t t r r t t w r e t e q e r r r t w r t t t t t t r r r r r r r t r w e r r t t t y y y y t t t t t t t t y t r t t t t t t t t r t t e r t t t t t t r y t t t t t y y y t r t t t t t t r t t t t t t t t t t t r t t t t t t t t t t y r r t ",
"t t r r t r t t t t t t t t t y y t t t t t t r r t e r r t r r e r y t t t t t t t t r r t r r r r t t y y r r t r u y t u u t u u y y y y y y y t t t y t r r t t r t r t r e y u y t r t t u y r r r r t y y y y u u y y t t t t t y t t t t t t t t t y y y t t y t y t t t t t t y t u u y y t t t t y r r e r t t t t y u t t y y y t y y t t y t t t t t t y t t y t t t r t r r r t y r r r e t t e t t r r r r r t t t y t y t y y t t t y y y r r e e e t y y y t r t e e r r t t t y t r t t t t r t t r r t t r r e ",
"e e r t r t t y t t y y y y y y y t t t r t t t r r r r r r e r t t t t y t y t t t y y t t t t r r r y t y t e e t i t r y u t y y y t t y t t t t r r t r e r t r t e e e w e y t r r r t t r 0 e y y t t y y y y y y u y y y t t t t t t r e e e r t y y t u y u y t r t t r r y y y y r r y t e e r r t t t r r t t t t y u y t t y t t y t t y r r r r t t t t r t t r r r r r r r r t t t t r t y ; y r r r r t t r r r y t t y t t t t t t t t r r t y r t t r r r r r r e r r r e r r r t t t r t t t t t t r r r r r e ",
"r r t t t r r r e e t t t y y t t r r e e w w e r e w w e e r r t t r r r t t t y t t t t r r r r r e r r r e e r r e w r t t y r t t t t r t t y y y y t t t t t t t e r r e r t r r e e t r r r e r r r r r t r e t r u y e r e e e e r r e r e t t t y t t u t t r t r e r t r r t r t t r r r e w w e e u u w e e t t t u y y t t r r r t r r e e r r t r r t r r t t r e r t e r r t r r y y t t t t y y e e e r r r e r r t t y t t t i i r t e t r r r t r r w e e r r r r r r r t r r w r r t r r r t t r r y t r r r t ",
"t t r t r t r r e e t t r e w r t e e r r e e e e e w e r w e r e r e r r r r r t r r r r r r r e t r e e e t r t r r r t r t y y t t t t r r t y r y y t t y y t t t t r r r r r w 0 q e e r r r e t t r r r r e e t r e t t r t t t r r e t y y : y t t t y y t t e y t e e t r t t e r r r w r t e r e y u r 0 e r r t t t y y t r t t t r t t e r r r e r t r r t t t y r t y e r r r r r y y t t t t t t r e r t r r r r r r r y t r y i y w y t t t t r y t e r t r r r t r r r t t t r r r r r r r t t r r t y t t t t t ",
"t t t r r t t t t t r y t r t r r r r e e r r e e t e e e w r t t r e r r e r y t t t y r r t t e r t r w e t r e r r e r r t t r t r y t t r r r t t t t t t t t t y t t r e e e e e e e r r r e r r r r e r r r r t r e r r r r t t r r r y : y y y y t t y y y r y u y r w r t e t t t 0 e e e r e e e e w 0 q t t r r y y t r e t t r r e e e r r e e e r t e y t t t y r t r r e e e r r t r e e t r r r r e e r e e t y t t r t t y y y e w t r r r y t y t r u * r e e r r r r r r r r r r t r t e t t t t t r t r r t r ",
"r t t r r r r r r r t r t r t r r e e e e e e e r e e w e w t y y r r t r t t r r t t t r t t t t r t y r t r t t t r r r t r t r t r r r r e t t t r r r t t t r t t y t y r e e e w e e e r t e e r r r e r r e e r e e e w w r r e e e e e r r r r r r r t t t t ; y t w 0 e r e r t r r e e e r e e e w e e t r t t r t t y t e t t r r r e w r r r r r r t r y y t t t r r e r r e w e t r r r r e e e r r r e e r r t t t t y t r t r t r r e e e r r t t e t u y e q r r r t r e r r r r r e r r w r e r r r r r r e r r ",
"e r r e t y t e r r r r t t r r e e r e e w w w w w e e r w r t t r r r e e t r e r r r r r r r t r r y r r r r r r r r r r r t t r r t r r e r t t t r r t r t r r y y t t r r r t r e r r e t r w w e e e e e e r t r e r r t e e e r r r e r r e e e r r r t r t u t q q w r t t r e r t e w e e w w w q q e r r r r y t t y y t t r r e r r w e r e e t r t r r u t y t r e e e e e e e e r r e r r e e w e e r e e r r r r r y u t w r y t e r r r r t y y r t t w w 0 r r r r r r t r r r e w r e e r e e r t y t e e r r ",
"t t t t y y t t y r r r t t r r r r e r e e r e r t r r r e e r t r e r e e e r r r r r r r r r e w e r r r r r r t t r r r r t t y r r r r y ; y t y t y t t t t t t y t t r t t y t y t r t r r e w e e r r e r r r t e r r t r r r r r r e e r e r r e r t t r t r 0 q r t e r r t e e e e w w e w w e e e e e w e e e r r t t t w r t r w r r w r e r r r r r r t r r r e e w e e e e r e e e e e e e r + e e t e e e r r r r y t t t t r r r r r r e r t r r r r e q e t r r r r r r r r r r r r r r r r e t t t y r r r r ",
"y r y y t t t y t r r t r r r e t t r r e r ; u r r r t r e w e t e e e e e r r r r r r r r r r e w e e e t r e r t t r r r r r t y r e e r u u y r t t t r t t t r r r r t r e r t t r r r t r w e e e e r e r r t e r e e r r r r r r r e e e r t y t e r t y t t y r r t e e e t t r e r t r w e e e e e e r w e e e e e r t y y t t t e r r r t t r t r r r r r t e e e r e e e e e e e e e e r e r r e e e w e e e r r r t r t t t t t t t e r e e e e e r r r e e r r r r r r r e r e e r r e t r r r r r t t t y t r r t ",
"t r r r r e e r r e r t r r r r O t r r e u ; t w e e e r w e t t r t e e r r r w e e r r r r r e + e r r r r y r t y t t r t r t t r e e r y y t e r y t r r t t t r e r r r e r t r r r t t t r e e e r e e r t e e r r e r e r r r e r r e e t t y r t y y y t t u r e r t r t r r t t r r t w w r r e e r r r r e e t e r t y r r t t e t r e e r t t t e r r r r r r e r e e e e e e r t e r t e r r r r e e e t t t y y y r t t t r r t y e e r r e r r t t r r t r r r r r t r r r r r e r r r r t r t r t t r r e e t y ",
"t r r e r r e e t t t t r t r e e e t t e r y q w r e e e r t t t r * y e e e e e e e e r e e t O e e r r y t t t t r r r t t t t y r t r y y t e w t y t t t y t t y t e t t r r r y t r e t y t e e r e e e e r r e r r e r r e r e r r r q e t t e t y y y y t t t r r t t t t t t t y t t t t w e r r r r t e r t r y y y t r r t y r r t r r e r e e e r r r t t e r r e e r r r r r t t r e r e r r r r r e r t t t t t t r r e r t t r r r e t t r r r t r r r r r r r r e r e r e r r r r r r r r t r t t t t t r r t t ",
"t r r t t t r e r r t y t r r r e r r r e e q 0 w r e w w e e r r u u t q 0 r e e r e e r r e t r w e r r y y r r e r t t t r t y y t r t t t t r r y y t u y y y u t r t y y y y t y t e r t y t r r r e r r e e r r e r r e r r t e r r e e r t r r t t t t t t t t r t t t t t t r r t y y r t w w w e e t t r r r r t r r t r r r r r r r t t r e e r r t r e r e r r e e w e r e e r r r r e t y w r r e r t t t t r e r r r r r e r r r r e r t r t t r t r r r r r r r r e r r r e r r e r r i y e t r t t t t r r r t t ",
"r r r e r r e e r t t t t e e r e t t t r t t t r e e w e e e r e y e w 9 q r w w e e w e t t t r t r r r r t t t t r r t t r t t y t t t t y y y u y t t y t t r y r r t t t t t t r t r t y t r t r e r t r e e r r r r r r r t t r t r r r r r r t t t t y y t t e t r t y t r r t t y y t t t r w w e e r r t t r e r r y t y t t r r t e r r e e e e e w r r e w r e w e e e e e e r r r e w u t 0 t r r r r r r t r t t r r t t r r t y t r t t r t t t y t r r r r r r e r r t t r r r r r r t q q t t t t r t r r e r r ",
"t r r r t t r t t y t r t e r e e e e t r r e e e w e r r e r t t e r q 0 e r w w w e w e t t r w e e e e e e r r r t r t t t t r r r t y t t t t t t t t t t t t t r r r t t t r e r t t r r r y r e e r r r e e r e r r r r e t r e e t t y r r r r r t t y u t r t t t t t t y t y y t t u & y t e w e e e r t y t r t t t y t t t y y t t t r e r r r r e e e e e e w w e w e r t r e r r e w e 9 0 r r r r r r r t r r r r r r r t e r t t y t y t t t t y t r e t t r r r r e e t r r t e r r w q r t r r r r t r r t t t ",
"t r r t t r t r y y t y t e r t t t t t r r e e e e e r e w r t r r e 0 e r r r e e e r r t t t + e e e r r r r r r t r r y r t r y y t t r r r t t t r t t t t t r t r y r r r r r r y t t t t r q e e e e e r r r r t r r e e t r r r e r t t t r r r t t t t r e t r r r t r t t t t t r y u q q w w e r r r r r r t t r r y y y y t y y y r r r r t e r t r e e e e e e r e e e e e e r e r e e w r r r e e r r r r e r r r e r e e w e e t t t t t r r y t t r r r e r e e e e e r e e e e r r r t r t r r r t t e e r r r ",
"r e w e e e e e e e r r e w e r r r r r r e e r e e w e e w e r r r r r t e e e e w e e e r e r r e r e e e e e r e r r e r r t t r r e t r r e y t t u t e r t e e e r r e e r t t r r r r r t r e r r r e e r r t t r r e r r r e r r r r t r t r t y u u u y y t t t y u y t y t y t t t t w 0 r w e e r t t y t r t t y t y y y y y y t t r r t r y t t t r r r r e e e e e e e e e e r r e e e e w e e e r r r e y u e r r t e e e e e e r t t t t r r r r r r r e w w r w e e e w e w w e e e r e r r r r t r e e e e r e ",
"t e e e r r r r e e e r t r r e e r r t r r r t r e e r e w e t t r r r r e w e e q w r w r r r e q + e e e e w e e e e r r t y t t t e r t t t y r y i r e r r r r e r e r t t r r t e e e r r r t r r r e e r e r r r t r r r e r r r r r r r t t u t t u u y y y t t y y t t r r r r r t r t t t w r e e t t y r r t t t t u t y t t r r y r r r t y t r r r e e e e e e e w e r e e e r r e e e e e e e e e r r e y q w t r r e r r e r e e r t r t r t t t r t r r r e r r r r r r w w e e e r r e r t r t t r t r r r r t ",
"t t r e e e r r r r e r t r r r e t r e r r r t e w e w e w e r t t t r y t e r e e e e e t t r e e w w e e e w w w e e r e r y t e y e e r t e e r r t w e e e e e e e e e r e r t r r e e r r r r r r e e e t r e r e t t t r r e e r r r t t r r t e t y t t y y y t t y y t r r t t r r r r t t w e r e e r r r e t t t t y y y t e r t t r t t t y y r e r e e r e t e e e w t e e r r e e e e e e e e e e e r e w 0 r e e e e r e w r t t r e e t r e r t r t t e e r r e e w e e w e e e e e r r e t r t t r r e t t t t ",
"t r r r r t t t r r r t r r r r r r t e r r t e e w w w w e e t t r t t t t t r r e r r r t e e e r + w w r r w w w e w r e r y y w e w w e w w w w e w q e e w e e e e e e e r r e r t r e r t e e t e r e e t r e t r r r e r r e r r e r r r e e w e t t t t t t y r e t t r r r e e t t r t t y r w t t e r r r e e r t r t r r r t t r e r e r r t t r e e e e e e w e e t e r r e w t e e e r e r r r e e e e r r r e r t t r t t w e r r r e r e r e t t r r e e r r r e e w e e r w w e e r r t r r e t t r r r r r y y ",
"y r t t t r t r r t y r r r t r e r r r e r e e r e e r e e w y y t y y t r t t t r t t t e e t r r y r r t t e e e r r e e t y u r r r t t e e r r e t r r r e r r r r r e e r r r r t t r t t r r e e r e r r e r t r r r e t r t r t t r r r t e r t t t t t t t t t t t r w w w t y r r r r t t t r r r e t t r r r e e r y y t r r r e O r r r r e r t e r e e e e e w e r e q r e e r r r r r r e e r r r r r t t r t r r t t t t t r e e t t r e r r t y r w w t r r e e e w w e e e e e e e r r r r t r r r r r r y t y ",
"t r e t r r r r r r r e t r r e w r r e e e r e r e r r e w e r y t y t r r y t r t t t e r r t t t t r r t t r r r r e e r t t t w e r e r e e t r e e r r t t r r e r r r r r t t r r t t y y t e r e r r r r r t e e e r r r e r r r r r e r r r t y t t y t t t t t y y t t y y y y t t r y t t y u t w e r r r e r e r t y r t t r r e r r r r t e r r r t r r r e e e e e e w w r r r t t r r w e r r r e e r r y t t t t t r r y y r r t t t t t r t t t e e y r r e e e w w e w w r e r t e e r r r r r t t r r r t y r ",
"r e e r e r e e r e e e e r e e r r r r e e r e e e e e e e w e t e t t r r r r e r w e e r r t e r r r O e e e r r r r r t r y y q r r t t t e y t r t r t r t t e e r r r r t t r r r e e t t r e r t y t r e e r r r r r r r r r r e r r e e r r t t t t t y y t r y y y u y y y y t t t t y y t y t y t r t e r r r w e r t r t r r r e r r r e r r r r r r r e e w e e w e e t e w e r r e e w e t r r e r e r t t t y y t t r r t y t t y u t t t e e t u r w r e r w w e 0 q q r r r e e w e t r r r r e r e r r r e r e ",
"t t e r r t r e e r r r r r e e e r r r t e e e r r e e O e e t y t t y y t r t y r r w e t t y t t o w t r r r r r r t r y , y y w r r t t t r t r e e r r r r r r r e e e t r r t t r r e r t r r t y t t t e r r r e e r r r r r r t t r r t r t y y t t t y u u t y t t y t t t t t r y t y t t t t y y t e e r y r r r r y t t e w e w r t e e e r r e r r r r e e e e w r t r r w w e t r e w w w w w w t y u y t t t t r r r r w r r e w e r r r r r t y t e w w q q e r r e e e w e e e w w e e e e e e e w e e e e r t ",
"t t e r r e r r r e e r e e e e e r r r r r r r r t t e e e r y y t t y y t t r t t r e r r r y t t y e w r e e r e r e r t r t u e t r t r r t t e r r e r e r r r e e r r r r e r r e e e t r r r r r t r r r e r t r t t r r r e r t r r r r t y u y y y t u y t y r t u t t t t t t t t t y y y r r t t r r r r y t t r r t t e w e r e e e e e e e e e r r r r r e e r e w e r r e e t t y t r e r e r t t y t y t t r r r r t t r t y r r y y t t y y t y r e e t r r t e r r t r e w e + e e t t r t r r e r t r r e t t ",
"t e e r r r t r r e r t r e r r r r t t r r t r r t t r r t t u t r t t e e t t r r t y t r t t r r t r e r r t r r r t t t r t y r r y t t t t r t r r t t r t y t r e e t y t e r t y t e r t r r r t t t r r r t r r t t r r t r t r t e r r e r y t y u t t t y t t y y t t t t t t t y t u y r t r r t t t r r t e r r e r t t q e e e e w e e e r r r r r r r e w e e e e r e r r e t t t r t r t t t t t y r t y t t t r t t r r r t y y y y t t r t t y t t r t t r e r e w r r t r t O e e w w r r r e r r r r t e e r ",
"u e e r r r t r t t t r r r t r r t r r y t r r r e r r t r t y t r t r t y t t r r t r e r t t t r r r r t t t t r t y t t t t y r e r t y r r r r t t t t r t r e e r r r t r r r r t e e r t r r r r r t t r r r r r t r r t t t r o t t r r r t y t t t t y t r t t t t r t t t t r r y y u t r r r r r t t e r r r r e e t t y r r r e e e e e e e e r r r r r r e e e w e r t e e t r r r t t r r t u y y y y t t y y y t y t y r y t y y t : ; ; y y t y t r t r r w q w e e e e e t t y y t y r e r r r t r r r r r e y ",
"u t e e r r r t r t t t t t y t r t r r t t t r r r r r t r r y t r e e i i w t r r r e e e e e + r e t t t t t t r t y y t y y u y t r t t r r t t t y y t t t t t r t t t r e r t t t r r r t t y t t t y t y r t t r r r r r r t e r t t r e r r t r t t y y y t t r t t y t y t t r r t t r t r r e r t t r r r r r r r t t r t w e e w w e w e e e e r r r r e r e e w w e e r e r t r r r r t r r i y q y y r e r t r t t r t t r r t r t y y y t u u y y t e w e r t e w e r e e w r t r y t r t e e e r r r r r e t t y ",
"y t r w r r r r r r r t t r r t r t t y t t t t r r r r t r r t t r O w e q w t r r r e e r e e r r e r t y r r r t t r t t e t y t r e r r r e r r r r r e r r e r r r r r t r r t e r e r t t r r t t t t r y r r t r r r r r r r t t t e r r r e t t y y y u y t t t t t y t y t t t t r t e r t t e r t r t e e e r r r r t r y w e e w q e e e r r r t t r r r e r e w e e e r r y t t r r r r t t t 0 q w w t t t t r r t r t t t t t t r t t t t t y u 6 y r e e r t t r t t t e w e O r r r r r r e e e e e r e r t t y ",
"y t t r e r r t t t r r r r t t r r y y r r t r r r r r r e r r r r e e e q r e e e e r e r e e e r r r t t y t t t t t r y r u y r t e w e r r r y r e w e e e e e r r e t y y t r r t r t t t t r r e e t t t r t y r r t t w e r r y t e e r r r r t r r r t r y t r r r r r r t e r r t t e e t y r r e r r e t e r r r t y r t q e e e e w e e r r r r r r r e r e e t r r r r e r r r t y t t t t r t e e e t t y t t t y t w r y t t t t r r t u u y y i y r r O r t y t t r t , r r t t e e r r r e e r r w r e y y y y ",
"r t r y e r r r t t t t r r t t t t t u y t t r r r e e r e e r O e e e w r r r e e w e e e e w + e r r e t t r t t r r r r r y . r t t t r e r t y u t t t t t r r e e r y y t r t t t r y t t t r r r r r t o r r r r t t t t r e e t r t t e e r r e r y t r t t r r r r e e r t t e r r t r t t t r r e e r e e e e e e t y r r t w r e e w e e e e r r r r r r r e e r e e t r e t e e t r e r t r r w e r r r r r t r t y t r r t t t t t t r t t y y u i : y t t t , t t w e r t > y y u e r t t r r r w e t y t y t y u ",
"y r t t t r y y u y y u y 6 u ; u y t y y y y y e e t e e r r r r r r r r r w e r r e r e e e e r e r e r y t t t e r t y u 6 . u r e y t r t r t r r t t t r y w r r e t t e r e r e r e r t t r r r t t t t t r r r r e e r t e r e e r e e e e e r r u ; y r r y t t t t t r t e e r t t y y y t t e r r e t r r r r e e r t r t u r e r r r e w e r t r r e t r e t r e e r r t r r r r r e r r t r t r r t t y t t y t y y t t t r t y r t r t t y t y u i y t t r r > t t r e O t t , r y r t t t e e t r y u y t u y t i ",
"y y y y y t t t t e r r e t y u y u u u y t t y t r r w r e r y y t t r e r e r e r r r r e r e e r r r r t t u y u . . i u X i y e 5 y y o r t r e e r r r e w q r r r r r r t y t e r r t r r r t r r t t r t r r e e O r O r t t e e r e r e e r r e y t e q e t e t r t y r r t t r r t y u y y r r e e e e e e r r r r r t t r r y e r r r r r r e r r e e r r r r e e r e r t r r r r r y y r t r r r r t t t t t t t t t t t r r r y r t t y y y y y u i u t r r r e e e r r e e r t e e r r r r t y u u y u y y y y u u ",
"u y u u u y t u u y y y y y y y t r t u u r y t t r r e r e t y y y u t r r t t t t y y u u i u u t t y y i i p p $ p i . u . p u u   u u y X t y t t r r r t r t r t t y r r t r e r t t t t t r t t r t t t r t t e r t o t t t y t r r r t r t t t r t r q q r t r t r r e r r y u y t y t y y u t r w r e t u t e r r e r t t t r y t w r r r r r r r r r e e t r e e e r r r r e r r r e y t r r r t r e t t e r t t y t t r t y t t y t y y u u y u u y u y y t y t t t y y y u u u u t t y y t u X u u X u 6 . 6 u u i i ",
"u y y y y y u y y y y y u y y y y t t t u t y t t r r t t r r t t y t y t t t t t t t t u u u u y y y u y i p i i . 6 t r X . i p i i u u u X t X u t t r t r r t t t t t t r r t r t e t t t t r t y t t y t y y t t r o t t t t t u y r t y t t y t r t e w t r t y t r r e e t t t t r u u u y y y y t e e u y e 0 w t r e r t t t r y q e r r e r t r r t r r y t r t t t y e r t r e w r t t r r e r t r t y y t r e t y t t y t t t y u u y y q e y y u t y t o t t , r y u i i i y y t y u u u u y u u t t t t u t y u u ",
"y r t t r r r r r w e e r t r e e e r r t y e r t t e r r r e r y r r r e e e e e + e e w e q w w r t y t t r e r y y r u u i i i t y u r r e e e e e w e r e e e r r r r r r r r r r r t r r r r t t t t t t t t r r r r r r r r e e t t r e e r e r t t t t y r t r e e r t t r r r t r t y t y : t t t r r r q 9 q r y r t r e w q q t 9 w e e w w w e e e r r r r r r t r t t t y t e r e e e e e r e t r t t r e t r r t t t y u y t t r t r r q e r r t y e 0 q w w r t r e r t r q 1 w q w q e w e w e r 0 e r t r t y 6 ",
"u t r e e r r t t t r t t r t e r r r r r y e r t t t r e r r t t r e e w e e e e w e w w w w r y t t t r t t o y u u y X X u p i t t t t t r w e t e w e r e w w e r t r r r t r e e r e t r e t r t r e e r r r t t t t r r r r e e e e r r e r r r r r r r t r e e e r r w e w e r t t r r t t y t w e t y y q 0 0 r t t t y t t t w e 0 e w e e e w e r r r e r t r r t t r t t t t e e e r t r r e r r r r r t t t y r r r r r y u u y y y t t r r r r y u y e e e r e t r e w w r e < t t e e r r e w w w w w e r t t y u ",
"t r t e r e e w r y t e r r t t e r t r e r t e t t r e r r r t t r r e t r r e e e w w w e t u t 0 r y t u o t u y u y y y u p i r r r e t t t r r e e e w w w r r e e r e e e r e e r r t r r r r r t e e t r t r r r r r r e e r r r e e e w e t r r t t t t t r e r e e r t r t r r y t r y y e t e r t t r w q r t e r t t y t r y e 0 w q w w r r r r r r t r t r r t t t t t t y t r r t t r t t t t e r r t t t t u y t t y y y ; u u ; u y y u y r t u t t e e e 1 w r t t y y t > t t t r r r t > y r q w r t r t y u ",
"r r r r r e e e t r t t t t y t r r r t t r t r r t t r r r r t t t r > y q r r t r r e e r r r e u y u u y u u u u u u y y u p i t t r r t t t e r r e O e + e + e r e r e e r r r e r e e r r r e e r r t y t r r t t O r r r r e r t r r t r r t r r t t t y t r r t r r y t y r r t : y t y u y y r r t y u t t t r r t y y t t t u e r r q w e e r t r t t t t t t t t r y t y t r y r r r e r t y t y t r r t t t y u y y u u y y ; ; y y y y u y y t r u y y y t e , r t y ; * : u y t t y t t t , y y t w q e r t t t u ",
"t e e e w w r y r e w r r t t e e w t r r r t y r t r w t r r r r e e e 0 0 r e w e e r t r 9 q r t y y y y t y y y y y y u i p u r t r t r r e r r e e e r e w e O r O r r r t e r r r r r r r r r r e t t o t t r t r r O r t r e e e e t y t e t t t r r t t t r r w e t t t t t y t t t y t t t y y t y y y y t t t t t t y t t y y w t y t e w e r e e e r r r r t r t t y t t t t t t r e w e e e r e w r t t t t t y t t u t t t = y t t u y y y t y u i y t r e r t r t y u t t y u t y r t t t t r r t r q q w r t y y ",
"r e e r r e r t t e r t r r r e e e t e e r r y e r r e t r r r t r r e e r e y t r r r y q e r e e y y t y t t y y y y y y y 6 u r r e e e r t y r o r t t e e r e O r t r r r r r r r r r r r r t r e t t t t t t y t t r r r r r e r r r t t r e r r e r r t r r e r r r r u y y u y t t t t y y y y t t t t t y t t r t t t y t y q r t r t r 0 w e r e e r r r e e r t t r t t t t r r r e w w r e r r r t r e e r y y y y y t y u y u u u y u y y t t y u t w e e e t y t y y t t t y u y t t t t t r y y e w w q e r r y ",
"t e e e e e r r r t e r r e t r e r r t t t t y u r t t t r t t t t t r e w t ; y e y y e q r t r e e r t t r y y y y y y y y i u e e e t t y y t r r r t t e e e e O e r e e r r e e e e e r r r r r r r r r t t t o t r t t r t r r t t t t y t r r r e r e r r r t y r t t t y t y u t t t y y : y t r r t u y u y y y t y y y t y w t t r t t r w w r e w r t t r r t r r t r t y t t r e e r e r t e r e e t t t t t t y y u y : y t t y y y y y t t t r t t r r e t y y t y y u y y t y y t t y t t u i y w r e w q e y u ",
"y r w e w e r r r r e e r e r t e e r t r r t y y t r t r t t t t r r r r e y u w q t t e r r r r e r y t t r t t t t t t y t t t r e w t r t r r e r r O e e r O r r r e w e e r e e e e r r e r t t r r r r r t t t t r r r r t r r r t t t t t e r r e e t t t r r r e t t r t t y t t y y y t y y y u t u y y y t t y y u u t r t r t y t t y y t w w e e r t r r r r r r t r r e r r e e t t e e r r y e t y y y y y y y t t y t r t t y y y u : y : y y u y r 1 e y y y t r t y y t t y y r t u y t t y r w r y e w w t y ",
"y e q w w w e w r e r e e t t r e r r y r t t t y u t r r t r t t r r r r r y r q e y t e t y r r e i ; u t r r t y y y t y t t y t t r y t t t r r r r e r r r r r r r r e e r r r r r r r r t t t t t r t t t t t t r r r r r e r e r r r e t t e e r e e r t r e r r r r r r r t t t t y y y y y t & i y t t t y y y t t r y t r r t t t t r t y t t e w w w e r r r r r r r r e e r t t y t t e e q u t w t t t t t y y y y t y t t y u t t u u ; y t t y p y e w r y y y y r r t y t t u t t r t y y r e w q r r w e w w t ",
"y w t t q e r e w e r e e e e e r r r r r r r t t y t t t t t t t t r r t t t e r y t r r t t t r e u y y e w t t y t y y t y y y t r r r r y e r r r t t t r r e t y r r t t t r r r r r t t t t r t t r t t t t t t r t t r e e r t r r r r r e e e e e r r r e e e e t r r r e t t r t y y y y : t u t e t u y y t t t r y u t t t r e w t t t t y y y y t r r r t r e e e r r r t t t y t r t r e r r q e y t y y y y y y y t t t y y y y : : y y y t t t u r e t y y u y t r r t t t y t t t t t t y t t r r r e w e w w r ",
"t e r 0 0 r e e r t r e e r e e e t r r r r r t t r r r r e e t r r r t t t t t t t r r t t t t r r e e 0 q e t r t t t y y t t r r e t e e r e e e r r r t r r e i t e t r r r t r r r r t t t r t t t t t r t e r r r t r r r r r r r r e e e r r e e r r e r r e r e e r r r r e t r y y t t y y y y t t y t t t t t t t y y y t t t t t y t r r t t t y y y u y y y y r r t t t t t y t y t t t t t t r r t y t t t t t y t y t t t y y u u u y t t y y t i t e y u t y t r r r y y : t t y t r t y y r r r e r e w e e t y ",
"t e w q e e e w e t e r r e r r r r t t r t r t t t r r e r r r t t t t r r u y t r t y t t t t t y e w 0 e t y r r y t r e e r e e r t t t w e t t r r r r r r e t q w t r r t t r r t e r r t t t r r t r t t e t r t r y i u r r t r r r r r r t r r e e e r r r r r r r t r e r y u y t t t t : y y u u y t t t > t t r y t t r e t u y t e e r t r r r r t y r t t t t t t t y t t t t t t r r e t r e r t y t t y y : t t y r t t y y u u y y t t y u y i y t t t t t y y t t t : t r t y r r t t t t t t r t e w r e t y ",
"u r e e e e e e e e t r r r r e r r r t e r r r r r r r r r r t t r r r r r t t t t y t t t r t t t y r r r r r r y r t r r e t r e e t r r r w r t t t r r r r r e r t r t r r r r r r r r r r r r r r r t t t r r t t t t y t q r t r r t t r r r r e w e r r r t t t r r t r t t t t t t y y t t y y y y y y t t t r r t t t t t t t t t e r t t t t r r r r t t r t y y r r t t r r r t t r e e e r r e e r t t t t t t t t t t t y y y y y y y y y u y y u , t t t y t t t y y y u y t y t t t t y y r t r r r w w e t t y ",
"t w w q w e e w e e e w e e r e e r r r t t r t t r r e r r r t t t t e e r r r t t t e e t t t t t y r r t r t t r t r r r e t r w w e e e t r t r e r r e r t e e r r r r r r r r e r r r r e r e e r r r r r e r t r r e e e e t t r r r e e e r e e r e r r e r t r r r r r t t r r t t t y t y t y t t t t t r t t t t t y t t r r r y t r t t t t t r e r r t t y t t t t y y r r r t r r r r e r r r t r e e e r r t t t t t t t t t y t y y t t t y i i t r t y y t r r y y t t t t t r r t r t t t t t t t t e w r t t ",
"t e w w r r e e r r r r e e w e e e e t t r t t t r r t r e r t r r r r r r r t t t t y r t t t t t r e e r r t t r t e e w r t t e e e r r t r t t r r r y y t r t t t t r r t t r r r e r r t t r r r r r t r e r r r e r e r t r r O r e e w w w e r e r t t r e r t y r r e r e t r e t t t t y y t t t y t t ; : t r t t y y r t t y y y t t y t y t y t r t t y u t t y r y t r r t y r t r e r r r r t e w e w w r e e r r r r t t r y y y y t t r y i i t r r t t r t t t r r y t r y t t r t t t y r t > t t t t e r r ",
"t w w e w e e e e r e e w e w w w r t y t t y t t r r t r t t r t t t t r t t y y t t y y t t t t t r r r r e t t t t r r r t t t r e r r y t r t t t e r y y t t t t t r t t t t t t t t t t y t r t t t r t t r r r r o r t y y y t r r r r y i u e e y t t t t t t t y t r r e w e r r y t t y y y t t t t r ; ; r w t r t y r r e e t t t t r t u t r t t t t t y y y t y t t t t r r t t t r e e r r e r r e e e e e w e e e r e r r r y y t t t y t y u i r t y t y y t t t t r e r t t r r t t t t u r r y > t t y t r t ",
"t q e r e e e e e e e q w w q w w r e r t t t t t r r t r r e r t t r r r t t t t y y t y t t y t y t t r t r e r t t t r r t t y e e r r r r e r e r r r t y y u t r t r t t r r t t t y t t t y t r r r r r t r t t r r r e r r r t t O e w u u q 9 e r r r t r r r r r r r r e r t r r t y t y y t t y y t r t e 0 w r r t y t w e r r r t r e r r r r r t t t t t r t r t t t t t t r t y y t e e r r r r r r r w w w w e e w w q r e e r y y r t t t t . p r t y r t t t t y y t t r r e r t r r t t y r w t t t r e t t y ",
"t e e r e e e r e e e q q e e e r r r e r r r t t r t r r e r r r r t r t r r t t r r r y t y u t t t t r r r r e r r r e e r t t e r t r e r r r e r r t y y t y r e e e r e e e t t r r r y y t t r r t t r r r r r r t t r r r e r r e e O r w 0 q t r e t t t t r r t t r r e r e t y y y t y t y u t t t t r e e t t y y u y e e r r r r r r r t r t t t y y t t t t t r t t t t t t y y t r r r r e r t r r e e w w w w q w w q r t t t y t t t t t t u p y y r r r t t t t r r u r t t t t t y y y t r e t r r r r r t t ",
"y r e e r r r e e r e e e e r t r t r r r r t t y t r t r r t y t e r t y t r r r r r t t r t t t y y t t t r t t t r r r r r t t e r t e e r t y t e e r r t r r e t u r r e e t r r e r r t t t e e r r r r r r r t t t t r r r t r r r t e e e w t t r r t y e r t y y t r r t r e t y y y r t t y t t t t y t y t t t y y y u r e e r r r r t t t t t y y y t y y t t r t t t t t t t y y t y r t t t r t t r e w e e w w w e e e e r r t y t r t y u u i p y y e r r t r r r t t y r r r r t t t t t t e e e q q t t t y y ",
"t e e r w e e r e w e e r r e e e e r r r r t t t r r r e r t t r r r e r r r e r r r r r r r r t y t t r y t e t r e e e r r t t r r t e r r t y t e r t t t r r r i u q e r r 4 r r r r r t t r e e t r r r r r r r t r y r r y y t t r e e r y t y t y y y y t t t y t t r t t y t y t t r r t t r t y t r r t r e r e r y u u r e e r e r r r r r t t t r t t t u y r t t t r t r t t t y y y r e r t t y t t r e r r r r w w r e w r r t y y r e t y u i p e r t r t t t r t t y r r y r r t t t t r t y r e t r r r t t t ",
"t e O q 0 r e e e e r e e r e e r r r t t t r t t t r r r t t t t r t r r e r r r r r r t r e r t t r r r t r r r e e e r r r t t e e r e e e r t t e w e r e r r t u q 0 w r e e r r r e r r r r w e r e w e e e t t e e w t y t r r e r r r r t t t y t t u y t r t r e y t r r r r t r r r r t r r r t t O e r e e r r e y u u r r e r t e r t t t t y t t y t y y y r t y t t t t t r t y u y t t e r t t r r r r r e e e e q e e w r r e r t t w t t u i p r t t t t t r y t r t r e t t r r r r t t y t r r r e e r t r t ",
"r e r r e e t r r r r e r r r t r r r r r t r t t y t t t r t y t t r t r r r r r r e e r r e e r t t r r r r r t e r e e e e t t r e e e w e r t r w e r e r e e e e 0 w r r e e e e e e r e e e e r w e t r r e e r e e w r t r e r r t t t t r r t t t r t t r t t r r r r e r r r r r r r r r r e r t t t r r e r t t t t i y e r t t r e e e e t t t t y y t t y t r t t t y t t r r t y y t t y t r r r r t r r r r e q w w r w e r r e r r r t t u u u i t y y t t r r t t t t r e r t y r r t t y y t r t t r r t t r t ",
"e e e r e e r r r r r e e r e r r r r r r r t r r r r e e e t t t t r t t r r r e r e e t e e e r r t t r r e e e e e r r r t t r e e e e w e e w e e r e e r e e e e e r r e e + w e w w e w w t t t y t t t t t t r r t e e r r r r t y t t t t t t y t t t t r e e t t t r r e e e r r r e r e e r t u t t r r r r r r t y i i r t t t w e r e r t t y t t t t t t t t t r r t y y y y r r r y t r r r t y t t r r t r r e w r t q 0 w e r r e e r y y i u i t t y y y t t y t t t y e t t t t t r r t y t e y r t t u t r e ",
"r w e r w e e e e t t r r r e t r r r r e r r r r r r e e r y y t r t t r r t r e r e e e e r r e r r e r e e e e e e e e r t t r e w e e e e e e r r w e e e e e e r e r e e e q w e e w w e t t e e t t t t r e y t r t u e r r t r y t i & t y t t t y y y t r e r t r r t r O e e y y r r r O t t t t y t t r t r e t , t . y e r y t w 0 e e r e r r r r r r r r t e r r r r t t t t t r t t r t e r e r e e e e e e e e e w w w q 0 w q w q q e t r t u u r r r t t t y y y t r t r e r r e r r r r r w r t r e r t t t t ",
"t r e r e w w e r t t r t r e r e r t r r r e r r t e e e r t y y r r t r t t r r r r r r r r r r e e t e r r r r e e e e e r r e e y y r e e e w r r e e r e e e e e e r e r e w w w w q r t t y t t r t y t r t y r t t t t e t t t t r u e e t y y y t t y r t t r r t y y r e e e t t t O r r y t y t t y t t r r r r r t i i y t r e r q q e e r e e e e e r e e r r r r r t t r t r t e r r r t e e r e e e e r e e e w w e r w e q 0 q q w w r t t t y u r r r w r t t t t y r w e e e e e e r t e r r r t t r e t t t r ",
"t e r u q w w + w e e e e e e r r t y r e r r r r t e e w t t t t t r r t t r r r e r e t t r r e e r r t r r e e r e e e e r t r e u t w 0 e e e e e w e r e e e e w r t r e e e e w e w r t y t r r t e r t t t t e t t r t t e t y t t r w y y y t u y t t t r r r r e t r r t r r t r r e t y t r r t t t t r e r r t r t i u t y t t r e q w e r r e e w e e r t e e r t r r r r r r t r e r r r t t t t r r t t r t t e e e r w e w e t t e w y u y t y u r r e e e t t t r t r r r e q w w q 0 t u y t y i u t r y y y t ",
"t e t e 0 r e + e e e r r w r r r t r r e e e r e y r q e y t t t r t r r r t r r r r e t y r e e t r e r r r r e r e e e r r t r e y e 9 0 e e e e e w e r r e e e e e e r r e e e e e e r t y t t t t t r t r r r e r r r t r e r r r r t u u u t r t r y t t t r r t r r e e t w r r e e e r r r r r r r r t t t t r t r t u y t y t t t r e e w e r q w e e w e r r e e t t e e r r y t r r t y y t u t t t t r r r r r t r r e e r e w t r e r y y y r y u r t e t e t t t r t t t t t r w r y e w t u y y t u u t r y t t ",
"t e e e r r e t r e e r r r t t t r r r t t t r t y y t ; u y u u t t t t t r e r e t r r r r r t t r r e t t t r t r r t t r t r e e 0 0 e o e e e e w t t t r e e r r e r r e r r r w r y y y y t r t t t r e t r e r r t y o t r t t r r r t t t t y y r r t t t t t r t y e r w w e e r t t r e r r r r r t t y t r e q y a . y y t t t r r w w e r w w e r O r e e r e r r e r t r r r t u y t r r t r r e O e r e e e e r e r r e r e e t r t y r r r i p t r r r e e r t t r e r t t r t r t t y u u u y t t u u r t t t ",
"t e r t e w r y y t r e e e e r e r t r r r r r t r r t t t y y t t t y r r r r r e e e e e r r r r r r r t r t r e e t y t r e e w w w w e + q w w w w e r t e e r e e + e O r e r t t t y y y y t t r t t t e r r t r t t y y r t e t t t r r y u u u u t t t t t t t y r r t t t e e t t t t t t t y t t y r y t e r r y u 6 t X y t t r r r e r t r e e t o t t r r e r r r r r r t r r t e q t t y t t r r r e r e e w r e r t r e e e e r t t t t r y i u w e e e r r t y r r t r t t r t r r r y y y t y y y y u y y y y ",
"r r r t t e y y t y y r r t r t r t t t r r r e r r r t e r t t t t t t t t r r r r r e r t t r r r r r r r e r e e r y t r t r e w w e e w w q w w e e r r r r r r e r e r e e e y y u y y u y y t t t t t t e t t y y r t y y t y t y t r y y y t t y u y y u y y t t y y y t t t t t t y r t t y y y u t y t t t t t . i i i . y X y r e e e y r t t r y y t t y y t t y t o y t e w r t e t e r y u y y t t t r t t r r r e r t e r r r t X t t y t y t t r t y e r t t u u t t u u r y e e t t y y u t y i u t t y y u u y ",
"r t y t t t y u u u u u o r y t t t t y t r r e r y t t y t y y u u i u y y y u u t t t t t t t y t r t r r t t t u y u u y y t t t r r r e w w w w r r r t r e r o r r r r r r r y t y y y y u y u y y y u u u u u u u y t y u u y u u u u u u u u u y u u t y y u u u y u y y y y y u y y u y y u u y u u i u i u u . i p p p i i i p i y y i u y u u t y y y u y t t y u y y u w e e e e w e w e t t y u y y t t y t t e t t t t t r t t y t y t u y u u t i y y X t y y t y y y i y q u y y i u u u i u u i u u y u i y t y ",
"r t t t t y t t t y u t u y t t e e r r u y t t o t t t y y y y y y y y y t r t t t t t y t t t t y y t r r t r r t t y u t t r r r r e e e e w r e e e e r r e O e r r e e w e e t r t y y y u u u y u y u u y t u y y y y t t t t t t y y y y y y y u y y y y y y y u y y r t y t y y t y y t y i u u y y i y y u u y u y y i . u u i 6 i u y y y t y t t t r t y t t t t y y y r e e r e e e e e t y t y y y y y y t y t t y t t t t t t t t r r t r t t r t t t t r t t t t t r e q q t y t u u y u y u y t t t t y y t r t ",
"y r e r r t y r r r r r y y t r r r r t y t t t t y r q r r t t y t t e e r r e e r w w e r e r e e e w e q w r t r r r t y t t t r e e e e e e y r e r t r r e e e r e w w q w r r r r t t t y u y u y t t y y y t t t y t t y y y t r y y y y t t t t y y y y t t y r e t t t r e y y r r t t y y y y t t y u t t r t t t y i y t r r e t t e e e e t r e e r t r e r e e t t y y e r r e e r e e t t t t r r t t t r t t e e r r r r e r e e e e e e r r r y t w w r e r r t r r e r r t e r r y u y y r t t r e e r t r r y ",
"y t < r e t y r r r t r y t e r t y u t y u : t t t y r e e e r t e w t y y : y t t r e r e e e e e e r r w w e e r t r r y r y y r r e e e w w q 0 e r r r r e e e w w w w e r r e t t t r y u y t y y y t y t r t r r t t t t y t r t i i y r y y y y y y y u t t y t r r t t t y y t y u y y y y u u y t y y y r y y r e t 6 u t e e q w y y u r t t t t 5 t t r t r r r t e t r q e r e r r e e t r t r r t t t t r t t q e t r r e e r e w e w w w e r r t e w q w e r e r r e r r e r r r e r y t r r t y r r r e t r r t ",
"o r r w e r e e e r e t t t t t t t r r y ; q e t t t y t r r y y r t y y y t y : u r e r e e e e w w w w w e w w r e e e r t y t e r w w w e w e r w e e r e r e e e t r r t t r t t t t t y u y t t y t t t t r t r r t t y t t t r i i t q q r t y y y y y y t t t t t r r t t t t t t t u t t y t y t e t y y r r t t t y i y r e w 9 q r e r y y y r r t e e r e e e e t e t y r w q w e e e q t y r t r t t r r t t e w t r t t r t r r e r e e e w r r t w q w w w e r r e r r r e r t r e e e r r e e e e e e w r r r r ",
"y t t t t t y t t y y t e r r r t y t r r q q r t t > : : u u u u y t y t y t y y r y r e e e e e w w e w e e e e e e r e r r y t e r r r r r r e r e e r r r r r w y u r e r r t t y t t y y u y r y t t r r e e r r r t y t t t y r y t e w w t t t y y t u u y y t r t y r t t y y t t y t t y y t y y y t t y t e r u u t u t e r e q e r t r r r r e e t r e w e e w e r r e t y u y t t y r y u r t t t r t r e r r e w e e r e r r r r r r r e r r r r t w q w e e w e r r r r r r r r r e e r t r r t r e e e e r t t y ",
"y r r t u t y y u y y t t y u y y y y y y t t u y , t , t t t y u t r t t r r r r y y r e r r r e w e e t r r t r r r t t y r t t r e e e e e r r r r r r t t r e e e w w e t t r e r r r t t y y r t t t t r e r r e t r r t e r t t e q q e t t y y t y y t r t t r r r y r t t t t t y t t t t y y u t y y y y t y r r t t i . r e q w e e r e t r e e e e r e e r r r e r r r e r y u u i u u i t w t t : y t r r t e r t t t t r r t t r O r r r r r r t y e w e t r e r r e r r r r t r t r r r r t t t t r r r t e t r y ",
"y o y r e r y y t r t y y t t y y t y y y t r t r t t r t t t y y t t t r t t r t y r q w e e w w e e e e r r r r r t t t t e t y e e e e w e r r t r r r r r e t r e w e t t r e e e r t t t u u t y y r e r r r t t y t t y t t t t t r r t t t t t t t t r r t r r r e r y t t t y y t t t t y y y y t y y y r r t r e t y i u r w q e e r e r r o r r r e w e e r r r r t t r r r t t r r t t e w t y t : y t t t t r t t t r y t r e r y y r r e r r t t t r r r t r r r r r y r e e t t r r t t t r r t e r t r r e r t t ",
"o o y r r r r e e y y t t y t y t e t t t t t e w r t r < r r t t r t t t t r r t t e q e r e e r r r e t y t r t r t r e e r y t e r e e t r r r r e r r r e e r e r e e t r e e e r r r t y u u t t t t y y r r y y u y t y y t t r r r r t r r t t r r t y y t t t t t t u y r t y t t t t r t t t t t t t y t t r r r r t u t e q e r r e e r O e e r r r r r r r r r r r t e t t t r t t u y t t r y t t t t t t e r r r r e r t r e y ; : t r t t e r r t r r r t r e e r e e r e w r r r r r r r r r r r t t e w w e r e ",
"t r t , t e r r t ; y t r r r r o t y t r r t t e e e e e e t t y e r r r r r r r r w q w w e r e e e e r r r t r r r r e e e r e e e e t t r r r r e r r e e e r e r e r t r r r r r t r y y i ; y y t t y y t o t r y y t r t t t t r r r r r t t t r t r r y t r r t t t y o e t t t r t t t t t y y y y t t r r y t r r t . t w 0 r t t r r e r r r o t t r r r r r r e r t w e r t t y t X r y r t y : t t t t r e r e r r r e e r o u t e 0 w r t e r r t r r t t r t r r e r t r e t t t r t t r t r t y t t r r r e r t ",
"u t t t t r r t y t , t t t r y t r t t t t > t t e e w e r t t u t t , r > t r e r r q w w e r e e e e e e r r r r e r e r r t r e e e t r r r r e e e e r r e e e e e e e r r r r r r t y y u y t t y t r r t t t t t y t r e e r e e t r r t r r r t r t r t t t r e r r r e r r r t t r r t t t t t t r t e r r r r r r r . t q w r r r r r r r r o t t t r r r r r e t t t t r e r t r t t e e t r y y t t r r e r e e e e e r r e e e w w 0 e e r r r e t r r r r r r e r r r r e t t e r r r t t t r t r e t t t y t e y ",
"y t t t t t t t r t t : y y t t t t y t y y t t t r r r e r , y y r r t r : t e w e r w e e e e r e e e r t y r r t t t y t t t t e e r e r r t r w e r r r r r e w w e e e r r r r r r t t y u y r t t t r r r r r r t r r e e r r r e r r r t r r t r t t t t r t r e t r r r e e r r r r r t t r r r e r t e t r + e r r r i r q e r r r e e r r O r t t t t y t y r r e r t t t r e r t r t t u u r t t t r r r r t r e e O O e r O r e w e r r r r r t r y r r t r r t r r r r e t t r r r e r r t t t y r t t t t t y y t ",
"y r r t t t t t y u y y y y t t y y t t y y y t t t r t t r t y y t r t > y t t r e t w r r r e e t r r t r r r r t t y t r t t t e e w r t t r e e e r t t r r r e w e r w e r r t r r r t y u u r y y r t t r r r r e r t e r r t r t r r r r r t t r r e r r e r r t r r e e e e e r t e r r r r t t r r r r r r t r r r t i t 0 r r r r r e e r r t t t t y y r r r r r r r t r t r e e r t e r t q r y r r t r r t r e r r r O r r O r r t r r r r r r r t r r r t t r r t r t r t r r r r r r e r t r t t y u t r t t t t ",
"y y r t r r r r y y y r y t y r r t t t , t t r r r r t r t r r y r r e t r t t r r t r r r t e r r e r r r r r r r t t r e r t r e r e e r t e r r e r r t r e e e e r r w 0 w r r t t r y y u y r t t r r y r r t e e e r t t e t r r r t r t t t t e r e e t e r r r r r r r e r r r e w u u e t t t e e e r t t t r t t t i y 0 r r e r r O t t t r r t t t r e e r e e r e r r r r r r r t t e q q t t r t t t r t r r r r r t t r r o t r r r e r r r r t t r r t r t r r r r t r r r e e e e e r r r r t t t r e t r e e ",
"t t t O r t y t t y t r t r , e t r r t t r e r r t y y t t t y t e r e t r t r r t t t t r y r t r r r r t r r r r r r r t t t r e e e r e r t r e w r r r t t r e w e e e w e r r r t u u o u u t r t t t t r e e e e r t r r r r r r r y r r r t r e e r r e e r r r r r e e e r r t w t u e w r e e e e e e e e + r t r y 6 t q e e e e r r r r r r r r r t r r r e e e r r r r r r r t r t t e r r r t t t t t t t t t r r t t r r t t r t t r r r r r t y t t t t t t r r t r r t t r r r e e e e r r r r t y t t y t r e ",
"t r e r r t t t t r r y t y t t t t t t t r r t t t t r t t r u u t t t r e e r t r r r r r r q e r e e r e e r t t y y r u t y y r e r r e w r r r t t t t y t r e w e e e e t r r y t y u u i u t r r t t t e w e r r r r t r t r r y y t r t t r t r r r r r t r r r t t r r e t r t t t r e w r t t r t r r r e r t r t y i r q e e r r O r r O r t r r t t r r r t t r r r r r r r t t r y t r 3 r r t o t r t t t r r r r t t r r t r r t t r r t t O r t r r r r r r r t r t t r r t t r r r r r r t r e t t r t t y r w ",
"t t t t t y y y y r t y t y t r e r t t r e t t r r t t t t r : ; t , r r r r r t y u r e t e e r r e r e e r r t r r r r w 0 y t e r r r e e r e r t t u y r t r r r w e w t t t t y t y t t u u r t t r r y , t t r r r e r y t r t t t y r r r t r r e e e t r r r r t t r r r r r t t t w e t r r r r r r r r e r e r e r y t w w e r t t t r e r r r t r r r t r r r r e r e r r t t r r t t e r e e r r r t t r r e e e r r r r r t t r r r r t t r t r t r r e r r r t t t t t t r t t r t t t t r t r e r t r e t t q w ",
"r t r r t y y t t t t t r r r r + e r e e e r r r t r t t t t u ; t t r t t y t y % y q r y e r r t e e e r r t r e r r e r t y t e r r e e r r e r r r r r t t e t t r q r y r r r t y e r t y y e t t r r y r e r e r e e w r t e e e r t t r r e e r r r e r r r r r e e e r r e e r r t t r r r e e r e e e u y q e r r r t t e e w r e r r r r t r e t r r r t r r e e r r e r r r r r r r r r e w e r e t r r e r r r e e r r r r r t t r r r r t e r r r r r e r e r r r r t t t t r t r t y t t t r r e r t t e q 0 e t ",
"r r t t t y t r e r r t r t t O e r r r r r r e e e e r r r r t y e e e r r e e t t w w t t e r r r e e e r r e r r t t r t r t r e e r r r r r e e r r e t t r r r t r w r r t e t t e e r r i y r r t r e e r e w e e e r e r r e e e t t t r r t r w e r r e w e e r r e r O r t r e r e r r e r r r r e r r r q q r r r r y t e w w e r r r r t r r r r r r r e r e e r r r e e e e r t t t r r r e r t t t r r e t r r e r t t r r r r t t r r e r r r e t r r r r r r r r r t r t t r r t r t t r r r r t e r t r 9 e r r ",
"e r t t t y u r e e e r r t r r r O r r e r r t t t t t t t t t t r e e r r r r r e t t r t r e e r r r e r e e r e r r e e r t r e e r r r r r r r r e t t r t t r r t e r t r r t e e t r t i y r t t t r r r r e e r r r e r r e e e t t y t r t t t w e r r e e r t t r t t r r t e r r e r t e r t r e e r e e r t t r t i t w w e e r r r e r r r r r r r e e e r r e e e e r r e r r t y t r r r t r r r r r r r e r t r t r r r t t t y y t t t t r e t t t r r t r r r t t t t t t t t r t t t t t t r r r t r 9 e e e ",
"r r t t r r r 0 r r e r t r r r e e e e e t t t y y t y t u u y u r r r y t y r r t r r r r y r e r e e e e e r e e e e e e e t e r r e e e r e r r r e t r r t r r r e e e w e r q e r r t t y y r t r r r t t t r w e e r r r r e r r r r t r e r r t r e r r r r t r t t r t r r r e e r r r t r t r t r r t t r r r t t y i y e r r r r r t r r r t t r r r r r r r r t r e r r r r e r t r r e r r r e r r t r r e r r e e e e e e e r t t t r r t e r t y t t r r r O e t t t t t t t t r r r r t t r e r r e t r e e e r ",
"r r r r r r 0 q r r e r r r w + w e e e w e t y t t y t t t y u y r t t r t r r t t r r r e r t t r e r t r r t e r e r e e e r r e t r e r e e r r r r r r r r e e e e e r e e y e e t t t y . y r e t r r t y t r r e e r t r e e e e e r r r r r t t e r r t t t t t t t t r t r r e r e e r r e e r r t t t r r r r r y y i y e t r r t t t t r r t y r r r r r r r r t r r r r r r e r r r t r e e e r e e r r e e r r e e e r r e r r r t r r r t r t r t r r r r r e e t r e e r e r t r t u y t r t t t e e r e r r r r ",
"e r r t r t e r e e r r r r w w e w e r r e r t y y t r y y y u y t t t y t r r r r r r r r t t y t t y r t t r r r r t e e e r r e r 0 e e w r r r r r r e e O e r r r e e w e y t e t t r u u y t e r r r r t t r r r e r r e e e w e e e r r e r t e e e r e r t t t r t t r t t t t r e e t r r r r t r t r r r e e r y y u y r y r r r r t y t r r r r r t r r t r r r t r t t t r e t r t t r r r e r e e e e r e r t r e r r r r r r r r r e e r r r e r r O r t r r r r r e r t t t t t t y e e t r t r r e r t r r r r ",
"r e O r r e e e e r r r r e e e e e w e e r w r t t r t t t t y y r e r t r r e w e r e r e r r r t r r r t t t r r t t r e e e e e w w e w w e r r e e r e r e e e e e w w w t t t r r r t t y r e r e e r r t r r r r r e e e e e q w e e e e e e e e e w r r r r r r r r r r r t t t r r r r r r e r t r e r r r e e e t y y t e r e r e e r r r r r t r t t t r r e e r r r e e e r r t r t t e r e r r e e r e r e r r e t r r e r e e r r e e r r r r r t r r r r r t r r r t t t r t r r r w q t t r r e r r r r t e r t ",
"r r O e r e e e e e e e e r e e e w w r e w e r t r r t t t r y y r e r r e e e e r r e r r e r e r e r r r t u t t r r e e e e w w e e w e r e e e r e r r e e r t e r e w w e t t r r r t t u t e e r e e r t t r r e e e e r t r r r e w e e r r r e w r r r t t t t r t t t r r r r r r r r e t e e r r e e e r r e e e r y r r r r r e r r r r r e e e r e r e e e e r e r e e r r r t r t r r t r e e e e e e e e r r r e e e e w e t t r r r r t r r r r r r r t t t t r t y t r y y t t r r t t r t r r r t t r r r r r ",
"r r r e e r w e e e e r r r e e e t t r r r r r e r t t y y y y y e e e e e e r e r r r r r e e e r r r t t y t e t r r r e w e w e e e r u u w r e e e r t r r t t r r r e e t t t t r r t y u t r r e r e r r r r r e r r r t r r e r r e e r r e e e e r t r r r r r t t r r r e r r r r r r r r e r r e r r r r r e r t t y t r r t t r r r r r r e e e r r r e e r r r e r e e r r t r t t t r t r e e e t r e r e e r e r t t y t r e r r r r r t r r r t t r t t t t t t y t t y y y u u y y t t t t r t t t t r t t t t ",
"r e r r r r e r r r r t t r t t r e e r r r r e r t y y t t t y t e e w w e w w w e e e e e e e e e e r t t t e t r r r r r e e e e e e r y w q r e r r e r r r e r r e r e e t t r r t r r r y t e r e e w w w e e e e e e r r e r e e e w e e q e e e e r r r r r r r r r e e r r r e r e e r r r r r e e r t t t t t t t y u y e r e e e r e r r r r r r r r r r r r e e e e r r e r r t t t r e e e r e e r r t t r O e r t y t y y y e r r t t t t r r r t t t r t t t t y y t t y t y y u t t t t t t r t t r r e r r e r ",
"e e e r t r r e r r r t t r r r r r t t r e e r r r t t r t y y t r r r q q e w w e e e e w e r e e e r t t t t r r r r r t e r r r r e e e 0 e r e e e r r r y u t r r r e e t r t t r r t r y t r e e r e e e t y t r e e r r t t t w e e e r e r e r r r O r r e r r r r r r t r t r e t r t r r t r e r t r t t t t t o y i y e e r t r r e r e e r r w q r r r e r r r r e e e r r e t t t e e r r e e r r r r r r r r r t r r t t t t r r r r t t r r r r r t t t t t t e r t t t r r r t e r r t r r r r r e r e e e r r ",
"r r r r r e r r r r r e r r e w e t y t r r e r t r t t t y y u y u e r e w w q e e e e e e r r r r r r r r r t t t t r r r r e r r e r r e r r e r r r r r r u y t e e r e e t t t r r t t t y t e e r r e e e r e r t r t r r t t r e r r r r e r t t r t r t y t r t t t t t t r t r r e r t t r t t t r t t y t t y r y u u y y e e t r e e r r e r q e u t r r r r r r t e r r r r t r r t e e e e e e e r e t t t t t t t r t t t t r e t r r r r r t r t t t t t t t r r t t t y t r r r r r t t r t r t t r r r e r r r ",
"r r r r r r r r r t r r r e r e t t y t t y t r r e y t t y y u u t w e e e r e w e e e e e r e w w w w e w e t r t t r r r r r r r r e e e e r r e r r r t r y r e w w e e t t r r r r r e r y r e e r r e e e r e r t r r e e r t t r r e w e e r r r r r t t t t t t r r r r r t t r t r r e r r t r r t t r t t y u y y u u y t r w e r r r r r e t u y t r o t r r r r r r t t e e t t t t e r r e e e e r t t y t t y t y t y t r t t w r r r r r r t r r r e t t t t r r y t t t t r y t t t t r t t t t t t t e r r r r ",
"r t t r t r r r r r r t r o r r r t t t t t t r e r u y y u u 6 y t t w r t r e q q e e w w w e r r t t t r e r t r r r t t r t t t t e e r e r e e e r r e w r e q 0 e r t t t t r t r e e t t t t t r r r r e e e r r r t t t t r r r r r e w e r t t r t y y t t t r r r r t r r t r r r r r r t t r e r r r r t y u y y y y y t r t w e t r e e r t t r r t r r r e r r e r r r r t r t r t r r e e e + e r t t r t y t t r t t t t y y r r r r t t t t r t t r t t t r t r t t t t t r y r t t t t t t r t t t r r r t t r ",
"r t t t y t r r r t t r r t r r r t r t r t r r e t u y u u . i u t u y t t t r e q w w r r r t y y y u u y y t r r t t r r t r r e r t r r e r r r r r e e e e q 9 e r r r r r r r t t t t e t t t t t r r t e e e e r r t r r r r r r r r r w e r r t r t t t t t t r r r t r r t t r e r t r r r r r r e r r e r t t u t X y y r t y r e r r t t r t e t r r r r r e e t r r r r t y t y y y t r t e w e t t r r r r t t t r t t t y y y y r t r t t r t r t t t r r t t t r r t t t y t r t y t r t y t r r t t r r t t t t ",
"t r t t t t e r r r e e r r r O r t r t y t y u i i i i i i i i i i i i u u i u u u u t y y y y u u y u u y u u y y y y t t r r r r r r t r r r e r r r e r r r r r t t y t t t t y y t y y t y y t y y r r r t r e t y y y t r r t r r t r t t e t t t t t t t y t t r r r r t t t t t t t r t r r r r r r r t r t t t y r y t y t y t t y t y y u u u e i t t y t y 6 u y t y y t y u u u y y y y y u t y y t y t r e r t t y t t t t t t t e r e t e e r r r e r r r r r t t r t t t y t t y t r r t t r t t t r t t t r t t ",
"t r r r r t e e r t r e O r e r r t r t y y y y y y y t t y u u y y y y y t r r e e t r t r r t t t t t t t t r r t t t t y r t t r r r r r r e r r r r e e r r r r r r t t t t t r r r t t t y t t r r r e e r t t t t t t t t r r r r r t t t e e e r t r r t t r t t r e r r r r t r r r r e e e r e e e e e e e r r e t r r e r r r e e r e t t t w e t y t t t t t t w t y y t r r o r e e t t r t y y y y t r t t t y t r t t t t y t r e e e e w e e e e e e r r e r r e r r r t t t r e r r r r e r t t e r r r r r r r ",
"r r r e t * t r r r e e e e e r t t t r t r t t y y y t u u u i u r r r r e r e w q w w t e e e e e e r e e e w w e r r t t t t t t r t r r r r t r r e r r r r r r r r r r r e r e r w e r r y r e r e w w e e e e r r t t r e r r e r r t r t y w e r r t t t t r r y r w e e e e e e e r e e e e e w w e r e e e e r r t r t e q e e e w e w e e r e w w w r r w e q q w t t r r r w w e r t r t r r r r t r r t r t t t r t t t y t t t t r e e w e r t e q w w e e r e r r r r t t r r e e e e r r r t r e r r r r r r r r ",
"t r r r u u e w r r e e e r r t r r t t r t t t t y u y y y u i u e r e w w e e w e r e t t t r r r e e e w w w r r O e r t t t t t r t r r r e r t r r r t t t r t r r r t t t t t t r r r t y t e r r r r r e e r t t t r r r r r r r r t r r t t t r r t t t t t r r e t r r r r r r e e e e e r e e r e o e e e w e e r r t e w q w e q e e w q q w q 0 e t r r t t e r r r t y t r e r y y r r t t r r t t t t r t t t r t t t r r r r t t w e r t r t t r e r e e e r e w r r r t t r r r e e r r t r e e e r r r e r r t ",
"t r e r y r e w e r r e e e r r t r r r r t t t r t t t y t u i u e w e w w w w r e e r r r t r e r r e e e e e e r r r e t t t r r r r r r r r r r r r t t r r t t r r t t t t t t r r e r t y t t r e r e w e r r t t r r r r e r r e r r r r e t t y t r t y t y t r r u q r r e r r r O r r e r r O r e r O w e e e r r r r e e e w r e w w q w w w e e e e t r r r t e e r t t t y y t r y r r t t t t t t t t y t t t t y t t t y y y t t r r r t r r r y r e r r r e e w r r r r r r e r r r r r r r e e r r e e r t t y ",
"r t t r t r q 0 r r r r O O r r t t t e y t y t y u t r y y u u y r e w w q e e e w e r e r r r t r e e r e e e w r y r e r t r r r r r t t r r r r r r t r t r r r r r t t r r r r r e e r t t t e e e e w q e r r r t r t r e r r w r r t y r r r t t r r r y t r r e e q w r r t r r r e r O r O O r r r r r e e e e r r r r w w e q q q 0 0 e w 0 e w e e e w e r e r r e t t e r t y t t u t t t t t y y y t t t t y t y t o t t y y y t t r r r e r e e r y r e r r r r e r r r r t r r r t t r r r r r e r r r r t t t t ",
"t r r r r e q e r r r e r t o r r r t y y t t y t r e t y u y u u r e e q 0 q w w r r e r t r t r r e r r r e e e t t t e t r t r r t r r r r r r r t t t r r e r t t r r r t r r r r e w O r y r r e e w w e e e e e e r e e e r r e r r r r r r r t t r r t t t r e e r t r r t t e e r t r t r e r r r r r r r e + e e e e r e e q 0 0 0 0 q e r t e w w e w e r e r r r r r t r r t t y t y y y y r y t y y u t t t r t r t t r t t t y y y t t r t t r r r t t e e r r r e r r r r r r r r r r r r r t t r r t r r t r t t ",
"y r e t t t t r r r r r t t r r e t y y y y y t t e r y t t y u y e r r q r e w e e r e r t e r e r r r e r e e e r r t w e r t r e e e e e e r r r r r t t r e r r r r r r r r t t t e q e r r r e e e e w e e e e t e e w e r e e r r r r e r e t y y y y r t y r r r r t r r r e e r r r r r r t r e r r e e e e e e w e e e e w w w q q r r r t t r r e r t r r e w w r r r t t r t t t y u u t y t t t y y y t t t r r r t t t y t t t o y y t t r r t t r r t t e r r r e r e r r r r r r e r r e r t e r t r t r r r r r ",
"t r r r e e e e t t r r r r r r t t t y y u t t u u y r r t r r t e r e r r e q w w e e e r r r r r r r r r r e e e e r e e r t r e e e e e e r t r r r e t t r r r t r e r e r r e e e w e r t r e w e q w e e e e r e w e q w w w w w e e e e w w r t t y y y y e r r r r r r r e r r r r t r r t r e r u u e e r e r e r e e e w e w 0 e t r e r t t t t t t t r e e r w e r r t r t y t y u y t t t t t t y t t t t t r r t t t t r r t r r t e e e r t t t t y r r r O r e r r r r r r r e r r t t r r r r t r r r w r r r ",
"t r r r r r e r r o t r r t r t y y y y y t t u r e r t y t t y X e w w e r t w q w e e e t e r e e r r r r r e e r r e r r t t r e e e e r r r r e r t r t t r r r r r r r e e r e e r r w e t r e e w q w w e e w w e e w q w e w w e e e e e e r e r t t y y r w r t e r r r r r e r r r r t r r r e y i t 0 e e + e r e e e e w w e q r r r r r t t r r r r e e t ; u t q t r e r e r t t y y t y y y y t t y t t t e e r r r r r r r t t t r r w r t t t t t t r e e e O e r r r r t t r e e e r r e e r r e e e e e e e t ",
"t r r t t t r t y t r r t t t t y t t t e t ; e q y y t r t y i i t e 0 e r y t r e e r r t r w w r r r r r r r r r r r e r t t t r r e r e e r r e r r e r r t t r r t r r r r r r r r r e e t r w w w w e e e e w e r e w w t e e e r r r r r r r r r r t y i t e r r r e e e e r r e e e r r t t r t t r q 0 e r e e e e e + e w w w w r r t t t r t r r r e r e u i y t q r t r r r t t r y y t t t y y t t t t t r e t t r r t t t r r t t t t r r r t r r t t t r t r r r r t r e e r r r r r r e e r r r t r r r t r r t ",
"r r t t r t r r r r r r e e e r y t y y u i t q y y t t t r r e e r t r r e t u y u u e q e r e e e e e r r e r r r e e r r t t t r r r r e r r r e e e e e e e e t y e r r e e r t r r r r r r r r e e e e e e e e r r e e t y e r t r t t t r r t y r e t y u r q e r e e r r t e e r e r e r r t t r e q 0 0 e r e e e e e w w q w q e e r r t r r r t t t r r e t y r q q e t r r r r e r y t t t t t t t t r t t t r t t r r t r r t t r r t t t t t t t t t r r t t r t r r t r r t t r r r t r r r t r r t t e e r t r t ",
"t r r e r r e e e r r r r t r r y r q r t e q t t t r r r r t y y w 0 r r t y t e q e r e q w w e r r r r r r r r e e w e e r r t e r r w w e e e e e e e r e r e u r q t t r e r r r r r r r t t r e e e e e r r e r r e e t r r t t r t r t r r e t r t r t u y y e r e r r t e e r e r e e r r t r r t e e e r r e e e e e w q 0 q e t t r r r t r t t y t t r e e e 0 9 0 e r e r r r r r u t r t t t r r t r t t r t r t t r t r e r r r e e e t t r r t t t r r r r r r e e r r t t t r r t t e r e r r r r r e r r r r t ",
"t r r r r e w e r r r r r r e r u e q r e w r t t r r t t y r u i t w w 9 q e q r r e e y t t e t y r t t e r r e r e e e w u y t e e e e e e r r r r r r r r t r e q r t t t t t r r r e t y y t r r r w e r r t r r r r e t t t t t t y t r r e e e r r t t y y e w r r r r r e e e e r r r r r r r r r e e r r r r r r e r r r t y y t r t r r t t r t y y t r r e e w e r r r e e r t r r y t r r r t r t t t r t r r t e t t t r e r r e e w e w e e r r t r t r r r t r r e t t t t t r r r w r t t t r e r e r t r r r r ",
"t t t e e r e e e r t r r r e r e q e t r t t r r r r r t t e y i r e e w t t t y t y t t t y y t y y r t t e e e r e e r t u y e r e r t t r t t r t t t r t r r y t t r t t t r r e r e r t t t e e e e r e r t e e r e e t y y t r t t r r r e e r t t y t i y w r t t r r r e r r r t t t t t r e r r r r r r r r t r r r t r r e r t t t t t t t y t t t t t t e r t r r r t e e e r y r y t r r r t t t t r r r r t t r t r e r r t r t r e e e e e e r r t r r t t t r r r r t r t t t t r t r r r r r e e r r e r r r t ",
"y r e e r r r r r t e e r r r e r r e e r e e e e r r r r t r y i e t e e r t r r t r r r r r y y t y r t y y t r e r r r y r q w t r r t r r r t t t t r r t r e r t r e e r r r r r r e r e t t r e w e r e r r r O r w t t t y y t r t r r e e e r t r y u u y w t r t r e w w e w r r r t r r r r r r e r t r r r r e t t r r w e r r r t t r t t y y t r r r t t r e r r r t t r r r t w y r r t r r r r r e r t r r r e r r r t r e r r r e e e r e e e e t t r r r r e e r r r e t t t r e r r r r e e e r r e ; t e r t ",
"t r r t t t r t t t e e r r r r r r e r e e w e r r t u w r t i u w r 0 t t r e e y t w t r t t r r t t t t t y t e w r t t w w t r t e r t r t y y r t t r r r r t t t r r r e e r e r r r e r y r e e r r r t r t t r r t t y y y y y t r t r r r t r t y y u t e t r e e e w e e e e e r t r r r t r t r t t t r e e t t t r r r r r r r r r r t t t y y t t t t t t r r r t t r y t t e r y r t t e e e r r r r r r r r r r t t r r t t r e e e e r r e r r t t r r r r e e e r r r r r t t r e r r e w e e e e e e 0 r r t ",
"t t t t t r r r r r e r r r t e e r r r e r r e r r r q w r r u t q 0 e r r e e r y u 0 t r e e r t t r t t e e r e q r e r e y t r r r r t t r r r r r t r r r r r r r r t e r e e e r r e r t t e e w r r r r e r r e t t y u y y y t t r r t t t t r r y t u r w e e e e r e e w e e e e e e e r r r r e e e r r e e r r r e r r r r t t t r r r t r r r t r t t t t r r r r r r r r t r t u r e e r r e r r r e e e r r e r t y t t t r r r r r r t r e r r t t r t t t r r t t t t t y y t t t r r e e r e r r t r e e t y ",
"t r e w r r r r t t t r r e e r r r r r r t t e w e r r r e r y t q e t r r e r t t e e r e r e r r r t r t t t t t t e e r e t t r r r r r t r r t r r r e w e e e r r t e e r r r r r r r r t t e e e t r t r r r e r y t y y t t y t t e r t r e t t y y r y r w e e e e e e e w w e e e e e w e e r e r e r r t r r r r e e r e e r t t r e r e r r r t t t t r r e e e r r e e r r r t t y e e r e r e i i e + w w w e e r r t y y t t y t r r t r e w + e r e e r O r r r r r t t t t r r r r r e e r r e e e r r e e e r ",
"t r r r r r r r t t t e e e e e e e e w w e e w q e e e e e r u t q e t r e r e r r y r r e e e t r e r r r r r r y y e e e r r r e e r r r r r r r r r e w w e r r r e e r e e e e r r r e e t t w w r w e e e r e w e r t t r r r r r e r r e r r e r y y r r r w w w e e e e e e w e r e r t e e e e r r e r r t t r r t r r e e w r t r r r r e r r e r t t r r r r r r O e e w r t r r r y r w r e r e t q q e e e w w e e r t t t t t t t t t r e w w w w e e r e e r e e e r r r e r r t r r t t t r e e e e e e r e e t ",
"t r r r r r t r e r r e e e r e w e e w w q w w e r e e e w t u r w e e e w e e e t t e r r w e e r w r r r r r t t y y e r t y t e r r r r t r r r r r r e e t r t r t r r r r e e r r r r r y y r r r r r r r r r e r r r e r r r r r r t r r r e e t y y e t r e r e r e e e e e e e e e e r t t e r e e e t r r r r r r r e e w w r r e r r r r e e r r t t t r t r e e e e r r r r r t t y t w w w e r w 0 w w w w w w e e e r r t y t r t t t r r e e e t r e e r r t t r r r e e e e r r e e r e r r r w e e e r r e r y ",
"t r r e e e r t r r e e e e e e r r e e e w w w w w w w w e y u t w e r r r r r t t t r r r t t r e r r t r r t t t t y y e t y u r r t t r t r r r r r r r e r t r t i r t t t t t t r r r r u t e r t t t t t t t r r r y t r r r t r r r e r r e r t y u t t e e r r e e r e e r e e e r r e r t e e e r t r r r r t r r e e e e e r e e e r r r r r e r t t t r r r e e r r r r r r t t r u t r e w e t r w e w e e w e w w r r e r t y t t t t r e w e r t r r O r t t r t t r t r r r t r r r r e e r t e r r r e e r r t ",
"r e e w w e r r r r r e e e e e e e e e e w w w e e e e w w r u t q e e e r r r t t r e r e r r r r r r t r r t t t r y y r y u t w e r e t r r e e r t r e e t r e r w w t r r r e e e e e e t t w r e r r t r r r r t r e e r r r r r t r e e r t r r t y y t r w e e e e e e w e e e e r r r r r t t r r r e t r r r t r r r e t r r r r r e r r r r r r e r r r r e e e e e r r r e r r t u y t r w e t 0 w r e r w e e e q e t r t t y t t t r r r e e r r e r e r r r r r e r r t r r r r r r r r r r e e r w w w e e r r ",
"t e w e e r r r r t r r e r e r r e r e w w r r r w e e q q e t e q q e e r r r r r r t t r e e e t r w r r t u y r y y y y r y y e e r r t t t r t r t t r r t e r r r r t r r r r e e w w e t r w r r r r e r r e r r e e e e t r r r e e e e r e e t t t y t r e e e e e e e e e r r e w e r r r t t r r t e e r e e t r r r e e e r e e e e e r r r r r r r r r r r r r e r r e e e e e t y t r t t t y w e e t r r e e w w e e t y y y t y t t y t w w e t r r e r r t r t t r e t t r r r r r t r r r e e r e e e r r t r ",
"t r r e t t r r r t r r e r t t r e e e e e e t r t r e e e r t e q q w w e r r t r r r r e r e e e e e r r r t y y y u y y r y y e r t t t r r r y y r r e r t e r y r r t t t t r r e w r r r r r t r t r r r r e e r e r e r t t t e r e e e r r w e r t t r r e e e e e r e t t r r r r r w e r r r r r r e e t e r r r r e e e w w e e e w e r r r r r r r t r r r r t r t t r e r r t t y y t u t t y r e r r r t e e e e r r y y y y y t t t r r q w t t r r r r e e r t y y e r r t r r t r r r r e e e e e r e e e r t ",
"t e e e r r r r r r e e e r r e e r r e e e r r t t e w r e e y r w w q q e e r e r r r r r r e r r t e e r t t y y y u y y r y y e e r t t r e r y y r r t r r r t t t r t t t r r e r r e e t r r t r r e r r r r r r e t t t t t t t r r r e e e e w t t r e r t e e r r e t r r r r r t y y t r e r e r t t t r r r e e e r r e e w e e e r r e r e e r t r e r r w e e e r r r e r r r r t y r t t t r e r e e t r r r r t t r u y y y t y y y t r r r u o r e t r r r t t t r r r r t t t t r r e r r e e e r r e e e r t ",
"t r w e e r e e e r e w e e e e r r e r r r r r r r r t t r r u t w e 0 q q e e r e t t r r e e e e r r e e y t y y y y y y t t y t t r t r r t t y t r y y r t t t r y y r r t r r t t r r e r r e r t r r t r r e r t e t t r r t t t t t y r r r t w r r y y e r r t r e e r e e e e r e t y t r r t r w e r r r r r e r e t r r r r e e e r e r r r r e r e r t r e r e r r r t t r r t t t t t t r t e r t t r r e e r t y t X y t y y y y t y t t r t X u t r t r r r y r t t r r t t r r t r r r r r e e r r r r r t t t ",
"t e e w e e r r r r r r e w e t t t r y r r e r r r r t t t t u r w w q q w r t r r t t r t t r e e e r e r t y y u u y y t t u i u y e t t r t r y r r t t y r t y r y y r r r r r r t r e e e t r t e r t t t r r r r e t r t r t t r r r r r t r r e r y t u t r r t r r e r r r r r r r r y t t t t t r w w t t r r e e r r r t r e e t r r e t t t t r e e e r e e r r e r r t r e r t e t t t r r t t r r r t t e e t r y u y r e t t t t t u y t t r t i t t t t t t r r t r r r r r r r r r r e r r r e e r e e r r t t ",
"t r r e r t t y t r r r r e r r r t r w w e r r e e r r r r t X y e e 0 0 w e r t t r r r r t r t r r r t t t t y y y y y t t i p y t w r r r t t r r t r r r r t y t r r r r r r r r t e e e r t e r q e r e t t e r t r r r t y y t r r t y r r t t t t t u u y r r y t r w r r t r r r t t t r t t t t y y r t t t r r r t t r r r r r r r e e t r t e t y u y t e e r r r t t t r r r r e r e e e r t y y t t t t y y t t t y t t t r r t t t t t t r r y u r r r r r t t t r r r r r t r r e r r t r r r e e e e r r r t y ",
"r e t e e t t r t y t t t r e r t t t e r t t r r r t t t r t u y e w w 0 w t r t t t t r r r t t y t u u y y y t t u u t t y u y r r q e r r r t r r e e t t r t t t t t t t t t t r e r y t y t w e e e t r r r r e e r t y t y t t r r r y t y y e e t y y u y r y y r r r r e e e r r t t r t t t r t t t y y t r r e r t t r t t r e e e w w e e e w y y t e e e r e r t r r r r r r t t t r t t t y y u y y u ; u y t y y u y u u t y y y t t r r r t y y t r r r e r t t r r r r r e r r r r t r r r r e r e e r t t t y ",
"t r t e r t t r r t r e t r r t t t t r r r r r r r r e r y t u y e w w w e e e r r t y y u u y r y t y y u y y y t y u y t o u e q 0 q t r r r t e e e r r r r y t t r r t t t t t t t t t t y t r y r e e e r r r e y u t y y t y t r r r r y t t r y u u u u u t r r r r r t r e e e r r r r t t r r r r r r t t e r e r t r r e e r r r r e r e r r e r t r q w t r t r e r r r y r e t t t t r r y u u i u y y u u i u y u u y y y y t y t t t y t t y y t r r r r r r r t t r r r r r r r r r r r r e e e e r r t t t t y ",
"y t t r t t t r t t r r r r r t r t t t t t t t y t t t t r o y y w e q r t w t y t t u 6 u u u y t t u y t y t t u y t y t y X t r r r t r r r r t r r e r t y y y t r r t r t r t t t t t t u y y y y t r r t t y t . y y u y t y y t t t t t t y y i u y u y u t e w e r t r e r r r t r e t r r t r r r r r t t e r r r r t r e r t r r e e e e e e w w w 0 0 e e e r e e e e e r r e t t y t t r y y y u u u y u y u y u u y y y y y y y t y t t t y u X y r t r e r t y t t t r r r e r t t r r t t e O r t t t t y u y u ",
"y y u u u y y y y y y y y y u u y u u u X y y y y y y y t t u y y y y u u t . u i i u i i i i i i 6 u u y y u u u u u u y X u u u y t y t y y t t t t t t t y r t y y r t t r t t t t y y y u u y y u u y y y u u u u i i . u i . 6 i u 6 i 6 i i u u i i u y t t y y y r e r r r t y y y y t t t t y t t t t t y y r r r t r r t t t t t r e e e e e r e w q w r e e e e r t r e r r y y y y y y u u u 6 6 i i i i u 6 u 6 u i u u i i u u t i p i y y u u i y t y t t t r t t t t t t r t r t t t t y w t t t t t t y y y y u ",
"t t t y t t t t t y t r r r t y y u u y y t t w r r r e w r r y t t r y y t u u u u y y . u u y t y y t t t t y y u 6 u y u y u y t e t t t t e r r r t r t y t y y r t r t r t t t t r r t t y y r t t r r t t t t e r y 5 y u y u u u t u i u u y y y y y y y y r r t t t y t t y t r t y y t t t r r r r t r r y q e e r r t t t t t r r r e r r r r e e e e e w w e e r e e e e e r t y t y y y t t t t y t y u u u u y y y y t y y y y e u i u e q y y y y y t r t t t t r t t t t r r t r r r r r q r r r t r r t t t t t ",
"t r e r t t r e r r r r r e w e e e e e e e e w w w w w w w w t y w w w e w e e e e e e w t r e w e w q e e w e r r t t t t r t t r r y y r e e e e e e w e r e r r e r e r t r r r e r t t t y y r e r e e w w r e w e t r e e r t e r t t u y t t t r t y y t t t y t i % i y y ; t t r r t r t r r r r r t r r e e t r r r t t t t t r r r r r t t r t t r e e e e r e r e e e e e r e t y y t r e r r t u q 0 0 q w r y t t t r y y y e t u y y 9 w t r y u y r e r w e r r e e t r r r r r e e r q e e r r t r r r r y y y ",
"t e r r t r t r e r t r r e r e r r r r r r r r e e r e r e e y y e e r r w w e e e e q 0 e e e e e q e e e r r r t r r r r r t t r t y y r t r r e t e t t r e t r r e r r r r r e r r r t t y y t r e y y w e w e e r r e w e r e e t y t y t r t y t t y t t t t t r i y t r r y r r e r r e r t t t t t t t r e r r e r t t t t r r t t r r r t t t t t t e e r r e e r r r r e e r t t t y t r r e e e r 9 q e w w w r r t r y y y y t y r t w 9 t t y u u y t r e r u q e e e e r r r r r e r r q r r r r e r r r t t y y ",
"t e r e e e e e e e r r r e r t r r r r r r r r r e t t r r r y t w w e w e w q w q q w e e w w r w e e r r e w e e e e e t r t t r r r e e w r r r r t r r e e e r r r r r t r r r r r r r t y y t t e y r q r r r r e e e r t r r t r y r r r r r r r t y t t t t r e y t r q 0 t r r r r t r r r y t t t r r r e e e r r r r t r t t t r t r t t r t r r r r e e e e t e e r e r y t r t y y y t e w w e e w t r t t e e r t t y t r y y y t u r t t t t u u t t e e y e 0 t t r r r t t t t t t e q e r r e e r r r r r y y ",
"t e e e r r r e r r e e t t r r e r t r r r r r w e r r e r t y t w w q w w q q q q w e r e e e e w e e e e r e e e r e e r t t t r r r r e e r e r w q w e w e e e t y t t t r r t t t t e r y u t r e e 0 e t r e e r e e t y t r t r r t r t r r r t y t t y r r t t t r w w t t r t t r t t r t y y t t r r e e e e t r r t t r r r r t t t t t t t t t t t r r r r e e e r e t y t t t y u y t r w r y t t r r t y t r r y y t y r e t y y u y u t t y y i y t r r e w r t t y y t r e t y y t w e r r r t r r r e r t t y ",
"t r t t r r r r e r r r r r r r r r r r t r r e r e e e e r y u t w w q q q q q w w q w q q w q q w e r e w e e e e e e w r r r t r e e e e r r t r e e e e e e r r r t t t t t r t r r t e t t y t r t t r r r r r e r r r r r y r e r t y t t r r t r t r t y t t r r t r r t t t r r r r t t r y y y t y y t t r r t e e e t r r e r r t t t t t r r r t t t r r t t r r r r r y y t r r t i t r w w r r r r t r t t t t e t y t t t e r r t r r t t y u y i t r t r t t y t y r q w e w e t y r w r t t r t t r r t t t y y ",
"t r t t t t t t t t t t t t r r t t r t t t r r t e r e e r y u y e e q q 0 q w e w e e e w q w w e e r r r e t r q q e r r e r t e e e r t r r r e r r e e w r e r r r r t r r r t q t r r r t t y t r e r r e r r r r r r r r r t t t r t t r t t t r t y t y y t t t t t t y t t t r r r r t y y t t t t t t t r e r e e e e r e r t r r t t t t t y y y y y t t t r e r t t t t t y t t t u y e e e r t r t t t t t r r r r r e t r r e e e r y r r y t y i y e t y t u y w r t t t t r e t y t q t t t t r r r t r t y y y ",
"t r r r t t y t t t t t t t t r r t r t t t t t t r r r r t t t u r e w w e r e r r e r e e e e r r e e r r e t w q r e e e r t t w r w e r r r r r r e r e e e e t t t r t r r r w e t e r t t t t t t r r r r r r r r e r r r r r e r r e r r r r e r r t t t y r t r r t t t t t r r r e e r t t t r r r t t r r r r e e e r r e r t t t y y y t t t y y y t t t t t t y y y t y y t t t r y y e e r r r r r t t t t r t t t r e r e e r w w r r r e y y y 6 u t t t t t t r t t t t t r e r y t q r t r r r r r r r r t r y ",
"r r e r r e t e r r r t r e r e r r e r r e e r r r e r r e e t y r w q e r r e e r r e e e e e e r e e e e r r 9 e e e w e e r r w e e w e e e e r e e e r e r e r e r e r r r r r t r r r t t y t t t r t t y r t r e e e w e r r r t t t r t t e e r r r t t r r r r t t t y t r r r r r r t t t r r r t r r e w w e w e e e e e e r r r t t y t y t t t t t t t r r r r t t e e t t t y t t t w e r t t r t y y t t t t t r t t t r r t r e r e e e t u u u e e r t t e r t t r r r t r e t y t w y t t r e r r r r r r e t ",
"r e e r r e e e e r r r r e e e e e r r r r e e r e e r r r e t t e q e t e r r e r e r r e e r e e e e e w t e q r e e e r e r r w w e w w w e e r e e e e e r e e r r r t 0 r t y r r r r t t u t t t r r t t r r r r r r t r r r r r r r t r w e r r r r t t t t r e e t r t r e r r r r r r r t t r e r e t r e e r e e e e e e e e r r t r t t r t t r r t r r r r e r r t t r e r r r t t r e w e r r e e r r r t r e e r t r t r r r r r e e e e t y t y w e t r r t t r r t t t t r r y u y y u t w r r e r e e e r e r ",
"e r e r r r e w t t t o r r e r r e r e t r r r r e e r t r t y y w q r t 0 r r r r r r e e r r r r e e e e t w w r r e e r r t r w r e w e e r r r r e t t r e r e e e t q w t e r e r r r r t y t r r r r r r r t t r e t t t r r t r r r r e e w e r r e t t r e r t r e r r r e r r r r t r r r r r r r r r r e e e e e e e e w e r r r t t t r t t r t t e r r r r r r e r t r e r t t t t t r r r r r t t t t t t r r r e r r e r t r r r r e r r t y r y t r t t t t t t t t r e r r r t u y t t e q r e r e O e e e r r ",
"e e e r r t y y > y y t y t e r e r r r r e r t r r r t t t r t y w w r w e r r r r r e r r r e e r t t t y e 0 e e r r r r e t r e e r e w e r r r r r r r r r r r w r t t t r r r t r r r r t t r t t r r r e r t r r r r e e r r e r e e r e e t r e r t t t t r w t r e r r r e t r r e e r r r r e r r e e r e e e w w w r r r r r t r t r t r r t r r r e r t r r r e t e r t r t t t t u y r r r t t t y t y t t t t t r r r r y t t t r r r e e r t r y t t t y t t r y t r e e t t r t y t q e q e r r e e e e e e e e ",
"t t r r e t t t , t t t t t t e e r r t r r t r r t r r r e r y t w e r r t t r r r t r r r r r t y u e 9 9 9 r r e r r e e r t t r r e e w q e r r e r e w e e w e e r t t t r t r r r r r r y t r r t t t t t r r r w e e e r e e r t r r r t t t r e t y t t t r e r r e r r t e r t r r r e e r t e r r e e e e e e e w e t t r r r t r r t t t t y t t t t r r r r t r t t r t t r t t t u t t t r r t t t t t t t r r r t r t t y y t y t t r e t t t u u y y y r t t t t r t t t t r t t u t q e r t r r r r e e e e e e ",
"t t y t t t t t t > t y t t t t r t r r t t r r r r r r r e r u t e e r r r t r r r t r r t r t y t 9 9 w r t t r r r r r e r t t e r r e r w e e r r r r e r e e r r e r t r e e e r r r r t t t r e r t t t t e e e w r r e e e r t r r r r t r e e t t t r e r e w w w w w e e e r e r e r r r r r r e e r e r r r e e e e r r e r r r r t t t t t r t t t t r r t t r e r e r e w r ; y r y t t r t t r t r r t t y t r t t t r t y y t t t r e e e r t r u r t t r r r r r r t t t r t r t y y e r t r r e r e e r r r r r ",
"r r t r t t t t t > t t r r r r r e e r r r e r e e r e e e t u t w q e r r e e r r t r r r t t 0 9 w e e e w w e e e e e e w e r w e e e w w e e e e e e r e r e e e e q w e e r r r r r t t r e w r r r r r t e w e r t y t t r r t r e r r e e e r e t y t t t e e e e w r r e e r r r e e r r r r r r e r e e e e e e e e e r r r r r r r r r t r t t t t t r t t t r r r r r r w y i r w y t t r r t t t t r r y t t t t t r r r r t r r r r e r r t u t y t e t e e e e e e t t y r r r r t u r e r r e e e e t r r r t r ",
"r r t t r r t r r t r r r r r e e e e e r r e e t e e e e y u y o e w e e e e e e r r t t r y t q e r r e e e r e e r r e e e e w w w e r e w w w r r r r r r e e w e r t r e r r r r r e e r r r e r t t r r e w e y t t t t r r t y t e t t t e r r e r t t r e e r e r e r r e e r t r r e e w w w r r e e r r t r e e e e r r e e r r r r r r r r r r r r t r t t r r r r r e e e r t q q t r e e e r r r r t y t r r r r r e e r r e e r e e e r r t y y t t e e e e e e e e r e r e e e r t t r q r r e e e u y q r r r r ",
"t t t t t r r r e r r e e r r r t r r r e r e w e r r t t t u u t e w r r e e ; u t t r t t y w r r r r r r r e e r t r e e e e q q w e r e w t y e r r e r e r t r y y t t r e e r r t e e r r r e r r r w w r t u y e r r r t t r r t t e t t t t r r e e r r e e e e e e e r r r r e e e e e w w w w e t t r r r r t e e w r r e e r e e e r r e e r r r r r r t t t r r r r r r r r e q r t r e r t r r t e t i w r r e e r r r r e e e e e e w e t r y y y e q w r r e e e r r e e r r e w q r w q r r e e e w 9 q r r r r ",
"r t t r e r r r e e r r e e r e r t t r e e r t r t r t t r t u y e r r e e w y r q t e e r e e t t r e e e e e e t r e e e w e e w e e e w q y r 0 r r e e e r y r t t t t t r r r t r e e e w q e e e r t t u u u t w w t r t t t r r t t t t t t t t r r t r e e e e e e r t r t r e e e r r e r r e t ; u t e t r r r r r r e e e r r r e r r t t r r r t y t t t t t r y r r e e r t y t t r r r r r r r t r w q t r r t t t t t e r t r e e e e r t t t y e w e t r r r r e e r r r e e e e r r e r r r e e e r r r r r t ",
"r r r r e r e e e e e e e e r r r r t r r t y y t r e e r y y y r r e t e r r e w e t r t t e t t t t t r r r t r r e r r r r r r e e e w e e e 9 0 r e r r r t t t r t t y y y y y y t t y t y t w r t t t t y y t t e r r y y y y t t t y r r r y t r y u y t t t t t t t t t t t t t e e r r e r r r y ; t r e y r o t r r r r e e r r r e r r r r e r r r r t t r t t r t r r r r r r t t r t r r r r r r r r r t r t r t t t t r e r r r e e e e r t r t u r r r e r r r e e e e r e e e e e e e e w e e e e e r e e e e r ",
"r r r t r r t r e e r r t t e r r r t e t y y y r t t t u u y u t w w r r r r r t t r r t r r r r e r r r r e r r e r r e e r t r e e e w w e e w r r r e e t t y y t t r r r y t u y y u u t y y r y u r t t r t y : y e r t t t t y y u y e e t r r r r r r r r t t r r r r r t t r r r r r r r r r r t y w 0 w t t t y r t r r r e r r r r t r r r r r r t t r r r t t t t t t t r r t y t t t r r t t r r r r r r t t t t t t t r e e e e e w w e w r r r u r r e e r e e r r r e e e e e e e e e e w e e e e e e e e r r r ",
"t t r r r e r e e e r r e w e e e r e r t r r t y t t y y y y u r e w w e e e e e e e r r e e e e e w r e e r r e q e e e r r r e w r w w e w e w e r r w e t y t t t r r r t y t y y y y t t y y t e r r r t t y y y r r r r t r t u t t t r e e r r t t t r t t t r r t t t t t t r r t r t r r t t r r e e q t y r r r t t t r e e r r r r r r e r r r r t y y t t r t t r t r t r r r y t t r r t r t t r r r r t t t t r t t r r t r r r r r r e w t t t y r r e w w e w e r e e e e e e e e e e r r r r e e e e r r r r r ",
"t t r t t r r e e e r e e e t y t r t t r t t t t t t y t y u u r r r w e r r r r e e r r t r r r r e r r r t r e e e r e r r r e w q w r e r e e w e w w r t t r r r t t u t r t t u u y t t y t t t y t t t t t ; y t y t t t t t t y t t t r r e e t y t r r t y t r e t r r r r t y t r r r r w e r r e t r t r t X r r t t r e r r r r e r r r t r t t t t y t t t t t t r t t r t t t r y t r r t r r r r r t t r r t r > t r , r r t t r r t r e y t t y t e e e w r e e e e r e e r e r r r e e r e e e e r t r r t t t ",
"r r e t r r e e e r t t t y y y u y y y y t t t t t t y u u i u r e r e e e t t y r r t t y y t r t t t r t t r e r r r e r e r t q r > t e r r t r e w r t t y y y t y r t t t e r u u t t r r t t t t t y r y t y y y t t y u y t r t r y y e r e r t t y t y u t r t t t t r t r r r r r t e e e r e e e r r r e r r r w r r r r r e r r O r r r e r t r t t r t t t r r r r r r t r r t t y t r t t t t r t t t e r t y t t r t t r r t r r e w e r r r r y r w e e r r e e r r e e e e e e e e e e e e y y e r r t t r t r ",
"e r t t r r e r r t t t y y y u y y y y t t t t y y y u y u i u r e r e e e r y r w t t r e r t t r r r r r e w w w w w w w q e e e t t t t t - t t t r t t t t t t t t r t r u t r r r r t t y y t r r t y t y y y u y t t t t y r r t t t y r y t t y t u y y y u r t y t y t y t t r t t t t t r t r r e e t y t t r r r t t t r r r t t r r r r e y t r t t t u t r r t r r r r r t y t t y t r t t t t r t y e r t t > r t t t r r t r r r r r r r r t t t e e r e e e e e e e e e e e e e e e r e w u u r e r r r r t r r ",
"r r r e t o r t e e r r t t y y y y t r t y y y X u u y u u u u u r e e e e r e 0 e r r r r t t r r r r t e e r r r r r r r t y t t t r r r t y r r t t r r r t r r t y t t r t r r r r r t y u u t t t t r t t t t t t y y t t y u r t t y u t t y y t y y t t y t r t y y y y t t t t t t y t t r t e r r e e t t t t t r r t t t t r r r t t r t r t t t y y u y t r i i r y t t t t y t r t t t t t t r r t t e y t y y r r t t r t t t t r r t r r y u u u t t r e r r w e e e e e r e e e e e r e e t t w q r r r r r r t ",
"r r r r r r e e e r r t r r r r t t r t t y y u y y y y u u y u y t w e r e q r r q e e r r r t r r r r e r t t r t t r r y y y y r r t r r t r t t t e e r r t t t r e e t r r t t r r y y u u y t t t t t r r y t t r y r t t y y t t y u u t r u u t t y y y y y u y t t t y t t t t t t r r e r r e e r e r t t t t r t r O y u u t e r r r r r r r r t t y y r t t t w w y u y t t r t y y y t t y y y t y e r r t r t , t r r r t t t t t t r e r t y u u t r r r r r e e e e e r r e e e r r t t t t e q w t r t t r r e ",
"e e r r r r r e t r r r e r r t t y y t t t y u y t y u u u u u u t e q e w w e r r r r e r r e r r e e r t t e r r t t t t y y t e r r r r r t t t t t r r t t r r r r t r e e r e e t y t y y t r q e r r t t r r t y y e e t y y t t y y y y r r t t t t t y t t y y t t t t t t r t t t r r w e e e e e t y y t r r r r t r u i t w q e e r r r r r t t t y t t t t r e r r t r t t r e t y t e e e e t t e w r e r e r r r r r r , r r t t r r r t t y y y r e e r r r r w w e e e e w e r r r t t t r r r r t t t r r r r ",
"r e r r r t t r r e r r r r r t t y u u y y u u u y y u u u u u u t y r e w e w e t t y y r e r r e e r t t r w r r t y t y u y y t r r y r e r t e r r r t t e e t e e e e e e e w r r y y t t y r 0 0 t y t t t t t r e e w r r r t t t t t t y r r t t t t y t t t t y t t t r t y t t r r e w e e e w e e r r r r e r r t e u y e q q e r e t r r t r r t r e r r r t r e t r r r t r r r t e w t r e e r w r r r r r t r r r r r r r t r t r r t y y y y u t r t t t r e r e e e e e r e e r r r t r e e e e t r r r t r e ",
"r r r r e e e e e t r O r r t r y y y y y u u u y y y y u u u u u t t y t e e t r r r t t t r r r e r t r t t e t r r t y y y y t t r t t r r r r t r w t r r t r r r r r r r e r t t t y y y u u y y y y t y t y y y e e e e r r r r r t y y t y t t y t y t y t y t y u y y y y y t t y t t t r r r r t r r r r r r r r t r r t e w 9 0 t r r r r t r t r e r r e e r r r t r t r r t t r r t r e r r e r t r r e r e r t t t , r r r r r r r r y y t y u u u t t t t r t r r r w w e e r t r r r r t r r r r r t r r r r r r ",
"r t r e e r r r t t r e e t r y y y t t t y u u y u u u y u i u X r t y t w t t t t r r t t t t t r r t t t t r t r t t t t y u t t r t t r t t r t r e t t t r r r r r r y y r t t t y u u u y u y y y r r y u y r t t t w w e r e r r t t t y t t r t t y t y t y t t t y t t r t r t y t y t r t t y y t t t r t y t t t y y r w 0 0 r t t r r t t t t t t r t r r t t r t t t t t t t t t t r r t t t w e r r r r r e y e e r r r e t t t u u y t t y u u u y y t t r r r r r t r t r e r t t t t t t t t r r r t t r t r r ",
"t r t t t r r r r r r t t e t y t t t y y t y t t t t y u u u u u y e e r t t r t r t t t r t t r r r r t t t r r e r t y y y u t r r t t r r t r t t t t r r t t r r r t t r t t t t y t y u u u t y y i u u y y y u y y t r r e e r t y t t t r t t t t t t t t t t t y y t t t y y u t y y y y y y r r e r y t t t y t t t t r t r t r r t r r t t t t t t t r r t t r r r t t t r r r t e e r r t t r r t r r y t r t t w t y t t t t y y u u y p % u u i u y y t t t t r r t t r t t t t t t r t t t r t t e r r r r r t t ",
"t t y t t r t t r t r t w e y u y t y u u u u u u u t y u u u i u t u y y y y y u y u u y y y t r t r t t r t r r t y y y y y u y y y t t y t t y y t t y t t t r t t y y y y y y t y y y u u u i i u u p i i u u p i i i u u u y t u y y t y u r r t y y y y r y ; u y u y y t t y y y e u t t y y t y y t t y y y y t t t t t r r t r r r t r t t t r r r e r r t t r r r r t t t t r r r t y y y o t t y y y y y u u u u u ; u u i u u u u u u u % u t u i u u u u y u u y t y y y y y y y y u y y t t t r r t ; r e r r t t ",
"t t t t t t r e e e e w q r t t r t t t y y y t y y t t y y u y t e t t t t t y u t t t t r t r r r r t e e r e r r t y t t t u u t t e r r t t y y t t t t t t t t t y t t r r t e r r r r t r y u u r y y y t r t y t y e e r e r r t y y e t y t t t t t t y y y y y u y y t r e r e r t e r t t r r t t t t t t t t t r r t t r r r r r t t t r t t t r e r r r r t t y t r r r e r r r t y r t r r t t t t , r r r r r t t t t t t t y t y y y t e e u u u y y y t t t t r r t t t t r t t y y u t t y t r y u w r y t r t ",
"t y r t t r r r e r e w r r r r t r e r r r r r r r r t t r r r t r e q e e e t r e r r r e r r r r e e e w e r r r t y y t t y t r e w t t r r t r r r e e r r r t e r r r r t t w r e r r r u u r y t r t e t e y t r r t y r t t t y y y t e t t r e t r t u y r r r t t t r r e y r r t t r e r t r r e e r r r e r e e r t r r r e r r r r t t r r t t r r r e r t r e r t e w w r r r r t r t t e r r r r r e e r r r r t r r e r e r t y t t t t y y y y t t r r e e e q 0 0 e r e r t e e r t t t y t r r q q t t t t t ",
"t t r r r r e r r r e w e r r r r r e r r r r r t r e r r e e t y e r t e r t t r r r r r r r r r , e e r r r r e r y y t y y y y t t t t r e r r r e t r e r e r t t t t t t t t w r t r t y y y t r t e e r r t t t r r t t t y y y u y t y r r y t t r t t t t t r r r t t t t r t r t r r r e r y y t t r r r r r r r r r t r r t t t t r r t t t t r e e e e t t r r r t t r r r r r t t t t O y : t r t t r r r t t y t t y y t r r t t t y y y t y y y y t r r e r t e 9 9 0 t r r r r t t t e e r r e e e r e r r r t t ",
"y r r r r r r e r r r e e r r r r t r t t t t t r t r r r r r t t e u ; y e r y t e r r t t t t r r r r r t e e e r y y t y y y t y y y r r r r r t r r r r r t y t y y t y y t y r t t t y y 6 r r y t r r y r t r e e r r e e r t r y y y y r r r r t e r t y t r e e r t t t r r r r t r e r e r r t t t t t r t r r r e r t r e e e r r r r r r r r r r r r e r r r e t r r r e e r r r r r t r r : t e r r r t t r r t r e r r y t r e e t t t t t y t y u t r e e r r y r r t t e e e r y t e r r e r r r t t r r r r y y ",
"t t r r r r r r r e e e w e e t r t t t t t r r r t t r t r r r t r y r e q e t r r r t y r t t r r r r r r r r t r r t t t t y t r r r r r r e r t t t t t y y y y y y t y y y u t r t r r t u u e t t t t r e w e q r y y r r e r r y e t y t r e r e e e t y y t e e t y t t t t t y r r t r e e r r t t t t e r r r e e e r e r e r t t r t r r t t r r e e r e + e r r r e r r e r r r r t t t t t y y t r r r r t t t t r r r t t r t r t y y t t t y y u t t r r r e e t t r e e r r r e e r e r e e r r r t r r r r t t ",
"y r e e e r r r e e t r r r r r e r t t t r t t r t t e r e r r e e t r w q t y r r r t t r r t t t r r r t r r t t r r t y y y t e e e e e e r y e e e r t t r r t t r r y t t u t e t w w r i u r t y e r e e r r e r y t r r t r r e e r r t r r e e r e r t r e w t t t t t t r r r r e r r r e w e r r r t r r e e e e w r e e r r r t r r e r r r r r r r r e r e t t e r r r e e e t t t t t > > r y y y y t e e r r r r r t t t r r r r r t r t r t t y t r r t r e w e e r e e r r e r r r r r e e r r r e r t t t t y ",
"t t t t t t r t t r e t y y y t t r t t t t y t t t t t r t t t t e r r e t y t e r t e r r r t t r e r r y r r r t t r t t t y t r e e t t t t y t t r t t r t y t t y u u y t u t w r r r t i i r w r w t t r e r e r t t r r r r r t y r r r t t e r e r r t t e r t t r t t t r e e e r e e e r r w r t t r t t e r r e e r e e t r t t r r e t r r r t r r r r r r t r e r e r e w r r t t t t y y t r r y y u t e r t t r r r r r r t r t r r e t t t t u t r r r r r e t r e e O e r r r r r r r e w e r r r t y t t t t ",
"t t t r t t r e r e r y y ; u t t t t t t r t t t y y y y t r r t t t t t y t r r r r e e r r r r r e r e r r r r r t t t t y u t r e e t t y r t t e r t y t t t t y t y y y y y t q w t t r u y q e t r : e q e r e r r r r e e r r r t t y t t t r t r r e t t e r r r t t r t t t r r t r r e r r r e e r r e e r r r r e r e r r r r r r e e r r r e t r r r r r r r r e r e e e r e r t y o y > t t t r w e r u t e t t r t r r r r t t r r t e r t t t y t r r t r < e r r r r r r r r r r r r r e t ; r r t t y t t t y ",
"t r r r t e e r t t t t t y y y t r t t t t r t y t t t t r e r r e r r t t e e e e e e r r r r r t r t r e r e e r r r t t t t t e e e r r r r r e r e r t r e r t t r t t t y t w q w q t t y e w e t y t q e r r e r r r r r e r r t t t t r r t t t r e r r e w e r e r r r r r r r r r e e e r r r r r r r e e r e w e e r r e e r r r r e r r r r r t r r r r t t e r e e r r e r e r t t t t t t r r t r t e t y w r r r r r r r r r t r t r r e r r y y r r r r r r r r r r r r r r e e e r r r r t r q r e e r r r t t ",
"r r t t e w t y u u t t y t r t y t o r t r e r t r r t t t r r r r r r t y e r r r e e r r r e r r r r e e t r r r t r r r t t t r r w y e r r r r r e t e e r r t t t t t t t y e w e w y y y y r w r y w 1 t r t e r r t r r t r t u y y t y u t t t r r t y t w e r e r t r r e e r r e e e e e e e r e r r r r r e r r r r r e e r t r w w e r r r t r r r r r r r r r r r r e r r r r t y t t t t o t y t t r t t r r t r e r r r r r r r r e e e e e t t t r t t r t t r t r r r r r r e r r t r r e 0 w r e e r r t r r ",
"t t t t t t y y t y y t y u y y y t t y t t t t r t t t t t r r y y e r t t O r t r e w e r r e e t t r r r r e r r r r r r t y t r w e e e t r e t y t r t r e r r t t t t t y y t q w e y r t t e w e r e e e r r o r t r r e r r r t r y u u u t t t t t y y y e e r r t r e e e r r r r e r e w e e r e e r e r r r t r e r r e e r r e e e r r r e r t t r e r e r r r e r t e r r t t r t t t t t t r t r t r t t t r r r e r r r r r t r e e e r e e r r r e t r e t t r , t r r e r r t r r r r e r t t t r r t t t r t ",
"t r r t r y y t r t y t t t t t t t t t t r r y r r t r r r e t u u w e r r r r e r r e e r r e e u w e t e r e r r r r r r t y y r e r r t r r r e t t r t r r r r r t t t t y t t t w e y r u t e w e t q e e e r r e r e e e e w e e r r t y y y y y t r t u y r e r r t e r t t t r t r r r e e r e e r r r e e e e e r e r r e e r t e r r e e e e r r r t u r r r r r r r e e r t t t r t t t t t t t r r r r r r t e e r e r r e e e e r e r r e r e e t r t r t r t r r r r r t t t t t t t t r r r r r r t t r r r r r ",
"r r r r r t t t y t t t y t t t t t t t t t t t t t y t r t t t y r q e O e t r r r t e r r e e r w q y t r r e e r r r r t t y y r r r t r r r r t t r t r r t t r t r r t y y t e t y y t t y y e e 2 r r e r t r r e r r r r e e e t t r r r r t t y t y y u t r r r r e r y y y y e e r r r t r r e e r r r r r e r e t r t r e r r r e w r e e r e r r r t t w r r r e e e r r r y t r i t e t t r t r r r e r e e r r r e r e e e w e e w + r e e e + e r O e e r r t r r t t r r r r r r r t r r e e r r r r r r r t t r ",
"t t r e r t t y y y y t t t t r r r r t r e r t t t t t r r t t r q q r r t t t t r r O r e r t r t y y t r r e r r t r r t t y t r r t t t r r t t e e r t r r t t t t y t t y t r r r y y t w y w e w w e e r t r r e r r r e e r r t t r r r t t t y t t t u y r r e e r r t y y y t t t e t r e e r e e r e e r r y r r t t r e r r t r e r e r r r r r y y t t r t r r e r r r r r r t t e r t t t t r t r r r r e t t t t t t e r t e e r t t y t e r r o r r e r r r t r r r r O r r t y t y t r e t t t r e r e e t r r ",
"t r t e y y y t y t t t t t y u t t y t t r r t t t t r r r t t t r t t t t t t t r e r r r r t r t t r r r r r r r r r r r t y t t r r t r r t y t r r e e r r r t t t t r t t r r t t r r e t t w w q w w w e t t t e r r t e t t r r r r r t t t t r t y r u y t t e r r t t y y y u t r r t t r r t r r t r e e r r r t t t t e r r r r r e e e e e r r t r r r r r r e e e r r r r r t t t t r , t t r r O e r r t t r t y t t t t t r r r r t r t e r e r e e r e r t r r e e r t r r t e r t t r r r r t t t t r r r r t ",
"r r r r t t r t y t t t t t t y t t t t t r t r r r r r r t t t r r r t t r r r r t r t r r e t r r t e r t t t t t t t y t y u y r r r t r t t t t t t r r r t t t t t r r r t r t t t r r r y t w w e w w w e r t t t y t r r r w r t t r t r t t t r t t y u y e t e r t t r t t t t t w e e w e e e e r r r e e e e r r r t r r r t t r e r r e e e e r r r t r t t r e e r e r r r e r r t t > t t y r + e u i r t t t t t r t t r r r O r t r r r r e e r e e e r r r r r r r e e e e e r r t t r t t r r r r r r r t t t ",
"e r r t t r y ; u y t t r t t r r r t e e e e e r r r r t t t r t e t r t r e r r t r r r e e r r e e e r r r r r r t y t y t t t t r r t r r r t t t t t t r t t t y t r t t r r r e e r e e r w 0 q e w w w w e r t t e e q q e w w t t r t r r t t r r r r t r e t r r r t t y t t t t r r e e e r r e t r r e e e r r t t t r r r t t : t t t r r r r r r t t t t t r e e t r t r t r t t t t t t t t u y y & y e r t r r t r e r r t e r o r r t t t w e r e e r r r e e e r e r r r r r r e r r r t t t r r r r t r t r e ",
"t t t y r t - ; y r r t r r t e w e t t e r r e r r r r e + e e r r t e t r r r r r e e e e r r r r r r r e r r r t t y y t t y t r r r t t t y t y t t t t r t t y y t t t t t r t t t t t t y r w w w q w q w e e e e e w e r e t t e r r r y t t t t t t t r t w r y t t y y u y y u y t e e r r t e e r e e e e r t r t t y r r t t e t r r r r e r r w e e e r r r t r r t r r e r r t r t r t t t y t y t t e w r r r r r t r r r w e r e e e r r t t r y r e e r e e e e e e t y t t y u t e e r e e w e e r t t e r r t ",
"r r r t t y u y r w t t y t r r r r r t r r r t r r e e e e r e e r t r r r r r r e O r e e r r r r r r e r r e r r r y t t y u t t r r r r r e e r r r r r e t t t y r t r t t t t t t t r r u y q e w r e w w e e w w e r r e w r t r w y r r t t y y y t y u u r r t t t u u t t t y u y y r q w e e t e e e r r e e r r t y t t t r r e w e e e e e e e r r e r t t t t t r r r r e e , r r t r t u y y t t t e r t r r r r e r r t t t r r r e r r t t r t r w e e e e e e e r r t r t t t t t q w t y t r t y y y t r t t ",
"e t t r t t y r r r y t y y t r t r t r t t r r e e r r r r r e r r r t t r e e e e e e O e r r r r r e e e e e e t e e e t y y y t t r r r t t r t t r t t t t t t r r r t y t t r t t r r e y r r y e t t e r r t w r r e e w r e r t r r y r t t y y y y y u y t t y y y t t y t t y y y t y t q e y w q e r e e e e r r y t r r t r r r r r e r e r e t r t r r t t r r r r r r r r r r r t r O t t t y t e r r r r e e r r e t y r t t r t t t r w r r r t w e e r e e e r e r r r r t t t t y t u u u u y y y t t y y y t ",
"y t t t e t y t r y t r r t t t r r t r t r t r e r t r t r t r r t y y y t r r r r r r e e e r t t r r O e e e e e e r e t y u y t y t t t t t t y t t t t y t t r r r r r r r r t t t r r e t w y u 9 e e e r r q q w e e e r r e e r : t t t r t r r t y y i u t r t t t t t t y y y t t t t y r ; t 0 r t t t t t t r t t y r r t t y t r e e r r r r r r r e r t , r r r r r r r r r r r t r r t r r r e r r e w w e e e r e ; i q r r r r r r r r r r y y + e e e w w w e w e r r r e e t t t t y t y y t t y y t t t t r ",
"t t t t t t u u t e r O r r t r e r r e t t t e r r r r r t t r r y t y t t y r r r r t e r r r r t t t r r r e r e r e t y y i y t t t r r t r r t t t t t t t t t t r r r r r r r r r r r r u r t e 0 t r t t r w y r e r r r w r t t t y 0 t r e r r r y y u u y t r t y y t y y y u y y t y t t r 0 q y t t r r r r t r e y t r t t t r t r r r r r e r r r e e r t t r r r r r t r e t r t t , y t r r r t t t t t t t t t r r q q y y y t t t t t t y y t e q w w w w w w q w r e r r t y t r r r r r t t t y y y r r t t ",
"t t t t y y y y r t t t r t t e r r t r r t r e r r e r r r t t y y y r t y t t e r r e e e r e t t y t r e t t r r r t t y u i y r r t t t t t r r r r t t t t t t t r r t t r r t t t t y t y y e q w r t e e q r t t t t t r e r r t r r t t u r t r r t t u y t t e t t t r t y y t t y y t t y y y y t t t t r r t t t t y t r t t y t t t r t t t t r r r r r r r r t r r r r e r r r r t t t r t r e e e e r r r t t , r r r r r t y y t t r t t t t y t t e e w e e w q q e e r t t t t t r t t y y t t t r r r t t r e ",
"r r r r r y y y r t t r r r r r r r r r e e w e e r r r r r t t r r y r r r r r r e w w r r r r r t t t r r t t e e t y r t y u y t e t u t r r e r r r t r t t t r r r r r r r e r r t t y t r t t 0 0 q q q q e e e r t t r r r r r r r r t y y e r t r r t u u y t r r t y t t t y t y t y y t t y y t r t r r t t t t t t t r e r t t r r r r t r r t r r t y y r r r r r r e e e t r r r y r r r r e w w e e r r e e e r e r r t t r t t t y y y t y t y y t t r e r e e w e r r t y t r t t y t t y y y y t t t e r t r e ",
"r t t r r y y r e t r r r r e r t r t t w r t r e r r t r r r e r e r t r e r r r e e e e e r t r r r r u y r r r r e r t t t u y e r r r t t e e e r r r r r r r r e r r e r r e e t t t y t t r t y r r r e e e e t r e r t r r r t t r t t y u y e r r t t i u t y y r t t r r t t t y t y y r t y r r t t r r t t t t t r t t e r r y y r r t y t t r r r t t t t r r r r r e r r t t r t t o r r r r r t r r r r r r r r r t t t y t : y t t t t u y y y t y r e r r r r r t t r t , r t y y y y u y y t t y y t t r r r r ",
"t t t t y y t r r r t r t r r r e t t r t t t r r r t r r t y t r t y r t t t t r r t r r r r t t y r r ; w w y y r r e e r t u t e e r r t r r r e r r r r r r t t r e t r e e r r t t t y y y t e r r y w e e r e r t r r r r r t t t r t y t r y w r r r y i y y u y t y y t t y t u y y y t y y r r e r r t r t r t t t t t t r e r y y w w e r y t r t r t t y t t r r r r r e r t r r t t t r r e r r t t t r t r r r r e , r t r t > t t t r t t t t y y t t t t , t t r r e r t r t y t r t y y t t t r y y t t r e r t ",
"t t y t t e e r r r t r r r r e r r r y t t t t e e r t r t r r r r t e r y y t r t r r r r r r t r t r w q t t t r y t t e t i u r r r t r t r t r r r r r r r e r r r r r r r t t y y t y t y t u w w e q e r r e w e e r r e r t y u r y t r e t e w w t y i u u u ; u ; u u y u u u y y y r t u t r r t y y t y y t y y y y t r t t > t e e e r r e e t y t t t y t r r r r t r t > r r t y t r r r r t r r r r t t t t e r t t r r y y t t t t t t r y t y t t t y t y y r e e t t > u y y t y t t t r t r t t t y r y t t ",
"t r r e e t r e e e r t r r r e t t r t r r r r r e e e e e r r r r t r r r t t t r r e e e e r r t t t t y y t t t t t r t t p u t t r e e e r r r r r r t t r r r r r t r y t t t t t t y y t t u 0 w e r r r r e w e r r r t r t y r t t t r r e r r r y y i u u y y t u u u u y y y y t t t t r e e r r t t t y y y t t y y t t y t t e r e e r r e e e e w t t t t t t r t r r r r t r t y r r r t t t r r t t r r e e r i y r y t t y y t t y t t r y y t t t r r r t y y t t t t t t t t t y y t t t t r t y y u t t t y ",
", t r e r r r r t e t t r e w O t t t > t t t r e r r r t r r t r r r r e r r t e e r e e r e r r y r y y t t y t t r r y i p p u t y r t t r r r r r r t r t y t r t r r t t e r r r r o t t t r q 0 e r r t r e e e r r t t , t y t t u u t t u y u u y u u p i u y y y u u u u u ; y t r y t t r e r e r r r t y u y y y t y y y u t r r e e e t t r r e r w t y t t t r t t t r t t t y y ; y t t r r r r r t r r e w e r u 0 w t r t t t r t t t y y t t > r t t t r e t t y t r t y y : y > r t t t t r t t t t t t t t t ",
"r t r r t t r t t r r r r r t t r r t r t t r t r r r r y t r r r t t t r r e e r r u r e t e r r t t t y y y y t r t i i i p a p y y t t t t t t t t r t t t t r t r t t y y y t t t t t X t t t t y r r t r r r r + r r t t y u u u u u u y u u u u 6 y u u p u u y t y u u u u u ; y y y t y t y r r t t t t t t y t y y y y t t y : r w e r r r e t t t r e y t t y y t t t > t y y u u u u t t t t r t r r r r r t e t t t e t t t t t t t t t y y t O r t r r r t t t r y y t y y y y y y : y t y t t y t t y t t r t r e ",
"e r r r r t e e r t r r r t r r r r r r t t t r r e r r y w r e r r r r r r r r r r t r r t r r r y t t t t t r r u p p p p $ a 7 u u y y y y y t t t t t t y t t r t y t t t t y t y u u y t y t r t t t r r r r t e r t t y i u i u u y u u u i u y u u i p p i u u y ; u u u u u u u 6 u u y y t t r t y y u u y y y u y u u y u y u y e r w e r t t t r e u y r y t t t r y u y X y y u u u t y t t r e e e e w e e w r t r r r t r r r r t r t t t t r e r r r e r r t t t t y t t t t r t t t r y y y t t t t t t e r e e ",
"t t r t r r r r r r e r r r r r t t r r t t y t r r t t e e r r r t r t r t y t t t t t e t t y u u u i u u i i y p p p p 7 a 7 p p p i 6 y y y y y t y t t y y y t t t t t r t y t y y u y y u u t t t y t y t t y y u . u u u i p i i u i u i i i i u p p p p u i i i p p i i i i p i u y t t t r t e r t y t y y t t y u y y t 5 y y u - i r r t y y t y t i y y u y u u y u u u u u u ; ; u u y y t t t r r r e e e e y y t r t t r t r r r t y r r t y t y o t t t t y y y t u u u u u y y t y y u y y u y y t y t e e O r ",
"r r e r e r r r e r r e e r r r r r r t r e r r r e e r t r r t r t t r t t r t t r r e e r r r y y y y t r t t r r t y y y u i p i t t t t y t r t y y t t t t t t t y y y r t t t r t t t t y y t r r t t y e r e w e e e e e r t y r e e t t t y t r t y y u u t t y u y y u u t t y t t t r r t r e e r t t t y t t u y t y t t t r r t u u e r r r r t r t y t y y t e t t t t t t t t r y t r r e e e e e w w w q r r r e r t t r r r r r r r t t r t r t r e r r r r r t , t r t y t y > y : y y y t t t y r t e w e e e ",
"e e e r r r r r r r r t r r r r r r r t r r t t t t e t t t y y t t t t t y r r r e e e q e e e t t y y e w w w w w e t t t y y p t r r e r r r y t t t r t t t y y t t y y y y t t r r r t t u y t e e e r e e q q q q q q q w w w e e e w w t r r r r e r t u y w e r t t y u y y t y r r > t t y t e e r r r t t t t y y y y t r r , t r e y t q q e e e w r r t t t r e y t r e e r t r t y r e e w w w e w q w w w r r r r r r r r r r t t r t r r e r t t r e r r e w w e e r e t r e e , y t t t y t y u t r r e w e w e ",
"w e e r r r r r r r r e r r r r r r t r r t t r r r t r t r t t r t t r t r r e r r r e e w w e e r u t e w q e q q e r t y u y i t t r e e r r e e r r t t t r t t t t t t t t t r t r e t t u t e e t w w e r e w w w e e e w w e w r r r e w t y y t t t u u u , r r r t y y t t y t r r t y r r y r r r , t y t r t r t y t t r O t t r r r > : r q w y t t r r t r r r r 0 e r e < r t X u t e e e e w e e e q e e w e r r e r e r r t e r r e r e r r t t r r r r r e e w e r r r e e e r r t y t t t t r r t t r e r e + ",
"e w e r r r r e e r r r r r e r r r t t r t r t r e y r t t t t t t y r t r r e e t e r r e e e e e w e e q q e e w q w t t t y i t e e e r r r r r r r t t t e r y t t t t t r t t r t r t t y y e e r w e e e r r r e e r r e e e e r r e t r y y u y t t y u y , t t r y u u r t t t t t t t e t : r e r r t t t r t o t y y y y r r t t t t t t : t e y y t e r r t r t w e r r e e e y y u r e e e w + e r r e w e w q e r e e e t r e e r e e e e r e r t r e t O e e e e e r e e t r r r r r t y y y y r e e r t r e r r ",
"t t r r r t r e r r r t r r r r r r r t e r r r r r r r r r r t t y t t r e e w e r e r r e w e r e e e e e e e r r e w e t e y y e r r e e e e r r r t t t y t y t y y r t r r r t r e r t r t 5 r w w r r r r r r r r r e r e e w e r e w t y r t y t r e y u t q e < t y t y y y t y t r r t r t > r e e e r r r r r t t y t t e t t t t r e r t r t > t w e e e r t t t t r r r e e e X t u t r r r w e r O e r e w q w w r e e e e O r r r r r e w e e r r e e r r e e e e r t t r t t t t t r r t t t r r r r w e r r r t ",
"r r e r r r r e e r r r r r r r r r t t r r t r r e e t y r t y t t t r r r r w r e w r e e r w w w e e e e e r t r r w r t r t u e r e e e e e e r e r t t r t y t r t r t r r t t e e e r r t t t r e r e r t t r r r r r e e e w r r r e r e r t t t y t y u y q e r r r y t y t t t t t r t r r r r w e e t e r r r r t t t e r r r r r e e e r t t r e r e O r r r t r e r t r r e r t y u t r e e r e e r r r e w q w e r r r r r r r e r r e e e e r r t e e r e + e e e e r y r r t t r t r e r r e r e e e r w r r e e ",
"e t e r r t r r r r r r r r r t r t t o t r t t r t r t t t t y u t t t t t t r r e w e r e r r w w w w e e e r r e e r t e r y y e w e e e e e e r r r r t y y u y t t y y y t t t t t r e t t r y y e t t t y r r r r e e r e e w t y r r r t t r r r t t t i t q r r e w r r r r t t t y t r r r t t t t e r r r r r r r t t t r r t r e e e e e e e e e t r e e r e 1 r e r r r t r r t t u t e r r r e r r e r e w w e w e r r r e e r r e e e e r e e r r e e e e e r r r t r r r r t t t r y r t r e r r e e r r e e e e ",
"e r r r e r r r r e r t r r r r r r r r t t t r r r r t t r r r y t t r t t t r r w e e r w e e q q w e r r e r r r r t y e e y u e r e w e r e r r r r r r t t y y y t y t t t r t t r r r y t r t t y t r t t r t e r r e e e e w r r r r e r t w t r r r t u t q q w w e w r r t r r t t r e r r < e e e r e e e r t r r r t t r t r t r r r r r e e t r r t r r r o r r r e 2 e t t r t y u t e r t r O r e r r e w e e e e r r e e e r r r r r e e e e r r w e r r e e e r r e e O r t t t t t r r e r t t r r r r r r r e ",
"r r r e e r r r r r r r r e r r r r r t r t y t r r r t r r t y t t t t t u r r e e e r r e e r t r w t t r r r r e r e t t e e t w e e e e e e r r e t t r r r r y y t y t t t t t r e r e r t t r r t t e r r t r r r r r t r y t t r t e r t r e t y t e t u y w w q t u t t e e r r t t r r e r r e r e r r e O t t r r r r r r r r r r r r t r r r r r y t r t t t t r r e r e r t r > y u t y t r r r t r r e r r e r r e t r r r e e r r e t t r r t r r r r t r e r r r r y r r t r r r r t t t t r r r r t r e r e e r ",
"e e r t e e r r r r r r r r r r r y y r t t t t r t t r t t u t y t t t t t e r r r r r r e e e r t e e e r e e r r t r w r e r t e r r e w w e r e r t t t r r r t y y y y y t t t t t t r t t r t t r t t r t r r e r r r r e r r t y t r e t t t t t , r t i y e r e y y e y r r r r r r e e r r e e r q e e e r r r r r r t t r r e r r r r r r r e e r e t r r t t < < r r t t t r e , t ; > t r e w e e e e e r r e e e e e r r r e r r r r r r e r t e e r e r t t r r t r r t t t t t t r r r t t r r t t t r r e e e e ",
"r i y e t e r t r e e t t t r r r r t r r r t r r t r r t t t t t t r t t t r r r r r t r r r e r r r e e e e e e r r e e r w r t w w w w w w e e e r t t t r e r t t y r t t t t r t t r r r t t t t t y t t t t r o r t t r r t r t y r r e r e e r t t r r u y e w r t w e t y t r t t t e r e e w e w e r r r r r r r r r t t r r r e r r r e r r e e e e e r e r r r r e r r t r e r , t u t t t r w e e e r e e e e e r e w r r r r r y t t y r r r r r r r r r t t t t o r t t t t r t t t t t y t t r t t t t t r e r t ",
"r u w 9 r e r t O e r t t t t t t t t t t t t t t t t t r t t t t t t t t r r t e e r r e e r r r r r e e r e r r e r r t r r r y w w e w e r e e e e r t y y t r r t t t y t y u y y t t r r t t r y t t r e r t t t t t t t t t y y t r r e t t r t t e , t u y e w r r t y t t t t r r t r e e e e r r e r r r r t r t y t t t r r r t t r r r t t y t t t r t r r t r r r r r r r r e r y u r e e t w w e e e e e r e e r r w e r r r r t r r r r t t e e e r e r t y t r r r r r e t y r r t y y e e r r r t r r r r r r r ",
"r r w e r r t r t t r r r r r t y t t t y t t t t t t y y t y y y t y y t r t t r e e t r r r e e e e r r e e r r r t t e e e r t e e e e e e e e e e r t t y t y r r t t y y t y u u y y y r t u y t t t t r t r t t t r r r t r r r e t t r r r t t t r q t i t w w r t t t r r r r r t r e e e r r t r r t r r r r r t t t t t t e r e r r r t t r t r r r , r r r r r r r r r r t , r r t u e q e r e e e w e e w r r e r r e e r t y e e e r r r y r w e r r w r t t r t r r r r r r r r r r r e e e e r r r t r r r r w r ",
"r r t r e t t r t r O t r r r t t t t t r t r t t t t r r t y y t t r t r r t r r r e r y r t r e e r e r e w w e r t t r r t t t r r r t r e r r e r t y t y t y t t y y t t t r t y t t t t t t t t t y t t r t t r t r t t r r r r r r e r e r t r e r w r i r 0 e r > r e r r r e e t e w e e r e e e e r t t r e e t r r t t e e t t t r r r t t r r t r r e e r e r r r r r e e t t t t u r w e r e e w w e w e e e r r e e e t r t r r r e r r e w e t t r r e e e r r r e r e e r y r r r O e r r r r t r t r r r t e r ",
"r e e e e r r r e e r u u e e r t r r t r t t t r t t t t t y y t t e r r r e e r r r e e w e r e e r r e e e e e e e r e e r t t e e e r r e r r t t t t t t t e r r t t y y t t t t y e e t t t r t t t t t t t t r t t t t r r t r r t r r r r t r e e r r i y 0 e t r e w e r e e r r e w e r r e e r r r t r y i y y t t t y t t t t t t t t t t t r t t r r t t r r t r r r r u t t r o i t e e r r r r e e e r e r r r w w r r r r r r r r r t e e r t t r t r r e e t e e e r r r t r e r t e e w e r t t t r r r t r e ",
"r e r t t r t r t r r y e w t t t t r y t t r r y t t t t t t y y t r e t r e e e e r r t r e r r r t r r t e r e r t r e e r t t e r r r e r e e t r r t t r r e r t r r t r t t t t t w r t r r r r t r e t r y t r r e t t t t t r e r e e e r r r t r y y u t q r r r r e w w e e e e e e e e w r r r t r r e i i t t y t y y t y y t t y y t t y y t t r r t r r t r r t y r y ; e y t t i r r e r r r r r e r r e e e w r t t t t r r r e r r t e r r t y t t e r r y t e r r t r e r r e t e e r w r y t r r r t r t r r ",
"r r t t t e r r e r t e @ w t r t r r t r r r r t t t t t r t t t t r r r w r e e w e r r t r t r r t t r y t r t r r r e r r r t e r e e r r r r t r r r r t r t t r r r t r r t y r r t t r t t r y t t r t t t r t r r t t r r r r r r t r e e e t t t r t u y q e r e r e e e r e e e e r e r r e t e r r r r y r w r y y y t t t r r t t t t r r t r t r r r r t t r t t y y y w r y t u X e r w w r r r r e e e e e e r e r t t r r e e e e r r r r r r t r e e r e r e e e r e e e e w e r r r t O t e e e e r r r r e r ",
"r r r t t t r r r t t t t t t t t r r r r e r r r r r e r r t t r e e r e w r t w q e r e r r r t t t t t t t t t t t t r e e r r e e e e w r r r r e r r r r e r r r e r r e r r t y t r r t r t t r t t t y y y y u t t t t t t r r r t y r r r r r t t y u u y e t r e e e e e r e e r e r r e r t y t e t t t r q w t t t t t t r r r r t r r e e r r r r r r r r r r r r t r t t t t r t i e r e q w r e e + w e e e w e e e t t r r r r r r t r r t r r y r e r e e r e w e e w w e e e e r r r t t r t y t t r r r t t t ",
"t r r r r e r r e r t t t t t r r t t t t t r r r t t t r t r r t r r e w w t e e t t r t e y r t t r t t y t r r r r r r e r r r e e r e r r w e e + r e t t t y y y y t t t e r r r r t y y t t t y y y y t y u t t t t t y t t y y t t t t t t t t y t t u u t e t t e r r r e t t r r r r r t t r t y e t t r r t r r t r y y r r t r t r r t r r r e r r r r t r r t r r t t t t t t r y u t e r t r q e e w e e w q e r r r e u u y t t r r t t t y t r y t t u t r e e r r r w w w w t t r r t t r r y t y r r t r r t t ",
"t t t t r e r r t t t t r r r e e e r r t t t r r r r r t r r r t r e r w w w e r r r e e e r r t y r t t t r t t r r t t t e r e e t t t r 0 e t t r e e t y u y y y t y y u r t t t e r r t t t r t y t t y u y t y u y y t y t t t t t r t t y y y y y y y y y e e r r r e r r r r r t y t t t r r t u r t y t t t e r t t y r r t r r r r r t r t r r e r r r r t r r r r t r r r r r r y u r e y t r e w w w e w e r t e r r y i u e r y y y t r t r t r t e y u y e w r e w w e w r e r r e e r t t t t r t r t t t r t t ",
"y y y t t r r r t t r r r t r r t r e t t t t t t r r t t r t y t e e e e w e w e e e r r t r r e t r r t y t t t t t t t r t t r r r r r e e t r r t t r r r e r t y t t r r t y y y y y t y t e r r t t t t r t t t y t t t r r t t y t t t t t t t t r t y u t e w q w e e e e e e e r t t r r e r e t t q t t t t y t r t y t r t t t r r r r r r r r e e t r r t t r r r e r r r r r t t u r t r t e e e w q w e e e r r r + t y w 0 q t t r r r r r e r r e y t w q q e e e w w w r r r r e e r r t r y t r r t r r t y u ",
"y t t t t r t r t t r t y r t r r t r r r r t t r r r r r r t y y e q q w e e r e e e r e r e r w e r r t y e t t y r r r t e r e e r r e r r t r r e t r r r t y y y r t r r t t t t y t y y u y e t t t r r r t r t t r r r r r t t t e r t e r r t t t t y i y e e q w e r r r r t r t t r r t t t r r r e t t t t y t t t y t r t t y t t r r t t r r r r r r t t t r t t r r r r t e y u y < r e e r r w e w w r r e r r r e r q 0 q r t t t t t r t e O r r r e w w q e w e w e e e e e t e t t r e r t y r r y t r t t y ",
"t t t t t t y t r r r t t r t r r r r r r r t t r r r t t t t y u r e w w q q t e e e e e r r t e e r r t r r r t t e r r r e r e e r r r r e r e e e r r r r e r r t r t t y t t t y y t y y y y t y t r r t r r r t t t r t t r r e r t t r t r r y t t y t u t r e e q w r r t t r t t t t t r t r r w r u u y t y t t u y y t t t t t t y , e r r r r t t t r t t t t t t t r r t r t y y u t , r r e e r w w e t r r r r r r y r r t t y t r r r e r r r t t r e r e r e e e e w e e e e e r y r r r r t y r e t t y t t u ",
"y t r t r r t r t y r r t t t t t t t y t e r t y t y y y y t y t e q e ; y e r e r w r r t t t r e r r t r t t y t t y y r e e e e e r r e r e e w e e r r r r r r t t y y y y t t y t t t y t y t r t t y t t y t r r t r t t t r e r r y t t t u t r t t t u y e e w e w e e r r t t t t t t t r r e t t - u r e t t t t u u y t t t t y y y e r r r r r e r t r r r r t r r r r e r t y y u t r r r r e e e e e r r r e r e r e r r t t r t r r e e t t r t t t e r r w e r e w e r r r r r t t r r t u y r r r t t t t u u ",
"y t r e e r r r r t r e r e r e r t t t r r e r r t t t y t y i y t w y ; : r e e e e t r e r r r r t r y t y y u u y u t t t t t t t t r r t y t r e r r t t t y y t y y u y u y y y u y y y y u y t t u y t y u y t r r r r r r y t r u - t u u u y t t t y i u r r y y w e r r t t t r t r r r t r r t r u e q w u y y y y u y t y y y y t t t r r t t r r r t r r r i r w r r r r t t u u y , r r r r r e r w r r r r r r e e r r r y r r r r r r t t t r t t r e r r e e r r q e r t r r e r r t t t t t t t o y t t t t y ",
"t r e w r t r r t e e r r r e r r r r r r t r r r r r r r r u u y w r t > r 9 9 e w e r e r e e t e w u i t y y y y y t r r r t t t u t r t t r t t r r t t t y y r y u r u y y y y y y y y t u y y t t y y y y r r t r e e r t t r t t t w w u t y y t t y y y t r t ; y q w e r r r r t r e r e r e t t e e q w y r t t r r r t t t y y t y t y t r t r r r t r r t r y w r r t r t y y u t y y r r r e e r r e e r e e r e e e e r r r r t r r r r r r r t y t r e r r e e r e e w e r r r r r t t e e r t y t r t t r t t u ",
"u u r t r r r r t e w r t r t r e r e r r t t r t t r r t t u u y e r e r w 0 8 r e e e r t r r e w w t w q t t t t y t r r t t e e t e w r r e r r e e t t t e r r i t r y y y t y u u u u y u y y t r r t y y t t r e r r w r r e t r r r y t t t y t t y u y r r y t q 0 e w e r e e r r r r r e r t r r r t t y r r t t y y y y r t : y y u y y t t r t t t t t t r e e t t r t y y u u y y t r e e e e e e r r e e e e w e e e e e r r r t y t r t r r y u t e e e r w w e r t w r t r t t e r t r t y t r r r u t y u u u ",
"p ; w r t t r r t e e e r r t t r r e r r t t r r t r r t t u 6 t t t r r w q q e e e e r r t t t e e e q r r r t r r t r r r e e e e q r t t t t r e r e e e t t t r q t t y y y y y t t u u ; y u y y y t r t y t e r r t r t t r r r r y y t t t y t y u u u t r w q 0 w t e e r r e e e e r t t t t r t e r r y y y t y u u u y y y y : u y y : r r r t t t t t r r r t r r r t t y u y y y t t t r r r e e e r r r e e w w w e r e e r r r t t r t r t y y y r e + w w w e w e w t t e r e e e r r r r r r t t y u y t u i ",
"t w e t u y t t t t e t t r r r t t t y t r t e w r t y u u y u y t y y t e r t r w w e r e r r e e r r t t r r t r t y r e r e r t e e r t r t r e r t r e t y y t y t r r r t t t y t y % y u y u u t t y r t t y t y t t t t r r e r r r t t t t t t y u y u t r e w e r r e w e e r r e e r e r r e e r e e e e t t y t y y t t t t t y y y y y > r r t t t t t t t t r r r r t t o t t t t r t r e e r e e w e e e w e e e e r r r e e t r e t r r t t t u t r t t t O w w q e e r e e y t r e e e r t r t 4 t r o t y u y ",
"t r r t t y y t r r w t t t r e e w t y t r r r r r t y y u i u u y u y t t t t e e e w r r r r r r r t r r r r r r r t e e t r r t y t r r t r r e r t r r y y t r t t t t t t y u y t - & r y u y ; u t t r r t r r y y t r t t t t t t t t y y y y y u i i u y r e r t r r w w q e e e r t r e e r e e e r e e r r t y y t r t t t t t y t t t y : t r t r r r r r r t t r t y y t r t y t t t r e e r r e w w e r r w e r t e r r r t r e e e e w e r t t y t r t t r t e e e r w e r t r e e e e r t w 0 e r y t y y y u u ",
"y y t y y t y t y t e r y t r r r e e t t y y t y t y u u u . u y y y y y y y t t r r t t r t t t r r t e e r r r r t e e r t r t y y u u t r t t t y t t t t t r t t r r t t t t u t y y r r y i u i u y y u y y t y u y t t t y t y t t t y y u u y X y u u u u t y X y t t t r r t r r t r e r r r r t r r r e t y t y y t t t t y t y t t t t y y y t t t t t t t t t t y y y t y p t t y y r r r t y r r r r r r r e r r r r t t t r e r e e e r r r y y y y y t y y t y t t r r y r r t t t t r r r r y t t u y u u u i u ",
"y y y y u y y y y t r t u r t t y t t t w y y u u t u u u . u . u y t y t t y y y t y y y u u y t t y r e t t r t e r r r r r t t y y u u t t t t y t t t t t t y t r r r r t t t y y u y r t ; y u i u u u u u y u y y u y u y t y u u t u t i u u u y u y i u u u X y X y y y t y u y y y X y y y y y y o r r r u i r y y y y y y y y y y t y y y y y y r y u y y t t y = y u u y i y r u u u t y X y X t y t y y t t r t t r t r y u y t r r y t t t t u u u . i u i u y u u X y y u t u u u u u y t t X u u y u u u u i 6 u "
};
