/* XPM */
static char *f437175018234a16d68278751ea10269ZbAIgKz7Wdxxd4YQ[] = {
/* columns rows colors chars-per-pixel */
"32 32 162 2 ",
"   c #3B0505",
".  c #3D130D",
"X  c #360711",
"o  c #320F12",
"O  c #3A0E13",
"+  c #360C1C",
"@  c #3A0F1D",
"#  c #361115",
"$  c #3B1215",
"%  c #3D141B",
"&  c #371323",
"*  c #3C1124",
"=  c #3A1920",
"-  c #450C05",
";  c #4C0F09",
":  c #451406",
">  c #4B1303",
",  c #4D1A00",
"<  c #45130B",
"1  c #4C140D",
"2  c #461A0D",
"3  c #4D180D",
"4  c #521405",
"5  c #5C1303",
"6  c #541903",
"7  c #5C1B05",
"8  c #54140C",
"9  c #5A130C",
"0  c #541A0B",
"q  c #5B1B0C",
"w  c #470E13",
"e  c #490F13",
"r  c #470F19",
"t  c #480E1C",
"y  c #530E1A",
"u  c #431214",
"i  c #4C1413",
"p  c #4D1A12",
"a  c #44141C",
"s  c #4F1718",
"d  c #531513",
"f  c #5B1713",
"g  c #531A12",
"h  c #5B1C12",
"j  c #531F19",
"k  c #601107",
"l  c #641C04",
"z  c #6A1E06",
"x  c #611508",
"c  c #631D0D",
"v  c #6D1C0A",
"b  c #701B05",
"n  c #7A1E03",
"m  c #721F0A",
"M  c #631B13",
"N  c #5C2107",
"B  c #5D220E",
"V  c #492319",
"C  c #5D2313",
"Z  c #57241B",
"A  c #642206",
"S  c #6C2105",
"D  c #64220B",
"F  c #6D230C",
"G  c #65280E",
"H  c #6C280C",
"J  c #752304",
"K  c #7C2304",
"L  c #742906",
"P  c #7C2B04",
"I  c #74230B",
"U  c #7E240A",
"Y  c #712A0E",
"T  c #7C2B0B",
"R  c #7F3406",
"E  c #7D330D",
"W  c #632512",
"Q  c #6A2211",
"!  c #63271B",
"~  c #662818",
"^  c #752B14",
"/  c #7C2D12",
"(  c #71221A",
")  c #732C19",
"_  c #7F2F18",
"`  c #733012",
"'  c #7C3213",
"]  c #76351E",
"[  c #7B331B",
"{  c #541A20",
"}  c #722620",
"|  c #6E3621",
" . c #811F03",
".. c #842504",
"X. c #8B2603",
"o. c #842A03",
"O. c #8C2A04",
"+. c #822509",
"@. c #832C0C",
"#. c #8B2B0A",
"$. c #922602",
"%. c #932C04",
"&. c #922D0C",
"*. c #853206",
"=. c #8C3305",
"-. c #8C3B05",
";. c #84320E",
":. c #8B330C",
">. c #8D3C0C",
",. c #943102",
"<. c #9B3302",
"1. c #943A02",
"2. c #9E3B04",
"3. c #913208",
"4. c #94300E",
"5. c #93360D",
"6. c #943C0B",
"7. c #9B3A0A",
"8. c #9A3E09",
"9. c #832D14",
"0. c #8A2E11",
"q. c #8A2E14",
"w. c #8E2F15",
"e. c #832E1A",
"r. c #8B2F19",
"t. c #932E10",
"y. c #942F12",
"u. c #813412",
"i. c #843413",
"p. c #8A3410",
"a. c #8D3412",
"s. c #8A3516",
"d. c #843319",
"f. c #80321D",
"g. c #88311F",
"h. c #903112",
"j. c #923416",
"k. c #993014",
"l. c #983514",
"z. c #933D13",
"x. c #A03003",
"c. c #A13A04",
"v. c #AB3903",
"b. c #A13A0C",
"n. c #9D4103",
"m. c #914809",
"M. c #A24304",
"N. c #AA4602",
"B. c #A54F03",
"V. c #A74905",
"C. c #AA4802",
"Z. c #A3460D",
"A. c #AB430B",
"S. c #AA470D",
"D. c #AA490C",
"F. c #B14101",
"G. c #B14901",
"H. c #B14807",
"J. c #B15105",
"K. c #AF4211",
"L. c #A0411A",
"P. c #B64A11",
/* pixels */
"| _ _ ^ ` f.f.[ G j j ! E [ [ [ ' ' [ [ ] ' ` ` W V G G ' [ ' ' ",
"i.4.4.&.%.h.h.w.I 0 0 S #.t.t.k.&.,.&.&.r.3.,.,.v i K K =.#.y.y.",
"i.4.4.&.%.h.h.w.I 0 0 S #.t.t.k.&.,.&.&.r.3.,.,.m i K K =.#.y.y.",
"C A A L o.P P K S 8 8 v @.I I D W F :.:.@.o.K K D i K K L T L L ",
"= O O 1 q D D l 7 < < 4 q 1 1 . O e M M D x k k 0 a 7 7 7 C 4 4 ",
"Z h h M l 7 7 > < % % p q 0 0 1 g q N N B W 0 0 $ & O O c i 9 9 ",
"m.B.B.B.J.*.*.1 w c c 1.S.) ) } L.H.G.G.N.V.*.*.d i i i >.W T T ",
"m.B.B.B.J.*.*.1 w c c 1.S.) ) } L.H.G.G.N.V.*.*.d i i i >.W T T ",
"s.l.l.j.4.a.a.Y L ,.,.v.x.Q Q q *.3.#.#.+.&.:.:.u.8.:.:.O.y ( ( ",
"u.#.#.o.;.@.@.P #.#.#.#.5.D D 6 K =.P P P ..#.#.%.$.&.&.X.d z z ",
"' :.:.#.O.&.&.&.#.o.o.P o.M M f P O.#.#.#.O.0.0.+.o.;.;.+.d b b ",
"[ &.&.4.#.O.O.%.#.@.@.o.o.c c f U &.&.&.h.#.....%.3.%.%.T p I I ",
"[ &.&.4.#.O.O.%.#.@.@.o.o.c c f U &.&.&.h.@.....%.3.%.%.T p I I ",
"/ X.#...S h h c +.+.+.K #.q q 0 J X.O.O.T D C C ^ +.O.O.@.8 c c ",
"! c c 3 < u u < l S S l z f f f z l B B ; r a a 3 l l l l 1 d d ",
"p 4 4 2 . < < 3 0 4 4 3 u $ $ $ u $ % % u a % % - g i i 4 < % % ",
"Y 7.7.Z.~ F F M.N.G.G.A.S u u @ q n.N.N.A.F H H M.C.M.M.M.o.5 5 ",
"Y 7.7.Z.~ F F M.N.G.G.A.S u u @ q n.N.N.A.F H H M.N.M.M.M.o.5 5 ",
"` <.<.c.~ B B =.2.7.7.b.7.H H 0 S ,.c.c.c.D N N -.8.7.7.7.;.S S ",
"] @.@.K 8 q q J P P P =.b.7.7.$.#.+.T T n f 8 8 K o.o.o.*.@.#.#.",
"' +.+.n 9 x x J I K K +.9.c.c.c.o...I I ..0 h h +...O.O.#.+.$.$.",
"' X.+.n 9 x x J I K K +.9.c.c.c.o...I I ..0 h h +...O.O.#.+.$.$.",
"I +.+.I 6 7 7  .T P P J Y *.*.O.&.@.....O.x 5 k P o.....9.q.X.X.",
"d.O.O...h 0 0 K #.&.&.K F U U #.t.@.=.=.K h l l +.#.#.#.J l o.o.",
"W J J K 9 d d D A 8 8 t * q q D z z K K S p 4 4 Q ( 9 9 a a D D ",
"p 4 4 3 < e e i p # o # o : : , 6 0 y y 8 < > > 4 i     O % - - ",
"p 4 4 3 < e e i p o o # o : : , 6 0 y y 8 < > > 4 i     O % - - ",
"] q q # + f f R R h h T :.-.-.1.;.g * * X C -.-.P h E E -.-.-.-.",
"z.o.o.0 q =.=.C.1.q q 0.K.S.S.S.7.l 0 0 S 6.D.D.a.q 6.6.N.F.P.P.",
"@.O.O.L 1.c.c.#.m 2 2 S ..@.@.q.#.P o.o.n.2.X.X.l i L L O.O.&.&.",
"| F F ^ e.9.9.9.I s s F ;.;.;.E @.p.;.;.@.g.9.9.D { F F R d.q.q.",
"| F F ^ e.9.9.9.I s s F ;.;.;.E @.p.;.;.@.g.9.9.D { F F R d.q.q."
};
