/* XPM */
static char *_0e5e202257941898e0f1526c1ad3be13o7evTNHLISRVOVn[] = {
/* columns rows colors chars-per-pixel */
"256 256 256 2 ",
"   c #373A34",
".  c #3C443C",
"X  c #45463D",
"o  c #51483E",
"O  c #3E4A41",
"+  c #474C43",
"@  c #4B554A",
"#  c #4A554A",
"$  c #535B4D",
"%  c #5B5C4D",
"&  c #555548",
"*  c #4D5D51",
"=  c #535E51",
"-  c #5B5D52",
";  c #534E43",
":  c #635C4C",
">  c #635D53",
",  c #546354",
"<  c #5B6454",
"1  c #556A5B",
"2  c #5C6C5C",
"3  c #596658",
"4  c #5D705F",
"5  c #516153",
"6  c #66614F",
"7  c #636453",
"8  c #636C5B",
"9  c #6B6D5B",
"0  c #686756",
"q  c #736D5B",
"w  c #756A56",
"e  c #64715E",
"r  c #6C725E",
"t  c #73735D",
"y  c #7B735D",
"u  c #7D785F",
"i  c #5D7463",
"p  c #5E7867",
"a  c #5C6F61",
"s  c #686D61",
"d  c #746D63",
"f  c #637563",
"g  c #6B7463",
"h  c #637966",
"j  c #6B7A66",
"k  c #647C6A",
"l  c #6B7E6A",
"z  c #6B7669",
"x  c #737563",
"c  c #747B65",
"v  c #7B7C64",
"b  c #737D6A",
"n  c #7B7C6B",
"m  c #797566",
"M  c #7A7E71",
"N  c #6C7E71",
"B  c #463C35",
"V  c #83765D",
"C  c #806F57",
"Z  c #837C64",
"A  c #837C6B",
"S  c #887C65",
"D  c #877E70",
"F  c #6C816D",
"G  c #66806D",
"H  c #74836C",
"J  c #7B856C",
"K  c #7D886F",
"L  c #7C8067",
"P  c #6D8471",
"I  c #6D8876",
"U  c #748572",
"Y  c #7B8572",
"T  c #758974",
"R  c #7C8A73",
"E  c #7C8D7A",
"W  c #768B79",
"Q  c #7D917D",
"!  c #7A917B",
"~  c #83846C",
"^  c #8B846B",
"/  c #83896E",
"(  c #8B8A6E",
")  c #898166",
"_  c #92866A",
"`  c #948B6D",
"'  c #9A8C6D",
"]  c #938366",
"[  c #838473",
"{  c #8B8473",
"}  c #838C73",
"|  c #8B8D72",
" . c #838D7A",
".. c #8B8C7B",
"X. c #898679",
"o. c #938D73",
"O. c #938C7B",
"+. c #988B76",
"@. c #8C9175",
"#. c #84927C",
"$. c #8B937C",
"%. c #879277",
"&. c #939374",
"*. c #9B9474",
"=. c #9D9877",
"-. c #93957B",
";. c #9B947B",
":. c #95997D",
">. c #9C9A7B",
",. c #9C906F",
"<. c #A39574",
"1. c #A49976",
"2. c #AB9B76",
"3. c #A49C7B",
"4. c #AA9E7A",
"5. c #A39579",
"6. c #B19E78",
"7. c #A2906E",
"8. c #ACA17D",
"9. c #A5A07E",
"0. c #B3A37D",
"q. c #BAA57D",
"w. c #BDA87F",
"e. c #9FA07F",
"r. c #C1A97F",
"t. c #7D9482",
"y. c #859482",
"u. c #8B9582",
"i. c #8C9984",
"p. c #899B88",
"a. c #939483",
"s. c #9B9483",
"d. c #949B84",
"f. c #9B9C83",
"g. c #949D8A",
"h. c #9B9D8A",
"j. c #9A9689",
"k. c #938F82",
"l. c #A39D83",
"z. c #A39C8B",
"x. c #A89A86",
"c. c #A99E91",
"v. c #9DA186",
"b. c #95A18C",
"n. c #9CA28C",
"m. c #99A48A",
"M. c #9CA492",
"N. c #99A894",
"B. c #8EA491",
"V. c #A4A284",
"C. c #ACA384",
"Z. c #A3A48B",
"A. c #ABA58B",
"S. c #ACA98C",
"D. c #A6A98C",
"F. c #B3A683",
"G. c #B5A985",
"H. c #BBAA83",
"J. c #B2A58B",
"K. c #B4AB8B",
"L. c #BAAD8B",
"P. c #B9A782",
"I. c #BDB18D",
"U. c #B5B08F",
"Y. c #A3A592",
"T. c #ABA593",
"R. c #A4AA95",
"E. c #ACAB94",
"W. c #A5AC99",
"Q. c #ABAD9A",
"!. c #AAA798",
"~. c #B3AD93",
"^. c #BAAD93",
"/. c #B3AD9B",
"(. c #B7A996",
"). c #ADB19C",
"_. c #A8B299",
"`. c #B5B195",
"'. c #BCB294",
"]. c #B4B39C",
"[. c #BBB49C",
"{. c #BBB99D",
"}. c #ABB6A2",
"|. c #B4B5A2",
" X c #BBB6A2",
".X c #BCBAA4",
"XX c #BDBCA9",
"oX c #B5BAA5",
"OX c #B6B0A1",
"+X c #9EB5A3",
"@X c #C2AD84",
"#X c #C3B38D",
"$X c #C8B48A",
"%X c #C2B593",
"&X c #C5B995",
"*X c #CBBB95",
"=X c #C2B59B",
"-X c #C4BA9C",
";X c #CABD9C",
":X c #C9B696",
">X c #CFBB95",
",X c #C3BCA4",
"<X c #CBBDA3",
"1X c #C3BEAA",
"2X c #C7B9A6",
"3X c #D0BEA8",
"4X c #BBC2AC",
"5X c #BCC8B4",
"6X c #CDC19D",
"7X c #D2C39D",
"8X c #CDC1A4",
"9X c #C4C2AC",
"0X c #CCC3AC",
"qX c #C7C4A7",
"wX c #D3C4A4",
"eX c #D3C5AB",
"rX c #D5C9AC",
"tX c #DBCBAC",
"yX c #D8C9A6",
"uX c #DDD1AD",
"iX c #CBC5B2",
"pX c #CDCAB4",
"aX c #C7C8B5",
"sX c #D4CAB3",
"dX c #DBCCB3",
"fX c #D4CDBA",
"gX c #D7CAB5",
"hX c #DDD2B3",
"jX c #DCD2BC",
"kX c #D6D2BC",
"lX c #C9D1BA",
"zX c #E1CEB4",
"xX c #E3D3B4",
"cX c #E3D4BB",
"vX c #EAD6BB",
"bX c #EBDBBC",
"nX c #E5DAB9",
"mX c #E8D6B4",
"MX c #EDE1BE",
"NX c #DAD6C4",
"BX c #D1D6C5",
"VX c #E3D6C2",
"CX c #EBDBC3",
"ZX c #E6DBC6",
"AX c #F2DEC4",
"SX c #E4DED1",
"DX c #ECE3C7",
"FX c #F3E3C4",
"GX c #F8E6CB",
"HX c #EAE5D5",
"JX c #FAEBD3",
"KX c #FEF6D8",
"LX c #F8F1CD",
"PX c #FCF8E5",
"IX c #F6F4ED",
"UX c #DEE4CD",
/* pixels */
"8.=.3.c o.l 3 ] ~ O.l.X.X.Q.T.|.Q. XaX}.| 8XuXrX8XC.3.J D.W >.#.W P.F.T T y.'.nX2X;.q m y A :.y.Z.oXsXxXeX=Xm.c U H } l @Xf 8 | l H U H p 3.k U S.K H k R 3.k *.R @.F R k X.^ =.| f l.E V.J H F } 4.*.B.>.: o Z =.@.~ T H 4.=.4.%XlXH 3.4.3.8.0./ ^ 8 & , 8 F / =.8.D.l &.J g 0 7 %.d.i.F H h S.E.3.$.o.HXHX'., P.f.[ ;X'.G.l l l K H 8.=.{ = @ p H } G H / U $.>.= 4.| f >.wXrX X{ .XzX<X%Xf.=.| Z 4.( ~ ^ l.'.y 6 0 ) k h } p H t % 9 { b c c I >.f.[.`.u.H H H K.G @.G R E F J H R f , U '.&.h G L g 0 . H ~ 2 J l &.p H F 8.",
"H 3.H 3.@.F Z . : 0 O.d.X.E.[.W.N.|.HXE pXrX8XwXrXG.<.k v.V.} } J c 6.8 -.'.;XA.O.;.^.^ 6 X H f.xX9XeX{.h.^.wX~ c E i h *.k ! U #.c L.=.g w.P.F F.F R h =.3.F | =.&.k @. .[ t 8.2.;X .u.l } p H =.*.8.=.c *.1.3.J j j @ i v g 0.4.S V =.@.4.1.4.4.&.c g ^ &.@Xe &.0.3.:.H =.J 1 3.G 3.} 3.%.h K } *.%XC.1XUXW J 4.>.$.G.yXd./ =.4.p U 0.3 e H G F | k | =.k l b.A.3 k | H U 7XT.dXX.0X|.wX].|.V.f a h R =.r S ;.x ; 7 H K F * + . 2 h f q A.d.D.K.C.&X;XtX].T H r E.B.p P.&.@.c 8 8 2 = 7 z j J @.( =.=.w + l k J G | / l Z.R } ",
"v *.&.j } H @.h @.H j g } o.$.g.R.i.XXi.dX8XwXtXrXI.8.8.H F #.W 7 z & : 4.wX,X0X+.x.*.0.: . z n.xXcXeX.Xg./.&X`.| ) f.| L K f.} b y.$.F =.` 0.| *.g c >.R -.| 8.} y.=.0 @.=.8.@.%Xf.W V.i.4.I.n 1 x <.H | *.( R P W q.$ 0 K &.&.0.: Z e t 0.8.3.0.4.0.3 ] J ^ H l J G.&.h H 2 f $.} k W >.H ~ P.&./ T R.!.XXE 3 / #.H.K.yXA.2 f } I.l v 4 8 R } F k k H 3.w 9 2 ( H H J k C.6X9X0XT.!.XXNXbXW.V.8 Z k H c 2 % - v l 5 / =.&.e f 8 l &.^ s.oXpXfXtX`.'.S.,XQ.~.=.l #.A.:.0.h E Z.7 < X 7 9 n >.E 4.0.8.k < @ ( =.( &.} R 3.t.| K ",
"E e < e h y.g.H / J | g } | @ V.K.{.1X-XM.,X&X&X;X4.8.4.=.f.l S.8 l 2 w _ K.dXGX(.hX$XK.y ` g.&XR.9XsXMXY.dX,XFX[ : &.| #.G 9.E b.b.U E g U =.F.] ) 6 w 4.0.3.3./ R y.B.v.} 8.4.'.K.V.f.W  .C.E.W y.| K h K ' H T U >.G.G.C.E 4.H 2 4 < v ~ J &.@.7.Z ] t e 1 V.R | &.3 l E k z =.J H &.p l 1.0.=.H f.R.s.x p F =.V.0.#.} Y $ @ 3 4.= H 6 ' &.3.| 3.G h 3.3.h t k } k 1.H =.E.wX,X;XoXBXSXfX).a.r @.=.g 2 v = n ,.} } } 4.A.1 l J k @.:.].a.l.6XK.d.i.~.).0X..a.>.*.K.L.2.>.g | P $.s q n K -.8.k *.F H f :.J p D.J &.=.d.W.B.p.",
"k % * J k K H F H k U i H.G c -.'.{.nXCXM.xXwX%X3.*.0.G./  .f.%.U b =./ ;.J././.sXA.F H c 2.yX8XnXdXx.cXO.eXzXcX(.Z R | ~ 7.-.V.F.`.t.| / / ; ~ 1.t 0 / K | $.G 3 h R.5X#.&.8.1.I.f.V.C.#.T W  . .f.A.i.j 8 | L 7.&.@XL.%X3.P.} R H p h 8 0 ^ R -.1.k y v S 1.T F 8.3.0.F -.<.v E 3.<.=.w.k h k ( k g.M.M r 3 Y b G.:.D.*XC.c g # 2 b h e ` 1.=.i H k @.8.=.h } @.8.H k W ~.^.).iXh.pXNXVXGX0XE.$ F b T %X2 f b @.l k } 8.F.y *.d.J C.E.Q.X.-.yXwXwXwXR.<XMX'.Y ;.H H l 0 <.q.$XH.b b $.d.V.S.8.-.@.R k h <.F %.k } K &.$XyX%.y.",
"H v } 4.h F F K l &.U R K q.=.| &X].0X9XR.E.d.d.Z.4.8.8.@.| -.$.l | G...x.2X0XW.).-.' 4.| ) f.8X0XsX,XiXjXrX^.-X(.8 J L $ v / H.8.l j k f p } 1 h k 3./ 3.q.v.k _ H =.H H 8.f G.L.#.%.E #.Y #.i.E y.d.#.@ $ F U % 8.L.&XZ.P h g j F l k h l K } @.| $./ D.H H W.2 3.H G.d.F.^ v i.K K ~ 4 &./ H 9 u.}...+.r + | d.T | :XG.~ 1 H f h f.H l F 3.| -.8.H H =.3.j / *.k c l , G.%X[.jXtX1XY.[.FXkXQ.- { { i.$.&.H b J F J =.*.P.l.{.O.[ ..M.Q.j.-X<X;X`.[.).!.m X.[ $.E A.J 8.8.3.C.$.i.v.%Xd.G.8.4.1.R G | ( h L } K R l } ( @X4.k ",
"8.| 3.8.R l H j H | &.$XJ q.P.*X;X9X0Xz...C.Y j ~.E.d.} ( 0.V.d.g.i.a.o.A J.g.=.-.T n ` &.] _ ,X-XnXjXiXsXW.].l.A.>.h x <.h q / 4.T 3.$.>.R l c H h p =.K h l b @ c L.@.l k | E %X1.l W N.#.a.{.D.#.#.i.Y 8.U ` F H.G.&XE.7 ^ 4.h &.h / h k &.=.< h J ~ Z , f } % 0 | H.U F.-.} J g ( *.i h 1.Z c g.'.f.v | j h l P K H =.wXp.B._.t.H =.H =.h &./ j =.1 &.j t F &.k 5 8 c y.yXrXsX0XQ.XXvXFXFXx.A 2XdXJX}.l 8 H l | 4.4.=.%.7XxXW.R.l.g.Q.M.m 6 y f.J Y a.u.j.I.#.Z.d.v.@.1.3.V.| F.y.V.#Xq.4.@Xw.( k j h K f l h l &.W < =.4.w.",
"3.J 8 } K l / F F H ` 0.H ` 8.L.<X=X^.n rXxX .d.U } H *.@.H k d..X.X,X^.'.;.^.| $.=.q @.j _ <.L.F.yXxXQ.Y.E.g./.}.*.p 2 *.E = 7 *.3.F ! U p H H i b } 1.v.k / h g j @.w 9 ) / #.H 7 t 2 [ z W d.E.i.E.g.$.S.*.| l | Z n z e c &.F 9.F Z * f H t 3 g H , % w V b 3.} e 3.9.H W } h H <.4.H J z o.b $. .;X1 =./ | J =.&.2.4.3.'.uXB.v / ~ v < o.=.@.h 1.&.=. .D.h F ' 8 } $.#.M.9X9X0XCXnXJXGXFXFXjXO.yXjX/.L = f R l k *.J F $.<X].].{.tXeXM.7 s A $.V.:.A.i.E E d.v.].M.W 2.0.&XV.d./ } C.G.*.yXT d.^ ` * , F H l | ! tXn.K.9.w.",
"} J / H / 3.4.| h k l F p c =.%X^.nX;.rXrX&XL.c 1 / y.k k H l P N./.oX[.tXZ ^.7 t v } 4.G @X~ t / c l ~.{.[. XyXg.T E #.I $.A.Y h k J ~ } J Q g 7 =.6.=.F l G K H 8 2 $ = v 3 2 k J $.l | Z.;X6X%XpXhXE.u.&.v.y.S.h l y.R.N.J P R b.H *.Z } p.L -.*.<./ y : ` i @.l = F @.k K $XF } / c H i 9.=.V.y.E.yX>.r | @.1 , f / 2.Z w -.`.e $ + 9 w 0./ =.h H h *.T [.h k H ,.j | Y R.9XjXcXiXFXDXKX2XDX2X+.;.;Xx ^ k ~ =.>.#.H &.p p {..XQ.4XVX].g.V.%XA.u.Z.u.`.#.E i.E =X,XdXv.@.} c Z R h / -.%X( ;Xg.f.g } -.` *.b J r z 4Xy.B.v.<.",
"4.F k | @.4.=.| h H =.% 0 R l.J.^.E.X.6X%X'.W y v q.f.d.^ i T 3.#.|.R.~.Q.$.- & < v | J H q.3 @.5 H k g %XFXjXXXh F W E g u._.$ f } c J @.} l 0 <.1.H I &.l h } =., l 3 V <.=.U H K J z l %X&X;X6XjXQ.).,X~.B.7Xh $.W u.A.i J W R y y 8 2 J 1 &.J 4.8.=.) 3.< = H =.G E l l 1.} 3.3.2 f j 8 C.3.Z 3.'.M.9 =.H -.P + 2 2.6.8.H K *.-.f + v , 3 @./ } h H j h 3 4 ~ k $.4.| -XW.vXzXiXFXvXGXJXJXGX[.l.;.5.Y.a.Y.L.G.@.#.p.H h `.oX9XpXHXBXu.V.&XZ.~.M.s. .X.f.v.J.^.cXKXHXb.m.T P.~ :.H 2 } #XP N.A.g.i.~ H v t h J F f.`.y.c o.l ",
"c t c j @.3.=.l | K * < j y.u.A.;X&X%X;X:.$.F 4 = ) , ~ d.;.H.H.%XZ.R.i.E.+.J 5 3 j f j H H H *.h i H =.4.6XxXR.! _.d...} 8 A.b.N.F <.b =.j &.<.2.1.} } T K F e r % c j l | 1.&XR / K F.A.l.'.;X;XdX,X[.Q.v.v.uX;XE.m.g.~.h d.E ;X@.&.*.| | g + + ^ &.=.J e / c *.h } l F J @.2.0.=.c 2.3 r : m w Y u.`.8 F J :.d.h H 2 &.| =.h =.! K 3.8 ~ 8 J R P 4.c 8 0 & i } -.3.-.'.[.jXcXaX.X0X1X/.nXKXKXcX2X8X0X X<X X X%X7.y < 3.K v.kXPXkXkX/.i.&.S.'.`.E.O.(.8 J.[ ~.tXJX=X;.' $.b 0 0 3.N.:.`.yX-XkXE.E.u...-.R } } F h i K.W / =.1.",
"0.$ :.2 J =.0.H %X5.8 z +.b.A.G.l.-.w 4.&Xp./ =.c 0 < 7 c G C.#XA.^.yXv.i.n g 8 a , t i 8 l | *.7 *.G.P.*.K.Z.v.>.F | :.l 0 c N.R #.@.H R p &.<.0.4.*.i h =.l i %.j 3.*.3.H / J } R @.V. .'.Z.6XrXsX(.Q.W.y.l.nXI.7XC.[.n.f.h b.E.k J ( 8 f $     ~ *.J =.W $.p.T h R E K @.E 1.E } ' x.:.n % ; m 1 Y A 3 @.< x.~.#X#.} l &.h / J G &./ 0 : e k h h @.f 4 l v M.I.m.L.A.wX0XkX0X0XeXz.xX-X.X1XeXcXiXh. XjXNXsX=X#.| } . b 3.f.jXg.h.R.W.;X&XJ.l.&Xv w z +.C.5.wXDXGX(.q 0 E #.( d.'.=.*.8.@XK ].n.m.'.g...( H @.:.C.:.S K H &.=.",
"V V &.k h l | #.{ z x < 3 Y R =.0.$.&.:.R.b./ &.} y 3.U l.<.-.^.=X~.fXn.$.-XJ.;X4.3.E 8.h &.l } 4.y V q P.S.i.$.k c ~ } h * . ' H.C.T } :.5.U 6.<.8.&.&.} J J g e } / l h &.0.z i k &.J 9 a.M.rX;X~.&XE.>.%X'.d.4.*.uXyXA.$.T E K t g *.i.c 8 _ J $Xp l k H A.B.p.D.H.V.A.H f.*XZ.l g % n Z * H M.@.` ~ D.g., i.A.v.&.h H h } H F %.g =.y :.F G -.&.F t g @.H U g.Q.i.tX{ /./.k.|.]..XxX,X)..XvXAXdX,XVXfXAXGX1Xl.H } 8 F l h R Y ~.~.f.V.F A.| 4 F k 3.9 8 $.CXGXGX-X1.7.j T {.+X= H.0.0.Z.H H k Z.K.&.t.i.K.h l } #.*.&.z l 0.",
"3.K.L.J Y E j 9 9 d.8 = $ j h &.c 3.l ` $.b.y.J 0 w w Z 3.|  .Z.tX0X8XR.M.Q.E.g.D.g.;.#.H k J o.@X: V <.*XS.C.=.p , F l 3 0 0 h h } =.$.y.:.+ g K / | | K k E 2 v p =./ 3.} } L J l | ;.M.,X]. .m f.#.n ^ V.'.G.G.yX-XyX&.f.V.:.V.S.uXh.f.%Xj c g C.:.F P k h 8.@.Y 8.W s $ b d.A.| W - s + 3 Z.R.J g x m 0 $.j / i @.3.4.h H K &.&.h =.J | p } | H R | *.c } N.HXNXjX1XcXdXXXz..X X9XrXxX X- j.4XAXVXZX].rXGX0Xg.H @.F R k =.u.Y -X(.R.| g H / 1 =.H -.h x <XCXxXCXx ` 6.l W y.j 1 *.4.P.F.` V G U =.&.&Xd.T =.2. .d.E 0.=.P / ",
"P.I.*Xa.d.$.v.0 0 c =.@ =.) S F / 3.( ( w.( B.oXe c S 1.V.d.y.n.wX .- c ^.0XQ.X.g.d.#X} 8.@.R } H y.#.C.L.*Xd./ y } ) 7 i ( H | 3.g <.i.$ ~ Z 3 &.*X=.0.F J / i.H =.Z 9 H H R @.F -.$.R.zXd.H.'.X.$.X..X8X{.u.C.'.8X[.'.l.:.n.y.L.K.qXhX-XsXn.#.E S.V.u.u.} 2 H U T W U 8 ; % l | | l t X 3 l &.2.0.| -._ 7 K.f / k H H ~ E &.} } H F @.=.=.R &.} h l =.@.0.) d.NXfXfXfXcX XQ.s.Q.0X<X.X-.A > aXIXsXKXnXzXFX<XdX~.u.T k F / U W.,X..(.s.Y.(.|.h #.d.l W l g.T.T.X...X ; ' | T Z i 9 S 1.8.4.@.3 H h K.C.`.3.} l &.i.i.>.T d.g.=.",
"Z.L.-X%Xf.y.p $ V * v 1 &.4.J f @.*.^ H } H $.2 ~ =.J ) -.:.Y.~.{. .A ;.Y ~.u.8 K.f.C.3.3.4.H U l &.l.} / | =.| %. .} t j k e 8 % 9 g %.S V =.2 B.4.&.3.G R &.1.3.l c f.2 } J H l  .J.E.Y.*.0.P.%XA.m wXfX~. .x.V.+.K..X0Xg.s.}.).:.mXnXD.,XbX.Xd.A.D.S.Z.R l } L.f.E - y q [ #.l ^ v g g l 3.| >.K.P.3.} 0 } n.} } j l , b } 2 k F R <.@.l h H -.} 0.k P.Z H P W.iXbXbXrXeX1Xh.+.z.|.<X|.s > 1X2X1XzXGXxXbX=XCX8X#.y.H *.H p | [ n >  XAXCXqX@.].wX|.E K.J A /.,Xs @ n J 2 )   < 8 3.w.P.G / @ y ~ $.A.%X6X>.:.P  .#.K.u.V.F.F.",
"L.C.$Xf.| j @.* f =.l l h L.@.-. .y.V.} j } w.X . *.n = g.n.).Y.aXJX[...C.$.S.g.:.>.( 6.*.} b & | p J J } @.F =.1.f m.&.8.H h 3 y / f *.v v k E .X=.=.} } @.} U F R j G k # d.Q y.Z.-.g.%Xo.3.| >.f.K.#X<XZ.W J Z / ) &.^.rXVXW.fX3.x.pX-Xg.Q.eXW.[.wXS.R.E #.y.l.- f.E.;.} l H :.=.+ @ F H &.U f.wXyX0.4.2.2.+ c H K J l K ~ g G l =.w.3.&.l @.} J &.3.F 2 y H  .9XGXvXdXjXn !.].J. X.X X).9XXX1X<XZ.eX[.x.cXbXeXE.;XR l J } >.h.tXa.fXxXdXdX#.sXsX9XM.J n 1X1X(.3 t z &.V : $ 3 S <.} 3.8.R g r 5 V. .,XyX`.l.Z.`.v. .f.-.'.K.",
"q.w.4.w.J H k f.l i &.P.g x $.Y '.l.f.L.a.$.: + v l i.n E.Y.).Q.0XPX,X$.3.u.Y T 3.P &.K 0 y 8 H W n.d.b b / | l =.W J 8.=.1.&.l T J } R v = g } @.0.4.G.R g.%XP.H k / T | ^ H.u.u.z s.[ H.4.} f.-.E ;Xg.K.d. .#.& v w o.m.K.{.p.u.eX'.pX|.T.).,X].hX,X;X^.wXjX~.} $ h R ' g h F p l 3 9 k u.nXn.n 6XwXA.L.L.0.& v -.| 3.F.I.:.=.K =.l 3.@.@.K v.3.8.&.$.E k J B.M.(.bXFXKXvXiXOX|.Z.j.)..X X.XtXY.l.x Q.x.3XcX0XLXdXE.R.l.} >.$.~.g.Q.dXcXjXbX(..XsXiXj.^ v m ,XKX`.} *.} ` 1.4.i h ( K @.3.j v G k | g l.-.&.=.I. .#.y.d.L.f.P.",
"=.w.8.=.(  . .o.L l $.7Xn m n.[ :.'.v.i.A.    c o.a.a.A ].wXeX}.|.tX3.5.;Xd.n } l } J 1.H >.T g.jXSXpX[.K.e Z 2 $ R 3.3./ 3.K } g h l J 8.=.} q.0.H.&.w.W G.yX1.9.=.R g F 3.L., q ; 9 3.&./ r E P.#XL.6XZ.i.A.-.#.U *.: =.#XA.mX* ) g.K.fXXX{.&X<X'.`.].K.;XjX[.;X;.O H | H h 2.p U ~ { | ~.nXE.h. X8X=XA.0.=.e &.0.L.6X6X8.P.K H E 9.&.%.2 ) h K.@.h =.&.8.$.v.Z.&X'.hX/.O.h.,X2X=XJ.h.x.x.E.s.[ n { dXvXGXHX).iX.Xn.L.U =.-.K g.~.Q.rXaXGXKXl..XiXaX~.Z.= ;.NXfX|.v < C.>.3.=.8.l H H } 0 9 k g c j l %.d.@X&.&.P @.&.H $.@.0.",
"0.4.l w.U d.d.l.Z 0X/.J.L.a.- s { a.x `.E.< m '.{ { {.-X8XW.XX0X.Xa.P #.z m 9 b Y *.} } U o.7 a.NXSXNXbX XZ.=.e . @.*.&.H k E.&.F ,.L =.H F H 0./ &.} | &.l 1.0.q.G.@.$ R 8.=.| $ J y 4.,X;.p Z f [ f.E.h.g.i.$.f H U 0.8.8.` uX*.j J x 7 >.| P y.wX'.wX;XxX%X[.u.x.-.F Y ^.[.@.=.>.*.E.D.[ uXnXJ.8XJ.8X&Xq.| ( 0.<.C.uX*XU k } F H | 0.p 8 + j t.@.W @.&.8. .Y.W.9X~.l.O.J.x.;.X.A.=XT.A A bXjX2XX.j.fX2XA./..XcXn.J S.} G J &.i g.E.W.vX.X| n ,XcXjXnX'.g.N.E.1X2XR.#.3 H 4.| 4.3.l K B.7 & W f.*.| } o.2.*.:.w.h 4.R @.| H 4.",
"2 J $.L.g.f.g.J.[ s.^.^.R.tXA.j.{ /.a.g.[ 7 s + d E.;X;XtXeXR.=X,XK.( -.>.l k Y E -.} 0.>.8 J f.g.|.9XdXvX9Xg.| + e ^ h >.K.E H K | J F T K F i } 8.0.} @.l 0.H.8.^ 2 k e &.K.v % &.I.%XFXA.~ 0 $ } [ ;XE.n.o.$.8.| w.q.} 0.0.q.l G h } b W z P d.g.*Xi.wXwX2XA.&XwX;Xi.[.-XE.yX#.g.x (.|.0XxXnX'.5.m +.<.8.-.1.*./ ' %XC.K =.2 j c g =.v 8 3 } :.J *.8.$.W u.]. X|.|.s.s z.GXzX].E.[ ].j.c.(.sXvX/.c.T.X.l.v f.J.u.U @.1.K.} W g g n.E.;X*Xd.%XY.XX.X8X7X#.T u.Y z.z.uXH U @.R d.l &.k } X.x X.E Q I.Y H U | G.8.| } =.*.4.} l ",
"} W :.f.f.g.A.A......XdXXXdX,X3XiX0X<Xg.Y g.m : m 8XrXrX,X9Xv. .i.:.#.h >.S.W E V.E U T k , 4.e _.8X-X<X.X0X9XwX^ 0 3 H G D.} -.=.} , c V.U | l F g *.k n.~ *.@Xb 3 1 @.e i =.3 #XZ 5.%X'.H._ ~ ] @.P.C.'.Y.wXg.=.H h | ( 8.3.*.b H j [ <.K %.K W -.i.d.Z.+.[.hXGX0XjXaX0Xn.$.} z X.E fX1XAXhX%X%.d.%.2.0.2.' L 8.&.&.3. .{ 8.J e . < J l 8 I E j l p @.H F T i.<XbXdXxXX.iXNXGXHXSXjXpXHXc.1X1XNXdXj.+.8 x 7 v E.-.U G.<.H y.~ 0 % s $.pX$.F.V.wX).M.K.%X<X%X#.{ n eX9Xv.H k #.e G l p H  .C.yX[.E. .A.y.i.h S.J / 3.0.=.} g 8 ",
"J n 9 b n.[.n.J.eXAXNXSXjXl.gXbX0XrXeXQ.9X].=Xx.A.nXhXGXFXGXE.-.W H H R | oX8XK.V.d.X.>.| / 3 3 Y  .g.K.F i.X.{ Z.8.&.f t 8 ..f &./ g z oX .} >.l =.l {.B.h p S 8 t v H * r S F H.+.y L.C.L.w.>.I.;X3.*XW #.E.'.| l %.-.e ~ *.H H f j x *.8.| R H R >.S.].n.yX<Xc.AXcX9X0XT g 9 b 0XxXsXsX2XV.R v ( H =.H 0.6.j %Xg m E R h H ^ , ; c T H *.H b $ * h @.i p L $.<XrXiXGXBXIXaXSXHXNXHXHXjXzXDX!.XXQ.,XM. .8 2 f :.H H ^ 3.U %.* S V 1.>.R.R.@.E V.g.u.Y.*X;X*XK.#XK.A.GXE.l l G , e 3.U L V.s.(.T.Y.n xXW.lXQ }.| >.>.=.*.q.3 3 ",
"K.@.c / d... .~.R.bXjXVXz.dXx.2XeXFXvXZXzX X1X2XeXtX[.0XrXbX*Xh G | H G %.K.8XwXU { P @.| H F f f } S.F | E E y Z *.r.e g 9 $ , H f 2 7 uX%.>.W -.1.k qX} J H j F ` 3 * 7 ~ 4.-.*.I.4.7XrXtXV.K.;X6XtX&X8.T f.oXV.=.H.` *.H F p c S.L.o.L 3.h H W T A.Q.oXdXxXjXZXk.z.1XW.T.X.g ].eXjXXXu.U G.f o.K ( 9.4.8.q.P N.l , Z c H @.8 w . h H R k J J *.l f h E k k i e v.jX0XBXcXsX3X0XaXkXpXGXZXeXjXKX0XjXoX#.& ' %.U K , x , 9 8 8 ` ` / K } H K.E Y x - M.u.8.1.<.C.*X#.Q.oXj j l ( } >XH 8.x O.Z.;.D 9XxX9XpX2 m.].E.`.l -.U l F.",
"f.f.d.} P D.D.|.4XQ.Y..XiXjXX.,XVXDXGXDXE.[.;.;.K.q ~.E.;X{.y.h H / l P E K.G.Y H m J K H %.&.| j &. . .| $X@.w Z <.E 3.#.Z.K.A.h G r 8 b W :.G.3.8./ L -.| k h F 3.G R U v 2.8.H.S @ ..tXrX0XA.*X<X4.I.C.#XK.`.T 1.3.( 3.&.k %.#.E *X3 2 g &.>.v.y.E.{.xX;XM.V.( y. .[.pX`.].$.Q.0X).M...g z s E *X8 : ' _ :.*XtXg.F.v j } P 2 R } R :.k k / = q f >.l H U F 0.=.| 9XjX(.(.0XrXOXfXSXsXdXVXgXJX].fXoXA.8 : 9 p &.{ %.U U U F / } J H l G =.%.f o.< [  .g.V.&.v K.L.3.n.,Xy.T y.g.b R &.J w.s u.O.m jXfXsXPXc.y.;X@.L.-.E >.A.x ",
"A.n.M.M.[.D.R.jXHX,XiXFXGXNXFXiXrX2Xs.X.X.c 5.X.l.9 l.l._ n =.| | =.K T -.f.H.l J 3 j K l &.R H H h =.T 4.w.0.&.>.3.$.$.W d.~.l. .8.5 } n #.#.%XQ V.>.H.V.W K J 0.J k F ! 8 Z *.@X4.y s o.$.;XDXb.E.Z 1.%X<X'.f.A.>.L.S 2.| U #.#.{ #.&.$ + { I.=.h / 8.&.l | 3.g.i.J | cXZ.y.^.M.%Xb.E.S.| } 8 :.@XL.- f H ,XN.u. .=.3.&.k 2.k } H h *.9.} H ` 0 ` / j <.| U F H l V.R.(.^.(.z.s.3XVXzXjX XJXVX9Xy.R.n , f v H 3.3 i.E #.0 1.H &.*.} } h &.} Y X.(...l.'.=.8.3.Z.C.( |.c.n } n.R h H l.2.1.( n E.T.ZXGXAXSX=XL.-.L.%XG.&.U 3.$.",
"0XsXCXiX0X,XeX4XNXaXfXj.eXjXVX..a.9 n Y P.*.A : 9 _ F.K.W H &.h | :.H $.G l } f | v l =./ } #.j H p 6XB.=.j v w.H.3.=.>.i.i.E.7XK.&.v c &.H = + s Z.K.Y #.@.J q.F.&.k H #.p =.@.=.9 n o.g d M ].g.[.&X:.E.<X{.L.y.%Xv.'.S.F H l V.c a.6 2   y 1.Z v J e 1.=./ #.x / C.g g.{.9Xq 9XQ.]. .j J } F -.L &.K.*.W $.f.-.x t y @ / F G K | F H *.@.H p =.-.0.l =.*.3.P U F 2 c ,X1XO.dXZXZXGXAXj.T.JXA.Y k g U 6 * l K V.t.W U U ^ h w.=.3.K R k @.v.Y ;.4.A.'.g.U $.*.*Xf.C.sX,XA c * l | k @.8.R ,./.z.c.sXcXCXfX0XjX;XK.I.H.8.c '.uX",
"bXFXfXsXvXcXcX.X1XJXY.0XgXbX,X;.s w 0 ` 3.X.#X<.7 7 E V...U J l 3 p } U } 0.0 -.4.4.4.4.=.K.-.#.l H }.N.l } 3.P.4.J F U A.A.`.Z.A.4.v 8 h R 3 @ x f.n.o.-.H L 0 <.e v } K *.4.8.x *.m.W t 8 0X].n.d.$.Y.E.{.M.n.V.I.3.&.$X7X&X'.3.^ ;.% @ . 2 w.t q 8.H &.j R , , C.W n.|.eXAX) 3.~ z , * F h 8.@.8.@.D./ | $.u.E P ^ , = #.R / J k @.H ( } j ( l @.G.j =.J 8.3.#XL.6 A ~.J.iXAXZXGXJXAX<X#.a.+ | H h c d.n.#.K V.n.N.E , f R Z :.} j | H H >.-.8 O *.P  .W @X*XV.V.h XXs.j.$.f * *.H 4.| C.Z.{.^.!.DXfXKXD n Q.;XyX&XW y.n.dXbX",
"XXfXVXXXcXNXjXaXAXcX9X.X/.C.E ; 9 c 2 <.* X &.V.J j #.f.$.*.h } e f H h j F.~ | =.8.v G.-.U l @.F %.T F J P 4.| H 3.k d.v.6X .;.5.0 + $ U G r X + n E :.-./ =.f *.k H G H l =.>.) , c i @.>.k k :. .E.E.<XiXn.K.f.3.F.7XS.7XK.L.-.H.Z $ $ G 0.K ^ ; 7.@.&.~ G 3 | Y ( f.'.^.H *.J , m q , , / H 3.k E $.M.:.S.i.~.y.Y ].N.H l l F | N.d.L R | @.k L F } H &.-.d.#.&Xm D.`.u.8Xh.|.AXNXVXg.@ , t H G J % z G.l %.} Z.D.J < h g 3 H J H k h *.c & + < h h &.%.F.4.q.-.>.|.k.M o.S 9 U ( F m $.a.'.aXHXsXJX1X'.,X0X~.E.R.].sXx.sX9X",
"1XdXY.z./.SXcX9XCX9XoXrX8Xu.z c | H W P $.g y T C.y.^ V.%XL.^ H ' f J @.H R ) Z t l -.w 9 b./ F } } K 3.G R H } 8.H @XC.&X%Xn s H.H F t v | q . X $ 8 F.J 9 1 I } k h 4 g &., q 5 c ( } =.l k H 4.H <X].R.#.S.~.s ' 3.*X8.8.l.0.=.o.y ` k 0.:.1.H R ( 3.k 2 = 3 f | h W ;.y 7 :.@.K j c H } l J g @.d.d.M.~.#.v.eXZ.v.oX .< j =.k 3.{.y.W =.k 1.k f | &.p 3.b.f.:.R.$.5.a.Z.T.R.R.2XiXVXVX#.g h U h k , H } &.V.%.8.J f x Z 2 f } H } J | 4.8.+.3.8 | @.H k W A.C.G.A.#.].a.0 $.{ u.y.#.F.f.X.A.DX1XCXqXvXbXZX9XoXQ.,XvXcXeXrXa.",
"[.[.m > z.-X9X0X,XM.8XK.y.n.T y *XW K.b.N.Q H x <.C.C.V.8X~.g.l.*   f R &.4.*.S 8 >.l * 7 $.l l h @X@X4.3.g F J *.*./ >.C.>.f.g 0 + 7 * G } b @ 2 E 0.H.o.% h [ b.Y R =.( &.3.+ Z ' V :._ f.d.%XJ.%X-XuXQ.].g.E.F b { F.4.} P.=.1.q.@.q l c #.uX*.4.0.F F g t < R 0.h H &.] >.$.3.&.R 8 m j H | Q $.b.,XM.|.Z.;XwXT.K.C.c o.#.< E R 3.aX| . ) } c H j k l U oXE.T..XcX!.MXjXfXBX|.|.jXKXAXAXH E K &.( y W d.l =.} q.h f F ` / m._.F H F l W p _ ;Xl.~ T b.G.:.#.C.8.C.u.#X!.x k.m 9 9 8 n A.#.A =XbXaXVXdX,XVX9X!.sXdXvXDXY.Z.o.",
" XXXm % l.(.eX-Xa.U T C.4.E R U C.n.wX=X{.XX-./ c &.F.b.hXtX9X0XsXs.8 = *.} k 8 | %X4.&.g g e j U 8.3.3.4.< ~ @.J | &.0./ k =.G l / l F *.4.2 ` U j b R J 0 ` 2 / 8 P l &.l 8 8 S *.3.&.) b u.&X~.`.E.R.{.eXwXy.Y b E p 4.k l.K.L.Z.G.&.) l p w.H.4.:.&.=.* n + e >.| *.3./ J g R k W #.#.T g.g.#.;X9XDXbXeXE.a.;.-Xd.n 2 T Z + c =.g 7XZ = h F H U E C.l.K.E..X0X!.M (.FX|.NXsX|.[.=XzXvXjXfXf.3.].L ' I.@.J H h 9.R f l t g L H K G e 8 8.0.) 2 #.S.g.pXiXA.W $.f W / 3.X.h.VX2XY.& X X.*XE d.Y U L.yXu.~.h.0XdX2XMXaXrXx.x O.",
"|.sXQ.a.T.[ u.&.| =.m >.%.U } | Z.R.Q..X,XdXY.R.^.<XhX4XkX1XjXpX2XO.z.{ 8.V.d.| O.;X/ | j 8 g T %.4.4.7X@.g F ' H =.| H n.H | f F i.V.V.H.2.V.MXP @.v =.k : # ~ l % + } J ` K } l C.#X` V.y.S.*Xm.E.N.Q.E.].).W.Y Y.W c | k } T ( F H W 3.p l *.P.q.8.y ~ : e + d.5.-.( *.h.8 # #.W A V.W eXBXcX,X].0XbXDXbX-.d.X.b.].N.n = v , c <.=.4.k &.3 h C.f.K. .E.~.tX X^.X.X.Z.j.j.!.BXiX<X!.J.eXJXHXi.1.<.` m W 1 P =.W E -.&.#.h =.J 8.h G f , R 1 8 c &.T L.<XuXf. .J F :.| =.s j.VXvXj.j : Y ~ l.#.l p *.C.U #.i.~.l.s.xXxXxX(.x.X.",
"g.M.).A...- g &.f F c } >.W $.E.-XxXnXxXxXcXpX1X9XGXdXAXz.CXjX1X].{ l.2XyXn..XA.x.^.%XS Z ' 0.V.} w.G.I.] f -.=.F h =.e f p K f h 0.U G q./ 2.#XG.3.q.&.' s.V.>.4.g % 3./ / l k E >.-X#XV.K.i.R.h.b.h.'.E.-XMX,X$.y.sX1 / *.=.g 0 h F R F 3.F j <.*.^ w *.+ 2.^ K.8 9 Y H u.A.U.3.f.T 8 J rXwXiX XbXeXtXxXQ.+.m & n S.n.].x 4 d.k k =.>Xp J / =.G i.E.L.x.;.(.^.s ].eXj.n D j. XgX1Xj.x.SXXXBX%XL , } c E =.k k @.>.8.k +Xb r , F H 4./ 1.p 8 , R } 1.>.K.].I.f.2 #.G K j #.zXxXKXE.H c -.#.$.j w.w.J t 9.K.&X%Xo...[ ~.wXE.,X'.",
"x b n x + 0 g f.Y V L R $.g.R.g.A.)..XvXfXFXvXcXfXGXsXiX1XO.j.oX0X..{ h. X,XE.,X=X^.K.F.F.1.#.:.p 4._ P.H l j 9.8.=.i v H | K F.R F c T <.9 <.K.#X<.w x ].h.t.` 4.| v ` *.&.J b T G.uXx.'.`.O.(.].R.].].E.h.Q.E.$.l.s.E.T.3 T c & l } } h @.j %X| 0.S.+.y C.I.E 5.l.[.;.{.Y.E.} H k F.2 | [ z.1XbXbXrX].'.R.j.Y.[ x  .N.h.>.l | k @.| H F @.L 8.4.1.F.*.(.<XwX0X1X}./.X.[.h.A.0XsXiXm |.dXCXXX8Xi.$ 9 r , P 8 i =.-.T @.qXo./ p J | =.@X*.@X* k i h @.T b.qX1.m.n.y.n.H @.j eX8XzX Xd.3.g.M.=.8.=.4.1.3.A.V.P.-XZ ;.: W.K. .%.| ",
"3 7 ~ c , @ f.~.>.m P.#.f.K.|.sXtXQ.,X].!.cXbXpXcXj.[.k.=X^.<Xz...X.% & J.].z.(.X.6XW C.8.4.-XwXP =./ 1 , *.&.l H p 9.@.K v.0XE F.=.H :.i * ^ L.C.@.*.h } } ] L q.3.*.J H / k R / -.*XA.*XA.Y.g.E.M.R.].E.| +.} W ~.wXA. .C.*.h } | 0.R | R V.} _ x.uX[.-.G.^ V.d.=X2XiXJXGXF =.H j U &.F i >.<X,X9X,Xn.E h.wXa.M T.Z.'.O.) 8 :.v } h } | =.U 3.g @.l F.'.A.M.,XlXT.~.].D.[.mXXXoX}.,XZXJXJXFX*Xc t * 8.K.#.F } 2 &.' o.;.i k g , 4.G &.=.0.k J k =.@.@.W Z.P k #X8 9 + $ * Y.xXJX1X.XoXtXDXH.2.] 0.;X1.( P.K.I.L.K.g.A.f.u. .V.",
"g A ;.qXP <.#.$.tXtX-Xf.].pXjXGXdX X<X|.kXQ.sXsXCXvXrX3XsXT././.cXdXOX3X|.KXVXdXpX<XV.-.I.0.I.=.i = 3 1.2 k h l 3.F P =.8 f.E #.:., @ 8 , 0 $.C.@XJ i c 2 / H q.4.1.4.3.| F H H h w.f #.#.d.S.].n a.i.u.-. ...&.A.|.g.d.x ( H =.W l 4.8.3.p  .E g.O.rXeXx.L.f.S.,XGXfXjXcXfX8Xl 3.*X>.-.p @.G.Y n.Y.h.~.}  ./.X.X.,XE.,X,XA 2 y , K } 2 0 G k h 4 _ H.@.L.-.f.^.E.u.n +.g /..X9X0XdXoX1XeXdXzX#.d.b 2 U u.l | K y.=.g =.$.2 < 7 b / ( v U H l R } @X} R @.3.H h 0.3.:.) / e 8 M jXzXxXHXIXhX&XP.% c [.0.3.'.F.%X5.w p.z F.@.8.H ",
"b._.NXlXHX}.fXQ.[.GXxXeX0XNXAXjXGXCX0XGXVXzX!.(.dXdX2XOX2Xz.VXVXCXcX2XNXFXcXgXeXGXnXwXi.$.} 8.} g + h / H @.R F F K K l.Y - 0 m , j + 1 F A.9 c h F , S y c f / 1.8.8.l H 4.U l @.R 1.@.%.E i.z ~ O.;XS.X.C.F.| f.[.D.7X=.y &.R 8.=.0.#X#Xf. .].g ..*XFX7Xs.].0X9XcXFXKXSXHXvXW 8.3.4.:.h =.;.$ #.S.n.#.E :.E.X.n b 8XNX/.D 0 -.Q =.k K c F @.L.C.) S.f.f | y.v.h.l.& 8 v { <X,XeX|.dXMXrX<X).E '.S.).R.$.U l @.n.R Y j ^ L | 8 J W / } l H T } =.F 1.$XG l f , &.7 H o.0 ^ U c T.x.dXsX0XyX`.;Xx.[ ~.E.~.&X$XK.b m n.:.3.k C.=.",
"W.aXJXHX4XbXY.,XdXrXdX/.ZXjXJXcXLXxX0XcXbX0XO.X.T.dXGXVX<X3XGXCXNXpXKXVXCXvX1XT.j.wX,XM.V.E } $.x 0 G l 3.U -.U U Y Y V.l.9 c $ e :.@ y t Z.s | $.k j w ` ~ 8 } k d.0.q.*.0.} | H h k &.J Y f.K.-.%Xx.2 } Y @.=.A.;X'.V.0.2.L.( l 1.P.*Xy.$.E -X;X].GXGXxXF.f.pXZXGXfXGXVXHXh.l l } l c V.`.a.U V.#.$.$.C.U -.n.-.K.0XZXJXxX-X;.o.H / H  .8 c *X[.4X{.oX-. .C.^.E.R.;.u.[ } ^.|.1X|.nX=XcX0X,XK._.&.i.:.n.H &.*.8.| } } =.%.} R #Xf.V.h 2 , k } 0.w.} @.H *.S A ( F p ~ <.*.F 3 xXXXjXQ.;Xg.K.u.a.A.~.uXdXwX'.l.F.i. .>.| F | d.",
"%XX.n !.cXaXc.Q..XxXrX..c.KXVXZXCXbXcXxXbX Xq A 2XZXFXZXAXcXzXVXjXKXgXKXAXeX!.Y.8 F.d.K.d.y.=.H , h *./ =.;XL.#.A.y.T V.T #.f = / 0.R l < 9 } #.F 1 , . v 8.@.t.p.P.&.8 3.3.*.k K c h R j f.).R.-.$.z [ c 8 =.P V.V.7XK.0.0.7X( &.4.4.G.Y.g.d.T u.Q.GXuX^ s nXSXjXfXz.(.sXM.W F R v ( n.E.v.o.~ g.f.U f.E [.K.k.c 2XCXjXdXhXA.'.#.:.v.Z.y.U j u.f ` %.$.E *X'.N.Z.d.8 _ A.,XQ.1X,X X0XnXzXFX&XH F {.D.1.%X-.@.e %.) + f >.C.=.$.I.K.C.e $ j } } H k 1.R / <.0 V 1.J &./ >.G l H.~.<XyXK.:.V.E d.o.U =.L.tX'.nX+.n #X} >.#.:. .E ",
"| m n jXJXAXY.<X[.^.;XcX2XjXZXJXLXdXbX1X.XXX..q j.dXcXCXGXGXCXJXCXFXjX,XXXwX-X%X_ Q l.d.g.S.-.h &.@.l / f.K.%.&.l 8 -.W V.c % ~ 3 H | L 3 3 %XT p c e , >.C.k K g.l *.l &.1.0.&.H l j w e m.N.Z.;.x.m.~ c ' :.-.).K.L.=.R w.K 3.<.| 3.3.@.;XQ %.g.i.a.Z.].a.ZXiX0XFXJXn n :.J :.v 7 ` tXoX|.Y.n.g.v.y.#.A.A.FXk.Q.hXbXzX,X[.;XZ.f.y.f.`.s b 8 ..~.d.| V.~.C.G.x l.$.m + &XoX.XiX|. X.XzX9XxX .H } U V.h wXu.0 : <.i ( K T V.f.V.>.R E U 3 K H H | } @.h 1.| 5.; c >.h l  .#.#.:.7Xv.#.W U } :.Y 8 H h ' *.8.P.%X&.#.-.} :.I | < ",
"A a.(.sXFXcX;X,X,Xz.|.NXbXpXjXgXdX1XpX1X].{ j.2XcXpXcXiXGXCXVXVXXXBXE.u.Z.i.{.>.:.i.d.V.f.6Xj } =.G./ T {.].E.} | 6 >.` R F : S h K @.K T c ` j #.v 8 , =.W T k l R.`.2 l @.i p } h } ' H 3.H %.X.Y Z 6 8 J  .W nXV.=.8.*.w.=.0 . 7 / ~.0X9XE W @.^ g.xX{.pXdXcXeXJXxXc @ l e S.4 ~ &.uXwX[.,X~.-.E.'.g.y.^.sXQ.8XiX(.sXQ.~.S.W T Y F. .i.6X .$.V.i.V.#.c _ Z '.i.-Xf.f 2 y.Y.|.Q.rXoXQ.dX.XA.P L.8.H &.d.=X: 0 Z F H R U P #.=.H H J l r V.F 0.C.R :.f ` _ K.5.F.3.-.G.i.$.u.-.| #.&.H / P i k < =.U `.L.l.3.+.C.R T k #. .o.8 ",
"].fX9XcX1XeX{ A -XE.[...g 9 ]. XNXFXGXCXfXbXbX(.=XGXcX].|.T.i.rXa.Y -.@.G w.T d.V.E f.$.f.L.' & S &.P.Z.].d.n.y.8 + < H E F | h t.W *X' 2.&.3.U 8.k P =.f / 4.3.h yXE -.2 2 @.H H h =.@.&.U / l W M.+.9 O.i.m.E j.9 O @ G H 0 . * L H i.{.9XR.n.U l.6XA.Y.oX1XvXKXT.J v c # y * K &.4.>.l 0.yXwXeXuX;Xg.Z.g.h.[..XxXyXf.n.f.p.l 3.E } U 0XR.H >.f $.f.E f.A.:.d./.A.T wXH.$.$.|.9X|..Xc.~.sX|.xX;X%XN.#.$.[.{ V Z.l =.} -.c 7 k l *.} i 0 w 8.] Z L.*.@.#.I.DX;X;X3.G.&X[.K.#XW } Z.3./ } F l l 8 e i #XuXMXl.w ;XQ.E.} J } x Z.",
"/.jX].cX,XtXhX;.,X,Xd 0 [ O.rXOXFXpXjXCXCXPXPX9Xl.+.GXeXu.$.=.&.2 v H H G S.V.u.W f.A.L.3.x { x %X%.H.&XR.%XK P.7 @ x R H @.F -.} -Xa.t | J &.&.G } l / | K L.P.$.p h @.H e c &.l p 2.k F 8.K R H $.T.+.v.T | R % < ` e R H : : 8 } E.-X].R.].|.d.FXjXZXXXa.bXDXFX^.-.( b + . 0 v J | } f.*XbXjXGX|.rXE.~.].g.N.~.jXyX%X#.4 R H T } k $.B.T H h H C.#.-.:.E C.uXi.b W.[ ;X$.*.-.1XeX/.E.,XxXmXXXaXVXg.i.t.0Xf &.-.} o.0 H J =.f =.k U : : Z @X] <.' *.L $.<XnX=X%X^.6X;XyX'.A.i.n.[.K 3.J *.H k J } T l L.eX=Xm cXGX,XDXCXtX~.Q.",
"1XcXoX].a.DXDXrXbXm 2XA ,X XgXsXQ.v.].sXVXHXx.^.x.8XeXwXy.G :.K l 3.&.Q U Z.~.K.g.-.$.H O.> d.$.V.d.E S.wXE.3.H 3 8 w z #.$.h ,.( 9 ] 4.@.1 P.@.=.f H } #.G.3.3./ k k H H } ` ~ i 1.*.} } H F p k L.n.h.-.Y R :.8 9 @ x U h l , l D..Xg.d.h.).vXoXbXVXCXz.iX,X[.=Xs.n :.V.i 9 t =.| @._.E.DXcXDXdXnXGXxX-XW.=XY d.8X7XG.3.l g t < F R.u.` 0 3.h =.y c & * i./.'.W y.d.%.F.#XR H %X).dXeXFXdXxXQ..XkXb | -.Y.2 L T j h < < k c =.*.1.} V v y ^ P.V.<.2.1 $.R.d.[.n.L.yXyX<X<X;X,X.X,XK.T $.j e 8 l &.@ | u.Q.cXz.GXCX3XeX1X^.s.aX",
".X<Xh.i.^.rXHXZXZ.x.$.f.b A.M.E.#.| b b 4XaXA a.l.x.`.W &.:.T L.k 0.-.V.#.u.~.*X%Xu.U %X).|.M.f.$.H.d.6XC.bX1.4.G # { b v.$.p i $.x 0 <.=.H H.-.V.W i / %X@X%.F @.j = e H U } } k / *.F k ( i | f.&XwXE.:.l %.d.|.A { Y u.d.S.#.2 ..0XcX.X~.m.s.DXFXgXFXD rX;.J.Y. XM.d.3., @ } l F p U / l.yXxXdX0XbXXX2XR.2X .`.A.K.V.>.@.7 B : 3.3.k 8.< n.l } ` _ V C.A.i. .E v.8.R -.f.} =.H F wX,X<XoX9XpX9X].x.g J NXC.l j l / c 8 ' 3 R 8.L.8.G 1.] v ` `.Z + { ].2XZ.<X<X`.&X{.uXeXGXdX.X].^.h.$./ < Z I f.<.%XxXdXiXZXGXGX=X3Xc.1X3Xh.",
"$ 0 P J 8.4.q.{.q.v.b 1.( b H U / R E / x <XZ j } 8 / =.8.~.&XL.0.K.E.n.i.].v.#X$.W K.U ].[.].E  .W ].mXyXbXF.H.>.8.v 6 @ ( H Z ) L.~.R.`.-.L.d.l } J z ^.l.z , / c 8 3 &.h h #.H } | c , =.G U #X^.&Xg.f.W W %X} f.A 4 *.Z.Q.f.C...jXjXGX2XVXjXCXVXKXKX[.1XsX XdX0XN.K.f & + } J k #.j h f.+.[.xXeX,X|.T.a.8 E d.g C.#XK.*XZ.$ ) =.q.G K E l e y ) ] t z f.i.#.*X=.:.C.:.^ E h J h f.-XpX|.|.|.[.N.d.~ x f.1.g ^ 8 g 7 6 3 8 ^ 4.V./ H =.( 1.S H k H u.<X XK.!.XX,X].tXnXLX2XmX.X|.Q.rX=XE.x.G.E E.A yXeXD  XjXVXjXHXIXjX~.A.0 ",
"V <.&.F H &.3.0.R i i b k F b H o.V.).2 + x ` c 2 8 d.K.g.E v.&XuXrXbX[.g.&X=.<.T @.K R n Q.M.d.A.S.hXFXcX XC.Y -.>.v #.e 3 F &.S <.%XrX9XD.d.V.T h &.a._.l.} :.i.f.L.b @.| l o.#.U E h 2 &.#.E i.~.;XA.y.#.g E } V.9 & U D.8Xo.A.A (.3XVX!.m /.ZXfXgXGXGXcXsX2XA nX;X$X4 q H 3.} / K.k F y.y.u.=X<X].A.O. .X.&X].g.Y ) G.F.^ 4.U #.=.K =.g &.} @.2 , 8 /  .f.u.S.:.&.L.7Xd.T l 1.| &.&XvXcXsX1Xd.E t 0 : <.1 *.i N...{ x g ` ( U K.K i #.3 F <.E &.H 3 +.].k.0XjXdXxXDXdXVX.XXX}.9X.X XcXCX9Xg / W A.0XrX2XrXrX[.T.|.iXO.8 % & ",
"y f y ( ( 0 t 8.4.l } k } J :.G C.Q l }.n '.*X^.u.z Y -.h.A.yX;XrXDXsX;XE.[ @X1.o.l l &.&.J 0.k l { KXCXGXsX$.! :.;X5.=.G ) / h =.q.=.G.K.6Xa.E.V.| l.o.w./ # v./ } 9 L c f F W f.| T C.f :. .f.L.A.A.C.l.H q.f =.3.* 6 W ~.^.C.R.3X/.AXjX[.m eXAXJXKXjXxX9XX.c.E.Y.V.&.| k %.[.i.B.E.! H $.D.y.u.v.v.=Xx u.n y.W -.%.y.q v J L #.`.k e @.v @.J 8.b j k 1.H F &.&.3.C.C.*XK.V.u.4.k c v u.CXjXjXi.U 4.8 q ; + t x y.s =.3 g W E d.f.A.#.h &.*.@.V.l H E 9 ].!.,X9X[ A 8XKXxXnX1XhXCXfXvX,XsXXXE.j :.nXGXJX^.{ ;.g A {  .-Xx.} 8 ",
"w &.L h R , L -.L e F H k l S.h Y #.} /.m d l.;XwXg.[.u.d.[.Q.yXxXtXxX;Xf.% 7.8.~ =.K H E >.n.K.-./.VXKXVXVX9Xf. .#.U 3.} $.k <.2.1.3.H >.R d.m ;.2.2.P.>.C.@ g E d.C.k t -.F.L.f.#.u.{ >.b.S.#.K.~ A.=.j / K R &.$.K.F } &X^.K.JXCX2XgXZXZXNXfXCXGX2XdX0XcXQ.x.q ~.3.=.R q.V.p.o.#.p.Z.l =.-.S.~.d.'.b.M | x d.W T G y.l J k @.H l 2 @ : 0 <.4.| , < ~ l l H 0.J v.8  .*X'.A.*X1.H f _ -.GXAXSXcX$.f i : & 4., 9 { i.d.Z.v.f.v.%X+.=.o.2 k } R $.w.f -.% 3XQ.|./.;.(.JX1XxXFXLXCXGXAXNX,X&XM.L.*.V.u.<XR.wX].d.A.f.Y f.A.- 9 y ",
"v &.t J v g H / 0.m -.R U I @.R R $.U S w x A.J.tXtXwX].s..XrXsXA.-.=.T h 3 / &.w.K C.f I.&.L.[.a.zXtX<X,XVXVX|.} '.W u.~ x @.( ` | _ 0.8.G i ^ +.w *.*XK.n n * t ^ =.l &X$.=.Q d.#.y.U D.}.$.s b g e k $.=.^ R &.=.V.W =.a.%XNXcXeXCXKXAXNXHXDXiX,X=X(.wXQ.Y.f.; z ( &.P.k V.Q K p R i.V.&.-.V.u.Z.i.E.Z.7 F.3.W :.l Q I U &.h H ( @ $ + ' 2.1.=.8 2 , Z @.h $.! V.F ) 8.*.K *.U W t 7 P ,XCXPXVX.XL @.y 0 9 c b S.(.m.} V.Z.4XY.S ^ f.4.p F G | @.L u.- z.SXsXdX9XKXpX9X,XbXbXXXXXpXsXxXV.2.K *.V.l.[ Y X...$.f.i.{ 3.>XT g Z ",
"w 1.v c H | } J / l h  .-.@.F G P E K.5.x.l.l.~.xX'.eXn Y.x./.L.c H.@.H K | } 4.3.| V.-.5.o.;X,X|.cXeX[.jX X,X1X.Xk E E & = n / l l 3.*.=.w.h m &.` 8.K.| } #.H F p J @.#Xv %XK.J j  .} $.:.W 8 Y l j W ) 2 H $.q.w.| #.3.K.xXDXGXKXLXKXGXSXGXVX.XeXdX=Xx f.:.$.$.#.H =.} 8 l e F H 4 W G h %.f.D.l.M.D.].K.l.;XW.R.y.&.@.H k H L ( 4 $ 7 w.K 4.&.l e * , / ( o.| k k k *.w.&.h b.3 8 f l -XcXAXfXx.s.5 ) P.k X.y $.d.d.H I.C.V.).'.rXyX&.K k -.T #.D..X].=X9XjXiXc.dX,XrX,X}.0X|..X1XXX,Xa.7XuX0.C.y.} m - u.V.u.V.a.C.| 0.p g ",
"3 R F q.U 3.l.#.} P l =.C.$.V.4.} } J = 8 +.*.3.*X .s.z z = Z L $ @ 6.h H H #X6X2.A.yXA.&X;X0X.X1X0XsXCX9XeX].].].p p F 0 = = W W T *.=.2.| | ~ =.3.L.C.| p #.} k h K g &.F.6X| o.;.I.$.'.u.#.=.v l ,.3 0 ) *.K.I.4.0.1.R 3.3.2XcXT.0XcXAXPXZXsX1XcX8X(.3 / f 1.1.9.l } J H c f | 3.| @.*.l f.f.'.g.5.n [.g.;X%X>.S.S.>.@.k k &./ 0 } *.=.H R R =.h G * 0 1 g j | #.H G } *.h 3.2 8 ~ $ : < s.rXcX,XiX;X*X7Xg.^ { ~.;X;X#XU.w.K c $ | d.k l 0.E./.g.-X).1X1X3XdXsX<X8XFXnXtX0XXXA.z.9X].b.C.:.yX=.%.y.8 d.S.}.d.E #.W l i f / 9 ",
"2 l } @.k t.&.U  .E -.} } f.G.v q f.8 , 0 : *.3.G.E.&.h F y 2.8.l / } i.E :.g.tX[.).1X.XtXtX.X].XXBX[.iXeX.X)..XsXg.#.H Z :.g , #.#.f.l g *.w.1.<.4.d.-.H 3.2 2 @.F H c &. .&XH.l.7 S 3./ k ) V 0 G e h v ` 0 yXL.4.1.w.w.} @.S.KX^.dXKXKXGXCXsXsXxXFXhXY.H *.-.4./ ( H } @.#.2 e 0.H H.| >.V.O.Y J.| g.`.3.;.3.$.m.S.( k J F / H , ~ n =.*.k L h =.k $ R F R / / J L f / -.K H , * x / + - q x.zXVXcXsXeXeXf.].;.-XA.*X;X#.H %.h f } F H <.,.=X,XxXXXnXc.A s.x.sXiXdX1XwXFXfXGXsXT.[.,Xl.P R =.uXT E  .f.m.R.}.|.{ U f } @.8.<.",
"$.H.:.@.| T n $.u.f.E wX$.} V.#Xo.*.3 # 8 O : G.=.Z.}.3.K 0 + j J f.f.R.E d.).Q.^.0XdX<XW.R.|.9XQ.cX.X,XxXjXsXtX<X,X.X'.l.P 1 , 3 g T u.U / / 7.l.%Xf.F R g 8 = 2 k h 3 v l tXnX .U $ 8.%.} e e @.&.k } / x Z f.uX=.q.3.3.H.H.1.rXeXDXKXvXvXdXXXiX X'.:./ 8.;X6XS.K.| 8 g l R -.P >.} U -.#X-.[ Y.M.D.Z.d.&X~.l.n f.k _ } 3.=.} l g ` H } y.f g H J j $ * 3 | H j / i @.=.H.@.k * 7 } W + f { c ^.dXdXcXfXfXGXaXQ.~.'.'.|.$.| F h | R K f K I.bXxXcXcX.X,X Xn E.0X(.mXnX1XVXGXfX2X5.s.K.wX=.0.} b.y.V.d.l.b.Z.].Z.*XE 2 ~ @.H 0.",
"S ' c #.E L.#X#.%XC.L.E K.b C.@X@.*.R r = t B.S.%X=.`.8X4.' , c f -.|  .W v.d.[.Y.{ Z.).Q.E.E.].n.b.).s.,XzXaXwX-.j.wX/.h.#.g 2 / } t.E f.T | _ H.q.f.k G # +.c | l ~ 1 x 3.&.oXwXA.v 8 &./ @.h R G R 3.>.w.3.' / 8.3.8.H *.l $.K./.[.JX9X,X0X/.aXrXZ.c l F $.#.S.&.4./ g 0.R $.,X#XL.&XZ.i.M.g.R.n.{.d.n f.7X| -.z 9 & w 0.i f l =.x J l *.&.e K f @.f | g / H , + , 8.} 3.=.` ' w l #.z l.A.X ^.bXdXGXpXVXjXJX|.^.K S.Q E | F J H } k c % o.8XwXxXAXFXCXdX XQ.9XeX0XcXKXPXbXbXU Y C.Z tXnXK.:.H W  .d.E N.xX~.&X) & . } U / C.",
"@X' y H.U -.A.V.Z.%XI./ } r b $Xp U k / 7 3 {.} G T F }.y.e ^ f >.C.P } #.v.R.g.XXx.l.).<Xd.yX.X{.C.<.n g.~.A.8X8X+.<Xn.D.A.-.x < x b.H d.f s S / | R F / ~ &X7XD.=.k H 8.3.} k N.%Xy.W | P.@.| #.h / 3.H.2 H / c ] =.1.} l k -.u.;X^.2XaX9X|.m A X.K.d.i.f.=.J k 8.| / * ~ $.n.%XS.'.M.N.[ S l.u.g._.i.D.i.V.L.<.c &.= $ & l k =.} J g | l >.( J 2.0.=.h Y J F / 3 } | =.p } p h | y.f.$.7 : Z a.tX<XXXpXfXpXLX.Xx # R E #.1.} H | L 0 2 = = 6XwX=XCXGXvX1X|.].NXbXbXAXKXdXtX#.T h <.Z 4.` P.yX .$.W #.g.E.XXrXyXZ 9 f } l j H.",
"8.^ 3 U @.-.} f.f.P 3.;.x f 8 p k | J U y.E.#.| m.wXp.z * f H g g U f.t.V.E.,Xn.E.wXJ.'.S.f.Z.7X;X%Xv f >.T d.E.~.A.+.,Xd.d. .f , T } / K 7XS.b A.( @./ , l E :.&.*.} H =.7 j U k Y -.} / =.F l G H ( H # v 8 %.2 7 G.=.K %.#.#. .~.a./.GX8XdX..fXE..XR.m.&X'.f.r R 0.} q _ 6.:.=.<.I ;X`.E.XXn.>XZ.y.E v.f.i.'.9.v Z | Y 2 2 ( R f U ( h } R 8.3.<.} f.k H h b F H F p =.3.=.F K U b.d.-.J m =.&.W <XdX0XjXCXfX,X& 3 3.} C.H | 1.L 3.g g W.f.tXxX=XJXKXiXpXcX1XKXKXKXAXeX].g.C.G } p l 8.l f.a.xXM.s.%Xg.R.).yX&XX.@ e f T G } ",
"| q.3.<.0.&.&.2 b P.Z =.7 : < 2 $ , , -.f.n.Y.b.i.U A 8 ! T 8 U C.{ $.;X;X[.wXT.m.R.v.l.-.k K H.~ { Z / U $.d.n.xXzX8XY.Y.g.#.} l | $.y.` 2.i.A.m.D.W i &./ J @.&.H &.} C.w 7 j 0.k / H H | } H l f @.2 * &.J L.J j | 6 Z m [ E x z O.3XKX,Xi.v.g.].tXeX[./.d.H F / H | | 2 t r f &.H } 4.x ,X0X'.%X%X| J m.Z.&XyX7XC.b , V ; ~ } 0.H l J >.P.3.L. .3.} H H 3.&.:.K H U <.v.=.l W m.R.d.b 8 S 8.@.G.=XQ.1XjXjXcXzXx A.H I.J b 9.1.1.Y y.b j.~.[.8X,X^.<X|.eX1XcXMXdXCXxX|.D.U -.K 1.K R y.u.l.W eX9Xg -.E.M.N.[.o.K.S 3.k / H t.",
"1.0.3.6.=.&.h %.f R $.&X| &.J t 2 j 3 H Z.[.{. X,XX.& 8 &...{ Y d.,X-X'.K.eX-X^.8XW.i.#.1.C.K.=.%.3.c *.=.} u.d.[.[.hXO.7 a.-.=.F 8 d.S.<.` *.#XK.g.n.{ H | &.-.R h &.( } v ] * @.i F 8.0.:.4.3.$.%.x @ J @.K E 1.| 2.C.0 3.*XL.S.z Y 1X[.{.H.*.J 8.L.*.$.f.U F k H h c @.` , @ X + , 1 *.q.LXhXwX&X;X' G.K.%X&X'.yX#.U 2 7 3 , 6 e e } p l :.@.=.| K l R J 1.0.R / l 8.~ / H H  .f.b.a.f.} ~ } 8.8.$.-.i.W.9XkXsX].&X3.6Xh } l F 6X&.A.U ;XdX|.vXCXGXwX,X.X,X1XFXrXj.!. .R F J H U 8 #.l.u.#.A.A.y 3.8Xn.b.%X*XC.I.+ } R } &.@X",
"0.8.H.C.I.7X| w.K V j 3.| 8.*.o.p ( c q o.'.].j.z.|.j.T.W.X.2XdX1XoXoXhX.XhXE.[ d. .E J i p.v.| H F J F h %.A.rXbXbX0XdXn s 3.) J 1 2.% w ) o.P.K.yXb.Z.y.n } =.0.=.*.} =.c h g l :.#.| -.I.K.'.:.f % * -.U K F @X=.&.=.4.~ L.v.f.f.a.^.1XY l j 3.8.3.3.J h C.| 0.&.=.} @.~ & ; = 8 @ x *.,.-X8X:.L.~.| P >.F.F.o.&X'.>.l } O.g O.n 8 F %.U 2 8 E j k e ( } 0.0.:.*.2.0 3 / #.z #.v.g.A.k h &.} 0.8.%.Z.E.|.D dXGXDX<Xf. .W } } T F H Y n.cXNX/.eXbXjXxXg..XeXm T.,XQ.E :.K H l U , < Q U E  .i.M.0 wXwXn.A.l.V.=./ % & J K &.F.",
"K.9.H.[.K.J c 7.@X8.y.#.K.V.E G.R $.m   0 S.`.|.{.xXAXiXpX2X/.(.KX9XXXbX9X9X.XK.y.d.b.W } =.l i ( H q.3.b J A.xXhXhX<XT.+.;.^ V =.2 ) & ; x.I.H.L.#X'.E.uXR.3.0.w.<.H J J J } F K -.U -.v.L.L.#Xm.z 8.1 y.h l 6.3.4.q.:.#X3.f.3.5.[ ;...AXP.<.0.8.4.g &.3.( @.=.I.C.#.K.o.@.3 <  .e 2 l ~ 7X%XL.4.C.} >.*.@X3.8.$X'.[.d.*X .m > X.A 8 b | g & s y 2 *.L &.8.3.2.%Xh 0.3 2 3 - u.V.#.k Y F } H l F 1.@.E M.|.<XQ.bXGX<X'.d.l.R } Q $.-.m./.0X;XXX1X2X0XDXkXdX=Xn Q.yXV.f.&.( =.h -.V.%X'.R $.m.z q O.L.0.K.u.E 0.2 b + + + 0 H.S.",
"C.*X;XdXtX,X*.q 3.tX&X} d.g.n.'.u.%.:.% +  .g.n.E.yX1XiXa.2Xc.l.eXCXiX0XzXdXxXeX:.S.R.E.y.U | $.U R k ( W ~ wXiXxXxXvX'.b o.~ H h k *.6 6 z V.:.o.A ' C.$.%X8.q.} @Xo.C.$.-.} | c q.e 9 :.*X*XC.{ f , R E H &.4.=.V.:.h F.$.L.v.K...Y.j./.p 3.=.%.0.8.| c @.8.~ $.u.;X<X+.s $ g g E :.#. .L...wX| R U C.&.| @XS 3.&X'.8Xx..X[.+./.a.R.xX{ | X $ $ c G H , <.*.@X4.H l l c 2 K.i.Q g.).d.*.H H } H F @.;.Y.pXW.Z.tX X-XZ.8 v z L @.%XM.{ l.eXQ.z.<XhXQ.1X X1X).f.} f.J 8.1.8.m U T $.l.l l g K.#.| v 7.P.3.T e * e K H & % * -.S.",
"~.yX0XvXtXzX8X{ -X(.I.Y K.7Xg.,Xv.X.c   z N.v.R.E.i.0XdX X1XcXGXpXLXaXcXGXvXAX0XM.yX,X].E E W l #.R &.} 2 b | cXbXxXdXI.3.;.z G k &.D.j y '.K.v.` ) V.l.8X#XL.1.3.3.} 0.*.&.| $ 8 z o.x.N.<Xf.| f =.* ( v.v.@.h } F.#.H.>.@.K.L.E.[.R.8XC.#.U h } F | S.E C.) C.v.E i.[.g wXb s -.u.d.#.n.{ [.nXA.V.k R U -.6 % o.i.R.8XZ.;.+.{ K.y.7 [ %.y.U q G.G f &.l R H.4.F.R H } K e g d.$.l.%XqX_.T 3.U h R 3.V.N.wX[.M./.].,X{ Y k K ~ h T.oXM.|.9XY.pXMX.X9XXXiX].Q.N.~.&.@.@.@.*.F.3.:.H z W %.B.W 2 f c % t 8 2 2 + r H $.b 9 ^ ;X<X",
"xXDXrX0XpX[.0XdX[.x.o.{.g.(.NXcXtX`.O.J o.W :.Y.XXb./.dXZXcXJ.2XpXcXcX1XsXMXAXFXVXwXxXL.H.X.H H.R k / f w 7 ;.].aXdXxXt 3 -XN.H.k J v.f g E K.6XF.F.f.7X<X'.%X4.3.' w.4.8.-.@.| l { %X'.'.yXu.@.3.K e &.=.P =.@.k l g { 0.@Xl.W S.~.g.S.p {.n.| R | ;X#.b : 7 9 Z.n.g ..u.[.'.I.i.$.| G.A.,XiXcX,X$.U H | Y 8 X w 2 ].,XA A l.X.A a.Y m 2  .T -.} f -.} F 6._ 0 8 l F l K ~ %.#Xf.#X| -XE k H | / $XI.A.Z.[.+.s.[.{.].(.-.%.3.F @.XXrX8XY.s.oX'.FX1X#..X0XyXK.d.R * k | V.'.{ ;X:.$.L.>.C.R.l.& J } &.' ) c J x *.E h.m 7 n eXwX",
"AXKX2XfXcXDX(. XsXnXO.,X XsXIXGX;XD.[ ~ 2 :.j { ^.n.d.tX.XAX2Xc.AXGXiXsX-XrX3XLXcXrXY.6Xf.W [.d.j | } +.;...X.Z.s. X.., . 4 V.6.=.=.c J $.#.;X-X6XK.7X~.'.^.A.&.4.| 0.| q.1.&.$.m.n %XrX3.'.W -.#Xv.E @.} g 8 T F H 9 J H =.&.C.T E n.U e U U 2 k V.~.K.7 o m Y aXE s E./.m. .K H V.W V.Q.|.dXdX&Xd.#.R o.y.a.^ :  .5XkXX.m 0 h.[ ^.E.d.$.$.F.R I R H 1 J | 2.R | 1.H F F H C.f.v.'.| v i j } @./ 4.$.#.#.[.g.z Y..XR.Q.Q.u.F K / dXfX,X,X].!.Z.~.i.< O.C.I.+.H.j Z <.} -.3.9 d.} k -.#.z y.K.H + ' _ S *.GX@.%.g. XcXdX9XsXPXJX",
"VXDXfX1XAXJXpXs.z.c.zX=XD FXNX<Xx.Y >.:.0.| ( w.f.~.S.E.dX=XcXc.tX XA.a.s.Q.9X,XiX XvX,XN.,XwXV.4.-.5.%Xm.,XrX(.M 9 & @ ` e 3.~ ' q , * % 5.K.K.~.M.M.E.-Xn.d.$./ =.p -.3.w.q.>.[ d.L.=X} c R =.( 3 W / %.g e b h J H 8 / 8 7X$.H.W } k H l L < C.} d.L.s d O.M.aX9 m +./.A.E } v =.=.I.R.cXVXCX[./ @.#.O...O.-XC._.Y.[.N.s...[.R.].i.E W d.u.:.4.*.e 0 @.=.J T G H H } H F L.L.y.-.0 * o.} } j H *.' =.:.C.%X&..X].|.zXn.K.J 2 c j.jXQ.bX=X9X].E.;.[.d.:.o.*Xv , 3.` ^ ^ 4.4.( H l U U | W :.).[ F.H.%X%XGXGX#.oX2XCXJXfXFXJXSX",
"LXAXNXAXfX1X,XiXrXGX2XJ.O.(.(.x.x.^ n.8.2.' #.} ~ l.g.^.Y.Z.J.dXh.fX;.m l.M.rXjXpX,XcXzX].,XwXu.h -.;.E.A.wX<XJ.q _ x * H 1.S.1.<.3.H Z ^ K.wX-XY.v.9XA.[ z.u.f R 1.k 6.*.Y f.v.*XT W G 0.k K } e , H R g H k / k $.t 8 H <.S.0.J $.G.p @.G =.L b f.f.| j u.f.i. .Z...8XW.g.A.H 9 g } -XbXcXNXSX8Xq i.$.n -XN.b.Z.~ B.n x.[ $.,X'.K.K.C.g.L.y.d.*.` ] V S.0.&.1.&.0.&.3 f } $.Y F.5.].$.7 l U J e ( &.*.} U y.z C.<XXX].<Xy.=.n.rX/.GX!.pX,XzXc.XX}.).T 6 y t + 2 ~ 2 . v , ` } K l l + z d.E.[.XXsXsXT.j.^.cXl.eXXXjXeXFXcXPXDX",
"VXcXcXJXZX[.O. X(.DXCXT.<Xc.3Xx.x.{ Z 0.2.*.@Xb./ E E f.L.n.rXsX/.A.f.~.&Xu.h.sXcXsXCX<X].Q.R.u.K.5.S ;Xv.^._ c q d.K.$.q.6X6X=.4.3.=.c 7 2 #. .$.>.K.A.E.tXE.-./ p 4.H d.k =.G.Z.W | Y $.G $ e J < X 2 F :.f e i 8.9 f f @.8.4.3.3.| H R &.8.=.l n 3.| U C.g.X.u.E.h.[.R.a.:.T G T n.,XKXGXSXHX%XL S n z g.rX,X;X3.S.b ,.~ 7 f.Z. .$.T u.J H F.^ 8 S.` ] =.w.k | } i U >.E -.W $.A.f.9 + =.h F b =./ h =.h oXl.%XqXeX).[.S.H JXk.=X2XGXiXGXvX2XVXK.T b q B w | l @.H $ 7 + f H } G b 7 + ~ [.cXiXE.eXg.<XDXxXcXQ.]..X.XAXAXJXSX",
"iXjXVXVXVX|.j.O./.pXGX(.D 1XrXrX=Xx _ 0.1.=.( 1.c $.8 $ ' $.Z.R.M.b g.Y.d.#.V.-XJXcXGXbX,X,Xu...;X&X> b R.o.o s z `.wXS.:.'.h @.3.} k < 7 2 K H U #.8X| f.tXZ.k G F K / / 3.*.>.U K.d.f. .} R } H g + r &.*.i g %.3.0 3 H 1 L =.*.q.( 4.3.l.>.G.E Y l g n s :.M S.v.8X-XY.~. .H =.n.hXVXZXjXZXjXyXx % + @ } S uX3.) ; -.o.$.% m o.$.L.#.#.R h v Z / 3.G./ >.=.h c 2 / $.F.E N.|.]...l @.l H Y } | J F j H U p.H F.R.n.g.h.} L 9XrXx.=XGXsXJXpXGXvXFX].D.G.w e *.=.n.i ; @ 3 r h  .d.V.>.$.[.R.vXvXoX=Xx.rX2X..sXE.oXM.DXcXGXGXkX",
"iXcXJXGXsXE.#.K.Y.-XhXZ.u..XXXeXx.c o.} H *.L 1.U y.8.v v Y V.f.f.b.wX-X'.#./ E zXGXsXbXtX<Xn b.tX'.Z q ;.Y d +.a.xXQ.a.8 8 =.@./ R } 8 U } @.e k y.oX;.7 h.A.} &.p @.k @.~ g ) 8 X.f.u.#.K F F <.Z + G.| 4.k &.S.6X2.1 8 k 4 k / 3.4.=.l H.l u.E T K G k A.%Xv.i.A.#.6Xg.v.W 3.A.[.ZXiXIXSXZXFXtX| w +.0 q $.C. .n +.C.a.I.;.Y z | 1.#.p / h $ s y * ) ~ 8.@./ H -.>.| %.f.g.9Xi.i.f.=.H H p 1.H k -.4.f i } | | $.V.~.H.4.xXtXbXKXZXKXcXfXrXGX<XGXM.i.u.@.4.c 8.G.B.#.f t f } b..Xd.#XF.A.d.k.(.MX0Xx.A.Y.m R.a.tXnXAXJXPXz.0X",
"vXNXGXGX).).b.E E l.C.h. .d.wX5.q &.1 g F *.i -.E f.1.6.2.&.} V.-.P $.E i.2 Y R.eXtXwXtX,X%XN.].R.~ < c x 2XbXcXVXbXXXm ..i.} 3.&.3 O = b l F 3.U n.f.~.V.].%.} H } / j 2.' g l 9 #.Y 0X1.=.h =.q.2.7 3 *.H.R R 3.=.$.l k 5 t F K 1.H @.l -.Z. .l.f.d.R k V.S.k U C.3.I.=.z L K.0XGXGXJXHXHXjX0X^.i r ..<.w [.,Xl.x.>XK.&X'.Z.3.<.l } p @.i g 0   ; X - H w.*.l U P %X;XV.;XS.E f.$.$.h H G i f / 1 1.0.] t @.1.| U >.t.*.F.FX0X,X0XiXvX).sX9X,XQ.9X`.I.3.r + 0 3.2.^ h %.} #.C.Y.HXpX]./.pXcXeX!.-X X~.<Xz.D { [ ].xXDXGXKXeXnX",
"VXNXgXZXQ.].[.f.T *.| Y ..} | '.j L 1 <.=.>.v 1 Y #XL.0.1.D.W 8.J 4.&.U j H U J.Y.0X).wX;.[ ].E.0Xu.g.i.bXdXz.D [.cXh.8Xg.rXn.&.G 8 * p &.K =.$.].8XQ.].E.[.d.@.j H / H | ( <.@ > u.S.l.b.W b -.=.S t j =.L =.8 F | #.W *.e ' ^ K R U Y p i.d.f.$.$.k P.F J Y j l.n.J q V 3 J VXDXCXKXKXPXIXSX,XY.8 Z ;.7XC.mXS.Z.*Xg.'.A.g.-.| l ` l 8.0.*.c $ @ 8 n k f =.8 j | %X*X~.;X;X:.-.d.V.1.R b H h l Y T l } =.| / H.K G $.3.b.d..X}.Y.dX,X9X XiX|.1X[.;.m G.0.{ + w < w.U W G  .{ ~.JXHXBX|.tX,X].z.iXY.0Xl.T.x.d Q.GX{.|.KXKXJX=XzX",
"jXGXNXSXjXiX{.0Xg.8.>.3.8 [ f.m.l #.) _ w.=.F wXS.%XK.F.( H H V.@X@.| $ 1.3 l ^.n.E.R...9 T $.C.d.A.9X[.jXk.z.(.d JXXX.Xh.,XeXS.e $.~ F H W } >X.X X.XxX).,X-X'.$.U F 3.=.&.=.9 0 w S *.v.i.F v 2 e 4 3.H 2 g q 7 } | / / l l | @.1 p =.} D.i.i.$.#.>.=.@Xz t #.0.E u.g z Y JXHXsX[.jXKXPXBXJXsXE.| _ L.rXmXwXE.[ D.K.*X%XtXU C.i =.8.-.8.>.3 = v | C.H 3 c 1 X n ;XA.'.~.V.E  .=.U } k k L K =.&.G k c H , h @X&.8.%Xv.g.b.XXxXdXyXyXMX XiXsX].{ u.- ` / 3.| 2.( | j | d.h.n tX=XNX;XyXyXY.pXkX!.gXX.O.n O.<X~.v 8.W yXhXPXjXrX",
"JXCXFX1X2X^.0XQ.#.W $.1.f.f.U k y.c S V *.=.d.;XeX^ V S.%.=.1.3.0 ' <.] H x L $.#.g.i.g K.v.$.E n.].!.sXjXKXCXjXeX/.dXZXSXZX|.-X< M.:./ l H l g.9XbX1XiX|.Z..XQ.,XE.d.$.P K.T S n A &. .=.i 4.@.i c 7 2 B.*.K 2 _ | 8.G R G l H l l G H P.E.v.A.v.V.P.w.G v t K } }./ f.K Q.1XKXJXLXLXPXKXcXfXsX/.W *.5.8X*X3.yX8Xg.v.f.S.5.'.d.p 0.%XI.8.h = e @ x P f F c 3 + +.} &Xi.l.G. .W k } =.R @.1 3 H *.3.H ~ k J ` ` P.L.*X=.3 z gXeXxXQ.<XxXaX|.R.u.:.-.F.0 ( q.w.E 2 s f.#XD.n.T././.fXgXjX].GXjX|.yXQ.E.<XrX4Xs.7 9 3.A.^.-XGXKX<X",
"dXZXNX3XiXzX0Xf.U *.:.0.L &.F } :.L V V P.*.K.n.jX/.X.{ l 2 t 3 *.1._ V & J i h H E =._ f.E < } 1XsXCXGXSXjXKXGXvXpX0XzXHXCX.X X[ E.tX*X&XW <X|.cXfXgXjXeXs.dXXXMXE.Y.E d.'.-Xu.Y.oXY.y.7 7 t F =.l 3 % y.y.G F ~ C.*X&.( g *.j } &.>.2 8 d.-XV.:.$.T k g & $  .E N.R H } BXXXKX2XkX,XzXgXOXcXCX`.:.f.'.'.;X3.E 9XZ.f.H x 7Xm.:.K $.L.I.R | ~ , j / @.R F l U @.z 9 Z.E l i } *.=.l @.j 8 9 @.g S 7 3 S.| e 3 I.0.L.tX^ 0 8 tX0XsXZ.sX1X0XR.m.d.H l ,X/ | 8.&.F J b s.).Q.sX].].Q.,XXXBX+.a.zX^.,XdXcX0X0XX.< 2 4 L.b.i.eXhX-X0X",
"jX0 J.j./.9XwXf.l.| =.G $.U &.F @.-.y 6.=.S C.[.2XHX(.X x  .2 e K 4.&.P.8.H k =.E C.L.l / p R o.n.jXcX,XNXpXXX X^.a.SX0XsXCX(.eX=X(.<XxXcXCXGXAXdXdX0XR.|.8X2X!.0X,X].W.W.[.dXR..X,X).v.V 7 # / / | o.* & Y {.F %.y w *.3 2 f J | H.4.h 8 U 5X5X_.E.} G b.; < 9 T o.#.U ~ } {.bXbXCXcX,XCX1XGX.XQ.U :.C.V.{ 5...K.i.U < g m.Z.H  .n.-.%X8.4.8.8.@.3.&.~ @.H k >.K l E i.%.f.t.R R l h J c r 3.f L 9 % k =.U i p | C.L.w t >.%X9XrX].|.XX8XF.$XR | =.W J J 2 &.G m l.=XT.tX-X.XX.xXeX|. XcXz.fX.XsXzXxX|.=Xy.b g z >.Q.tXwXGXx.{ ",
"k.n [.eXa.2XH L.A.$.h $.y.0.H @.@XC.o./ =.G.E.xX9XNX(.z.f.| ) F l =.4.1.@.F >.3 = P.2.i / H 0.*.xXdX..z.GXsX9X1Xs.+.NXaXcXbX1XuXbXbX[.DXDXKXKXFXdXhX}.,X/.2Xj...,X0XiXmXrXcX0XCXeXjXjX| { x { | | l L * = G P h 0 : + ` 2.@.} g $Xw.=.v g =.R.B.i.l.*.p.M.Q @ J f.@.j k 6./ 0.rXbXfXT.;.=XJX1X<XeXR.:.f.g.b.9 3.A.y.E `.N.i.E.E.d.p.`.f.4.G.F.3.e =.F &.) v f / | #.m.V.yXW.4XL p } 1 * = ) h l l } ] K F E :.W G.&.*.i v %XA.zX9X!./.].,XA 8 6./ o.H b U J W $.d.,XQ.8X&XbXoX,X[ eXbX.X.XFX].A A .X%X;X~.Z.;.H $.g.J.tX[.nXbXA ",
"|./.mXxXdXbX~ G.F.P.P.H } ] ' L y ~ -.F &X%X.XcXcXXX.X1XeX^.;.4.H h | *.H / t 8 c 2 H ^ c U zXGXJXDX2XvXxXrXbX9Xj.Y.a.%XrX8X<XQ.yX&XmXbXdXGXGXCXsXQ.Q.].).{ j.(.xXW.8XR.8XSXfXSXNXZX/.$.Y.9XY J ].=.:.1.| @.-.H n 0 V H q.R K H S.l.k i ~ L _.Z.#XQ P P b.b.# >.3.K # , =.o.w.$.yX2Xd (.'.<XQ. XeX0X$XV.&Xd.W F.l T E .XZ.p.B.P y.b.}.H } | H 2 @.8.F.*.<.p | H J K K.G.wXjX8XJ / F ~ =.+ ; @ g J k =.v P g.Y..XA.h k L i.| Y.XXT.W.z.z.5.t $.^ % % J K.F H 1.f.8X[.eX].vXbX9X0X/.g..X0Xh.~./.X.O.| f.6Xd.:.| -.| d./.yXyX%XtXtX",
"M.A +.=X.XE.i.| &.3.h &.q.' ' _ ' c @.} #X;X9XNX1X|.<X9XM.3.>.| } h =.} 4 ( v & c f h $ 3 H =X=XJXGXKXGXKX=XGXpXT.sXrXdXM.X.n &X^.E.'.wXxXbXGXKXJXrX,X=X,X{ a.(.xX<XtX.X[.aX/.iX9XAXZXn.E.XX..u.E.g.K 8 * E.l J s   c c =.F / l =.| k E c 5 J $.<.A.#.@.h.z c v.V.f %.l &.k 4 3 M.A.s x.h.].,XMXbX=X#XT [.l.%.t Z l.E  .d.K.I.3.=.S.E l 3.3.l 7 6 6 / @.G.L 3.K ( Y 3.*X-XHXW.#.P R K ~ 7 + x -.J / p | A.g.R.~.$.r X + $.{ eX/.9X[.J.b C.-.( ` Z @ v.#.g 3.=.&.#XN.u.].rXrX).,XsX$.F ).1Xo.{ m z 3.f.S.f.#.J %.p =.Z.4.Z.K.u.W.",
"R.,XdXz.].[.K.d.b.G J H =.*.8.V S } 0.4.4.0.SX.X.X].8Xf.v.&.2 9 #.C.f.z J z 9 6 w ] : 7 t j t ;.^.JXKXKXfXVXjXAX X!.aX9X,XQ.Y.M.[.tXyXyXwXGXJXKXrXrXeX1Xx m +.<XnX).].W.|.9X.XsX0XeXk.;XM.<X&Xg.Y.R.#.K X b } h 0 + r ` =.=.} @.| P.=.l @.h b %.^ =.K.#.@ 3 8 8 E.t R.f.n * 8 z f 8 , f {.b.M.-X].R.'.V.A.| | } C.V.V.f.g.C.yXP.q.C.b h F K R <.7 ` &.=.0.R F l K V.K.*Xg._.[.d.v.E } F F + j H } k :.E ~.h./.d.r 7 8 o.[...s.].dXfXtXv.d.p _ + + & P T j J =.` 4.J 3 A.0X|.n. .=.h ( #.#X`.g.g @ ~ P.F.-.T C.} | 4 3 ,XW.y.i.#.",
"].E..Xu.a.=X7XB.N.m.~ <.^ w.4.8.3.R H.l 8.1.^.].S.$.%X, ) } x | K.n.;.n s f.U f g e Z 3.J &.` 4.tXD.GXVXLXjXcXGXGXz.sXcXXXlX9X[...J.tXdXvX,XJXAXxXGX/.CXY.s.^.8XyXO.wX.Xz.j.(.vX1XjXdXQ.~.[.)..XbXbXD.g c c c / < %.2 } l H =.p 4.8.8.*.| } ' m 4.L.#X ., ~ / +.o.9 3.3.w $ 3 i 4 $ e 8 A.Q ~.u.=XE 3.$.7X;.<.R V.I.L.S.'.H.G.8.I.0.C.r < + % N.%.V.1.4.R f H F l R L.L.E #.#. .#. .V.#.l 8 c :.H l U l.%X~.n.$ w m h.<XfX].q [ cXwX5.W w.F / e b [ %.} c 2./ R @.2 l >.K.b c j H @.{ &.#XZ.G H K 2 @Xp #.H U =.} f.;X|.8XK.b./.",
"n.N.Z.V.s.D.wXyX! v.z K ` 2.8.H.=.0.3.H k *.g x v 6 i 2 S / f.a..X X XT.z -.A.l g r } q.| =.%.c *Xd.Z.|.xXsXsXjXVXjXCXsXxXQ.R.[.8XDXGXAXAXGXjXrXrXCX(.T.a.eXnX8X=X+.z.,XT.Q.0XAXY.|.eX|.wXY.XX,XCXAXY.i.} b R $.k H &.F H &.U / -.8.0.w.R l $.3.1.w.F { z s C.u.m ~ Y 7 9 y + $ ~ $ j l %XA.L.H W } H.C.uX%X`.[.#XV.%XK.%XK.%X3.'.L.3.=.7 v o./ I.H.4.<.k p ~ } F F f S.f.V.a.g.A.y.i.m $ b #.R 0.~ ;.g.,XR.C.Z.+.E.CXpX(.M z.|..XY $ p } v h g lXt.b.R =.( 0.H t . v 0.F H G =.H | k &.j a * 4 l.' } @.H yXm./ g k #.w H.A.f.E.",
"D.u.V.L.%X'.$.P.1.P.3.%.c l =.F.0.&.0.K 3.| L 5.e 3 7.r z m ~.iXcXoXzXNXjXf.Z.f.H / U *.l } 8 * % 3 V.d...u.E.1X].AX,X,XR.N.-X-Xi.v.&X[.FXxXdX;.=XOXj.T.x.ZXz.j.x.;.T.dXz.8XrXtXY._.Q.].9X/.FXpXDXdXbX}.b.Z.:.B.g 7 , b R h H H 0.] S K 0.w.I.0.*.0.| 8 T *X@.=.E ;X;Xi y.@.c - _ E h i C.cXP.K H F V } ' J.A.H.#X3.o.C.4.&XV.7X=.8.0.x v 0.w.@X4.0.$XU c % : <.f j F #.$.U #.#.#X>.#.K.u.d.;X&.V.S.,X0X}.j.9X/.dXFX0X X[ g l H H @.q.l < : . 2 lX{.v.d.i.u.W | +.3 t 3.W #.b.*Xf.$.H l ^ x z Z.Y c ( @.e 8 b , >.K.>.C.s 3 ).^.",
"i.Z.N.f.*X'.L.q.H.w.( L j e E | >.%.k H -.>.W ~ + 8 j f - n +.1X9Xx.GXJXFX;.x i. .g. .A.f.d.&.J % @.>.k F x 7 u.|.iXjXM.E.y.A. .K.D.*XQ.nXtX[.n x.Q.g s.4XSXcX(.x.+.^.Q.f.A.C.=.`.E.oX X9XGXsX1XjXCX!.].8XD.v.$X-.j f $.E T H i f V 1.w.*X3.f.1.V *.1 8 ( K k H #.d.P.F.#.yXd.W G } *.J l.mX3.H J f 2 7 ' 6XI.=.@X0.8XbX-XV.$.%Xg.=.v _ =.3.c 4.0.8.' ' H h c z | | l H R J E } V.d.#.W  .d..X$.d.E.xXXX/.O.d f.f.1XcX=X^., } p / %.2 2 , $ ( | h R.{.R.~.y.T  .A.].d.K.f.b.d.n.n.i.v.} T ` 8 g c 0 & q & i T c } B.t.yXy.*   } ",
"b.A.T E K.x.3.@X` 7 & 3 l 3.7XG.P.H l } =.%.U | J 2 / i.d 9X/.n (.z.x.x.=X[...;.~.qXXXc a.u.| J f ~ $.v &.v 7 o.*X,X9X).~.A.f.f.#XV.C.C.~.%Xx...m ;.[.0XjX<XtX,XA.,XY.Z.f.| C.=.A.n..X XpX8X(..XvXVXjXcX1XM.'.&X6.u 2 8 :.h j h b 7 ] <.0.0.H q.&.1.} 8 i R g p :.y.:.#.C.l.wX'.W H V.S.l *Xf.} K h 2 0 = F.#X=.G.8.*.: v ) :.$.' % t w 0.8.&.q.| ~ @.U =./ L R -.*.l ( H &.} l $.d.$.-.;X_.v.#.f.,X1XcXs.0 - E.,XeXsX2Xa.@ | H l ^ 8 ( i h J h 4.G.g.,X$.*Xh.8XrXtXR.&X[.yX<XY..X$ s c =.j 9 t &.k 2.w Z } 8.>./ } y.t.=.8   { ",
", -. . .i.-.y ` P.: < 7 J *.S.7X@.H T H &.U W l H K @.W M.jXHX(.(.s.(.A.z.(.MXxXxX;X8XE...L.%.U k 8.b } -.$.%.I.n.sX9XeX].Z.T f.0X8.:.8.w c n c a.~.sXQ.R.g.&XwXR.-X~.h.} @.=.F $.Q.9X9XY.a. .n.VXVXVXJXiX&XrXZ.f.J * %.R. .! @.0 0 =.w.0.8.J R R @.@.b *.H 2 3 * f.m g 8 9 $.;Xh.$.| h l | f >.=.l 2 T E f.>.q.3.=.4.6.^ = ~ < + : w ( U ^ 0.i } L 8.K F _ U W J k F -.$.U H + 8 $.W $.].Z.[.z.Z.C.|.LXA.Z.Y.{.9 <XsXjX5.@ * } &.S ~ 0 K c 2 c i R 0Xx.w F.tX&XhXDX].-XyXM.|.^ [ o.n o.nXV.L.u.$.oXh.7 @ } R E $.4.y.b.( @ % } ",
"1 %.y.u.W C._ ,.,.&.b b b n -.V.3.H D.R b ) u.$.l.l J e H !.|.xXrX/.<XsX!.eX<X,XhXtXyXbX).T W } >.z ~ k =.3.b S.[.|.[.[..X0XXX9X)._.&XI., h h -.l.b.E.Y.n.n.%X*X'.} H @.M.} @.} ].AXFXnX'.f.E.^.jX1XGXZX,XeX).,X-Xu.e $ E E *.<.8 w | w.4.q.q.H K F 3.l / l *X+.8 S 8 U 0 U $.M.:.U H J H.c P {.w.2./ @.i  .} &.R R *.:.1 } ^ _ @ . . G H h j / j &.=.8.` 8 >.h 8 k =.:.%.V.'.8 F.d.W E g.Z.i.f.[.`.E.dXAX7 x u.a.!.<X^.* w . 3 } 0.8.l e = o.H t.uXb.3 & w P.S.nXbXi.E.Z.~.h.,X9X=XwXrXxXtXwXR.d.pXXX-.x M.g.Z.=.G.3.*X3 % X & ",
"l  .d.g. .h C.f.7X+.4.;.4.= - k p :.u.U X.#.i.y.W F c J j  X|.eXbXSXaXh.(.XX].tX<XtXuX[.{.' o.3.8 n f P V.:.s d.h.E.yXJ.n.;XK.`.,X0XN.b.V.~ } C.K.=X{.E.n.Z.l.-.-X@XH } m.@.8.H.wX.X,X[.J.z ;.,XQ.sX2XKXfXsX9XcX/.).}.z d f R l &.*.) =.3.H.H 3.k h l / } &.) ..8 @ $ : % z #.o.q 3.y.S.$.F l H 4.0.J D.W l.=.Z 3 8 & 1 K h @.P.~ @ K | f.E @.=.~ ~ p J T } k G % @.E U f.$.W [ { d.$.d. .#.A.].~.{.cXiX-...A./.eX,XeXo.A.9X8 = 8 H.H =.l 8 w g H F f = b -.g.`.9XVXvXy.f.-.wXg.eXxXzXhXMXDX[.z.,XNXaX{ d dX;X~.>.@.=./ P l ; + ",
", Z d.Z.Q E f.u.A.f.%XA k ^ F J K T H G 3.5.'.$. .K R h k Z.9XXXFXPXHX(.(.Y.|.XX^.rXwXeXg.~ *.9.o.9 ~ U -.y.;.u.b.V.'.;X%Xn.S.#X;XK.b.].y.+ 1 w ~ &.@XK.].f.&.1.1.8.} / G h c h.0X0X).z.A.q 9 2X0XCXiXJXcX0XoXbXGXJX}._.r H F @.>X' o.K 3 h &.b S.F @.E } } d.Q J t = A x ! T =X..K.d.d.I.#XV.W =.4.| ].B.b r p < & ; ~ R e l #.*XK.4.| bXf.l =.b H z &.' *.g 3 7 j F | } E E.f.8 s *XK.d.[.,XQ.cXXXdX XQ.].x.rXbXtXtX5.8.3.& * 2 J 8.H >.k 8 j T l U s =XgX).4XNXpXsX0XJ.%X} n.8X1XxXtXnXLXs.A.[.NXiXa.=X/.XXy.T =.<.b K c t c ",
"v $.*.#XF.t.E g. .*X5.w b g J H h G @.} ,.A `.T @.0.K.y.k n 0X0XjX,X!.(.{ s.pXcXpXvX<X8XD.P.} V.#./ ~ X. .m.n.D.~.f.F.E.8X|.I.*X=.@.B.V.H.T &.+ 7 | 2.0.#.l 3.*.3.) ) K 3.p C.`.rX-X].<X].O.n GXKXVXGXKXFX9X{.oXrXxXL.g.J &./ 3 2 a l f @.<.8.} @.W R I } b R H | P.Z 5.i.U n.[.x.~ S.Z.n.].V.A.$.#Xf.i.S.$.U >.T $ . k 3.f.4.n c C.-.8.3.E.U p &.| k ( | h &.Z L R v v  .L.| < < '.K.C.].zX1XeXR.rXdXvXeXpXAXFXxXxXA.#X/ + 1 i R 4.0.R / K j G $.@.C...n.0XaXkX!.Q.).X.n n l.l.rXzX0XrX[.0XeX|.FXHX1XaXVX1X0X).>.4.4.o.H ( 9 , ",
"y @.@.f.V.i. .W f.-.H.-X) * 3 R l l j 4.I.<.I.3.4.i l H *.3 qXeXXX<X{ (.bXCXZXjX2XsX!.;.[ -.7X .#.[ n f.Y i.h.n.g.i.g.L.#Xi.C.8.4.} 1.6.*.E Z.f 3.2 n ( c W.qX=.1.3.&.@.3.k E l.E.[.zX,X).|.DXPXHXNXZXrXx.0XXXXX.XvXI.J } ` r $ + } '.v.1.J } *.' W #.E.K.} H L =.1.H.#X>.v.f.~.}.Y.R.~.g.yXE.m.f.&Xf.b.W.E.g.R h 8.7 b >.n.u.x X.X.y.8.F Z J.%.J H | K l i 3.8.u.} x d +.-.[ + = %XbXxXeXxXeXu.E.R.].9XbXGX3XnXxX,XrXcXxXdXGXM.wXU j 1.P.2 | ( U  .{.f.d.n.m.U { J u.A 7 8 ).8XxXcXA.2XrXxXdX0XJXHXz.d (.cXVXXXP 0.*.v i F &.+ ",
"1 K |  .y.y.$.G.>.3.C.:.*.r W y.} F h 3.A.C.v 8.6.<.i.h 9 ( f v.rXpXZXVXGXKXsXpXjXdX0XR.Y.h.u.y.A.g.u.D.m.i.S.`.g.b.f.-.@XU H c _ ) 2.q g 8 , * 5.^ L R % |.| *X4.k *.-.d.;.&XbXxXrX2XiXVXjXsXtX0XxXsXc.a.d xXQ.1XcXC.| 0.l v = { Z.dXjX|.E.S.U F q i qXT @.K l &.| 4.H.3.V.y.f.'.tXxX,XY.R.E h.E.O.E.n.|.Y.#.$.| f.P `.'.%X~.s.9 O.Y.&X9X Xj.[ #.0XE.:.W / F h k {.&Xs - A l.c -X'.A.,XbX2X,XJ.Y.].tX].GXVXNXZXiXhXXX0X<XrX[.'.>.H H o.&.t &.U i.D.=XaX].-XU } 1 1.E 9 d h.;XeXLXDXrXMXnXxX2XtXrXZX0X(.pXcXjXsXE.H @.j &.K c ~ ",
". * < z :.E A.H l.| 3.E @.H R b.].[.V.b :.| H.3.H F H H l < s [.a.iXVXGXcXfXHXAXiX,XQ.g.n.T.u.Z.D.&.Y  .d.x &. .n.d.f.J 3.:.) H / 2.e r H 4.c 2 o.H R k 3 e 0 ] ( &.F U d.f.A.tXwX'.R.CXsX1X[.D.&X^.(.k.> ; .XO.0X9X..2 <.} 8.[ Q.dXdXiXsXQ.l.u.'.8 d.f.=.H } h H H.q.F.-.@X-.-.;X'.5.{ D.I.$.i.R.T.;XQ.dXD.J J k K J W A.&XY.W.c.^.jX|.DX1XT.1X0XE W < - &.F 9XoX).[.m { Y E.xXtXtXd.[.!.[.,X=X,XM.R.Q.tXvXZXPXvXjXiXY.,XE.'.U H l L q.L e F T #.Z.tXg.g.p.G ( + <.W ~.g O.J.hXGXcX,X X|.bXeXeX.X,XpXpXsXsXVXZXXXj 1.1.=.h h + ",
"0 9 w f h :.d.9 r h w.q.*.j ` h W v.3.%.i.T | y.i H / } k K.i.M.E.VXiXpX<XkXDXxX].u.V.~.*Xm.Y M f.n c = g c * } W ) z -.U H.| 1.y H.q w P.&.@.h ^ | o.F.* h ~ <.&.h :.%.u.u.].8XyX;.u.|.Q.].p ' P.~.CXX.rXd Z.~.c.!.A.i r 4 W M 2XnXLXcX1XQ.<X[.A.a.n f @.} | i L 0.J ( J F.l.E.#Xf.x [ >.| E R.'.+.(..X|.0XN.L.H | p ,XK.'.n.dX^.a.bX|.GXCX/.x.|.W.f ~.n 8 l $.#.N.4X#.[ T.R.xXhXdX8XE.j.D A [.R.{.|.0X~.8X0X3XhXrXO.,XN.i.#.k H F H *.H.F.&XE ].R.f.l / 3.j [ V.yXD.Y ;X,XsXsXFXxX[.0X|.,X!.j. XbXaXvX1XcXjX3X/.8 J = @.C.K / ",
"v @ K n } $.z [ L 4.-.=.H -.T h W n ` J | u.k #.U } | c H #.Y Y m. XdX0X.XM.4X].n.u.A.S.&Xf.V.T x 6 @ c E e $ k , y P T E R 0 = | ] w _ 4.G F ! } +.q *.| @.j R k *.k b ~.N..X].uXA.y.].C.4.7Xd.' S x.{ GX,X1Xs.A Z.j.h ,.k E g./.eX.XsXT.2XxXxX;XZ.3 } / 3.8.H G &.&.0.3.H.@XP.*.@.p R F } k C.| J.0XM.,XeXY.E.u.k p i.sX{.,X9X,X/..X.XGXcXCXGX(.M N.aX| d A.3.H B.oX3..XiXcXxX[.Q..XoXZ...s.Q.Q.a.;.X.{ T.=X[.=X{ z.z.W l l k } k | o.wXPXjXbXQ.[.&XX.~ A.^.{.tXxXtX^.MX[.jXdXsX|.|.XXQ.DX9XpX{.0XcXiX1XsX1XjXcXd.n f / P.8.P.",
"` 1 / F H #.f.$.t y 1.~ =.F } h 2 , 2 0 4.$.>.z z , , U F R @.E  .v.[.M.8X].oXR.E.#.W E %.T  .E H @.K R 6Xj # @ c 9 #.#.P 3 @ , C.4.<.` 4.3.U l c w ; $ i / G j ~ t J h A.[.].|.E.U @.| ` <.1.1.' 6 A.).n O.3X X8X..0XL &.&.3.D.].{.0X2Xz./.9XhXtX-XD.T 3.| i C.$.$.V.R 4.3.l @.} @X4.} @./ } 4.q.F.].O.x j.0XQ.A.J K y..X,XiX0XxXGX(.|.oXZXCXjX<Xc z g h.d 8 ~ G N.R.y.Y.dXsXGXcXiXeXrX|.s.oXXXE.;.9 X.^.A c.A.T.s.l.;.k 2 $ e 7 ) '.~.wXDXoXdX,X.X).m S S.R.M.bXGXX.XX9XbXcXrXbX9X.X).a.-XeX.X0X X9X9XxXeX9Xh.9Xb.l H F $.8.q.",
"/ / h k / g.d.`.f._ <.} l h K 3 + $ 4 | +.l.Y l f j F U P R %.F h H $.W S.;.% $.L.d.v. .#.| C.>.@.=.@.R T G L l } $.9 g * 8 3 ` 8 v | : 0 R R | c W x.c G.@X| j L t h g l W S.E.n.L.F.G.} / q.H.2._ | v $ j.[.pX.XcX9Xf.h l H k } i.R.Y.!.A.jX1X0X].a.z E =.#.b -.K.<.V.w.d._.m.E.| @.R H } ' *.H.2.*.yX-Xa...-Xo.5.$ h rXsXT.xXdXgXGX).sXSXjXNXH -Xg./ .XZ.i.f b.VXm.R.].xX0XfXZX2X9XiXrXpX|.wX=XeX|.Y. X+.=XA m h.q r &.| j j I I ( 0.8.{ f %.-.'.].].n.f.&Xa.sXrXcX/..X/.].,XE.z.j.u.A.~.O.BXsXeXiXiXdXaXsXbX9X/.| i H @.F 3.",
"h 3.l k G Y Y H Z.8.*.` o.=.=.; . 0 <.1.} k C./ k e ^ *.d.b.T k G v | Z &.~ : < 4.b E..X3.| $.f.Y K } @.=.f =.} H H * @ y & o 1 ^ d.b r @ } ~ H H S.2 8.P.} l b h @.f %.x j J w.G.-.0.1.@.K 2.>XH.1.2.8 g R.XXg.E.M.oX0XK 8.@./ F | R.=X).|.=X|.M.wXi.x R.$.d.:.8XJ.^.F.C.:.%.#.=.@X/ J $.7.( c 4.H 3.6XtXE.(.;.6 ` / } -.f.g.bX(.zXDXcX).2XGXi } W d.-.-XF.j l.b 8X].y.Y.9XvXiXXXeXY.Y.iXAXbX0 D cXZXPXfX=X~.^ *X%Xe H $.l.! 3./ >.2 *.q.H H e T d.d./.pXy.R.E.3X0X X{ !./.Q.,XS A.T.o.W.xXz.OXT.Y.9X9X1Xa.nX1X.X&X2.3.G.v.U Q ",
"7 @.K l f E :.Z.%.3.0.`.g J R 0 3 G } 8.| P h l ( 8 F h *.} &.F *.R H ^ ] e y H i H | } *./ | f.i.F J k } t { =.k @.T f ;X%X] V.3.y.-X=.i 8 e g = @ ~ 1.3.$Xd.W l l ` 0 8 ] <.0.H.>./ 1.3.8.3.3.w.F.~ i Z ^.f...P.*.Y rXD.} U 3.b f.| D.oXQ.|.tX9XM.f.E.y.M.u.K.-XF.C.&X'.K.~.n.;.L.4.0.%X` V &.=.8.b L. .g.&XhXa.x %.U g j &.uXeX8X^.Y.sXcX.Xh R h } E.Z.u.C.;.l.[ E R.).XX1X.X|.].rX0X,XA.S m ..[.=XZX9XQ.J l y ^ L.A.G.*Xf.4.} R | K J F k c J } $.].xXoXY..Xj.x.gX;.2X(.XX).X.c.DXXX1XsXO.z.X.Y.sXbXcX(.vX<XM.V.=.3.0.4 W p.",
"k F k / =.A.I.d.H f.:.I H c 0 ` 8 3 v / } } -.p | *.R k &.&.p H l / } <.H.v 3 L l H &.J 0.0.4.} E.i h 3._ ) L ` R H S.p.f.V.J *.6.D.3.@.} H &.l < 7 w #.L.I.V.K l 2 ) e 3 v P %.&.*.=.4.0.@X8.*.' 6., f ;.f.^.'.-.4.=.tX-X3.o.2 R H >.#.).[ W.A.j.R.d.W.8XtXz.DXwX8XS %X%X#XS.6X+.yX-.| q.Z V :.*.` K H.$.A.-X[.9 | V.T / G @.5.A q | #.g.XXz f &.k i.9Xd.E &XwX;Xd.MX9XXX,X,X].dX-X|.0X(.+.u.!.T.|.[ n c 3 8 J o.5.} 3.>.$.E 6Xl.c j f H g ~ / H -.U F tX.X1X0XiXvXjXvXKXiX^. X,Xz.XXpXfX/.X.0XVX<X].sXjX1X1XW.Z.k F 2.1.C.| U ",
"*.l R j &. .V.W T i.V.d.R b H ) y ( 9.T T } P &.=.9.=.h / H -.U H P } H r F %.j R =.k P.>.3.0.U g.L } j ) -.J >.F ~ g W 1.0.8.w.0.`.h J h G H b g , c b V X =.| >.H 3 L j } R i ^ = 7.<.0.<.@X*.H.j Z G N.T D.#.4.F.A.Y.-X4.4.T 2 r Y %.,X^.^.i.a.O.].;X&XuXrXhXhXQ.8X..'.8XL.yX8XrXd.0.w.<.3.j =.} U E f.~.+.S s i.-.V.V.{ h l 8.&.R i c ^ y *.i H I y.W p -.].].~.1XFXXX.X,XrXwX,XbXxX(.9 =Xb 3 H 0 2 &.$ 3 t b & } @./ d.&X;Xd.i.R R Y =.C.H < g >.f.f.bXCX1XjX XhXZXVX0XjXjX1X/.aX,X1XDXJX!.fX0X,Xn.cX].0X;X&.>.l @.&.} `.o.",
"H f h c F l } A.-.f.d x  .} 9.=.H / H R V.#.$.H | #XJ b H i h =.F 3 l R h q.h } | - m.T l :.L.B.y.-.1 0 ( 0.,.@.=.F } 0.&.<.<.P.-.b T #.k J @.c l q 3 } J H H.j L } L X & f f ~ v w V -.=.' 1.3.-.K / H n.N.v.:.&.K.;XL.k L 8 g g 1 x T E.0X.X[.1X[.Q. XwXuXxXhXfXCX.X,XX.rXcXbXbXeXY.#XH } p &.J J i %X6X6X[.s u.'.Z.;.$.3.3.h @.*.1./ F ;.( 8.&.| l | ^ H R E h.Y.iX].rX{.0X9XnXnXFXdXR..X{ :   0 >., J T P t., h #.d.A.A.E.~.=X].R.y.H H l } 5.C.q.&.u.cXfXjXjXiXCXeXdXrXsXiXjXVXNX1XjXVXpXFXXX|.E.l.Y ..W.K.0.u @.K } H i l ",
"U } R G k f c Y ~ 5.$.8 m 8 U k 8.&.=.W v.Z.$.:.l e K k &.1.4.H &.g w * / =.@.P 6 Y :.V.`.g.#.K.K.C.A.J H 0.1.0.P.H H < & V ` P.v.E k J F l / k l U e c v.%.G.| ) + o.* y V.| p 1 w ] w.w.o.@X0.` @.j h J D.g.%.J @.=.U 3.( r l q.| H j U .XE.}.bXxX+.eX8XwXrXtXxXnXsX!.T.1X1XAXZXpX].,XU F h F @.H 8.*XtXwX..E.X.R.wX[.g.f. .} &.&.q.l o.J e 8./ P.b 8 f K `.j.j.DXfXfXbXcXdXbXJXJXxX,X ...#.=.* 7 S.g.l =.7 l <.*.-.i.i.V.K.E.Y.L.-XyXH h H L.$.J.L.0.K %.|..X(.[.s.[.fXiXaXiXQ.dX1XrXjXXXFXxX].).E.<X;.E.K.G.f.G y.#.$.V.p F ",
"k K | K R / l &.M I.u.v.$.8 , G J H.-.:.#.%XA.>.n / H l =.f } *.H * ; z t.G } $.d.G :.S.d.y.-.A.K.g v.`.3.&.5 g :./ j } + X % 4.I.3.U j l ( f l g l H 3.Q 3.i.u.V.Z .   q * K &.} | } J ( <.*.~ ' 0.l / l _.W :.F H @.N.b.E F F *.-.a.#.U ).,XQ.bXR.8X].cXbXeXnXrXQ.=XBXbXeXsXGXVXFXjXaXW.K.G 2 f 3.8.I.&XA.X.W.f./.W.{.R.D.E.i.@.<.2 J J 3 >.J _ h g J F = H l.9X/.1XpXsXAXHXDXGXGXrXg.y.d.H *.P j `.y.b.8 8 l } R k l >.l.L.E d ^ %X7Xg.1.H / ) l.>.L.h.iXrXjX.XVXeXnXsXBXHXVX X[.!.9X].bXFXxX].].[ Y.<Xn.E C.I.y J Y :.U H } ",
"} { 3.=.l >.H 9 -.K.%Xg.Z.E - Y =.U L.#.`.;X;XC.$XU p | =.J / =.H i 3 ~.oXf 0.G.*.@XU -.C.C.C.*.l.U c  .`.b.9 P.:.y.H l H 9 w 3.| =.8.@.| g.A.-.4.=.R g 3.N.u.'.I.= }  .5.} 9 &.i ( R / | =.H._ / 4.} H } W } l 4 $ &.} Y >.x.K.R.n.;XE -.g.Y.4X].|.]. XcXGXDXxXcXeXbX0X0XdXpXjXCXT.VXsXsXg., g 0 / J J ' _ [ R.O.T.h.0X-Xg.,X.XW b G ; 3 2 H , ; p P 3 g ^ H Y.vXpX1Xh.rX|.ZXDXGXxXR.E E.8 v j i y p.+Xg : T H z J =.v.A.F.Q.v.Y 8 0 =.d.K.K h =.{ 1XJXjX,XE.1XZXGXeXFXAXNXjX Xz.s.h.|.|.|.<X{.'.(.D z.Y.U U $.} S ;.z 3.%.P %.",
"Y h q.-.} t -.F 3.=.f.R.J.G.` L J f.:.n %XL.*X=.3.=.R 8.4.8.*.V.j 8.=.'.p k -.3.=.q.4.1.8.L.+. .{ y.i.e K.MXY +.t $.8.g.z.#.^ F.-.&.K -.$.#.n.*X$.T R *.g.~.o.#.$.i.} [.g ' x 3.3.4.~ } | } F.H.*X} @.>.} R l.^ c H 1.H E.y.#.Y.8XE.Z.h.*X'.g.oXY.).Y.W.xXeXeX3X0X=XxX9X X XDX9XzXx.0XjX|.g.%.e i k ` *.8 %.F.`.a.0X|..XrX|.E./...f , $ + 0 g o & _ <.} H Y J E.1XhXD.'.,Xy.C.G.#X~.7X;.B.0 . 3 h *.J ).8 0 E R b wXv.d.Z.3.@.~ i 6 + 7 f V.D.i 3 | s.&.} ;XeXXXjXsXgXrXcXjXNXdX/.D T.a.D |.bXdX{ x.Y.n d.E #.f.[ E $.$.V.f.#.i.",
"$./ 1.' ` } 0 3.:.8.:.f.W 3.#.#.v.b m -.%X~.'.x.} #./ } &.| #XoXD.0.v * 8.D.A.Q k r H.4.*.H.a.f.g.-.F 3.d.}.g.= i j K A.h.8Xg.tXC.@XI.E.R.M.b.E `.j H =.~ ; # C.i.W d.8 8 Y K.-.%.%XL.G | H w.<.$Xm.V.3.:.P F.4.t 8.k h $.b E.R.Y.).h.[.*XA.L...;.^.|.0X.XR.=X=XLXnX<X9X,XXXxXxXjXLXsXCXeX.XZ.G.i.L.K.#.d.Y I K.H.N.M.u.M.Y.,X].d.~ j = 8 2 Z 0 0 =.J 2.k K F R.h.,Xf.y.C.i.u.&X`.=.) 4.W { $ &.oXZ.;X'.- E.f.i...;.C.z d.*X:.3.S.~.8 b $.A.E.d.3.I.#.-.G.K.J.rXFXdX0XpXNXvXsXsXz.g =Xa...,X[./.bXD L.v.l.E E $.E 4 %.$.L.*XA.T ",
"| J @X8.-.j & ' 1.} J H F %.$.} %.V.$.>.K.%X*X$.| E E T U 8.uX;XJ l H J J m.M.P H L K ( l } 8 c i.g H K U #.#.*.) : ^ W *X~.T %Xd.].;XE.c b n.f.W z e H K.^ q 2 | V.#.&.Y / A.A.8XS.;.} } W 3.&.1.&.} i f 3.3.F.;.J.@ * l.Y.dX.XW.].0Xf.*X:.3.wX&XwXW.R.R.{.K.dXA.rX[.cXfXeXwXhXbXdXnXFXMX=XY.>.D.d.| X.*X=.=.c k V.b [ wX{.,XK.0.J R 2 g $ @ = ;.<.=.H =.} l / f.Q..Xi.h.n.T #XH.=.v , 0 n g [.N.&X[.Z.x n.n.A.I.3.G f.Y.h.V.'.F.v.Y 0 f.#.R.S.f.Q #.V.f.tX6XxXGXNXFXfXZX2XQ.a.D T.FX.X .$.3XY.u.0 ( / $.$.| #XR j H } 7XwX$.E ",
"p.&.( 8.) g w , 3.~ H k H >.H V.$.E %Xv.6X[.-Xd.@.;.E U Y :.#.f H 3.f.c ) g H F ~ l G F.$.a.;.+.( 3.} K k W G K V t =.T &.C.V.d.tXf.E #.c | U b x , = 8 '.7Xr S R l U y.g f.Y %Xi.d.E T E U *.P.8.F | 8.H *.#.-XC.{ 8 m b { -X.Xh.rXpXZ.g.o.o.j &XY.J i g.N.D.nX^.;.tXxX.XsXMXsXhXDXxXdXnXGX[.$.E z # q >.`.7 X W [ %X XR.E.h.E V.l | F T 3 & z T 5 J | i F m.{.W M.7X$.| G / @.' q m h 8 ) ).v.v.L.-.{ M `.'.;XM.<XtXd.f..XFXwX%Xg W 0 b G Q d.d.'.L.~.8 f.R.jXJXIXHXPX XxX[.%X(.,XAX,X].z.Y.;X .7 J S.p H p C.P.k >.K.L..XhXE ",
"8 j T v V q t 3.| g R f >.| Y x t u.I.;Xd.A.Y.&XT  .E #.W L.Y 3 `._.H k G l / / P H t 1 Z ` <.1.0.l / B.@.h =.3.C.&.l K.#.V.W d.E.} d.i.T l =.&.& y t $.'.;X<.7.R @.R 7 3 Y H d.E  .R C.g.8 , t y *.f W $.-.6XZ.l.x.l C.*XD.l.l.dX0XCXE.`...+.b $ +.} G K y.n.K.yX&XhXrX7XwXyXcXeXxXdX1X1X<X<XY.[.Z.Y Y | 5.q + . | n.E.aXXXk J @.@.R @.q.H c b c  . .U E W f.4Xj ].L.8.@.@.k S : % E G } P e @.W 3.*.z  .Y.'.%XL.v.F.>.G.K.yX~.S.=.k J c _ 7XA.%.K.l...sX-X XeXpXSXOX/.cXGXrX(.nX[.M.XXcXrX.Xb.@.A.i.u.n k *.3.@Xk T C.#XuX`.F ",
"U E #.4.# V , } } @ 2 e p ,X-.j 0 g &.#Xg.d.u.%XE 5.W h.n.[ , t.oX>.1.>.G.$.E W.g.} K K v g Z m y J W b.Y 6 S >.C.k =.3.U >.W d.$.| x [ } =.o.&.*.<.*.c 0.K.&X=.h U J 2 >.U W 0.>.*X*X&.k #.H _ + r 1 g E.g.`.'.9 -XN.3.R ` c C..XcXVX9X%XR.iXa.q $ % 3.l ~ wXZX8XsXhX*X&X&XyX,X XrXsXFXpX].sXT.s.% - { s &X{ ;.. 6 A /.S.h %.:.t.H y 3.l B.V.d.< d.U / 3.Z.K.X.J S.| 6.*.;X*Xm A a.A.$.K.V.-. .].f.Z.{ o.o.u.I.W -.h / >.I.3.W 8.*.q.P b x n P :.W Q.!.X.8XaXCXGX2XOXc.1XZXKXGXbXFXsX/.,X X,Xf.E >._.`.A 0.J b 6.h k #Xd.v.h I ",
"S.} R f.x V 2 3.k @.H } H f.R.T L Y -.Y.E.$.8 l.#X{ K.[ o.-.H &.G H T L.K.$.$.[.6XL.E &.&.4.4.=.=.E $...E -.3.P.3.$.G.j u.7 s U -.f.;.Y W =.l H *.| R < 2 j 3.d.G G | -.p | =.$XH.3.H.&.H , } Z.8 Z j y H E n.O.Z 4 $.H.u c R b E.GXLXxXeX;XNXiX=Xl 0 * H i J &X8XpXW f.&XC.K.2XdX/.iX3XdXJXJXQ.n d > ..rXGXfX[.4 - l.{ K.} k p W J.R / R @.*.J 9 [ & P E.wX7XD.i.%.! 4.A.f.7X5.^  .R.$.@.( =.l A.E.[.8X`.I.H.#XY =.h G 3.=.8.@.} =.&.` 2 7 f d.sXAXGX1X8X X!.2X2Xz.z.(.c./.VX/.h.iXdXA.dXiXR.b 3.7Xu.%Xj j 2.3.2.< %.c h j F V.",
"7 f | Y ,.J 8 H b &.h =.F l | u.S.h 8.B.3 h * A.L.<.^ ~ p.T #.c F.C.=.>.'.yXtX`.%XD.$.E | ` ` ^ V.E.A.o.8 Y %X7XP.b  .f.E f b } v.f.n l $.p j r 8.~ 3 7 f G g } H $.T G j k &Xv.w 6.*.o.} K W U 4.=.8 7 | %.d.$.Z y q @ & x =.p i.jXJXVXjXjXZXQ.Y.sXi H / H a f.~.J.d.u.;X| Y <XtX,XiXzXvXrXjXjXcXO.].9XsXNXVX,X&.. 0 @ k | y.I.3.*XS.-XR | q.@.h h ..3 @./ @.b Y o.< :.o.:.3.y ~ H $.J h 8.=.i } #XI.'.L.#X$. .T $.V.l | #./ K 8 | 8.3.K.m z 1XiXKXGXGXsXxX.XeX!.j.c.pX|.2XKXx.[.jXQ.].<XsX$.*X7XV.I.V.=.l 6._ G.z 8 + % , < # ",
"8 0 *.&.m U | ^ 3 i W k R H | d. .P l f H 2 @ t _ S _ } y.b.l ~ H | } W f.M.~.rX&X7XK.L.Z -.F.%X[.-Xn.-X} i.h.nXv.Y.Y %Xf.u.y.i.i.f.x L j a >.&.R F.j e x ..< @.k 2 0 y c 0.<.| | v l f 2 k $. .%.} ~ j k } =.P.H k H o.C.g #.^ g.,XjXvXVXZXpXj.M E.) ' 2 i l h E.v.f.'.6Xu.g b.R.qXeX3XGXcXGXGXNXGXGX9XbXXXNXv./ 8 @ . } | 4.%Xw.I.C.*.8.h &.p c H $.v / 2  .y.Y Y c V.l , 1 v ~ U $.4.H 8.Y R j W C.#XC.H.3.#X-.V.$.c @.#.} S 5 c j x '.].rXdXFXcXKXJXZXNXZXVX/.z.1XrX[.cXVX[.2Xx.eXiXMX[.=.C.A.F.*.:.P.H 3.$XF.*.b r 3 7 * , ",
"L S -.} V.:.-.>.A.U c R h :.W a.Z.n.g.T K # X + ) ' f i R i.f x l k l h k f I.uXyX;X7X;Xl.z Y.R.l.&Xf.h.-.n.d.d.`.M.l H } f.#.A.@.*.-.G.Z =.8.j >.#.| # < j.M.u.[.l g 8 7 y Z p.H f x f @.H d...%.| ~ p =.&.J @.=.| =.A.>.d.W.b J.8X0XVXZXpXbXZ.Y  .< 9 ( ` F | g.d.*XJ.O.S x i.8XQ.].CXfXxXKXNXGXCXKXGX0X/.Y.;Xl.5.f.0 + t 0.0./ 3.H &.1.} *.J l K @.m.U < B.Z.Z #.>.W U H &.P %.H 3.&.} @.h h @.#.l.G.*.4.H.q.E v g 3 k =.#X( 2 2 6 ) ~.T.fXiXjXbXbXiXVXcX^.2X1XcX.X,X/.;.^.;.1X[.8X8XnXK.( K.K.=.3.J R f K k | ! 3.e 7 3 # w ",
"k H d.f.3., Y $.j L.S H.N.b.y.A.g.&XwXm.J * , ; &.H j J Y [.~ [ W I k T h p E H F.'.;XwXJ.0 { )...9 [ z.{.rX0XoX0X<XH o.U p.W J :.K.x.G.=.| *.4.E [ 2._ s T.M.X.R.g.E t 8 j p l k c &.` 0.~ @.-.l | l } / | g @.@.j | h -.8X1X..{./.0XY.rXcX X .Z.Y $.7 3 8 K U h E.'.;XwXx.A.i.T %.^.<XeXsXCXcXjXcXzXsXdXgXdXn.E...K. .@ &.~ q.8.` ) . =.| #X`.W &.h P h } b.n.l | V.9.R =.*.| U , b *.l 4.#.k h } =.*X&.q.&.G F y *.H ~ Z } 9 g j = p k E.8XAXiXXX.X.X,Xs.E.T.fXGXbX-XGX,X(.T.cX9X0Xa.z 6.@.4.2.=.} &.c 6 8 l 1 } U 8 z | 6.4 ",
"< H &.=.W W :.f b t w V.#.aXf.g.<X8XgXd.| j o., | r 2 g.Q b @ g._.H.k 9., l *.l l | G.A.wXX.[ Y.n d - { MX<XXXsX].0X|.{. .| ~ f.g.&Xs.F.` 8 $ & Z _ _ *.x 7  .} &.E [ < &.F 8.J R j } *X3.0.j F 8.8.H l J g = , j F J f.;Xn.1XT. XdXM.nX2XdX1X-Xf.#.b x i >.K U o.q.F.*XK.o.@.l f.d.,.l.a.aXcXpXFXnX3XaXwX1XjXcX-Xz ` p L.} 2.=.8.^ 9 % w.3.=.K h | j +XF.j h l H d.$.c =.b H -.h H k h $.-.H l k H 8 Z J ( @.K 2 , @ 5 J 3./ H *.*.*.H.b.B.u.,XbXmX|.sX0X/.(.k.9X,XxX.XCX,XVX0X1XfXVX/.% &.| g ) J / h , 0 h l l v 1 3 ~ 4.Z 2 ",
"q 8.H.@XU } Q @.E r 0 R j J $.9XoXsXjXb. .c J =.J } v h J } $.t.c l i.k =.( R j | h =.f A.M.Z.d D A h.eXbXaXz.R.h.M.-X,Xg.W @.wX.XR.Q.g.H.u r 3 7 7 d F.=.% g 3 $.P F t | | 9.} R ( p U >.e _ G.0.V.P | 1.H 2 < h F G :.-Xg..X|.h..XwX XdXaX X{.[ -.W H ' 4.} 4.:.H.7X'.-Xd.&XT V.%X3.y ' E..XQ.fX/.2XrX.X9XGX1Xn.8 e ^ l #.1 j j & @ j p H F | F =.*.N.| U 4.H H  .i.W k J l } z = } =.C.-.W H } @.: ] . 0 F h %.F.S w k P k ( H H.' P.R.k *XrXQ.eXcXZXJXT.A.c.Y.iXxXXX.XbXFXiX^.!.jX9XY.g o.3.` d.f =.3.) F | / J H G G ( &.2.",
"^.-.H.3.3.F R } i H $ i l #.C.Z.xXbXFXbXb.:.G  .B.-.U H >.l >XR G h } c F 1.p G H | $.-.;X[.R.a.9 j.Y.xXrXrXY.aX|.rXdX XR.D.Q.XX9X|.).eXb 7 j E m x.%XJ.&X&.. x #.=.| L U E K l f =.H >.l S R ^ x 3.2 <.K | L H j E >.A.eXzX XgX=X8Xs.j.GX|.,XR.S.l 9 9 *.y / 9.L.S.tXtX/.M.4XW M.| H.L.f.-.E ~.8Xx.m D [.2XdXwXH h L , 8 s.c *.v j ~ l K K &.=.l 3.8.V.R h / J 3.K.@X&X/ 0.F j J b H 3.S.%Xa.;.T d.$.8 0 3 H H h $.-.Y 9 8 F | =.1.=.<._.h y.xXrX].1XHXGXMXXX3X_ =XsX=XdXGXsXGX[.j.!.,X(.a. .h } | H / 0.4.F H J ( 8.p p l 8.o.",
"j.S `.=.%.F K / =.%.l @.J ;.xXyXoXdXCXFXn.d.E u.$.h.tX$.F p @X} < $ j c G 8.| j } 1.h S.n.$.&X=XX.eXtXE.wX).d a.9X9XcX9XY.xXO.|.iXeXtX;Xf.d.Q.s.x.<XtXwX'.m [ @.>.&.W W T l } R 0.K V.= # n R F #.} g 8.0.8.p Z } =.yX8XeX X|.9XFX<XY.;..XtXZ.7XU.} @.3 ' 1.<.1.8.I.K.~.E.K.n.g.} C.4.*X:.:.:.d.*XeXxXl.n A eX$.h j < c d 7 H ( x j + H h J F l -.@.=.G.b.| z T %.H.1.F.$Xl %.* 8 1 t Z :.b.u.n { R.%.l.; @ ) -.U &.l.Z.R z d.F.=.1.4.4.>.E |.vX1XSXGXvXcXsX].h.a.FX!.zXLXzX1X[.2Xh.(.a.+.R.g.U J *.J K l c F =.C.*.C.`.k ( v Z ",
"=.b 9 >.E -.R o.p l | H $.*XtX<X[.sXCXaX|.0XQ.g.f.J.[.L.@.7 ) Z + k | @.&.8.4.0.@.R H C.:.4.U 9 S.].zX,XXXn.s.z.zX}..X|.iXsXs.rX0XyXtXuX;XwX-X].a.l.-XrX8X&Xi.C.d.d...~ ` 1 k 0.u./ ` o.%XE #.S.X.h < 8.3.3.@ + 9 5.wXbXcX0XgXbXGXeXj.q ^.].|  .3.H 8 >.l 4.` q.q.>.E ~.d.'.b.E.&X0 | D.L.d.#.U #.E.XX{ J.u.N.l F 3 J l :.H K 0.*.l f ^ K k *.F 3.&.=.4.u.[ % $ 4.J 0.*.4XV.~ k } ) 2   0 { z Y ..].D.m $ _ *X7X7Xi.Y E j $.*X| 8 H.| L.8XoXbXJXKXjXLXGXcXVXQ.9XpXs.}.xX1X<XcXGXjXiXrXqXdXyX7XC.p *.p Y l L , < :.h t.N.d.:.l.n ",
";.Z t < c $.V.0.-.K.y.Y.<X{.dXtX=XVXGXNXHXPX].R.Z._.M.&.>.&.w.j g U 3 $ g h 4.&.( &.H J k 8.3 3 z 6XuX6X5X/.a.l.xXxX9XdXZ.l.eXfXa.6X*X8XwXQ.M.....m tXuXwX;Xd.u.`.G.h h b l | h *X'.t ;.%Xd.E A 9 , + w %.$.; 6 g S.;XtXcXdX.XGXnXeXJX;.yX8XC.u.i / ) P =.@.0.P.H.8.V.-Xa.n.#.a.*XY m $.-.V.f.>.y.h.;X%XA.%Xi J 2 1 =.H l j H 1 R k H J p l =.@./ / 3.*.=.o.m : J i w.K.*XC.Y R k 2 0 6 + $ 8 ^ g.>.T E g f.L.'.;XW &.s 3.u.A.Z.)._.3.6XcXJXcXKXNXZXVXKXGXvXpXiXz.h.1X^.GXjX9X.XxXQ.].^ [ G.*.&.H / &.| H H 4.m l C.}.5X4Xg.K.g ",
"{ A ) C. .b K.tXu.'.yXQ.tXmXxXiXAXCXcXiXBXSXg.n.z.E.D.L.H p h h =.3.c 9 h 9.8./ *.1.| H k 1 @ w { '.wX;X!.5.a.s.;X8XuXQ.x.xXM..XA.=XyX[.[.[.;.[ { n [ m A *XwXd.L.I.$.H :.:.U $.%Xg.f.v.V.#.#.f.} E g 3 8 8   w *.E.;X2Xl.Q.W.R.tXtX.XXX~.L._ 2 J h } $.=.3.=.0.<.} g.g.,Xl.J.y.K.o.#.$.E %XK.o.:XE.n.} *.| 3.&.f / / f.>.h &.5 Z 3.H ' 6 @ } H K H * *.4.>./ = < @ g P.#XH G =.} &.g 0 / F H / c } } `.S.<.G.*.%X[.K.C.V.`.-X<XeXR.;.^.jXNXHXNXJXGXcXKXGX2XVXiXXX^. Xa.x.9X5XY.[.n.[ q X.H.| @.} / p l =.G.#.x d ..LXlXE.%XR.l.",
"s.s.R.Y.{ 0 A dX1X9XCX1XpX.XiXiXpXFXGXbXCXbXtXh.=X..{ H 8 @.( :.( 3./ ^ | F 9.( =.8.| } j H % y 5.y ( @ a.Y 0 Z ^.wXx.n ..yXA.Q.&X^.mXwXyX[.Q.,Xa.u.- l.d.Z.~.i.6Xg.#.4.K #XD.8.o.F.K.*Xf.d.$.$.n V.s -.C.g - 7 [ ..X.2XsXbXeXtXtXrX;X8XtX^ *.f G } 8.:.1.2./ &.3.p [.$.d.tXh.X.d ;.v.V.E =.Z.d.Z.m.d.%.y.y.4.1.J H h qXqXC.4.L K L K 3.@ . 0 =.F | 3.l *.K R W | 0 *.C.R } J u.} C.3.( k =.R H | p p -XwXE.^ L.%X*XV.>.l.Z.M.VX).R.v.eXPXJXAXGXNXGXcXDXLX,X.Xl.oX8Xn b y  .E g.b.Z.v.U @.k l 4.^ 1.i | '.&X%Xh.;.O.nX^.*X~.Z.].",
"A.D T.<XX.O.c.Y.GXGXJXz.jXFXVX.X/.|.iXvXdXdXdXY.[ A.c w $ ) t V.:.#.G.=.&.h P l 4.1.&.H 3 b =.2 ^ Z.8.8 X 0 & +.;XA.{ W.h./.T.].;XR.{.Q.[.~..XeXW...m z.l.Y.i.;X:.d.l <.<.q.3.0.2.<.%XK.8X'.C.L.H U 1 2.f j o + i.h.fXiXsXiXQ.,X!.FXtXA.| <.1 t f @.K @.n l 2.L 8.H :.M g -XQ.Y } E.p.E %.#.S.E f.d.W #.d.%X} J } *.&.).7XF F R P } J G.~ } 3.=.| J } l l } 9 @ w %.&.~ + @ v *.=.8 r l @.c f j h j W u.rXoXA.l.<.6 L.I.E.].0XhX8X}.1X/.cXHX=XrXNX XcXKXGXT.K.A z A.*.g 7 +.3.Z.m.l.L.H &.F h j R ! *.G.yX%Xa.d.%Xs ].y.$.}.(.GX",
"(.hXMX!.j.rX2XfXJXgX(.dXVXVX,Xj. XbXbXdXxXwX,Xh.z.D.x Y [ 0 [ V.V.d.~ T &.w.=.Q `.P.*.c k l R 3 < _ i &.^ 3 % *X&X{ ;X+.l.M.u.d.DXwX=Xg.D.*XY.A.M.,XU c S.u.6Xd.%.S.W %.} 3.w.8.@.1.8.#X{.yX2.p p $.U *.p R l < Z.0X1XfXdXjXFXjXeXk.&Xl ( *.K | H *.P } ` 8 0 1 + ' 0.t E.,XR.Z.].E.+.A.A.~.&X#.&Xn.[ W.~.a.{ J &.=./ l K @XJ u.T n.| @.V ' 8.&.k k @.l / K =.g b 3.=.2.l * 1 J H 3 3 &.h R &.R } / / -.'.D.#.x.F.{ ~.o.b <X].;XY.].K.DXDXdXa.X.O.c.cXjXeX&X^ & g W I N.g 0 f H i K.| J h R ~ %.G U  .>.8XwXyX].).K.}.].=X].J.<X",
"[.0XbXzXiXfXjXfXNX^.k.eXeXn > 9 ^.,X,XtXrX2XXXNXgXXX-Xi.f.;XE.f.i...g 9 7 w c ` j =.L < H l i t c } G =.H 1 8 L.wX-X[ A n <Xs..X9X8Xi.`.K.K.-.T Z.1XW g Z E E >.n.5X5XN.T 6.w.3.` G 8.S.F.<.=.2.4.$.-.0.&.R #Xb $.'.].AXfX.XrXiX1XxXA <.S b 3.H ~ 1.2.>.$.` l h 8 1.H W 5.E.n.[.Y.M.~.wXb.i.'.-Xa.i.d.$.%.b < { 3.0.G q./ =.H Q M.-Xc <.` | ` * K &.l } J / } v $ &.v G H 2 =.G j j g + , h R R j h | k y.%XY.i.0 m Z &.^.~.~._.~.x.aX~.,X^.s { iXiXNX2X..rX'.J >X#.n.t._.P H K.b.*.1 4 3 7 y w.1.F G.'.~.Q.eXsXg./.oXeX{.h.=XrX",
"=X.X.X1XXXjXXXfXfXFXA.[.(.0 s E.M.M %X,XFXGXfXiX.XdXcXE.g.M.g.d.d.S t r y + &.h } p < , d.$.} p I.b.W R F H Z %X`.tXO.tX].E.E.R.n.h.#.#.L.$.G.k i.].#.> -.u.V.U wXkX{.l.| H 8.2.l @.k K.A.| | G | 2.w 2 >.:.) o.u.b |.CXGXcXfX/.^.cXl._ Z *.# J } o./ 3.2.) G 4.f J | P E.g.{.g.=XtXwX'.Y.g.[.Z.g.Z.d.R.C.7 a.MXC.I.l.4.=.0.1.=.! j H / q.Z Z =.@.} 8.R &.L H 7 * i H &.p h J | G } K.C.$.e d.Q G } J g F $.z % - *.x S M Y n 9 b s.x.1X].A.(.,X XjXCXGXs.Y *XE $XF.&XR.W P lXV.3.@.R #X% & g =.F k :.i.n.R. XeXX.O.|.zX}.1X9XhX",
"Q..X,X.X/.HXBX,X).|.Q.z...X.[.wX{.). .x.CXvX1X[.dXGX1Xk.^..XR.y.g 2 v ( c 7.` @.-./ @.f u.g.*Xf.#XmXK.4.k :.3.} ) l.l.j.].Q.).].u.M.E V.n J Y &.-.[.d.8 Y f ;.} #.qXE z E *.K J } J ( *Xl.L.4./ R h R e q <.4.l.8 : O.PXvXGXCXDXFX].&.| c ( 9 t 0.-.&.} 1.k h T | H k #.V.#.[.J.+.rXwX-X].R.`.9XM.xXm n |./.XX9XE.=X-X6X;X%X<.3.H } *.} 4.<.<.F H H r t , J ^ q 2 ` R J @.W  .| } H i @.3.H l F K &.l p *.*.Z Z { x Z + q E.-X[ A !.M.[.oXwXyX0X1XAXcXVX1Xn D.H f.:.E.C.=.3.p.>.-.0.&.6.$ + @ E *.U V./.,XR. X|.Y.9X,XbXeXbX0XfX",
"9XQ.tX-XrXpXsX,XfX<X.XW.(.W.Y.i.'.^ w R.GXR.Y.HXBXFXJXGXeXAX#.$.H l.U l k ( 4.) 0.l k k -.M.Y.Z.c _ 7X@.0.R @X| | L.+.{ ;XE...g.n { X.3 Y , 3.H N.A. .[. .9 G.K.V.#.V.f.W U H F J G 2 | % = ,.H j 3.G @ ; * m A.W.- m CXGXvXKXjX.XeX$.F G.| R J =.H @.G 3.3.G b F F } &.` T ].8XM.[.].E.,XW.n.R.,Xi.f.8 W +  .E.J.xX,X=XuXM.=.3.} k k / 3.r ^ j H K X % 0 8 t j &.v #.$.f.D.V.H F G J 8.h @.K *.} E U ~ c *.G 1 c J ] 2 e Y l.$...].5X_.XX*X;XcXxX~.GXcX/.z.;./ U | V.G.6.| '.C.H >.#XH | > 2 9 W W g.E. .K.Y.O.+.j.vXDXHXdXQ.iX",
"cXM.].=XZ.eXtX<X<XfX-X.Xa.a.<X8XwXC.;.hX0Xu.[.JXPXbXvXiX0XjXi.-.| P q.H } F.0.1.2.} H ^ G K.y.%X:.T %X8.K.H.&.} 1.@.x '...M.u.Q.|.x.}.W.E.9 c >.y.E Q.W.h.{.f.L.S.S.$.} d.| } 0.l l F $.w n n z y.&.m.$ % z Y a.a.X.{ DXPXjXVXsX|.E.J V.g U J f f L 3.*.| p q.J v.R F H j l ].X.n.O.Q.uXE.h.%Xv.fXZ.u.d.L.{ $.8 +.tX`.-.3.3.H | F J l p f 8 3 &.| k &   7 t % 3 J 5 2 $.V.#.f.h &.G } H U =.C./ R } H R H H *.3.2.J o.k 1 F i.g.9 W aXoXy.E g.{.E.yXZ.bX/.k.1XQ.y.i +.*.<.} l.W J | =.#.[.c [ E >.~.%XY | O.g.;.m { KXJXHXkX,XQ.",
",XE.mX{.Z.rXwXuXhXnXzX/.{ +.J.Y E.;XO.[.xXn.8XbXKXLXjXsXfXjXQ.A.U k E :.L.d.-.<.) 8.c R p R f.K.l.W.y.d.S.K.$.J l 8 c b 8 v.{.l.l.0XPXBXjXS.i tXu..XdXwX XE.U W #.T f.9 A z J @.&.j =.=.8 7 c Y $.H.d.v + x i.A.M.2XdX3XsXGXCX XxXxX7X3.:.w.l H h J f k =.&.8.@.2.i , v F H g.X.> x W.n.S.z 7 M.n.~.N.f.5.V.c y.g.[.K.#XK.8 H F H >.h 0.3.~ ,.J / l ( : + 8 P./ w.] S 1 ( U } L U F @.k P 0.=.<.1.| H f K 1.4.&.U @.} l @.#.i.^ b @.d.y.G.l.F.Z.i.Z.| [ O.3XJXFX0Xg.8 8 H c } 3.R %./ >.L.F.&.l u.y.;XA.J.a.T.+.D J.jXCXMX1X;XR.",
"+.aXbX<XbXnXhXrXcXnX=X$.DXx Z c L.^.xX,X~.f.x./.dXfX9XVXgXiXbXY.E E $.b.( %.p v =.q.4.8.k h >.i.M.].Y.;Xf.K.H.l l | g T -.b.,X~.D.fXoXXXu.j } Z.Z.x.].].2XZ.d.#.f.Q i...8 W / 3.| | &.~ X.+.7 z L.A.%X> 8 e 8 y.uX2XzXKXCXJXiXoX=XMX;X0.<.v.( l i i 3.} K c &.F / U 2 K G G } ~.x n E.X.b v.Y dXN.D.A.y.S.| k  .f.d.*X3.D.>.| p F d.G 4.4.} 4./ &Xv.y.C.+ J -.d.+.2.< * k H U y.B.K l J @XF.w.7.&.2 k K 0.J J &.1.=.l b 1 } H = & , | } H.4.u.L.{ , g @ - /.GXdXdXeX|.~.y./ F K.G >.3.F 0.0.M.$.f.~.dX'.9XsXJXcXdX!.x.J.hX&X;XM ",
"q jX2XLXdXvXFXeXhX8XL.A n X.X.n.M.,XwX,X].-XK.S (.zXiX0XsXXXoXpX$.y.g.N.@.w.H J K =.w.2.=.3.0.E.,XeX9X%X7X#XV.J l / 2 =.C.&X&XR.Y.[.g.Y j h E a.m O./.].j.[ d.#.E 3.f.f.E U q.l =.3.) 5.z.s.| v J f.E.~.a.g.| '.eXvXjXJXJXGXcXdXaXyX1._ 3.4.M.F @.2 8 l L @.~ H J } #.G G J 3.} y.#.=.- 4.} hX .d 9 ~.u.#.} < 3.T C.*.l F Y h H 3.R H.K.*.>.&X8X&XA.-.+.[ tXE.}.3.0.%.% / U 8.}.BX@.v @X=.=.q.d.4.j l R @./ G H z J H R *.h k l c 4.3.H ( 4.o.8.-.5.n b 5.xXfXsXdXeX|.].oXC.0.E L.} 3.&.=.h W l S.E.pXpX1XXX.XY.;XbXA.A.-XyX,Xs ",
"~.N.rXAXeXdXeXxXJ.~ ) 3.).{ n s.].,X(..X8X).~.d.<X|.XX0X.XbXpX}.Z.c  .Y U | k h K / J w.2.&.$.~.].jXPXQ.'.3.m H K &.*.>.H.L.'.%Xi.y.V.3.*.R d.E.F f ^.hXY.z.d.i.d.f.A.n.K.3.o.0.0.` @.o.m Z.n d.K.J.K.8XT./.=XrXnXhX<XGXcX-XtXCXcX8X<.q ` w._.} ( $ : @ h &.l H | E W H 3 p H 8.^.W F -.K.,X9XbXn iXg.V.E W  .z x #.9 t U R H H t.! 3.4.^.'.8XE.{.tX[ s Q.8X'.uXf.3.&.3 < j =.2 N g 2.qX@X'.$.%XL.1 J R H H &.R Y b ~ l l K } F 4.=.| =.| *.y &.3.F.'.eXXXeX1X)./.E.,XQ.[.R.-.T V.A.Z _ c o.k | [.E.].NX~..XsX=X`.%X'.5.=X%X'.eX",
" XdX,XxX0XzXv.l._ D d X.^.O.+.zX9X.X9XFXxX].E.E. X,XGXiX,XiXpX1X+.8 c b i.j =.L } k R 0.H.w.c P i.-XDXnXx.3.z =.-.H =.~ @.{ v @XU h R -.W 3.Y.c / v S Z.z.9Xn. .[.E.5.{.X.&.C.0.H p L.V.*Xb.m.i.i.F.E.<XLXGX=X(.eXtX[.=X^.c.R.NXsXQ.e _ S ) e / g @ ^ j =.k f | 4.u. .K =.J l | 4.K J #.%X9XM.sXdXM.g.d.#.W L.| 3 f y.C.H k R >.W.l k *X$.~ =XwX-X].|..X,XtXwXrX'.S.! b v *.@.0 + 1.p.E.b.Z.U 3.pX+ @ l L h k J F 1 3 8.8.&.v H *.4.&.F.=.3.3.#XH.1.xXcX,XdXW.).=XY.).|.<XR.u.f.=.&., J ` * H ,XS g s.cX9XiXFX%X`.f.;X8XxX=XbX1X",
"9XxXQ.x.S I.XXY.m x.O.sXl.l.(.yXXX9X|.|.Q.8XM.W..X^.GXCXsXz.A.].x 8 [ i.E 8.8.k h G F p F | F  .h.g.;XLX;X`.: 8 1.&.$.d.} n &X#.U U | F.W U C.h.$.J / } x.{ s.m E.A d z. .y.h K H / $.~.S.h.'.Z.h./.9XjXjXz.O.K.c.rXdXm % D x.KX=XrXz.9 +.q.-.F 3.7 r H &.p / *.=.&./ l H H =.@.p U R E /.MXx./.E.{.i.#.`.~.~.T U V.u.E.H K F 4.n.H G #.u.n.=Xn.g.1XoXz.|.MXdXvXjXeX{.Y r eXbXv & ' l W l v.3.b.P >.~ j %.k R @.=.c f j = G 3.K *.8.=.| <.0.L.'.rXF.8XeXxX X].,X[.). X}.M.].V.W _ V 0 %.C.8 h n.8X9X^.iXfXdX8XR.Z.{.fXrX;X'.5.=X",
"iX|.j.A J.<XQ./.1XE.z.z.<Xo.[.,X.XQ. .Y.;XE. XVX2X(. XCX1X,X^.J.f.g.p.S.U l P.l b h &.h H F F K.M.tXL.uXxXl.v k F R k c , k 4.&Xg.Z.G.E T J b K.wXh.h ^.!.+.X./.<XD u.T.;Xm.l l.U H i S.^.g.].j.[.h.Q.~.^.^.A S X 9 =X/.{ k.s.^.xX<Xn z.%X=.| / C.} >.H 3.@.&.j &.} =.h o.l &.G } 0.| x.0X,X[.kX}.R.g.n.g.i.d.| v.=X^.(.u.V.&.J } l F #.W u.g.h.=XnXwXx.[.bXcXxXGXA J.n.cXJXGX5., + f g E t.P c 8 e - j } 3./ *.@.@.8 8 l K | F J | | K &.^ @XL.C.;XJ.,X2X,X).eXM.R.9X=X..V.R L j * * H J `.%.Q.pXjXdXGXsXfXDXdXE.d.R.M.Q.(.^.jX",
"9XiX.XT.d Y.k.Q.dXiXX.D (.tX[.n.g.Y.=X,XbXCXAX Xc.eXVX.XfXeX .~.Z.l.l.f.:.} H H &.J | } J H y.Y.wXwXL.L.4.) g &.F K h k / F I $.%X;X&XK.#.o.^ } >.,X;XW.rXc.A.1X[.j.k.g.R.v.j H T &.} f.W.|.h.&X,X|.oXsX=XM.O.O.m z.(.1XBXOXx.O./.jXJ.x.,X$.F p W d.$.l U.| S.( K H k } 0.F W =.g.'.d.d./.mX~.V.m.0XcXrXg.u.E  .Z.h P.~.'.@.&.J G l K | l.l.7XA.;XrX[.bXbXbXfXXXsXsX,XeXJXl.T.t 0 % , ` x @ 2 #.4 b k } =.8.' 3.3.} l k b f.U F G F } k k k } 4.S.-X,XoXY.-XwX XY.wXhXdXb Y h F e 0 - 0 &.H U /.#.#.CXGXAXT.HX9X-XY.Y.Y..Xg.sX X",
"sXAXiX0X+.X.a..XVX^.s ^.9XQ.E.R.N.0XdXtX].9XjXd =X1Xa.9 } wXx.S.Z.].x.U $.G.G l @.<.( H k l ;X[.yX*XV.,.F.<.@.c h f | k H | W $./.].E.K.Z., ^ ~.i.f.].Q.FX{ 0 h.bXXX[.<XE.#.h K c H U A.d.ZX9Xz.XXfX2XsX XrXgX].j.m rXHXGX!.=XwX(.dXiXS.&Xx O.l h C.Z.v.b.7X6X| k } l j | V.d.wX&X*XwX].Q.d.- c $.#.4X} %.u.b E e ' F.V.$.k F l = J k } 0.f.A.Z.wXhXuXnXGXsXsX1X!.j.j.iXKX8XCXY n 2 j ~ w + $ U H l.G | *.=.F.J 8.R i h F @.R h J h U &.@.4.G.G.K.^..XjXY.Q.E.h.{.Q.[.E.>.f w } , F 8 v 8 X g K.J , !.ZXAXFXHXXX.X).{.).].0XoX].",
"jXiXcXR.d q x /.0XQ.-.;XwXM.tXl.`.xXdX~.W.|..XW.0XKXY.m m nXb.oX.XZ.~.h.v.v.} k ` b =.} / ~.rXyXJ.4.*.-.I.o.2 ( H V.} #.R #.%. .V.X.A.n.v.C.d.V.p.K #.f.h.x.O.% 2XxXsXmXY.W P.3.Y @.:.#.=XZXJXJXVX2Xd a.xXFX2XjX/.vX.XNX9XJXDXiX.XxXxXA.C.[ X.E 4 W S.K.;Xg.8X( H l &.y.E.z.wX7X'.&XwXdX..:.5.x #.K.a.V.E F.g i *.$.H l H h ( 2.f % .X-X1.K.V.*X-XDX<XrXnXDXvXDXiXfXcXfXeX0XaXF.i ! k } H v X + 3.3.J 0.3.F.U =.l l c c c H =.T } $.R | b qXd.G.>.I.y. .u.x g.n.R.yX&X-.l -.G ~ t =.} | n : 2 D.} l ^ 9 3XtXHXrX,X..X.GXaXfX,X,X",
"CXJX|.i.E.Y.[ d A.0X9XN.qXM.[.h.&Xh.-XY.|.0XXXcX&X9X/. .n -.Z.4X{.7XyXwX`.#.F < , w 3 c R d.;XeXM.U f &.H., . 8 F E.2.~ W Q U 3.=.L.'.H f.'.&.9.A.U ..s.O.;.&X+.FXgXwX<Xb.A.u.y. .} %.V.xXJXCXAXGX(.{ [.pXpX9X9XjXeXdXiXrX1XFXjX{.GXnXFXwX .i $.| H E.x.%X&X'.V.%XE H E f.Z.7XA.5.S L.&X;XK.$.K.@X$.V.f.E b <.} H R f + c G 0 , 1 8 2 ( @.<.w x.LXPXcX8XtX0X,X0XVXiXjXCXiX!.M U T %.l 8 h h $ $ :.} 9.L.G.*.:.8.k f ~ } H R H %.&.k | h E | =.G.=.} P H #.W d.g.0X$.[ e W @.o.%Xt.W f ^ _ 7 q 0XbX^.(.GXCXjXzX^.^.T.3XAXDXNX XbX",
"DXdXE.Z.aXGXX.{ z.IXIXSXZ.f.Y b g.f.,XQ.Q.sXxXnXxXS.R.].b g.Z.D.M.i.wXd. . .U @.^ j 2 @ - v.h.aXoXY - z f $ $   . ' =.C.} E P | Y | >.:.U | 3.8.3.K R wX^.l.FXFXvXxXtXtXE.A.E b.N.A U F.{.jXVXjX9XGXsX0XcXdXcXiXXX1X.XXXQ.1XVXsX,XtXxXFXsXn.W @.$.@.%Xc Z d.-XA.A.u.E.S.i.u...} 0 & x 1X-Xd.y.V.$.f.L.i.g.^.{ K H U i 0 l h y ( Z S 8 l j / k *.-XFX0XwXtXjX=X-X|.XX9XjXsXA...8 + @ = ,.} -.2 q H I.;X3.3 *.0.3.H / 2 c F o.0.0.) ^ &.f e &.H w.*.w.i.d.v.C.{.wXo.8 W z =.>.} =.B.J } } 7 # 4. .JXgXcX9Xz.sX=X,XY.[ ..FX1X<XcX1X",
"JXVX.XyXpXVXm D JXZXiXGXJX/.Z.d A.W.wX].0XXXFXxXnXyX[.m.v.s.$.n.Y.].g.S.$.$.J } F 1 J J } >  X0X).{.s.-.n h v , f ( F.H.! $.G o.y ^ q.K 3.x J &.C.=.h &.wX{.<XtX0X[.wX=XL.y.} < Y $ U y.tXx.j.KXZXpXjX.XoXoX].,X<X[.M.M.,XQ.0XGXFX1XtXeX9XNX`.J 3.8.@.6 *.l.$.E.<X;XoXy.K k 4.7 9 l.n z. X(. XY.f.n .Xh.u.].L.3./ } l } H ( <.6 0 * 3 F F R H / <.0.).9X5XBXR.sXcXLXAXjXSX|.~ f q 6 1 S 8 w ] , 0 f.{ , % / -.l R i | | *.} o.6 t @X=.k | k K.} @X-.H.f.W ).K./ 8 , F | _ ' _ F.@.l k H 3 ].T R jXVXjXmXdXbXbX].~.].Q.pX3XCXsXAX",
"jXVXyXuX2Xu.;.x.ZXgXcXFXGXVXKXOX,XpXeXfXNXiX1XuXxXDXyX-X.Xo.@.K d.g.).n.3.K H 3.R H G b 9 ^ h.).tXm Y d.v V L J &.=.@XG.H :.} l #.@ _ ( L l H / p / m.7Xv.i.`.~.,X{.;.D.C.x.;.+ X s } `.,XO.(.PXAXNX].0X9X).,X].]...v.`.[. XE.fXoXE.T E.,XoXN.} E.1 K R V.#.-.,XxXV.Q F.R.u.Y.i.E.bX XdX[.iXiX|.m 2X0XpXeX^.7X) 7 v R l =.& x.v c , 2 h K J H | J k y.B.}.N.d.].1XiXVXiXfXk.% 0 0 8 V B : F.# e v r &.h e j i &.k l i.l U H 8 m $ c l F | ( *XL.| :XL.;XQ.f.l =.3 t f P ^ ` 8.] R G h k / W J =..XZXjX,XXXjXW.E.Q.d.[.<Xj.z.jXfX",
"bXyX;XrXW..XO.T.,Xz.ZXJX.XVXZXvXJXGXGXpXBXxXdXzX=XnXxXb./ f 8.@.=.l g.-.&.&.&.h <.@.-.| f.% s -.R.h.Z Z.3.w ` G./ f :.G.| #X%.k e 7 V 3.y i ~ J | J &.;X$.#X'.b.A.-.'.R.g.K F h 9 b } [.~.<XzXJXKXKXeXAXsX].A.W.n.i.;X$.g.'....XlXW.$.H ~.aXoX&X=.3.P #.E V.G.yX'.j n.[.wX$.'.x.s.4X,X1XXXsXz.a.T.X.cXCXvX0XyX3.Z <.&.1 ( 8 ` =.0.R H @.3.l H K k | l -.G b d..XaXjX,XGX/.a.@ m $.&.<.` 0.@X3 + % , ) E @.=.o.p k / l G @., e i 3 l F &.G k -.J *.o.f.E.C.d...2 7 l 8.` 1 ) v @.} &.j k R | k h E 9XdX9XiXcX/.g.d.Z.i.v.l.[.dXsX",
",XZX).9XiXPX(.z.CXAXsXKXsXcXJXKXcXKXCXCXdXrXbXFXs.T.f.K 2 l U @.8.3.&.&./ H h =.*.#.n g b m n [.~.;XwX,.w h h &.h h c -.C.A.U t 3 + ' G.2.Y , 3 2 2.@.$.d.#.A.E..XM.%XZ.d.F &.1 ~ ^ g Z.0X,XNXAXKXdX^.=X XW.$.%Xn.n.v. .*.K 8 N._.rXpX&X;X{.o.~ %.=.j h f f.#Xk h z.X.'.].A.$.g.i.}.s.,XXX0XsX> 7 !.).vX|.,XwXG.<.` j y g h -.2.q.H l h R | @.H Y R H R K J  .0XfXz.z.(.HX<X| 8.w.q.0.L.C.T %./ F U $.6XP G F @.j } H @.T c z / 0.8.*.&.l H l H *.*X;XwX%.r & g = =., $ * _ y ` p h U , f 2 @ 8 W Y./.iX<XbX.XwXL.E K.F.A 1XwXM.",
"E.sX1XcXAX3Xz.c.JXZXcXCXcXGXAXPX9XjXjX,XsXJXGXrX].=Xj.X.| @.P #X3.=.4.0.} k J =.-.H.n.R Y E l.g.i.h.f.t : 1.4.&.| / = { -Xl.3.[ j n o.$X@.h.W J | K l.W [.Y $.'.f.8Xn.d.n.g.f.9 y *.( J T.x.T.DX2X+.A l.vXM.$.@.P %.U | *.t } i c ].W ].7X$.f. .U $.k / | 1.g j %.E.a.M ].A.X.a.Z.j.fX0X1Xh.CXaXz.8XwX~.Z.i.m 0.=./ =.h F @.W 7X| F J | G &.~ 3 @.H H R #.g.0XVXVXT.T.x.{ 8 | } *.) _ _ u.l H v o. .| n =.' *.4.} i 8 j $ 2 8 9 ^ H @.k l J @.l p  .K.&X>.J } #.G =.g + * @ y ( @.K 1.c l J H Y E R.Q.FXsXvXKXyXwXA.%Xl.z a.,Xn.",
"[.cX3XJXKXGX/.NXjXcXiX|.eXnXxXtX.XdXf.<  .dX9XQ.Q.K.1Xg.#.3.P.#X#X3.<.g H 2 H 1.6.P.} 8 / -.:.%X[.g.M 6 < 4.4./ F o.& = n t ) o X x -.7.g.S.D.1.K *.V.#.A.f.>.-.D.A.aX'.g.u., w X g 3 2 Y c.ZXgXrX^.KX,X=X;Xg.%.l G G } @   2 l R H / H *.p q.F P @.H.=.k J 8 P o.Z.d.n s.xXd.h.j.a.T.z.XXM.W.|.BX0XY.d.n.~.f.@.k l l k H j h 3.| R R K @.@.G q l J F.i.&XcXjXiX1XW.z.# Y [ 1 &.x ~ m - y.U 1.F.#.A.Y j H 8.`.W W # 3 | @.$Xk P y R S.F k R F h F } f.~.'.$.5.-.&.0.| 2 H = # ' 0.H # , <.2 L 9 F.#.pXfXcXcXGXtX=Xx.L.v S O.!.Q.",
"XXsXcX1XZXjXjXVX1XGX/.=XtX8X$.) ^ V 2 #.Z.n.Q.h.X.eX,XXXE.*.3.V.F.$X~ c 3 8 8.H | 3 9 2 * * } *Xl.f.#.=.` &.} =.8.H F &XX.;.wX7 + X v T b.yXW./ :.V.W U E #XL.l D.C.-X~.&.y + 0 & $ 0 x v ^.CXeXfXFXNXaXfXY.'.L.&.H k l g . 2 @.@.l j >.=.} F $.T } $.x c p ^ { y.U g.`.XX}.].].9XcXT.l.g.0X0X{.).VXtX].yX[.f.H =.@.h | =.4.| } K 2.H h R &.q.c k o.E.8XmXvXFXbX$.1 $ 3 | g i 2 V.l.l.7 h.F.#.#.S.$.J g &.-.*.f.V.% ~ &.8.P.K #.f z 3.x 1 $.=.^ , , H ).R.'.U <.J k R R U @ e ` / H &.R ..y ) @XE tXZXcXE.uXxXtXuX+.x.S 9 6X|. X",
"0X1XiXjXjXZX X9XxXDX}.u.>.c J E R ~ &X^.v./.].M.|..XzXtXh h | f.H.<.) @ 9 9 : | =.^ ; g { :.V.-.$.%XV.) < c =.h H -.V.d.;.A s.g $ < 2 G -.v.].i.| -.W ).J %.f.$.%.W K.K.* . ; ( g J J ( ] A.,X,XiXSX0XdX9XY.%Xa.>./ l W * + e 1 k h >.W #.i.&.l h U u.f.%.A.^ 5.R.Y Y T $.f.,XXX X.XW Q.[.Q.=X| kXBX8X'.J u.S.;X8.} ] *X7X8.R J | F K =.| | } L | $.S.tXxXxX-Xw.~ w < R.H H l f /. X(.M n = z S.i.J @.v.J *.2.E.& 8 H.6.P.` =.4.n F T N ` k @.F.| 0 &.i.R.b.#.2 ~ } R l L j h | L =.} o.y o : F.&XbXNX.X^.yX/.0XQ..X=X7 x ].Y.,X",
"..wXZ.:.^.GX{.].,X,X#.h 1.P U z *.f.i.P E ,XeX).,X X$./ c 2 V.} 8.*.v @.% 3 7 } / 6.% ' #.u.#.T $.u.o.V 0 f } | @.} K.C.f.&X..z m x ' H J c U U h } p.W z E ! k | -.d.*.H % y / F l @.i ^ tXLXJXAXKX1X1XiX}.E.M.l.Y f h } 8 ^ 0.J T i.E.A.^.'.<.H $.|.[.z.7 ) 8.` , 0 k u.Z.T K.~.v.-.{.XXrX} l.Z.,XR.H q f K b.8.&.I.tX4Xj H } p @.| 3.} 3.F g - { S.;XZXMX;.c =.1.J.dXeX,.F E X.cX9X.Xd.O.J Y.i.@.} ! &.v t ^ V -.3.9 ( R 8.@.q.w.3.qX4X$.&.1 : 7 e ~ g.A.} $ , Z &.0.c l J -.} l h } @ % < y.].VXjXrXtXtXyX'.Y.E.E.(.Y.}.eX,X",
"L.N.o.L.O.h.dXsX9X=X~...y.E y s Y.E i l @.y.*XY.,XwXxXxX!.Y _ m U =.*.&.} = < $ { K c * f -. .u.-.W 3.| r R l F ( i.v.C.^.[.,XM.4.2 ~ ` =.( } @.} ( C.j ^ i.&.J } | G k 3.H _ g x h c Y e JXFXcXpXrXFX.XR.i.`.f l h o.&.H R | W E S.M.m.E.Z.m.#.R T }.l.) *.4.4.4./ | P g.*XQ.|.8X8X,X1X0Xu.l.vXdX[.j g 8 k | J v F.v.%XuXW b H F | 3.*.3.( p 8.8 #.*X7XdXtX-.` 4.) *Xj.2X XE E.AXCXdXR.].X.| $.y.v ) b G v _ g @X-.$.g l } @XH.3.} / R.{.{.<.k H ~ '.&X) 5.i.& j F } } ^ J b 4.h J | } l 0 8 f.eX0XiXjXKXJXxXE.8XsX,X].W.|.-X^.",
"9XM.f.&XJ.X.a.1XW.Z.W ^ F i e + J.G k H P.=.~.M.].yXR.wXX.o.8 H P.H h F =., l f l F 2 . v f.-.Z.d.3.8./ / Y U 7X&XE.F. .~.Q.rX=XC., < 6.3.H U } G / 4.H.H G.S.` P J R ~ 7 2 = ; l =.l H F 1XiXeXcXcXxX0X0X].sX7 / l T *.F L. .E.g.n.-.[ Y '.D.R =.| } G.| ) P.^ l o.K  .g.E #.u.`.yXnXnXsX0X|.hXwX*.H @.&.l =.U #.E U J m.l k | / k @.h F l i R -.`.I.&XeXwX0 Z 3.< n f.~.xX.X.XoX.X0XNXQ.0XN.n 9 g t @ , c m 2 2.g ~ F 1 r 0.0.F.#X@./ 1.} 3.y.S.d.].>X2.E.`.0 <.t H d.-.| 8 h -.k &.j H L } s.NXfXcXGXKXLXAXcXT.z.9Xi.E.&X%XtX",
"9XX. .E.f.X.d =XeXwXh U f t z c S.@.( 3.-.} *X[.Y.Y.Y.].,X .E l.H F l W +XB.8 9 =.H G i 8 E.Z.#.$.H k k 4 n.4.tXF.A.W f.M.XX4X<Xn 9 b j 0.*.H H =.J -.=.%.d.3.S 8 , . V j $ V 0 l j U , 2 ,X<Xc.jXAXiXGXJXKXdX=XCXvXJ | f.=X9X[.,XY > 0 x i.8.&.} G 3.G.2 | f T G | @.H } v.n.*XJ. .M.rXMX0XxXtXH.@X2.0.%.&.*.u.$.$.T f.u.} &.G | 2.8.l h =.#XZ.`.| H.I.&X8 3 6 8.v <.S.,Xz.2X[ h.=XtXdX].=X[.}. .=.3 = @ 0 c l f f } c g h ^ o.v 2.H.0.0.w.2.D.A.oXQ t.} } -XU $.f.$.Z./ 2 n.H J h H p j E z z.NXGXJXFXJXcXGX8X{ z.Y ~.u.W.W.R.",
"g.X.8 n z.=XsXiXhX7X# 3 , < X.D.J D.1.J &Xu.<XE.wX,XuX/.].<X%Xh P } l / &.m.s 8 f.G } | -.^.C.} J 9.J f w C.8X~.%Xl.#.d.n.].Q.|.9 0 3.i p &.J h l c 3 <.4.6Xv.f F v 2.P.h } + % 8 H y x f (.T.dX2XCXVXsXJXeXW.<XrXGXdXn.i.2XaXsXsXM.V.n. .h @X4.%.k V.K # 3 *.p k k k Y E.u.V.wX-Xi.g.R.S.;Xa.'.p 4.3.o.K.d.#.u.>.T &.*X#.} 0.0.} / } h e =.=.z $.%.-.v.m.&X>.$ h h @.*.h Y J.^.5XBXZXNXJXBXpXoXJ -.0.h i ~ J l f j * = v i <.H 5.} <.3.8.=.%.4.=.V.P H l R V.].f.V.C.*.0 j #.=.K l =.F *XZ.Z.].sXvXVXJXAXCXcXbXE.l.x Y.DXDXR.Z.",
"`.[.d.X.&X0XdXcXwX4.1.| 7 0 _.S.| R b ~ P p.5X{.J.<X[.0XQ.E.<Xb.J } V.&.*.h b Z.g.A.H.E y.*X;X&Xq.w.J V & 7 g I.M.=XM. .s d.R.E.j y l } | 8.i @.k 3 ] =.8.} &./ @.H w.S.W } + s b c & z s.eXjXcXeXAXjXCXcXs.=XGXFXJX[.0X,XjXVXz.E.i.i.I.-.} } 0.-.g = r * g H | p l J G 3.=.> ^.Y.A.d.-.v.&X~.7XZ 1 k @.l.y.$.| } V.$Xw.=.r.K 8.} &.*.j 8 F f Y U ! } Y $.M.E p h v H 4.U k S { N.LXfXHX1X X.X].F 6.H | J k j G l } , c l i H ( H.=.} $X@.` 0.8.%.3.v.&.k } h >.].M.#.&., J U | J k &.F $.Y zX X-X].eXDXbXJX8XCXsXrXM  XNXdXR.E.",
"D.A.`.Y A.n.tX^.rXF.l.W x z {.f.U J z b [.f Y.;.X.z.l.v./.Q.0X8Xg.l u.&X' t E $.g.'.8Xu.A.wX8XyXF.4.&.=.F < | | E tXn.M.s.].M.#.E ^ H c 0.F 3.H f $ o.V <.V.h &.8.q.@.>.} :.0.$.Q 3 $ i.9X,XGX[.dXKXGXfX0X,X9XsXjXjX=XiXGXjXGX/.d %.F =.} K =.4.c 2 @.*.9 8 W N.S.h H 1 =.x s.u.8 S.*XE.eXeX~.V.T G } y. .'.&.H | { K.:.@.} F t &.@XJ z 8 | J b ' =.l F W Z.S.T i : x &.&.c z.x.g.u.8XkXX.eXR.#.H 1.@.o.H *.*./ l ( @.} *.h c ` $X=.w.$X*.` 8.*.J c c J f.l } ~ K %.g.g.H R I.w 8 G g 2 | 8 $.h.E.MX9X{.%XE.V.n.Q.s.W.}.Q.d.tXZ.",
"A.#.f.'.{.O.0XhXnXbX,Xg.'.f.f.f.s > Y Y.Z.m.D.f J | 7 ^ } m.~.b.d.f.&XG.K.Z ~ d.n.0Xg.m.v.yXzXxX&X&.4.k H / %.-.} G.7 n [ -XW H P.n l j H i j l =.q $.@.` #XJ k } 1.| <.G k } l &.F v |.~.|.iXz.KXGXJXZXeX.XCXFXfXCX=X2X=XdXjX(.Y v.F *.=.>.k =.} T K.=.#.@.| v.Y h &.<.q 0 0 -.9 H '.[.Y. Xd.v.%.W S.f.$.C.l G k =.l y w.+ t 6 w ' <.) ; # 2 $ ) w.J *.u.R.d./ F v 9 Z y 0 m d.<.g.D.{...X.;.i.L H 3 j g / >.8.( y.u.| c 3.P -.-.8.@.7.G.G.q.1.4.@.H U h H } J | 2 Z f.m.u.q.q X e k %Xy.0 8 j  .V.u.b.n.d.R.Y.'.[.R.,Xg.u.g.i.",
"[ a.E.dXcXa.h.l.<XfXm.'. .| W #.n X.A.M.].0X8XV.d.g.v 8 ; % -.E.V.3.d.8.I.j y.i.R.Z.a.R.^.yXnXtXyXA.H H l } 3.@.#.d.>Xd.*.f.C.} *.&.>.V.| b h U E.-.&.>.H G } b j h @.h k X.< &.h y.b l $.|.eXa.eXPXrXNXpXqXjXpXNXJXHX(.^.VX2X3Xd.A.H.<.=.8.} 1 , @.=.;XeXB.H *.} H E :.n 0 e ( 2 v.Z.R.).].E U W $.A.i.).d.$XC.1.1.^ v <.` / 3 ) ' F.>., l =.Z t R H l v.f.U K | 8 < 7.0 ,.'.Z.H F | d.~ W. .m.#.@., Z v ` & f *.%./ @.j ` =.>.-.@.p l &.8.b &.| @X@./ h *.*.@.( c t h Y n g | ~ f | D.U 8 W f.H c c #...Y.A.d.V.$.[.bXl.-XQ.cX",
"T.fX XsXpXjXjX3X XiXn.Z.3 y.-.V.F.#.-.K.<XE.R.&X-Xv.W >.n n S y } | F k f l K.b Q.,XR.Y.].).).K.>Xt . j g R G } W f.I.K.#XT -.l F #.C.F H &.h i.g R.8.K.} U p *.k k / / u.wXr b ].W.l J =. ./.LXAXcXiX9X X,XCX0XHXDXHX X^.c.GX8X^.S 2.3.8.xXf.L 2 Z @.{.Z.$.l.E d.$.=.H < y 8 E.[.R.b.R.].U 9 #.:.K.C.i.b.jXJ.4.H.K.e v / | 3 @X1.' y 4.G.q.&.1.3.R @.E d.v.F #.u./ | 1.t 4.| / l H $.X.u.;X'.V.f.| e.& ~ ' 8 b A 1.F | H.4.<.3.%.$.&.h | f j F F / / 4 E &.K P._ + , i h =.) : l 7 3 -.b  .E J H G S.3.W.1XxXW.pXR.[.0X|.CXCXZX",
"<Xz.O.dXbXrXrXgXjX/.J , x %.h R q.l H U  .v.h.].Y.].$.J f H =.*.4.@.* } } Y | G.#.{.R.}. XM.E.].A./ g = ' G R @.F q.=.3.#.v $.f.%.$.T 9.K.#.J.g.+.F.G.} &.*.l F h G F p c @.W -.a.h.T =./ | n z.FX2X,X3XQ..XaXeX1XsXHXZX3XjXxX,X/ 3.#X&X%XG.I.t.} P.}.[.d.E.%X*Xm.d.:.V.n J 0 ,X=X^.).E.#.Y d < #XK.E.&XS.rXbXwX*X~.I.G./ 3.w.@.*.y *.G.H.,.y R 3.=.h } K.$.l x t.k / ~ ] w 2.F H H 0 o.Y J.K.i.g.V.P 0 $ v =.#.f % : p k E ^ 0.*.W @.P h -.k k h H } | [.l H.} &Xw i R L H R | G * $ u.l.T R R K <.h b ].2XrXjX.XCXzX,X%X|.cXjX",
"c.x.2X<XeXyXJXJXSXR.u.& u 2.*X1.P.V / } 0.V.&XZ.E.n.&.h J l p R } @.R < J / l @.P {.<XE..X-X.Xi.f.J e * 2 @.k F @.8.$.H U } W #.>.L.&.-.M.v.d.`...Z.>.l.4.$X3.J J P.| H ; &.h 3 ) f p b 8 1 b z.3XDXzXz.T.fX1XFXbXFXHXcXJXGX X1XFXbX3.PXdX;X%X$.Y  .| C.K.K.~.d.Z.f.u.K.&.c X.Y M.d.V.I.R f & + : `.A.S.7X;XuXhX&XL.H.,.w.@.} =.1.4.8.6X#.{ =.E K.J h R E } L f / ` F } 2 * & v 8.*.R &.S.E.].;Xg.~.$.} 8.( T %.c u.c m t 0./ <.*.=.9.3 } 3.} l H ( } l k h H H R ^ 3 } ' J l h @.L $.= f.#.H E.N.@.k S.[.ZXcXDXPXGXf.} U a.d (.",
"dXT.eXFXxX8X8Xu.XXh.a._.V 8.C.I.R 2 ' p 8 x f.$.n.'.E  .$.v.h w.@.7.G.8 f u.;.%Xu.%.d.N.x @ Z.y.#.v $ * @.J / | T R -.8 f P H.K.C.%X[.{.<XA.d.v z d.d.f.8.3.0.} &.=.H H i   & ; F =.| T g 3 p L.F.%XeX=X=XfXSXsXrXJXsXGXHX|.sXJXAXcXJXPXDXnXeXE.n 2 7  .#XE  .-.} p.i.K.%.} o.g.$.l r f *.N.Z.n * d.<X;XL.3.C.wXeX*XR R l U p J K 4.#XK.T k j &.R d.A.f.H 2 } h @.*.h F =.G 0 | | u.J A.-Xg.,X,X=X'.L.@.k F u.y.-.Y / 3.<.w.w.<.0.w.H h t c R Z.J 1 H H k F k @Xk 1.5 k h l * + t 9 | g +.@.Q E.p.{.i g.0X1XpXrX^.J } ~ ;X1 g E ",
"pX,X(.AXsXeX,XhXa.z.$.Z.0.K.L.G.J p c @.v.{.3.p U U u.;XE.`.f.S.S 7 -.Z.C.#.b Z.,XpXNX<Xh.j.n.C.W C.^ Z 3 L 3.H R #.} j } 3.| V.F X.[.eXA.d.x w K :.>. .*.A.G.( C./ k K H 2 9 c 9.2.8.P.i 8 1 Z 0 L H ;XJ.M...8X,XrXcXCX9X.X0XAXvXXXfXJXKXAXCXAXK.[ + g t.K.A.%Xf.g.`.-XS.l.a.=.2 f.8 9 t , g + <.F.6Xf.=XK.C.=X$.E  .n. .K 3.p  .E f.7XV.Z.^.p T S.v.z $ 0 ,.p &.3./ =.R c V 3.j b.y.d.pXM.0X|.C.f.S #./ f.E V.T U / 8.4.@.3.H.P.<.h F 8.%.t.T =.w 8 @.=.h l &.H.y G h F @.* X X w C.[ l p :.t.Q jXA.yXJXA.wXGX=X*XT #.m ` ) F ",
"/.z.=XJX,XdX].oXa.%XL.:.7XjX%X%.l F H K &X| ~ s >.l.n.;X[.wX*X&X8 0 m u.{...n [ ].dXsXtXi.h.l p.l 1.*.g p :.l -.} g x v j y R i L f f.d.@.l $.%.f 0.:.f.@.y.8.0.@.H ` F m L , ` *.4.q.4.1 ) q.} , 3 a K ^ 4.g ~..XGXfXzX|.a.c.zX1X~.GXjXKXfXdX1XeXR.{ K.C._.i.f.i.Z.L.~.D.J.m 4.3 Y b l } H =.Z ^ Z.;.6XX.6X&XJ.1.i.].Q.'.R H V.-.W -.$.$.:Xf.y.E E.g 2 l &.e =.8.&.<.i 3.*.2 H < } 0.%Xu.Y.9XW./.x.A f.1.v.#Xf.D.v./ 3.T / -.,.0.j ( :.F.G L | E 2 J H @.H J } g } K l 0.l &.~ < - c 3 y T h *.b d.g.U sX#XE xXV.*X9.~ -.F.v E.",
"j.3XjX X.X X X0XY..Xi.S.*XMXV.d.h j U | l } b 9 < Q.{.<X[.wXg.A.;.*.d.Y.{.} d |.2Xn.|.T.X.V.p G ! | h } 4.F Y h H T , % 7 0 f - 3 &.*.x.3.J H K H H h @.n.8.2.P.l 4.H / 2 0 h h j ~ 4.H.0 + G F *.*.} p P.-.g b.s.cXT.1X/.XXJXsX2X XHXIXZXZXVXjXZXpXbXW d.aXiX{.u.A.#.K.;X7X-.o.< n T T $.S.wX7X8 q d.=.x *.S g l E XXsXnXl #XL.$.;.A.E V.U u.i.g.#.b 9 C.H ` ^ g F * =.^ K j V + 8 y.V.d.N.9X/.J.o.R.:.| V.f.V._.oX%X6.F.*.=.E F H N.Q } &.E , f s 3 x l k =.+ & 0.F =.1.} @.+.b l.U ^ J 3.h H J &.l.[.%XC.'.I.V.G.U k / 8 t a.",
"5.3XGXXX9X].xX1X8XE.R.rXnXbX%Xz G l b / k h | oXu.T.0X1X{.3X;XZ.f.V.A.].9X=X2X=Xs.jXdXCX^.3.3.&.U R p / 8.f l k F k 8 : ~ ~ j 8 ~ r 0.@.H h ` F =.K H g.R 8.0.1.0.>.<.l g k H v e / =.| R f h F b | k -.f.#Xn 5.[ 2XD rXjXkX0Xc.T.c.fXHXZXvXfXJXCXjXVX].-XsXmX Xd.U H =.F.L.l.$XA S Z A E $.wXO./ 3.#X$.W J ~ k g.H d.,XI.8.C.8.3 l } i.V.:.v.y.n.`.Y #.W %.l 0.=./ 1 H e v c L W { ..T v.Q.rX}.R./.N.tXN.4.l.H T `.-.6.3.@.>.G Y 8 | 1 L 2.w   , L j :.| / H b < *.F h =./ H W E.g.| j k K *.K | | K.B.B.k | 3.3.3.G G F d.U z.",
"dX2XrXmX0XeX.X|.oXE.K.M.tXLXN.p 9 H @.b *.K } g.z.z.g.^.|.{.y.oX_.X.u.[.AXzXhXvXjXZXLX2XZ.8.=.} / G @.&.i.7Xh b l =.v v &.} H t y S / &.w 8 + 8 g e 4 &.b =.=.=.@X6.=.~ v $.h H j *.h K } } H 3.l i / | L.L.C.5.Z A - s nXIX<X<Xx.cXgXCXjXJXZXsX0XbXGXZXCXNXQ.Z.#.H E f.I.P.3.C.:.^ 3.U =.d.W i v.m.&XR T &.W f [ z n =X:.0.C.[.9 G Z c M.v.i.W >.K.Y W.A.D.u.H j h f X w 4 K o.J w Z.wX4X/.E.].].E.*X#...P.G J H.[.'.i y 6 @ T H , ] x ^ v 7 w 7 L >.y.Q J / h ` 3.2 q u.W #.f.l.R.V.g &.F T H l R J 3 p.0 <.| 0.*.l k K M.rXZX",
"bXeXT.0XeXvX9XbXY.n.i.b.t.{.`.Q ,.:.X.U S.-Xd.].Q.[ O.x. X[.f.:.A.8 c R.CX0XX. XgXgXCX2Xg.y.T 8.o.J } / F F =.H / } } G 4.} l H 3.0.=.=./ e g 3 y ) {.H ~ H =.w.w.=.C.E >.H K R &.( j H } F U k h R #.W V.3.( ^ ' +.v + *.g. XY.=X=X}.|.9XXXdXrX|.bXxXLXzXVX}.u.U %.<.K.H.*.<.k 3.-.| =.4 c z W A.=XxX].#.T F } &.d.g O.n.>.H.qXR.=.| 2 W.9X0X#.J V.i.= U '.y.$.8 v # X ~ 8 6 9 %.j E.Y.,X0X|.bXdXxX0X-Xu.#X6.h <.&.( l , $ + g @ 7.7.8.3.j } } v *.3.=.g.H } @.w.1.2.8 a.E R.d.-X%Xk h l l 1.@.} G g $ Z.} F P.H f #.W.( %.sXcX",
".XjXJ.;.d ;.dXZ.Q.E 3.7 v } P b n a.g..XwXZX~.tX[.R.+ x.|.wXu.l =.k | Y z.z.HXfXAXGXdX[.m.d.f.@XF } K } J b q.Y k p *.h G T T W P R h ^ Z =.J J 2 / R.v.} 8 < R P.| `.a.Z c < p J *.g F h R } H 0 8 H l.C.-.4.' 3.Y @.=.-.b d.eXvXGXsX1X1X|.|.(.eXzXzXzXcXxXbX].{ $X_ | G.g W b z 4./ 4.n.L.E } >.[ tX1X*XA.f.f.d.g.X.$.u.H H n.H.4.4.H M.b.y.i.% % q z K S.y.d.d.b x.#.d.F @ # j E.g.E.E.0X[. X.XvX~.E.~.E.H b &.H c 0 Z 9 2 Y -.<._ <.*X| @.y ] =.} F k H &.@.@Xk < qX$.-.h R E n.w.P.*.c 0.@.`.=.H.g h j W f.V.d.b 4X4.4.xXsX",
"9X9X9Xl.0 z.<Xd <X-.y.b $.E d.- - { 8XcX0XxXhXhXeX1X0X^.T.-X#.| p l k c Y j.VXiXO./.sXD.u.g Z.f.{.} | H J } 0.H.H @.k l F P K @.P l 3 L 0.8.k 3.<.=.e yXy., $ 0 <.&.u.5XB.0 1 K =.R h } l | 4.k k L E A.L.C.T H +X$.o.2.^ } D.eXpXGXfX1XjXaX~.O.zX=XdXFXbXKXeX|.X.t w 1.*.` r t 0 P j , %XE.S.H r x ;XuXAX'.[.'.m.S.;./ P G h H =.8.G.l 1.=.G } < S : =.n l.{ b Z.f S.l &X[   V 3 3.P.h.).R.{.].x z.dXR.|.,X:.' | H } ( t q.r $ S.,.' S.>.~ <.c $ v =.&.F k k :.3.q.K.C.l.F H H E.m.| r.i G H F.{.#.%.g *.n aXy.*XrX;.x.H.9.$.1X",
",Xc.|.<X;.z.O.O.n.'.f./.~.y. .n.sX.XzXiXhXXXbX/.,X0X0X .x.A < l H =.y.< s.z.1X,XbX0XR.n.Y.^.8XN.i.F.h -.&.F ` a 2.b | | R G 8.} ' b J k k G | 3.9 c =.N.[ m & & -.H -XUX+X} Y H @.k H g h J } l &.| V.m.E b G g.Z.f &.:.n [.tXiXcXiXJXGXZXZX=Xk.3XGX3XGXGXSX[..XQ.: ; 2 5 l v % z } &.j l H ~ | % - 7X,XeX|.[.).`.n.J i t h K / H l l h } k *.k j ) y 3.m J >.Y g Z y.{.wX$.= a ` 1.&.f | [..XeXeXE.Y.|.tX1X[.y.} h 3.G 7.' ( g G $ 0 I 6.p l l l 3.U } k H 1 } I 3.H.L.3.l R  .g.y.| F K } -.B.L.l F <.) J.B.8Xa.~.A.&.-.h @.[.",
"CX Xz.XXvXrXk.R.E g.m.%X~.f.#.Y.0X,X1X|.9XeX-XyXA.).oX,XA.q ` F } R n T.C.J.rXW.}.f.z.xX0XeXDXz.{ x X v J / *.=.=.=.k F | } &.~ ^ H h =.8.+ y 7 7 $ ..d.N.u./.x.$ 2 $.NXp.1.C.E =.C.P G -.%.k H H f.#.i.V.f.A.$.k h ~ n T.DXVX9XNXCXSXCXCXjXNXk.VXiXJXJXJXdXu.T.v.&.q.=.4.h R | l T #.C.d.=.e c + 6 o.q o.(.l.8X'.C.p f j k | F &./ H F H } 8.3.<.C.K.+.w | < , %.| -.n.g.d.| l 4.H H v.`.W M.].xXeXrX1XR..X0XK.8.2 H j %.J H i k +.@./ K j ( H F H &.' ` 0 v J 0.-.*X*X} T g.~.f.| p K H ' _ A.*X1.-.3.s wXT x $.m : s ;.h 3.,X",
"ZXsXj.dXdX0XxXd.W d.g.wX%XF.%.E ,XW.pXsXdX;Xn.D.E.*XuX=Xf.b @.k @.l <.[ *.7 E a.E...x.%XfXdXL.-.J h g h | R o.i ~ F k z E a.H K 1.H.` Z 3 ) 7 < g y 0 ..^.N.}.z.o.,.tXC.&.H 0.} 0.H >.J <.} l G.f.f.K.$.V.} W -.K } t 3.S.'.mX[.0XcXBXfXJXcXDXX.2XfXJXVX!.(.l.M.F.V.V.w.6.*.F | %.F F F.L.m + i V   & : > +.!.rXE.T 8.| h k H @.} H z `.$.( 4.w.3.mXyXR.A.A.-.b S.l.P ;.Y i.} 8 1.H H 3.rXK.v.R.M..X9X9X,X,X.XY *.9 f l | | H V.V.d. .c v i 4.p G p V 0 ' x Z 0.C.>.C.L.i.g.-XZ.U H J p H 4.G.q =.R.f.& 0 8 A *.f s n b.L 0 $ u.",
"fXiX,X|..X0X].i.f.} ].U 5.6X'.8Xa.{.9X9X].~.d.E 3.R K V.l.} 8.*.h m o S ;X:.d.g.-X.XA.^.2X(.L.h f h K %XH / c 8.w.*.E | *X'.>XJ H =.p 8.P C./ 3.j } h ^.q f.h.!.Y.E B.'.&XF.8.} h *.b.l J.u.-.f.C.#.f.H y.U U %.8 H H f <.C.Z._.E.Y X.{ D m eX2X1XZXPXcX XiX].y.$.M.E k K U j / &.*.l $.$.E | P.K j 1 ( 4.K.sX>.l.8 X : *.R i.=.| h H oXb.i.x ,.*XyX8.1.4.P.>XS.-.c d.K.'.#.f.#.>.} } K H.[.yX].9X].k.(.a.j.a.A.g + r p e ~ E L.P g.V.K.3.f.L.V.p K Z & ) l.3 E U u.V.*X~.~.%X%.H H F @.=.>.&.6 ^ H @.c 8 b > g v ;.x.A.b < + 9 ",
"rX X0X|.eX1X|.E.g.D.$.x x +.f.X.M.W..Xn.$.%.l | K &.J 8.&.@Xl i 7 t q H.5.D b.n.n.].|.9Xn X.A.v.R p P.0.j / ( i | =.0.=.8.;XE.f.3.3.U } r.&.H &.Y H.=.^.W.iXaX0X8XE.-.tXrXxX&.< 3./ W F 9 } W } *XG.f.Y g H v.K . * F =.0.} -.O./.=XdXk.j.(.VXNXsXZXT.2XPXIXZ.h.E d.v.W H l @.*.H N.i.f.d.} / ( v &.* | i E.4.&.c t ` 0.8.} } F 2.r J =.R 9.=.=. .$.K } H.q.w.4.3.&.'.3.f.#.;.| _ , | b G.yX8X,X[.jXeX[.^.x.Z.0 % < l c , #.d.=.&.k %.Z.$.$.*.j l J l F T J.9 d.$.V.f... .%.) } F l } G { t ` @ f P T W K.-Xf H.| ^.~ O.yXl c l.",
"u.0X,XeX0X1XdXg.d.#.D.5.Z w V.V.~ A.g.} &.E =.b L H h =.@.@.R % , J q w.#Xl.Z.E.Y./.W..Xa.A.V.W T y.F.&.H @.j r 2.F.@.3.w.=.H.C.K.l w.&.| 1.:.3.=.,.;Xh.pX0XeXiXW.b.%XhX[.9X@...V.-.U n + o.o.8X~.#.| } Q v.y.&.c f H R / p H g {.wXcXx.O.s.rXCXFXZXGXfXsXXX[.V.f.l } F h h l R G `.n.i.D.d.T H R <.; e i Z.H w.H H H T 9.8.l 3 , ^ &.l i & 6 1 } h K &.w.G.`.-.w.3.R z c l 3 ) q 4.*.0.I.x.xXY.[.eXDXdXeXR.U 3 z | } G < | n.U J K H H m.W F / C.P #.%.$.U W =.J [ D.W } P.Z f h F 7 R.x.$ y Y *.:.W A.6X[.-.U ..+.-X&Xf.$.k z ",
"g ;.{.<X0XbX1X-Xd.b.%X%X4.K 0.0.c @ } $.} 8.V.>.V.T :.K H &.=.H H 0.l Y V.6XM.A Z.].Z.;.~ A.C.K H -.3.=.* 7 $.h v ` y 0.E.U @.C.C.`.f.h 2.<.H H.^ t f n.].1X;.nXxXM.{.bXcXM.-XS.S.E K.V.c 3.J E.| 3.G t.n.Q Z T :.G j j ^ R ^ ^ .XkXCXjXT.h. X,X3X9XJXbX,XyXy.i. .F.G J } R h 0.h | =.} y.A #.[ f @ ~ *.| ~ H 1.} h k &.2 ^ 1.( *.Z H T 2 * g J l k i / 0.4.@Xo.<.2 2 r $.3.1 @.K 3.w.F.;X=X[.cXFXKXZXGX0X,X-.c A./ F G @.=.&.Y U H H } / d.} k E iXxXf.A.$.d.{ J / k =.&.4.3.:.-.2 J N.wX;.Z Z ^ b g _ E.W.#.y.S.x.&X'.} | &.3 ",
";.U ;XDXyX.X,X0Xn.E.Z.$.U f.E 8.t e v K f e T $.#.#.j @.K ~ 4.H h f ` L.L.~.].1XQ.pX,X8 $ 8 L.F } } k & + g J ' ^ 8 ( R k 4.<.-.#.n.%X;.q.0.} 3.( C.Y T.{ ,X=XxXsXxX].1XpXQ.).g.%.u.d.d.Z.#.U | e j =.@.+Xb.8 H ( H | f + Z R l |.GX=XsXlXkXZX.XQ.W.cXsX`.:.#Xw = i p @.J / 3.l p T $XZ.K.wXJ.b d.~ m + 3 c : R g &.<.g 0 % K l ( &.@.l l h U =./ h *.=.H *.=.1.y f | H %.S.D.&XV.$XG.wXF.Y.<X1XGXJXKXPXJXCXb J.J.d.G } U / h l } G } H h oX-.|  .n.N.W.<.-./ G 1 K @XH | i =.b k f J / #.A.@X*X&Xm.J W  .Z. . .K.4.L.3.| =.| o.",
"$.P..XrXfX.XXXO.a.f.z V.S.3.W | 3 , &.@.y ' 8 #.U G } &.R w.&.} h l C.f.'.;XW.j.m 1Xn.:.8 T K J G =.8 / j 4 c 2.| $.W | 1.=.| -.j n x ;.%.| l *.=XL.,XiXpX0XrXGXCXHX].,X9XeX'.0XR $.l.3.U 3.-.>.*.t } &.h } . 3 f H J 2 , k F *.Z.E.n.).|.W.9XpXHXHXfXwXS.'.o.> c 1.F k i | 2.w.&.@.} >.d.D.D.).d.d.( i >.J 2 H J H k j i i < l h , G | l f j 3.^ =.<.8 K H } $ X 1 =.L H k 0.w.L.&X;XwXyX,XtX XJXGXGXAXvXiXdX[.eXA.J R $.1.H U k H L K K.b.H y.3.b.{.R.T / e h f l =.} / F J Y H =.3.=.k H n Z o.$.#.-.U C.>.=.>.Z Z h } %.V.i.",
"D.f.L.wXkXrXzXgX^.g.@ $.g o.~ m  .i J 9 % t z 2 R { 3.k =.l F J 3.d.'.R.d.].R.,Xz.+.c 9 r 5 7.@X&.f % @.k | v 2 3.h R #.@.&.1.3.9 3 < A.7XD.%X~.wX8XtXcXVX0XvXbXnXDXnXR.-XxXY.'.g L.K.h &.%.&.( c <.=.} =.F x c 4.| J l * H / l f.f.f.B.|.(.-Xb.Y.h.A.uXI.q 0 | K =.| / R c 0.8.l p c -.G.K.C.4X.XM.$.3.H l 3 G =.} ` G e J S / &.@.b G l &.J ~ v 4./ 1 } H q.9 q | l @.} / H l q.'.'.+.G.n.R.tXzXKXKXGXzXiXVXpXcX+.' e u.U R p k ` 0 T f K =.h j 9 t.8.>.E =.@.&.K h F } &.T E f.} J y j g S A w m z o.d.n | &.I.V : -.@.} $.y.",
"E.[.,XQ.|.=XvX8Xu.d X.n.f.b.U j Y H H &.C.v _ H } Z 2 K F.F 8.l.A.i.A.E.E.,X,X.X^.$.9 h } J x 8.3.T F l J 1.v k R.p K.W C.F 4.T $.-.$.K.%XK.xXT.wXz.XX|.cXjXiX2XnXeX,Xa.tX'.tX-X&X=XXXoX:.:.>.8.=.1./ -.J k R 2 @.P l F H 8 H } * z V.E.d.:.E C.$X8.7XC.3.t V H G 2 i / F v t 0.H l < y L.K.I.$.kXE.d.g R J U | H.$.=.G g _ p H f *.l &.@.^ 8.^ w ) L & j 9 k I C.J *.l =.L l H 6.P.p.).g.g.E.E.nXCXFXZXcXNXfXfXAXl.& + A.eX@Xh 0.j f L l *.5 , < | l P.0.4.R *.*.c / h R j %.W E i.d.#.$.-.Z > Z b < E T 9 $.V.k w _ H $.G V.~.",
"M.h.~.8XXX|.|.{.].R.E.a.'.A.y.D. .K.u.A. .d 0 ' 3.*.=.| L y l X.d.n.u.`.wXhXrX0X*Xi ' / R S.F.V &.&.3.} F p 3.o.Z.} D.v.7X} b ~ n o.{ | g x.O.SXKXvXjX}.0XiX1XGX.X.X1XsX0XR.i.V.*X'.sXlXf.~ >./ 3.| h H R H 3.h Y L K =.&.1 p , -XQ.n.oXb U z :.&.w.&.4.8.3.w.H F / v 8.@.0.H >.( K e , 7 V ;.tX;XwXT f l F R E $Xl b 5.%.x F h &.@.7 x , v 8.) : ; 0 j 0 * $Xw.3.J h F J b f h H } u.R.n.'.`.~.xXvX2XfXjXCXCXcXbX% 6 a.n.V.=.8.8.&.l 1 &.e ` k p l h =.=.8.&.b o.k =.&./ ; 8 3.} -.{ q 8 X.|.3.G.l.Z K.E 8.G.A.G./ } H H <.3.f.",
"-.u.a.).,X{..XM.[.&XY.} F.Z.D.K.S.%Xg.D.=Xm m Z } &.0.H.x :.d.'.'.n.n.wXwXxXxX^.J.h c J #.b H.y @XH &.k H K l H nXv.d.Y.&XR H % 0 7 } V.dXCXJXGXPXbX1XaXsXR.|.].X.9X1X4XjX/.]. XY. .;Xf.z J Q.{.a &.k c f L R G k l k H %Xo.=.h.W.sXW...9 x m A.%.q : *.4.8.8.R J E K @.o.4.&.} ' v U H w - o._ { L.L.v H  .W } &.z n | '.hX$.e t 2 2 @ W v w V 9.@.l i h J 8.&.8.j J H f h &.$.l E T D.d.E.,XE.yXsX1XPXZXVXrXW.$.Y ;XE ( &.0.1.( } h , | *.=.h k k &.@.H H t % c h 3.4.3.=.} o.d.%Xg - O.sXFXJ.'.l.x X.l @.4.&X;X:.=.i.h @X:.$.",
"z x.K.u.v.;X{.g.u.Z.Z.A.=X-.L.'.7X%X#XL.E.`.C.f.F.3.| V.F.&X;XE.tXg.g.g.-X<XrX=XC.t 5 f / = = G 3.9.w ( E | f } jX4X'.0X~.$.H R 0.} J H ].CXJXAXKXGXDXZXHXpXg.).O.^.Q.,XvX;XR.R.g.E.8Xh.{ x.S -.-.L.2 1 l k &.8.T c K } j O.(.*XtX,XR.M.z Y f.< 6 ) 5.wX4.3.4.H ~ =.p i / ( 0.' 7.#.[.9.0 9 % Z m { L.d.&._ #.J L @.R.o.6XhX].B.#.W =.} :.P $ H H.$.J K K ~ 4 } $.J R H F H =.i W y.I.U d.wX<XM.].<X/.jXjXAX|.T.=X.XsX,Xy.l &.@.*.@.2 * @ F $.( b 0 c c e k &.1.q @.| &.R 8.3.3.>.;.f.c i.bXzX Xf.*.x x.f.#XG.v. .u.=.U K h =.H ",
"h $.f.A.f.b.E.R.d.u.9Xu.[.N.C.0.4.%XH.uXMX3.@.J 6XV.C.F.K.l.&XyX%X`.E.d.<X;.;.H H } b x ' t $ =.#.~ ] *.c 1 e f DXA.g g.R. .K F } h h p A.KXkXVXJXLXGXCXCXKX0Xz.a.wX,XwXtXxX].K.E.Q.eX,XE.f.u.C.V.q $ = * l / h H G.k v K.).eXM.W..X2Xo...h.[.E.8 g #X-X*.o.H =.H l h &.| w.q.0.w 2 *.h s s v.{ d  .'.[.b 3.K.V.D.y.#.c oXBX[..Xu.m.J H &.~ f g 2 * k l K 1.G -.n.f.%.*.=.b l f.&.i.i.H @.E A.`.Z.M.=X/.).0XM.Z.wXd.V.l K c =.1.0.} H @ / *.y.g.* @ *.h T } h K H G l H k =._ r v #Xd.f.^.GXbXbX].K.3.b L.;.l.K.#X>.h U / 3.i.H ",
"U -.$.E $.K.R.|..Xg.].x.7XZ.@.3.| $XG.wX4XR.t.J 3.G.7X*X&XyX,X=X^.s.wXR./.+.Z 4.W 8.=.R t *.=.&.8XV.S Z 8 f v i.;.[.[.i.u.} &.~ 2 K &./  .iXfXVXdXJXAXCX,X,XpXh.z.E.[.xX.XdXu.E.].zXxX[.).n.u. .[ z 4.q 9./ @.l / @.k t C.z.0XUX8X/.,Xs.8X'.Q.R.i.~ >.#XC.} 3.G *.8.*.2 0.0.3.@.F } k g z A { < 9 b d.~.W d.S.*Xl.L.1 j 1XFXW *X>.Z.H } t 2 2 @ 6 c R 9.` ) g E ].R.f.m ~ g.i.).~.m.$.~ t ~ d.g.R.].[.n.bX,X].A.Y.f.| =.T h J | P.y K 3 9.@.} o., f , 2 H H H L 0.} H l U P G g H F W d.wXCXdXGXsX~.#.E V.E 3.@./ H =.H U F 3.} ",
"h o.k R =.:.E.eX,X].|.0XT.wXV.| 8 ^ 0.7XDX%X>.o.~ *.^.xXbX,XJ.J.% ;.rX).0XO.8 K.=.=.i 2 H | h H -.y.l., v q D.b.Y '.E ~.L.=.f 1 =.4.K i j Y.xX1XcX/.-XjXAXKXcX9Xx.z.FXnX<XXXeXjXdXDXtXxXcX4Xd.D.E a.&X .G.| 9.f < t b } 9 $.Y.lXR.}.wXJ.-Xd.n.n.Q 8 S V.} k w.P {.f.2 j 4.3.w.f.l k c o.` *XwX{ &.X W %XrX:.w.K.[ n >.;XfXpX=X7X1.8.0.} B.E k g L K k h p | s f [.8XE.R.~.Y.X.d.i.U / -.8.-.$.E.n.X.h.W.R.-X].g.Z.-.l h h #.&.' ~ + 2 , t p j P   + l >.-.k &.H 2.G.=.=.&.j R } H R I.yX0XFXbXnXbX9XrXu.&.A @ H F.4./ l k F &.=.",
"H | F l } a.=XQ.0X1X9XdX|.wXd.>.@.V.0.4.( 1.T H l / %X;.rX0X^.5.D =XMXMXhXiX].&XY 1.*.,.h =.@.=.w.L.3 2 H I.[.Y u.[ d x p M.h } ( / &.% | M.[.<X{.n z.9XsXrXY.=X[.rXxXvXmXjX|.hXdXE.tXtXDXR.f.S.V.W } >.<.p + C.f 8 H T n 8 Y.M.!.,XO.n h.g.E.l.} P 8 v @X| 3.#XlX}._.d.#XT  .#.%.W g F.| #.7XL.0 q + b ` H / C.^.;.tX{.|.dXZ.o.K 0.L.*XE.$.@.F k / =.L G +XS._.[.].].h.hXMXE.-.W F i R q.w.6.*.x +.d %XW.E.Y.u.g.&X` 0./ =.D.u.k g h T h *.W } q < z k k &.*.h <.) 4.=.=.=.h F | G.;XqXKXCXFXnX^.'.+.+.b x < %.v 1.4.} E e | | ",
"W T E f.u.S.E.JXsXiXsX9XE b D.f.3.P.0.H ~ ) } F T H W n =X-X8X;X'.1X[.tXDX9X,X&X<.E *.| | ( 4.0.8.H.^ R =.f.V.R.R.^.g.H H F k } g % v P :.A.A.u.S.n...h.T.z.Q.l.<XtXiXeX1XrX0X8XwXQ.E.hXZXeXE  .-.%.| } 7 3 % R } n 8 :.} g +.M { 9 ~ J.R.v.d.H k j 9 [ H H E } v.W g.b.y.L.d.v.E d.E  .n.h.Z.~.S 3.1.  r } p Y <XGXnXxX0XXX{.*XC.L.6XI.*XR ~ i j F 1.H Q d.g.[.0X,X}.9XkX9X&.G l R &.:.| 8.&.2 = n A '.-XZ.l.yX$.v.q 0.j k E g.G H 8.0.{.B.R @.x $ ~ f j e 9 @.} ` 0.o.@.| ( K -.8.tXFXFXxXrXyX*X*X[ ! ^ t @ 2 } 1.@.T -.s.G.W ",
"d.D.b  .E #.&X/.T.gXjXz.W...g.i.C.V.K } K / Z i W J F f.&X=XE.n.&XwXtX[.FXZX0X{ & W &.h @.=.( <.q.*.g + H 3.`.%X| l.*X&.@.*.4.K l ~ i J F J E >.#.y...a.{ m X.+.c.tX0X0X|..XfX}.R.&XW.eXDXbXQ.n.u.d.A.w @ & X 3 f / J $.@ 7 < x - @ $.C.a.#.V.@.} J } s l d.A.Y g.#.#.b $.K.W G.K.g.V.U Z.z 8Xf.V.V.8.f @.j =.7 A.bX].<XbXBXtX`.;X`.DX{.G.H.4.J l 7 @.H @.` [ n.E.[.sXfXXXu.8 } *.@.l =.&.=.8 @ < -.f. .].tX5.X.>.:.t K 8.h H J F H } 3.} } l } *.H b i T H 3 2 , ( [.&.@.W 2 v } P.xXMXuXhX0Xx._ ) #X=.d.R &.k l @.i.s n n Z.$.",
"Z 2 z 3 F.i.&Xa.D c.2XrXiX{.].A.-.} U %.H F 7 r >.G.1.@.F.N...+.S.R.tX~.uXaXsX-., R.-.=.F / k G.%X' ~ $ @ C.J.{ S.%X{.i ) l p F 2 , / H 3.:.H L | K.;XxX .[.z.[.rXeXzX,XeX,X|.,XR.].h.&XtXeX<Xi.N.;Xl 9 B : g ^ @., H H + + $.K.#Xy W $.V.6XP.| 4.T m.0 ~ ;Xv.V.W f.W H H.V.#Xl.T d.a.a.~.E.%XA.} =.P.8.&.p l h *XbX0XwXxXdXd.$.'.sXiXW F.4.H k , + c -.8.H.C.6X;XyX0XT.Q.^.< t 6./ @.8 =.h v g h @.E d.X.x.D.A.x | ~ %.E &.8.j | R k &.H @.} | -.W p p h 8.@.K K [.Z.S.R L + X   v 9.d.%XL.d.x : Z F.} %XH l l K ! } m 8 [ x z ",
"U m c W #.c  .Z.z.n z.2XzXsXoXR.K./ @.e H r # l H >X3.h }  .'.Z.;X^.;XE.Z.ZXBXQ.H ,Xl i l h f =.t $.$.H   < n R.m.d.K.v t Z } # @ R.d.l 6.6.Y L f.d.;X7XwXtX,X<X[.0X9X.X].).iXeX0XZ.Q.tX).[.xXR.n ;.P G @ o % R h y.t.H K.x *.l.S.A.3.H U @X#XV.*XA.E.7X^.&Xd.V.U #XJ m o.'.Q Y $.d.[ ^.X.X.sX9X| l k =.@.V.d.L.n rX<XZ.wX[.8X} W /.bX/.K.L. .U T < ' 2 0.H C.K.K.f.~.d x.A Y v.Z.5.v h @ i } f h l H < n 8XuXtXv.R %.F ~ o 8 J J 5 v ( p j H %.$.n.J } H } *.8.4.&XV.g L l + X   2 @.t A ,.P.f g [ ,.@XD.8.J h R.8XtXn 0 q S -.",
"i.$.} j T | } X.rXeXiX9XFXJXzX-X .} L =.V j 2 i <.A.*.e % *.#.6X;X6XhXxXeXdXNX0X3..X8.j H.F l 0.9 l 4 } Z.o.Y / %XI.*XL 0 e ` * p.5Xf.3.0.( } 3.u.f.f.l...K.n.[.xXW.jX0X0XiXXXiXXX.Xx.{ a.].<X0Xn Y 3 t 1 + + 9 8.-.T H $.T 0 K.I.y.p.j J 3.=.F.>.E ].D.%XY &.{ ].C.f.F.3.F.< o.p.b X.K.;.A.R.R.3.H } h %.H | Q L.^.uXV.`.b.$.U W U 5.V.*X$XF U h + j K G *.E =.| f.:.b { @ | l.d. .| l j H U | H @.f H E._.0X{ E.i.}  .&.i . 8 E t.} F J 3.J h L *.0.U k K ( l 4 $.4.1 P H f $   8 $ t f ` H H W h ^ Z | K H R E ~ x.S.n.Y +.A ",
"E T K.d.E R @.Z.x.dXsX9XcX<X,X'.I.J 4.g &.*.~ K =.K.W =.G J b Z.%X~.Y.ZX].gX[. .n.K.| H | V.U a.D.D.l E J b U $ $.%XC.9.} =.i J W d.%X&X5.x.z T h C.F.9 >.k >.l.-.{.rXiX,XdXFXsXNX Xm A /..X<Xn.j.~.9 t i ( / ( L l >.F l W G.A.=.| Y h e J / 6.R 0.f.#.#.h.g m.#.F U u.l.:.&.C.~.[ > b d.Z.g.s.7 t n v l H 3.K.T.eXS.@XI.%X[ #.3 A 3 | *.-.} } o.@ 1 o.j @.2.V.F -., L.&X7 Y W E f.f.E 3.8.V.#XT G 9 W 8XQ.N.R.M.R.].h.&.v * 4 N.BXP + 9 e l , t q j =.j &.1.0.8.3.J H P F K l | 1.F l h -.e W H @.^ &.H K l 7 | 6.0.C.~.G.E A.",
"W #.u.E C.$.>.0XcX3X X.X X+.'.7X%X%XT 3.8.@.w.<.2.A.l -./ =.P T &.E.{.HXZXsXdX`. .#.3.*.&X=.n. .-./ $.a.z $.*.o.u. .y.*.H =.* R *.F K.<.C.+.8 m._ S.=.i r @.9.8.l d.W.,X|.sXFXnXcX,Xj.j.j.O. XeXHXDXZ.i :.l =./ k l %. .} $.P G.K.i P U h L 1 J j =.h , { K.#.d.$.%.&X~.#XI.f z d.d.#.f F C.8 @ 0 l j #.Y i.].8X(.nX=.| l -.n. .J J f $.l }.g.7 x W d.f.k &.} >.E #.E E z A d.j E d.f.C.} @XI.@.| L @.E &X;XM.Q.h.=Xg.wX*X9 y / K.`.3.-.b 1 g 2 &.` v G U H F H j R 3.} y.J &.| &.3.b H 3.C.p | j L 8 l H H 8 i & t P.G...f.$.u.",
"E K.V.i.} l [ d.GXJX3X(.M.T.Y.x.%X;XF.G.3.2.=.*.H.#XH k i } H G l.9X<XPXNXBXQ.Y.$.W 5 U #.d.}.7Xd.;.K.T.} f.n ~ f.+.$XR U H U H *.;X-.S ) ;.u.E.A.4X#.U g L K 8.&.H U g.xX8XhX5.A.0X[.pX|. .6X-XdX,Xi.j H ].i k J j ' R %.S.>.R 3.F h | H l | p i `.~ &.L.[ A.:.3.g.h.wX'.=.| f < Y U =.~ w Z < v o.s c s.&XnXbXiXvX .} >.F W Z R E 1 } } L.H 3.V.K.C.L.l.@.U #.x u.[. .l.d.W -.H E C.&.F.:.3.=.:.P h } A.=.m.Z.[.E.;XyXL./ ~ F l H 4.P.L.#.T n ( b H k - T } p } c l / h H &.8.<.F.4.H H k -.J Y @ r F R F f H *.k l #XK.V.$.T ",
"=.l.u.T l } L Z.sXHXVXVXeX0XeX{ 3.K.=.P.3.E.K.-XV.=.7.*.( 0.T { f.A.E.E.(.iX9X9X'.K g 8 y.'.).I.d.V...;Xi.x b Y.~. .Q -.4.G } U h.,XN.l.X.g.n.Z.h.d.h i.^ <.*.} 4.h l T =.F.&X%XK.<Xu.[.Z.=.C.%X6XeX~.} + S X.F h m @ } U =.&.l R E f , | &.K -.( C.K.G.I.V.H.F.V.&XK.S.U T E z g $.} n V.K.n D a.|.a.-.[.].,XGXGX..[ | U &.U.0.3.>.3.0.8.q.<.3.=.A.$.@X%.G...a.E.-XeXF.G.u.;X$.#X/ U <.4.m.f.2.-.@X=.=.~ b i.A.n. .C.A.f.y.f.f.U =.b 3.} E.E.d., i =.0.i 8.h l 1.R >.| 2 o.| A.#.l.U ) < %.$.U ) Z 9.h ` i ( p H j C.*X*XX.z H ",
"u.A.f.d.G l 3.A.hXIXjXvX,XcXxX&X8X&Xg G.3.4.4.u.0 x =.@X=.2 g m $.f.D.[.0XjXmX<X/ P = 8 q c $.p  .u.'.&Xf.Y A.5XR.} -.H l } F f *X`.i.f.E H 3.>.Z.* t V.F.=.8.*.9 h f } } 2.H.wXl.x.Q.D.*.&.>.#.K.-XY.g.O.= + x J 8.R h / F.-.G L < X 8 | 4.1 P.P.9.:.#X*X*X<.4.F.G.f.;XY :.F l | %X].n.S.d.^.hX{.).-Xu.+.Z wXO.,Xz.|.l } p.E.S.r ) ' ] H.H.U F 0.K.f. .3.7.A.nXqXj.N.} E :.4.*XA.#XV.P  .E Y *.<.4.6._ 7 $ y.n.#.N.L.#.U @.f. .#.$.p c $.oXaX-.d.A.6X=.*.l @.:.*.J J K @.2 * F l.| c   2 C.@.l l &.=./ ~ * =.&.P.&.i 4.M.R U F ",
"K.;.$.d.g.T $. .-.0XGXZX0XGXeXtX6XL.^ ` P.K.%X~.q _ C.0.4.1 h z D.xX;X)...R.g...&.W U &.3 s y.>.R | s $.z d.0XFXi.T k H o.J l  .Z.8 b #.W =.F $.g.f 8 } G 3.0.3.1.&./ } *.` ' ^.5.<.v.&.| L | H.3.y.M.eXE.j j R.L.H / r | ( @.J 3.X & g 7 1 k c <.^ K.;X%X{.@Xw 3.L.L.*XR V.E Z.u.C.-XL.M.`./.wXd.i.-.&.7 g ^ +.3XU 7X1 o.h H =./ x # >.k | =.F.} f.U w.d.I.l.K.wX~ L.#.v.>.8.4.F.%X#.f.>.W V.a / 8.<.4.d.>.y.'.A.i k | 8 h U u.u.$.g.$.x.Q.fXR.Q.$.M.1.6.b H H =.%.} &.F * * g { q & - Y 3.W <.| G.| | e Z 4.&.k o. .}..X8 =.S.",
"4.F.u.Z.G.K.V.@XC.d.NXAXDXgXdX<XuX`.K._ V.G.m.^.^ K.F.v.V.C.u.} B.%XV.5X8X/.-.i.3 m O 3 w A.Q b I.U E l } -X4XqXU | K H f.R V.g. .8 >.c F h :.C.f.s e =.k H H } ` | H e L k J G.%X%XW -.j , H *.@X&.y./.Y.-X] L &X/ K f h P *.w.R w , 8 @ ~ r 3 : _ %XwX=Xz.f._ % j 8.H.o.L.-.=.C.0.1.J '.$.U $.P.&.H G l *.K A.rXY.f V 3 H =.K H 0 e | F G W %Xf.S.K.V.y.x 0 Z x.V.l W f.H.%X3.4.=. .R 3.H.Y 4.` Y %.H.H g 8 0 } U @.) g v F @.#.Z.C.< R.0X0XoXR..X{.L G H &.} l h / =.l -.-.&.n S 0 b d.R.b.Z.&XA.K.F.A 3.l.F.R =.d.#.A.-.L.:.",
"Z.:.$.K.W A.| 4.V.J AXgXFXiXdXnX,X'.x.L.=Xb.h./.d *.P.n.9X} R.L.$...~.lXg./.x .   * t g + ~.u.j ( * A d.R j y.%.T F f F ( G.V.R.X.` P } } %.=.9.R J 3 8 w.F T 8.8.3./ *.G./ l 1.8.V.*XH l R ~ | F Q h y.M.R.z / d.3.8.} Y n Z.1.' Z H.8.4 3 @ 9 V 3.6X~ A.V.C.) y c 4.> x d.` b } l 4.c i. .| k R Y 3.#.G H c R ].b.H H.* &.L =.i g @ W *.a.z u.A.g.n.E }.y.9 ^ E.'. .H | &.%X%XC.-.F.} Y H F / H.K.L.) <.3 @ Z J J x v v g q =.k E E g.|.0X.XD.g./.*XQ | *.H h j l &.@.<.8./ 8.R J 0 A D.-X[.].wX[.~.E.} E %XZ  .%Xh.*X[ S.U Z.",
"R , Y L.f.C.e =.F h f.JXVXFXKXFXQ.Q.X.].R.f.g.Z.;.&.4.V.f.N.{.Y K. ..X0X'.u.8 $ 4 ` / 4.v n v.f f J c J e 8 < f J 3.U | W j {.o.E G.C.h E =.f k P _.[.l R p 1.-.8.G.8.*.< * + 0.8.L.L.t e 3.v 3 t T &.U E.A.S.3.L.l :.3.U 4X}.Z.J ;X<X3.9.3 8 ^ 4.4.;XZ z g s B 6  .$.3.Z *.) 2.*.:.} h k n.@XH @._.p.f.[.L.G ( g.-.h 1 J 1.*.J =.f Z M.R.~ i.L.{.E.%X#.qXA.:.[ C.^.aX1XoXb y.W } d.'.E v.=./ =.t V.S.#Xo._ 3.m b . # 3 $ + ; &.3.H U u.,XwXcXC.,Xu.x A.f.| c K r ^ 8 <.c @.>.J #.J L.=XE.[.M.n.E.,XcXY...L.E.n #.E.;Xd.z d.#.U ",
"Q 9 <.| *Xy.J H h l $.xXsXdXfX9XbX.XQ./.&XY b x.7XF.F k #.N.N.g.f.i.9X8X;X%XQ l @.3 8 } W n ;.Z g f 9 4./ ^ # 7 c j =.W W Y Z.P :.&.G N.y.-.G R U E q.&.i / o.g 3.&.-.= y 8.5 f 0.#X-.3 ` ,X'.t + P.l p F #.;Xk < W F *.b.VXKX`.f.;X%X<.8.l R | ( V.7Xu.Z.W g = J -.o.} ,.D w G H p } L h =.1./ %.S.f.8.| } | U F l / 0.8.3.K.} &XF.Y h / C.y.n.d.g.d._.;X=X9 ;.~.g.c 2X{ { l.`.#.U } l L.| 1.-.v 8.#X&XI.| } < z 9 c j Z v *.P.L.E.4XQ.g.,XuXV.yX,Xc wX'.* g j / E + + f J ~ ` = h  .E.].8X8XnXwX9XjXu.d.[.u. .].E.R.u.n. .-. .",
"v.` :.$.C.D.R %.H h E.cXxXFX1XY.eXdXeX=XbXh. .f.;X-.R #.Q N.W c } ~.n.~.tXE.g.-.@X*.8.w.$X/ < 8 $ - { &X| V.< 3 f 8.~ 9 C.o.9 h l H H d.E F @.$. .i &.l l H H c , l g + 7 i &.F 3.8., 8 J S.| w w ^ 3.H } :.A.$ ` =.*XyXVXXX.XM.W.wXuX^ w.].'.K.) *.>.#.Q t s f.[ W r J ;X;.b } F l K H J ( C.$.'.$.&.=.} 0.| F F H =.8.f.d.T f.,XQ.&X].W.yXR.,X~.].|.NX,X%XX.~.a.-.(.z c.+.5.'.f.l.3.-.=.0.4.3.l l #.L.'.V.} b 8 f d.9 9.H R l 6.$.hXBX-XyX,XU Q.<XeXwXR.-X8 j j < & t R U l $ - g C.M =XxXwXsX).E.E.a.u.O.A X.m | [ m.D.*XD.K.",
"-X3.}  .f.i.9 | R W ,XAX|.JX3Xz.vXcX3XdX.XrX,XQ.g.H R >.@.} @.0 0 f.~.;X'.M.<X;X&.q.( 1.3.f.l.E A -.;X`.W i.u.E ` ' Z &.[ $.f =.l l F l P.*.=.E H R | } h J g | @.2 e     + ' -.=.< 3 3 7 , F.4.~ t t v H 3.G 3 2 @X#X6XHXaX=.| 4.$.,XU n.d.Y.[ n 8.'.%XM.l l d.B.H 9 +.V.'.h F @.h / * < q uX&.@.H K } 0.@X=.H k &.*.I.&XwXu.].GXdXdXX.z.cX).1X0X0XXXBXFXeXn.=XA T.A.} A 2X*X*.m K.>.$XH.3.0.| G.E L.&XK.+.7   7 > o.F @./ H *.} >.i.M.%X&X;Xu.Y.v.]. X=X=XT U U f | U v.l.=.$ : = yX,XnXtXhX<XfXE.,XeXf.l.M.J.M n.M...~.D.M.J.",
"xX0.V.E H.v.J F * | (.O.0X!.iX(.s..X XdXvXGXdX XM./ l @.V.F.N.b 5.7X'.].n.E.R.~.&Xq.2.&.1.:.g.y.g 3 X.D.g.v.K.U $.0 J P.d.:.U U U U F R k L R } F p | =.H I.f k l l U : . . 6 w 6.8.} e t r @.G.#.Z ) % r $ j K l 8XV.h tX0.@X=.E #.9Xl.|.tX-XlXoX#.y.{.<Xl.S.f.b.} j $.H.I.1.h p | K &.5 f #.k H l H / 8.#.T -.=.k ;XcXxXMXAXbXGX1Xc.d 1X9X0X.XeXdXrXvX,X.X).M i.!.& Z F.bX'.;.F.#X*XH.3.4.=.H.<.<.P.%XK.-.-.A n  .H i i @.&.2.j H &.( %XE U T H.-.8X|.yX&Xf.n $.#.#.d.f.&X'.S.9 b  .Q.8XtXxXrX0X.XXXQ.,X.XbXQ.'.E.%XU Y Z.cX,X",
"V.#.L.C.#.f.T #.l g l.O.> s /.T.z.;.9 s.j.2Xz.vXoX$.T #.R =.i | y.Y.;.s.g.E.`.M.W.`.=./ $.H U P x W b ..A.,.Z.d.s o.%X$.:.*Xy.E $.K j H i i.h 4.H l / @.@.=.*./ 0.c H 8 & u.f v w.3.4.+ * =.F #.I.K.3.( } 2 2 b H | 3.| :.*.Z Z j 2 7X=X=.L.{.BXaXg.&XrXhX).'.d.E >.>.K K.:X3.3 G | J } 9 @ 8 k / &.R l k l J g.T A.{.GXfXGXsXJX=XT./.k.KXJXxXXXeX0X0X0XXX|.k.7  .Y g m ~.J.eXGX,.x.'.I._ y 3.=.V.C.G.3.l.'.eXT M.n.v.9.>.J 2.k f 2 } 4.+.g &.@.| F bX).Q.X.} ..,X~.h.&XZ.;X'.'.l.X.A.E.rXeXdX[.).oX).].].`.).Q.g.K.d.d.A.K.JX9X",
"V.I.L.+.j  .S.p [ Y -.0X(.T.kX/.9XA A O...D z.VXHXg.p &.3.&.r f -.3.~.M.E.g.{.Z.Q.).yX} K H &.f =.| @ [ u.f.E y.~ Z.K.%X'.8X1XW.H | l N.tXJ G l / R v o.@.@X3.q 8.R =.j 2 2 P p Y 8.H.' j } H f.A.%.U 4.<.h + < 3 } H j b 9 , L ` *.M.Z.%X4Xf.).E.W.XXbXrXyXl.n I.{ &.u.v.i.L.c J @.| F b 2 n #.d.E $.k l l @.^.h.0X].^.XXiXdXGXeX X^.KXcXKXsX0X1X9X9X.XdXT...a.b 8 d.z d.M.dX=XJ.wXwXyXA.w ' b W E.Z.>.p.K.pXR.b.b.T &.*.1.| | H f =.S.g.u.#.z } $XyX0X4Xa.Z.E.a.tXY.;XE.E.'.[ c g X.E.xXE.E.8X[.].Y.Y.,Xn.[.].~.{ +.XXZ.hXhXxX",
";XZ.uX;.l.y.E i x y.K.[.A E..X].rXGXx.=X2X.XT.<XaXY J F q.@.H  . .U E.b.n.R.]..XE.M.y.U =.8.4.H 8 K g y c E 8 E O.u.f...E.z.& C.&.F K N.0XL H j p } | / 2.3.H / -.F 4.8.` 9 y 4.0.G.8.3.=.K #.m.Z.*X$.=.U P J E c +Xe H % t i F l W E.$.W } b A.].<XGXbXdXl.u.- W K.8XjX!. XA.S.&X*XC.V.h.}.aXtXv.g.%.} $.l = ~.eX=Xl.tXaXVXGXj.m [.s.,XeX^.FXGX.X4XjX[.[..X X/.- % = 8 l.nXfXdXdX<X8X6XK.Q J g A.[ g  .5XpX8XV.3.3./ ` H H h H } h j Z.y.l.f.z T } U Y.,X;X[.{.yXtX;XS D.E.n.].f.R.z.%XE.Y.E.Q.E.yXtXyXN.-X/.wXg.'.z.z.h.'.J.xX",
".XxX,X;X&Xv.} } #.P.$X' { -.wX1X1XrXA.J.0XwXz.-.8 9 G 3.V.%X/ 8 :.s Q.f.A.E.;.K.%Xg.Z.K.>.( i k R t.$.j @.F Y z g 5.n.Q.].j.7 4 G &.F _.b.h k H k } | / F c K F Z K x 2 *.3.3.} q.F.L.| H U d.E.].;XV.| *.} } v = B.#X@., @ $ % : Y f.( | r y /.bXGXhXeXwXwXA A X.VXAXOXfXxXM.;X,Xd.i.D.cXHX0X,XzXR. .a.W L.E S.{.xXeXdXVX!.> n T.,XX.l.s.MXxXvXpX<XAX,XdX1X,XdXm x 8 u.d.f.[.s.J.nXdXwXY. .| E -Xc f.E g.oX$XS.k $. .b =.&.H K J } k j `.m.A./ @ j } [.Z.Z m ~.N.nXE.h. .-.E.=X{.{  .Q.0XBX}.Y.~.W.tXrX[.tX,X,X|.Y n n N.S.5.7X",
"R.n.;XGX0XxXi.% ` =.9.H v.q.7XtXA.M.S.-X[.=X&X} 6 O Z J @.H H H } n M -XY.'.X.n ;X'.E L.k =.8 =.R | l / P J ~ 3 D.Z.jXW.1XR.>.v F *.*.v.U W , *.k R 3.= ~ j j l c } J 4.0.R @.1.%.=.G.=.D.B. .A.n.E.v.} @.F E c < ~ =.4.0.l J , 9 ( 3.^ : ' v { ~.wXjXnXeXxXL.,X,XGXJXvX2XiXsXwXR.wX].tXxX2XsXAX1Xn.f.#.V.E V.f.eXrXyXxXjXxXA.=XSXIXjXsXA.=Xn &X9X~.,X^.[.GX[.x ..&X..~.i.T  .A.(.Y.dXbXz.C.'.K.n.X.v.K.F.Z. .D.S.S.X.V.*X~ J f t F J ` S.Y } d.0 2 Z.cX^.+.+.a.0X9XW.E.V.K.D.Z.u.[.l.].NXNX4X{.).3Xh.,X(.eXdXbX[.o.+.{ g.D.G.Z.",
"v.~.{.0X[.[ / + : c G.*.l.x =.0.F.b ' J f.} o.z S 1.1.( l / @X} l E.s.eX;Xy.h...^.+.| Y k 8.< k o.F j ( k l } Q C.Q.oXE.Y.Y.:.l 3.1.=.F 2 g h f k F | e 2 F H H 1 + 3 l i i 8.5 3.} ) U.xXpXa.c b ~.R.-.} k %.2 } 3 ) 4.P.h =.* 8 #.R J J $XJ.^.rXtXrXrXtXnXtXVX{.cXKXGXGXsXXX).eXrX.XiXCXsX1XxX).d.E F } z l A.Y. X.Xg.O.zXbX/.GXZXcXhXY 8 _ DXv.+.^.DXLXFXxX1XtXs.+.n.xX&Xf.U x.c J X.m { ;.u.*Xd.u.V.P.-Xy.A.l.f.U hXjXqXK X o f p m Z.;.K.l.a.+.m s.m. .~.j.rXxX{.#.W #X$.b 0.L m %.9XW.].).Q.Y./.|.8XrXpXfX(.A wX..g.v.'.b.",
"d.#.{.[.y.$.>.*.w * 0 ` &.| v } r @ &.=.=.A ,.H >.3.8.K =.P k F $.W A.A.$.~.f.9 n x i.j G } , / k } H K =.K @.} i.].^...|.8XR.~.5.4.*.} r ~ p 8.=.Y C.g j } H } 4.$ p G H i l l R } v  .Y p.#.k @.~. .$.` H h * 1 t ] @X8.@.<.] :.qX%.| <.2.| 1.d.].eX,XrXnX,XdX~.n FXAXGX<XiXdXeXR.(.,X X9X}.E.'.m.T c 2 j M.xXFXCX|.,X].1X[.M.hX;X$.=.J d.$.R.i.5.nXbXcX=XxXdXh.D n l.MX8XE.y.8 9 z f.D.Z./.uXwXd.S.v.>.#.d. .#.:.Q _.&.R.1   & j H -.d.d.]..X[ m m X.7 Z.f.T.bX,Xi.z f 3.@.v 0.} F.@.-.Z.R.n.z ;.,X^.[.dXxXCX0X=XtXf.S.K.y.'.",
"#.v.Q.[.Z.k } &.6.H 8 0 e g * 3 9 2 c h %.3.:.{ 3.8.4.( %.J | H } K.d.W.#.v.~.} Z.b.f.&.%.H , 8 J 1.R U 0.w.2.&.d.R.q M X.Q.R.y.' 2.y P.6.' | 1.G.A.L.) ; $.} @.0.H / k =.e F R W T k F k } } } ,X~.[ g.f.c h 2 $ v L 0.H.-.H 3 ) I.l &.H Z &.6.:.G.K.;X6X6XA.l.m   rX,XzXJ.XX0XGXkXc.+.<X,X$./ U $.W c H b h.dXJXKXGXxX<XjXM.R.0XH.( T R -.W C.D.=X..[.^.tX2X2Xd ^..XdXwXbX[.'.Q v.~.f.| >. .Y &XD.d.#. .z W >.K.d.].,XF J y % q.K -.j R.[.;XR.Y.M.X.x n W.rXd D sX<Xd.y.K.-.=.=.H <.0.D.P E -.T J (.l.A./.eXJ.xXnXrX;XL.I.f.g.",
"b.d.Z.yXR.f.J *.e * 8 + 3 & $ @ $ y ` J V.m.-.W T #XR <.1 1.h | Z.R.;X|.aX[.$.1 k K Y H g F r F @.` J h 1.H / L 0.4.- g X.n.n.W G.l Z } ) 0 4.H.w.F.%Xo.3.3.=.3.*.0.^ r j $ % r , $ -.b l l G G.lXpX:.}.~.@.( ( K W =.t <.4.1.y ` =.i H t i 1.j ^ g c I.-X'.&X%X` % ..T.x.x.rXrXQ.XX|.T.A.A.>.K h J H p V.o.g.dXLXDXbXnX0XxXV.:.|.H &.$.F l J Y yXtXx./.A.eXrX;X[.{ /.sXxX~.mXR.u.X.b Z.;.v 9 { d.:.m.E l Q.f.U C.K.x.b :.4.^ *.c ' j c C.].E.[.].=XE.Q.-X0X{.m h.|. X].g.A.H.8.3.=.g 8.f.1.J k F.L.}.#.) [.~.eXnX/.l.&XL.m.'.wX",
"E.g.E Y u.>.T ~ g & $   . t i $ o.J 5 3.K.=.f.E u.E #.b.I./ C.d.G.J n.Y.XXsX/.v.U 2 k -X.XH 3., f | | *.J / o.`.C.J.q q O.u.i.-.x w &.} _ / w.*.@X2.H.L.B.d.k v.k 3.*.7 3 + = @   . 3 / H } l #.l.R.yX).~.U 8 j l V.t.7 y 9 : 0 # $ $ Z c 3 r ( i K.).V.I.a.K.( =.} O f.J.l.wX'.n.f.7XL.f.:Xk | &.J H H ^ :.l.].0XxXhXhXbXDX,XR *.l H } H F :.f.n.;X9XMXhXwXeXxXxX1XXXeXvX8X^.{ E.m +.n.-.6 _ e 8 3 %.Z.sXFXd.H l.R.v.l.K.c <.c ~ 0 ` f h.[.pX.X|.E.4XBX0XY.Z.sXpX9X9X|.].g.W &.4.H Z J 8.8.c J * 7 ` =.2.S.E.].xXnXrX~.*Xf.7XE.",
"'.~.yXn.X.o.>.*.t j 8 & e 3 $ + O t w 4.#XV.L.$.%.|.JXkX.XI #.H } *.E d.kXkXf.~ H # ` <.>X( c ~ >.@.G F =.H >.*X&XyXE.q w | V.| J 9 / l K E &.<.( k =.{.w.c *Xy.u.p 7 X i g Z ~ @ g 8 8 Q y.Q | >.C.m.d.a.d.U K J *.B.i i / &.l ( r =.2 + 7 3 x ` $X-.p.>.*.H &., 4 v 3.$.+.%XK.} F 3.P K.J F &.h F 2 4.I.4.l.:. .Z.7XE.l.eXgX| l k H / J } Z.d.%X'.;XZXtX%XxX~.xXeXx.1XK.(.D % 7 8 U H c + , r , j V.d.1XzXu.Y x gXDXz.X.~ H 8.*.} ) 0 u.8X,X|.,XY.fXNXbXOXjX1XcXZXGX,X`.n.y.I.=.y 0.8.=.4.8.h } y | &.q.0.g.eX2Xz.R.g.~.~.L.wX",
"W.tX-Xx.d { [.| J W , W G -.F v + t | H.g.W l Y Z.HXfXpXHX).U *.8.7.R #.pXxX{.-.f.@.2.%XA.V.H &.' } H 1.k 3.H.-XM.'.~.+.f i f } l | &.*.J H F J @.h f -XV < oXE.Z.o   7 8 3 @ S < $.f 1 T -.h H J 0.A E i.} % c H h d.Q J ( h *.W H l } F >.w.L g &.J l 3.q.=.=.f V.a _ = Z L.:.G.R U =.q.H h R H l r ' D.G.I.0.} T X % 3 y.g.;.1 L %.l U -. .;.K.W R.JXkX+.;XwX,XY.{ +.s O.O.n f e 3 } 4 Z 0 x h L / a.XXGX8XoXb yX..w n c } 8.0.4./ @.3.E..X.X,XxX1XZX2Xj.zXz.cXCXGXMX0X}..Xn.E y 3.G =.H / H H =.=.0./ 1.L.z.k.E./.2Xn.%X8X0X",
"/.XXu.s.tX~.jXy.A 4.*.W H l @./ J >.9.W d.:.h ( w h.kXmXM.} v G.<.8.4.$XM.dX4XXX[.<XZXKXxX0.H *.| / 1 6.H 3.:.R..XE.g.m ~ rX7X8.8.H &.@.l =.J i j g i =.3 + 3 i H $ & @.} 1.@.A.3.9 ; 9 G &.&.P.* =.G u.f.P./ $.3.=.t.J =.F F k =.F l w 6.P.K  .g @.} F 3.| =.&.6 x ;X5.X q L.J k F H K &.H h &.T t @.>.K.3.0.8.K i c @.2 3.=.*XY 7.F :.l.f.Z.'.f. .XXR.Y rXM.Q..X-X|.cXZX9Xi.9 % c } l e * v L J | H f.Y.iX~.A.9XQ.s. .qXH 3.3.&.4.1.8.( ^ m R.<X<XnXFX[.bXsX!.c.dXaXLXAXFX].g.d.l R J } H =.G H H h ~ , | $.Y f.n./.9X].^.2X X",
"X...[ A.eXHXdXX.~ E :.1.G U H i } =.>X3.W $.&.` r Y ,XQ.n 9 8 | w.<.@.<.C.1XJXHX;XpXeXjXrXLX1.w.l @.k H 4.i -.$.d.E ^.T.V.R.wXK.&.R R V./ ( | l l 0 H =.r % t v ( Z j H J 9._ q.} } X v } } =.^ ] 9 ~ >.o.z R C.f.} W h l J @.J h 1.F 2.J 0.W H p f i W b =.%.7 X t C.7 0 0 w x H k &.@Xv d.=.} ` c <.&.l.0.1.4.1.~ 9 p =.-.J 6.7.t b -. .K.%X#Xf.n.Z.W.X.9XvXzX1XdXXXhXpXHXPX9X;.| f | l v ^ 4 -./.tX].rXNXHXaX9Xh.x.J.n.K K R 8.3.8.1.c _ | z.{.tXdXrXbX2X=X^.<XfXiXCXxXbXeX0X.Xl J Q w.R ~ H h =.B. .d.( $ 8 g d...n u.d o.O.",
"dXj.A.[.CXNXZ.h.E i.#.V.H G @.| R W o.} #.g.L , [ v.Z.Q.|.X.4.=.4.k L.V.3.Z.,XJX|.Y.eX;XyXH 1.F b p 7.| 3.1.@.U 0.#.C.6 5.K.A.yX/ J F R.G ( / P -.) Z 7 e =.8.3.9.H h ) k @.H.} 3.#X{ V.G.H =.| *.<.=.| 0 U | E h k | @.0.K l } 3 h ( 1.( K h $.j i :.y & Z c 0 . $ y y ' Z X.g E H 3.R w y 0.6 _ L.4. .#XK.&XK.H l V.l J 0.0./ &   , >.d.I.L.*.Z.Z.).XXdXeXCXGXiX X,X1X1XHXNXA a.S.C.&.=.F g *X=XyX*XyX8XVXoXNXfXy.=X{.K * c 3.0.0.@.4.I.<.9 ..h.|.+.T.(.z.(.z. X|.rXFXLX9XtXfXsXk n.t.3.&.^ G *.3 @.X.Q G e J W =., g 3.].u.A ",
"XXn N.yXbXW.=Xd.d.yXA.k } *.4.E @.N.-XQ _.sX#.} l.d.g.'.~.^.( h 1.} +.C.P.m.(.[.pXs.Y.d.'.| L ( p } K v g @.| y - f.K.' w 0 k L K p | p.`.l 4.T [ c _ y ^ J h H } h %.&.l 0.G.H.V.Z Z =.4.=.&.H B.I.E.~.d.[.Z c u.K 6.*.R =.c 3 r l k k G 4.p $.E.K ` . < & 3 c v v v *.8.Z +.c W =.1.' 9 ' c 8 3.I.2 7 x %Xg.b.A.d.d.=.f.#X@X4 v h c Z x 3.,.wX'.n.hXKX2X(.ZXsX].1X$.E.xX!.j.z.[ hXd.E.7Xp =.=.>.g. XdXGXR.XX}.CXtX|.'.=.~ k Z.%.i 3.1.8.#.7 ^.E.).aX=XA (.O.A.]./.Y./.<XdXnXxXXXQ b.B.=.*.&.F.l   $ * x + , h *.*.2 | K 6XM Z ",
"R.o.a.].aX0XN.d.~.Y.Y.n 3.j 2.H.J p.R J T d.`.| Y #Xi.v.;.^.U q.=.H x } V.&XQ. Xb.[ [ 8 f H k ( &.h K @Xv c ^ R.>.>.3.J 3 t P H F | F _.=.&.P.R :.k Z j t l F | i ` 9 $.i 0.3.L.#XG.P.=.&.! ;XZ.6XD.K.*XB.U f 7 ] f | ( 3.8.y X 9 H @.l | 0 @.| h h j 6.&.- 3 8 2 t ) 8.8.=.x < 9 c :.H.P.8.| w. .E 3.| l.#.R.d.K.*Xi.y. . .d.H 2 h p c 3.P 8.&.6XM.cXKX+.h.9X1XE.Q.V.:. .).!.n m ~ g.Y..X6X| k S.V.~.7XQ.xX|.p.NXhXwXl.l.w E O.{ 3.l l k d.*XZ.V.L. .f 6 J i.b.0XW.E.L.l.[.rXLXxXg.b.f.z K.*Xg.| o.$., $ 8 H N.&.' 0.&.&.1.$.nX",
"J ).Q.j.pX9XX.^.g.[.d.8 q x #.#.G }.t.H W l E $.%.#.V.Y i.Z.S./ *.H v { b.wX,Xp R #.M.o.%.h 4.H ].V.G :.H.3.] } 9 : b 1 c f l | @.G =.1.1.*.&.W J F J l H k f U [.8 o v @.4.F H.w.4./ @.p R H / l y.&./ i &.j # 0 t @.@.:.Z : 7 @ v P 9 8 & h @.H i / J ( f e @.% < @.*.8.A.Y A W C.8.3.R w.T i h 2 h l | | -.:.I.V.l.K.Z.S.#.| U L.K.P.&.J j 3.l d.xXuX3 &.Z. X).R ) > a.h.(.{.0XsX/.E O.G.| *XY @.g.].Q.).M.Q.].xXyXZ.N.;XV.E.rX}.f.| k i Z.%X4.J R k %.( #.D..X,XxXwX6X(.,X8X|.-Xs 0 &.x.7Xd.P , m.$.P } K `./ 8.} 4./ 4.2.G.",
"H E.+.X.z...n { y.{ n ^.+.| 4.W [.E. .k H T G f.W S.x.s.A..Xf.U i 1.R < U /.E.j l.=.@.| E f p.6X$.R @.M.MX#Xq.l ` V ^ 3 e , 2 } F =.| } l h H k f f #XH.F.Y v o & X   % @ = J z =.&.4.K i :.H H f U f h g 3.&.( V.-.3.0.<.) : y w t / H 8 + l l J 4.G k l ( l J &.@ d.4.4.K.S.K.Y J $X0.H.H.4.8.p h h '.} %.} 1.| F.I.8X'.Q.'.;XwXwX8X;X&XI., l g R <.3.0 v 9 m.].l + y 1.x.z.E.n.R..XA.Y k l s  .4 ` Z.Q.Q.xX1X[.=XrXxXrX'.;X8 C.].[.f.&.R F.3.` $ } f 2 / &.C.L.yXK.rXwXFXFXGX0XQ.+.8 ' C.x.A.h l l ;XE 3 } F *.H =.0.8.4.G.*.",
"3.b e J.AXtXj.z.Q.!.Y.M.A ;.$ ^ p.J >.&.} H W E } Z.xX^.wX9XtXE. .=.0.| + &.d.#.H.0.G.@.8 8 #.H %.+ y '.tXtXI.=.q.3.q.p g , , w.3.3.q.H.*.h k c 0 t 4.o.f.K.$.& . + ~ Z X 3 7 l ,.4.J i 7XE.I.h K i 4.J l k H | =.3.3.} 3.4.} l k i g ( & 9 J U J = , h 2 } K P T B.;X4.0.f.'.i.{ K.P.H.2.w.F.G } f f.n.N.N.l 4.` *.F.J -.A.v.y.E.wX-X&X .b , * 2 + % 8 u } R / g.n.9 X.1 O.R.i..XeX1X.X(.s.b.9 { -.>.Y Z.bX<X.X|. X|.fX].V.l.h 2 } '.n.$.i y q 0 2 h v.3 % l ;XeXK.yXtXbXGXrXtXC.A.K.Z.- +.8 z l l | $.d.j H o.k @.R } =.) 4.0.",
"j h $ 0 J.T.eXjXvXkX XeX9XR.#.=.n.:.U } | :.K -.T R.Q.,X0X.XxX XY.xXD.Y v j g * e *.@.9 $ m.8 L l 6 $ r P.C.0.w.#X=.F } H l H H w.=.=.8.&.K U * 3 % & _ 4.c H u ( 9 K ~ + 7 + 2 h / } =.L.-XF.J H e 8.F.Z | k =.:.F.w.L J h H =.} } $ g >.) n = K l * $X2 ,.H U I.g.&X8.K V.A.v.Q v.V.P.2.J 3.#.f V.h.v..Xy.H.3.4.3.} =.R h #.V.d.h.'.l.#.u.= * $ + , , $ | l J E {./ , 9 m L.).,XzX,X.X X} , , % o.l -.].tXhXcXXX9X9X'.A.} H 8.l j N.~.`.F v @ t + 7 ^ W b & K.^.O.Q.a.FXKXbXwXC.R 4.>.'.f.% @ Y.K @.R $.E o.H } h l R | =.4.4.",
"4.} | x ^ zX3XkXjXfXiXcX0Xj.u.;.i.'.d.f =.k -.-.R f.=X{.1X2XdX X XrX'.|.@ r >.@ c k | T c | -.&.$ 0 g h 1.8 / =.>.#.R G R l 2.q.v y | | } | @.2 g H K =.=.t K K v c y.1.P.o.h i H R H R 8.} w S g K / :.f c l 8.8.$X@XG J &.K L ~ v v * >.q q _ 0.&.2.7.4 @.) 6.-Xb.L.k 2.r C.XXZ.%XK.G.} 3.&.@.T %X^.Q.E.~.7XF.4.3.= } G 3.=.k W Z.f.#X` & H L 2 v j 3.0 % 3 / >X[.u.8.l.F.-.#./.iX9XsXeXJ ) w ; g 2 2.A.%XxXFXxXW.W.M.A.H J  .f < n.Y.T.o.b   7 %   j [ z t * x ].|.A.wXtXyX;X#XH.4./ ^ :.E s T / } &.} } 3.3.U T G h 3.*.&.,.",
"H h J %.k y.CXGXJXFX0X2Xc.a.;XE.A.y.y.-.@.j H -.@.d.~.{.kXk.z.jXiXxXuXk.- ,./ 8 9 R h A.$.L i b , =.&.K v Z @.#XF F H ( l H F &.( =.-.&.F l 2 < H H w.H F 8 k $.| @.G 0.8./ j J k K F J } f K.%X} h k R H @ % / 8.-.H R *.@.@.j } p 3 P g b x.wXI.H h <.k 3.<.] qX*X} } ,.V.~.y.f.v.$.A.E k k F U | ~.;X].Q.,XS.8.4.c @ ` 2.| *.#.d.d.*.w _ l =.i p H 2 , f @ V.H.v 7.) ' t @.J G /.iXkX[.} } | 3 8 ~ C.Z.;X^.yX[.N.b.D.M.f.d.d.h c n a.Z.} p | ) v H E / l + % ^ D.K.V.8 ` =.8.1.-.| 8 l.F.z =., l i h H } j | 3.-.U -.V.K.&.H ",
" .8.i *./ H 8X1XfXjXGXiX/.CXnX{.x.d.o.H J ^ &XH *  .d.=X^.1Xx.kX,Xg.b.+.8./ R i $.f.l :.S.-.q.h F } 8.h H v.E $.F F l , l / &.3 1 8 < ( R } g h j =.*.| *.c 9 1 *.z [ V.-X` #.H =.>.h 0.| 4.p N.g 2 K h r 0 o @ :.3.G l ` n.#.y.f -.f.'.~.K.A.hXwX#X| p h E $.0.`.}.W 4 =.%X} #.[.yX3.v.d.U G =.l T g.W.g.j.eX0XtX$.$ < -.n -.e v.A.:.o.*.8.^ c *.H H 3.j 9 $ Z F.w y ] 1.4.v U H 0.H eXVXF F | H / R V.I.*X~.L.T D.z u.A.x.D.b  .d.n s.,.4.=.i.} n f @.c K e : q `.| &.@.v q./ G.$XQ H H j h j 5 =.8.| -.| U P Y #.#.%.#.$.:.-.",
"T f.l K J =.0 #  .iXpXKXAXKXXX8XA.Z.T k c = T Z + m } ,Xx.<XD !. XnXd.C.1.P.9.@.l 0.H J H >X:.8.j p K =.=.F J 8.>.I.< 9 v 8.=.8.3 $ $ Z l 9 g K <.| *.F h F } =.d.f.n.uX$.H.#.U 0.d.V.| @.=.( ' g H $ @ 2 , , 2 3.&.( = # c v.d.I.b.,XE.M.,XcXbXhXyX-.4.| @X&.uXK.kX_.y.#Xt.$.J } 7X'.O. .=.4.U W ;XR.yXz.2Xa.=XXXkX~.# 9 0 Y ^  .$.:.J | } U H 3.8.R 3.1     : X q 3 R 0.=.i *.H @.8.4.E.K F @.K V.u.d.'.3.o.m g n m I.A.- 0 *.=X+.q A >XtXv.f.d.V.8 | 2.4.A.g ^ *.A.-.i @.0 ' P.1.=.k F V.| &.9 H H =.F %.%.>.l.V.E &.$.$.f.d.",
"f.#.U =.@./ / H =.8 u.eXmXA.u.tX}.g.4.8 8 P E j c Y 3.K.A.-X2XfXNXR.f.O.~.8.3.*.q.b >.k } C.q.3.&.3.| j F k / l H F 0 s 8 S ] <.v U } h R ) 5 f c ^ ( k @.T ~ 8 %X$. .g.g.%XI.$X3.=.k @.3.U 7 Z x } , J =.L @.| &.&.v % , 8 @.S.S.Y.9XBXf.M./.VXiXiX{.I.C.U / y.B.T :.l #.L..Xk 4.o.3.%.4./ l &.L.].xX|.}.sX~.<XE.h.d.c X t =.J [.8 =.:.H 3.3.=.&X&X$.J R + + ] - t + y &.&.l *.q.@./ J >. .d.v.W g.-X'.qX>.*.{ g - 7 3.C...Y N.T.9 o.v.<XFXtXQ %.l f.A ' $XC.$.=.l 8.#.H , 0 v F h H h l J j R ^ G.H @.H 1 k #.A 3.P.l.$.u.:.i.",
"V.-.-.} J 3.&./ @.+ @ W -.%..XhXB.} v x 4 g F Z } 9 V.d.&XwXcXFXpXR.Y q @Xq.8.w.=.| 8.V.$X4.V ~ H l } -.h l 3.h R o.8 H - # j h f.T  .$.$.b ` ..J @.R T L W T $.v.N.N.x d.f.d.F.8.4.0.l k 8 c x J K.i.W ` , k p *.R J G l h h k C.Q.{.lXW.].Q.a.HXJXGX,X%Xy.y.Z.| @.k K l l h l v K k l l p @.U Z.M.sXxXiXeXXXM.b.b.;.x X g 4.&.V.S p R W 8.V.%XF.S.-.&.} q.H.@Xc 0 , 3 ( J k 0.@.k H l J K.M.{.wXQ.g.G 0.} $.V.v n ~ n.~ g E.0Xz.s [ V.%XwXXXd.P F.=.3.8.Z V.G.V., f c %.G c L @.H e F R J g t L } 9.8.} e * ) g 3.L.f.E d.o.g.",
"_.| } H 0.J k p , c g ' 4. .R.#.n.3.7X$X| } z &.b >Xv.b.h.W.rXfX XY.Z.Y v C.4.` 1.} 4.` %X3._ 8.T J 1 ) 2 0.&.&.@.F l / 3 c f.$.E #.-.E S.L.I.d.; $ < % r E P Z.T aX4Xg.{ #.#.G.4.<.4.| &._ _ 8 ' h F F h H l &.3.H P j Y T p.%.E 8X8X).lXS.M.,X.XSXNXKXMX;XH i H @./ *.H j 8 | ( c $ - v.U } V.M.;X,XeXiX|..X;.[ { 7 % 0 / =.K ~ l l U #.f.K.#X8.8.f.*./ &.4.H.Z 8 7 2 h l v.p <.@.&.H 3.T wX'.R.).} 4.&.d.:.b ) &.F Y H %.M.{ m ;Xl.K.^.g.Y.pX_.f.H.$.} z ~ V.&.K Z.c 3.H 8 & w *.} W $.R h < 7 H R F } s , 3.R G.=.k 0X*XA.#.",
"A.E.A $ 2 9.l 1 g 4.=.1.4.3.>.} y.h 4.C.! nXx.$ H f.u.g.E.d.0XiXdXXXE.X.; y q V L T ~ 8 +.,.q.P.G z y x &.R / } ^ U l R 2 j $.} $.&.l &.H =.r % Y t = ( / l y.E k W.`.W #.$.j $.P.F.&.H l.P.* $ 8 E H K l j E | K l =.Y E N.Y d.I.&X~.).g.i.i.Q.=XvXFXVXGXyX~.U G.H H -.&.b + K t.) e ,.g.;X&.{.M.0X1X9XMX9X|.j.n &Xl.0 & , ` K f H @.H F.=.3.8.H.} 9.H J =.4.=.=.g x f.Y $.4.0.c V./ c h F y./ :.K h k } h.S.>.| >.i f T i.O.} m.../.'.%X-.u.].4XE.f.~.d.z f ' | @.@.Q K / H - <.*./ d.u.W 8 . $ n j H R - E f 3.H K.i.;XH.f.E ",
"K.[.d.#.2 l / &./ H 2.K >.} H g.%.2.4.@XK.y.v @ H f.-.Q.9XvXGX(. XsX XE Z ^ o.4.#X=.=.w 8 u =.T 3.&.R &.8.3.Y H g < c p h G } &.J =.} } k G q 6 [ T H H | 0.( H l h &.| u.m 8 A.K.*XL.#.3.2 t 1 c | } T W H x.$.H J } H -.l.W V.V.f.V.#.d.Z.~.Y.,X9XjXfXiXFX<XwX].A.d.W 0.} 7 < ~ H U y.G.7Xg.~.E.XXXX9XtXcXeXzXh.tXwX+.S K.z 3 $ 8 J $.#.$.C.$X4.<.=.k L J 4.3.8.`  .].W.W.C.` G.i T e F k U | #.f =.l  .d.f.g b.} J U f.Y.n.} $.~.*X-XyXZ.E H < f.W y. .W 8 e <.=.8.qXU h l m C.&.&Xi.d.d.f $ + < 3 @ 3 8 j l / k J #.D.#X0.f.",
"l.K.f.f.T H l r.k b h H.E @.K S.n.3.&.4.f.E Z { | Z.y.,XjXGXzXsX|.rXrXnXA.;.@.8.F.H *.g 2 o.=.' i i -.H } P.1.#.2 + } h &.} E l } } l | } c # t N.V.p.f / &.3.G y % 0 ~ :.d # _ :.*XA.K.H 8 < @./ F } 3.e E %.@X&.8.=.( / J } f.I.K.f.#.~.n.Q.a.&XO.{ (.iXsXcX}.1Xa.8 3.C.N.s.s f / E yXu.,XR.v.m n sXSXrXPXJXPXcX&X-.8XJ.% ; v l $.} h F / E H 4.4.w.G L i <.=.} | g 0XpXcXtX-.h F @.A.R.=.F &.k U j 0.T H k Z h Z $ ( U d.R.|.f.#.S.;XyXv.g.Y g } -.-.f.Z.+ 3.=.i R oXd.Y l @.1.L.A.V.X.0 &.Y - [ F 8 c 8 V.2 K p J } g.#X4.H ",
"%.-.T G.} U K =.P.F f S.:.1.p } H } ~ A % i.g.n + | S.yX2X1XzXz.oX2XbXrXnX;.-.c ~ <.v 1 } k 3.H $.e ( l p h h k / 6 $ 0 ,.&.=.H @.H h } l | F P.@.S.@.} H 1.} F 9 3 H } =.=.e 3.8XJ #.t.1 j W H.g v | *.3.W  .:X1.4.j &.b =.0.4.8.V.Q b.%XY.Y ;.^.X.D c.CXFX9XQ.sX0X.XD.+.bX<Xa.a.Y S..X<X,XcXu.> Y.Q.HXrX+.^.PXDX6XMXdXbXD 8 l F.n.4.k @.H -.( &.2.3.&.k W h p l W.a. XGXDXxX*X9 < S p.,X .l H H _.V.j H Z 8 ] 2 c H &.=.=.3.R F 0.8.4.3.8.E f.S.^ 3 8 , | g , @.6.:.Q.E.U *.k W :.H -.$.i.Z.M.z z l 7 e l V. .R l l H @.*.<.F ",
"[.v. .l #.R.3.=.&.r.| -.f U / -.#.yX(.q % d '.A.A F.l -.g.pXs.{ =XtXnXFX.X'.l h Z =.2 2 h H h 8.8.:.G l 1.T j h k ' x @ R &.H H H l U *.J @.f } =.3.H @XJ l l F 2 ~ } =.q.@X<.S.>.J #.D.'.>.I.b f.H.2.' t @X#XqX2.*.U | &.K ^ J ` 7 y -.K.Y.[ = $.x [.|..X1X0XN.K.9XsX,X-XbXbXbX0X,XY.xXvXZXfXX.A Y.].<XMXn k.SXfXxXdXxX;X;XE j l F &.=.K h H 4.o.g ~ l i K k H y.W.9XpX1XGXzX8X^.0 & x.Y.].~ t j ~.y.T 2 c 0 l p 3.( $Xv.F.H ( F 1.w.4.3.@X4.J &.l P + 6   { 4XL.:X/ V.d.H K q.&.D.4.0.U Z.d.E o.P H 2 3.v.V.F L y./ j l } q.S.",
":.E #.| C.L.N n >.i n.z.8 } $.3.L.J.8X,XX.g.%.&.0 & 4.D.&X[ > s x.rX<XrX<XV.*./ l R } H l } p / ( h c G H J ( &.&.>.Z + 8 l R R H 0.H n.b.4.F 3.@X=.3.&.*.K *.R c ^ q.&Xo.6.1.1.2.P p.).L c l.=.T 0.| } x F } %X4.&.3 @ 0 2 e 9 9 v 0 3.>.o.W } n -.,XE.'.h.#.|.E n %XiXtXrXbXbXiX}.Q.tXbX1XrXNXGXKXcXjXQ.,XVX[.h.rXtX,X,Xg.f.'.d.V.K *.K H K / ~ J } U F h ` c g.].XX.XcXGX,X=X=X^.A d ^.eXX.7 2 4.T P H G 3 b [.#XF.A.$.e 7 j c ( 1.8.H.0.*.H h k k l 1 ..z.h.E.$.p #.H l z 4.^ H o.0.H h =.l 3 t } L.I.C.&.2 G V.>.-.h l 1.3.",
"&.-.&.| I.3.j ) 2 W.|.J.D ..g.Z.&X%XxXwXN.W V.f.8 X < =.' ;.n.z d tXeXh.^ C.&.| P U &.=.H F G h h R &.G { | k / g f f 1 f 2 &.J F F G %XN.} *.8.8.3.f H h o.K T j } ( *.J 1.} =.-.z #.R l H $.&.T *./ ^ R H &.r 7 6 c , J j ' S e Z 0 + >.) V Z f.,X|.|.g.W P H k *.&.-.cX,XeXvX0XeX]. XfXKX/.x.cXKXCXvXdXbXJX~.X.eX].Y.lXQ.].E.n.#.b H i j H l l * L @.H J l =.V.,X0XXXfXrXFX^.d l.k.d 0X1X| ; y 7 H 8.F k #.U z | K._ K J R =.J b.j c ` @X@.G J H l H H H R.].;XE.p $.j / V.H 2 3 ( H K H K @X` 7.v 0.3.F.l g H G #.H H =.h / ",
"g L.:.v.*.#Xh #Xf.h.M.^.c.^.|.[.;X8XtX].d.E T } ~ v ;.y 9 y ;.g.Y.'..XJ.;.F.k U @.L B.N.Y R U T G &.G 2 @ ~ U H b i c 2 % K R l l 8 f %Xv.h g y ^ <.F } *.i } 3.0.=.g } H &.w.} U } U l / | f v < ( @.H.*.8 o.l w     * @.K :.H @.l $ H k p $.x l.].XX].~.f.#.F } G x &.hXbXdXcX1XdX/.jXCXVXNXs./.CXCXpX1XQ.xX...XxX.XM.5X<XMXM.g.Z.C.&.@.^ F &.g , H j h H d.W n. XtX9X1XXXMX(.9 +.,XiXHXZX0Xa.,.' R J T ~.;X:.:.h H 1 8 K q.J #.v.3.V *.| V.@.k h R H q.l ;.2Xv.K.f.=./ ) =.%.U e n 9 / / 0 0 *.w w <.| w.G 2 P / *.@.| d.p.i ",
"-.H F l.f.X.W *X;XE.,X|.dXsXBXNXrX;X{ o.i.~.A A., @  .E C.F.K.Z.u.E.,X'.d.&.h &.3.h }.N.&.K H j K e Z =.Z @.3.%.>.# 2 8 b A.K.W l.-.y &.qXj 3 < 1.*.l @.R 9.l | q.=., l Y 4 | G F l J K >.2 e } l j J S.S x h y ( : 0 #.-.F h l =.&.t H F 1.v.>.A.d.[.,X'.#XV.&.E h ( K =XQ.).1X,Xz.X.d 1X1X/.!.d z.jXVXQ.[.{.f.|.Z.).Y.hXxXtXwX[.'.#XJ 4.' G H / }.N.W h | L.C.[.wXeX0X0X.X|.!.9X1XjXeXHXHXjXNXPX@.` l K.].g.b 8 2 H h H H =.H y.-.j w Z S ^ >.C.j } j 3.H f.E.C.U ~.G ( ^ K / &.I $ 0 : $ t @._ 6 Z 3.8.H } j #XW l h h p v.| ",
"R , r 3.'.c 3.'.I.u.[ h.^.=XNXjXE.d.A.n } g.z O.o.y { U C.} f.u.'.oXN.u.[ E N.} 2.@.` } K h @.( f l Y =.( } k H.:.3 n   w >.I.%XS.>.^ p >.*.7 q H H -.T -.H H K k :.k R } @.L k J K 7 0 8 2 3 ( 0.%.0 o.` c } *.2.r y i @Xl 3.k *.| @.&.} j / [.H &.f.n.L.d. .=.J $.p J d.E ..|.,XZ...A z.dXx./.2X{ AXNX.XW.9XY.3Xj.,XW.zX X<XyX%Xi.#.p 2 * y @.r B.g.h @.=.3. .E.,X0X9X XdX[.,XaX9X^.rXAXsX,X1XX. .Y  .L.yXn.w + & k } H h H y.N.v % 7 ) q 8 } h -.} } p 3.l.P C.d.L H 2 r *.H.*.h p *.w v 1.3.8.8.] @.1.j f E #.K l h H q.3.| ",
"~ l F o.<.-.*XZ.y.~.-.a.c.h.xX=Xg.g.5.0 n [.Y z.g 8 $.E h.V.F.y.uX].].8XH F L ( l *.-.&.&.G k h , @ 1.F.>.o.l.V H < + e v J V.#XZ.#.v.C.:.e 3 H Y F W U 7X| h ( 3.k =.=.} / H f h l , X.q g *.*.w.2 y g @ h 2.=.0.4.&.o.d.K =.b R } q.} H h H / K l F U K.G H f.9 %XK.f.%XZ.;X].).xXJ.x s..X,X1Xj.z.SX/.,X|.0Xg.R.|.Y.=X0X8XuXA.7X:.0 + V t =.8.G 2 H b } 8.V.k n.m.eX1X1X.XA.Q.9X1Xc.,XsXzX XKXFX^.s < b l.;.z % :.| | W U H t &.l o.^ ^ 6 g -.G | K P.-.3.l J $.Z.$.H S % Z w.=.} 0.q.=.P.P.) J } *.R h l @.F W / G c 8 p.f.&.",
"H p = v / 0 o.#XR.b.A.X.[.MXCXdXd.*X+.b 7 ;X~.&Xl n _ Z #.:.d.5.yX].<Xh.L.3.h L H / ( ` 0.^ 0.G , % 2 K F / b H h J t p 1.v 3.*Xi.:.>.2 E c H f.} } J g.$.-.} R | 2.0.3.g 2.K K E p V A b d.j =.H h 2 2 / F 2.( &.Z 9 { >X' u I V.| q.F R | k J 8.H R L 0.l g Z G.3.f.~.wXA.#.f.Q.rX0XvX2XGX0XT.J.ZXVXjX9XQ.h.F =.$.K.*X| G.;XL.:.j t w v ( =.0.P.H } } F r 3.@.H H ;X/.Q./.s.9XdXpX=Xk.CX1X2XAXFX9X7X[ d...} y.< T [ V.$.y.{ } J H Z ^ T z $ J =.@.l l H k l F E | $X] / 8 ' g } &.f P.S.F.I.:.@.@.| K H q.8.G :.Z.9./ H | @.j ",
"l F e G h 7X6X'.`.&XY.a.X.CXdXGXM.E.n.h.d J.wX:.Y E 9 D A C.F.&X6XE.-Xn.D.q j @.G 2 0 $ G c =.| 3.@., k H p y R 0.H l K H 9.=.*X+.#XT V.J 8 6.7 o.' {  .-.L.1 c =.=.w.&.< 2 ~ U ! U F.G.d.A.W &.F } } @./ / p b.p l &.Z..., l l H H l h H F F H h H v ( &.F @.^ v | C.'.A.$.K.E {.[.sXaXGXKXAX3X2XfXGXNXsXb.g.d.y.E *XL.] 8.K $./ , : o & ' ' =.R G } L } H } l &.<.A.h.s.{ k.R.bX!.T.BXGXjXzX.X].8Xy.i.-.l.f.n.:.C.<.=.%.}.-.9 z & % X X z 3 o.=.k c #.L } l 4.} 1 3 ) 8 } @.R k K &.G.C.) U  .d.$.F.1.H l R H J 8.=.U k } H H ",
"J f ` , 8 ,.'.E.XXM.].D.]..XxX;Xi.i.l.n 8 '.nX`.! E | [ [ &.K.a.&X&X<XQ.f.| T ` p e e < z W h J q.( , F =.L g Z *.b.m.R / ~ 8.W +.^ H #. .o.^ q Z 9  .E l.b x f / 3.3.P.%.G u.%.t.N.d.A.E U A.} R l =.| P &.3.6Xi 8 e + 7 H l *.8 * 2 F R H H / l =.R g L F t.1.<.&.@.f.i.u.n.u.[.xXbX0XLXKXKXFXSXHXNXjX2Xh.S.-./ ~ C.o.y / H k l y 0 3.o.3.8.4.4., &.l H H } F l 1.$X{ .Xk.,Xc.1X[ (.iX].|.,XwXR.~.A.3.8.L.y.E $.%X;.L.2 ;.;.A.,Xx c L H %.f h C.P.3.Q >.@.H l H j 1 3.J R k l J H 9.H.*.3.:.P :.C.3.r =.f # 8 &.w.K h H H H | ",
"j / R 9 + -.f.d.%X].~.8X0X9X0X-XZ.~.M.d.~.l.5.%.W #.R 7 T u.E -.3.iXfXY.#.} H R T l *.K.o.H.K L r j 3 i.@./ *.- Z +X-.=.o.^ } *.*XG.V.C.#.L.G.x.y.F.y.y.>.%X=.U =.1.<.' } @./ $.oXrXf.Y l.f.$.| z V.>.H ~ @.3.1.H + e g ~ | $.c , y z &.J K =.~ T R F P N.}.qX*.~ F H v.[ 8 A.D.M..X0X0XdXKXPX.XVXgXVX,X|.n.L.1.} J j ] 8.@.| : & q 0.` 5 =.3.=.=.b 2 H / &.h 1.H H 4.) -X9XE.[.eXz.(.FX<Xn.).E./ w _ 4.f.S.m.u.%.#.yX+.| y.x.^.[.|.M.3.H k H g P.S.W #.Y %.@.8.R c L 6 @.o.R R l H H.o.w.0.3.o.J w./ | R 2 L % 2.=.=.=.} <.3.l ",
"/ @.K K 8 #.$.d.Z.yXY.].;X.X,X/.i.N.~.b.%XJ.b } W R } } g.j =.u.n &XrX~.g.%.H k F J | +.J.K.` / 4 f @ k T c } _ =.I.H @XF K =.H #XC.G.P >.V.6X[. .f.$.S.i.#. .Y H p o.g H @.L H }.y.g.U d.#.#.aXm :.9 , | =.l h C.= - 8 L P ~ 8 @ ; ` =.G @.3.H / R 2 i  .N.>.&.k | 3.&.~ $.` J.Z.~.Q.0X].=XE.E.|.NX2Xh.,XwXR %.F @.8 $ 4.w.1.+   % l p H J 1.F.J ( @.@ *.l J $.| } <.4.[.hXl.nXDXjX1XMX0XR.u.f.V.8.Z 4.%X&XI.H.L W 3 8 5.C.Z.[.%XK.[.g.f.u.K H } &Xy.E d.} h U H o.h c &.H J k H @.*.6._ *.*.H J h 0.R } @.} d.8.<.<.k 8.H F 0.",
"4.| h H H @.Y U o.L.n.=Xs..X,X~.a.g.g.Y.R.f. .| V.W $.&XaXnXE ].M.wX<X%XG.=.P &.k %.+.3.6XH F s z.2 | 3 f p n.%X) x.p.R %.G H $.H.:.Y :XP.-.MX-Xu.y.T f.v.E %.=.F G U 4 H | l F % @ { f.%X:.y.].z V.v h c j *.j T 2 8 v &.} :.*.V : ` 8.k F k 4.= * *.2 $ l h h 4.' q ` ) p Z v f.#.n.i.A.d.f.b.R.1X/.Q.g.u.( =.f.-.m.i f.G f L @ v h l 8 i h c l ^ 1 0 j G K |  ./ 4.^ W '.+.yXaXdX9X4X).W.K.H 0.0.4._ *.;X7XH.o.Y c q DXZ.a.y.K.x.f.Z.Z.u.( } H J W W >.c R l G S.J L ` F -.b | L | &.0.8.p =.H U 4.H.3.&.N.v.=.x F V &.H =.3.",
"4.&.&.l Z @ 8 6.V.f.M.f.y..XeXR.E.M.Q.dXxXtX) Y f &.#.L.-XnXb n.l.<X'.&X3.=.w.Y A.dXh.x.~.*.3 z 0XK.Z.K.q Z.).i.;XT 7Xc F k C.F.L bX=.&.>.V.B.-.K.$.k =.H 4.c k H R k &.@.=.J - + 2 n F.*.Q l 1 K l f R b k *.4./ &.H.H P.9.H } t 4.*.1.=.l P H k F 9 2 < 4 } F h | C ; 0 8 j Z :.g W $.i.=.P L.hX X0XmX].wXg.3.C.( =.9 N.C.l r Z T 1.J j 8 , ;.[ i ^ X + R F =.#.l i =.} A.8X,X,X.XsX XtX*X3.0.&.8.@XZ P.'.Y.q.H.=.b h 4X5Xl.$.3.` b X.i.{.f.&.&.} R h.#.H &.l l #.J k U :.R V.E.@.l @.@Xt E @.=.1.J 2.4.@.o.Z l <.v 8 c 0.l J ",
"J d.1.c = v < 4 m -.g.0X-XZ.z.;XZ.dXcX0X%Xf.;XT.| C.U #._..Xg.:.E.d.`.H.C.=.3.v.eXl.l.+.Y / [ | R T n.A J.(.{ d.%.i @.l L / H.P.-.+XB.-.w.3.G $.u.} E | 1.l h H h / 2 J h H { &.G 8.K.>.H k h v @.k F M.c 7 6 *.0.&.2 ( K I.S.P.V.=.H 3.=.=.0.} @.| 0 + + r I f p f @ = l K J z U $.T #.E E } hX0Xg.n 9XDXmX8X^ q.1.] _ m Q R l @.R @.f >.r 7 ' P 4 K h / g { | <.| ( 3.l $.&XtX<X+.0XxXyXK.q.R 1.2.P.8.} #XmX*.: ; < @.m.p.5.j 0 & & n.R.i.g r R l #.C.V.J H l i h i h %.k H j F R =.k l Z &.C.U F H &.) @X' ^ 5 * + 8 =.l k H "
};
