/* XPM */
static char *_42e4086fd2c49bdf09a31fdd5dd78beoeuG31i3z9RD7LpD[] = {
/* columns rows colors chars-per-pixel */
"256 256 165 2 ",
"   c #C97623",
".  c #CA7926",
"X  c #CB7D2C",
"o  c #CC7F31",
"O  c #CB802F",
"+  c #CC8334",
"@  c #CE8639",
"#  c #CE8A3D",
"$  c #D0873E",
"%  c #D0893F",
"&  c #CF8D42",
"*  c #D08E44",
"=  c #D18F48",
"-  c #CF9045",
";  c #D09146",
":  c #D2944C",
">  c #D2984F",
",  c #D39652",
"<  c #D49A54",
"1  c #D59758",
"2  c #D59D5B",
"3  c #D89C5F",
"4  c #D5A057",
"5  c #D6A15D",
"6  c #D79F60",
"7  c #D89E62",
"8  c #D7A362",
"9  c #D8A465",
"0  c #D7A863",
"q  c #D8A966",
"w  c #D9A66A",
"e  c #DAAB6C",
"r  c #DBB06F",
"t  c #DBA770",
"y  c #DBAD71",
"u  c #DCAF73",
"i  c #DBAC74",
"p  c #DBAE75",
"a  c #DCAC74",
"s  c #DCAE74",
"d  c #DCAF74",
"f  c #DCAE75",
"g  c #DCAD77",
"h  c #DCAF77",
"j  c #DBAD73",
"k  c #DDAD78",
"l  c #DDAF79",
"z  c #DDAE79",
"x  c #DBB071",
"c  c #DBB172",
"v  c #DCB172",
"b  c #DCB073",
"n  c #DCB175",
"m  c #DCB274",
"M  c #DCB375",
"N  c #DDB076",
"B  c #DDB377",
"V  c #DCB274",
"C  c #DDB179",
"Z  c #DCB278",
"A  c #DDB17B",
"S  c #DDB27B",
"D  c #DEB27B",
"F  c #DDB47A",
"G  c #DDB17C",
"H  c #DEB37D",
"J  c #DEB57D",
"K  c #DEB77D",
"L  c #DEB47E",
"P  c #DFB77F",
"I  c #DEB47B",
"U  c #DFB97D",
"Y  c #E0B07F",
"T  c #E0BA7F",
"R  c #DFB481",
"E  c #DEB781",
"W  c #DFB783",
"Q  c #DFB581",
"!  c #DFB981",
"~  c #E0B484",
"^  c #E0B684",
"/  c #E0BA83",
"(  c #E0BB84",
")  c #E1B986",
"_  c #E0BA87",
"`  c #E1BA87",
"'  c #E1BC84",
"]  c #E1B788",
"[  c #E1BB88",
"{  c #E1BD89",
"}  c #E2BC8A",
"|  c #E2BF8D",
" . c #E2BD8A",
".. c #E3BF92",
"X. c #E3BE92",
"o. c #E1C087",
"O. c #E3C28C",
"+. c #E4C392",
"@. c #E4C792",
"#. c #E4C194",
"$. c #E5C395",
"%. c #E4C594",
"&. c #E5C794",
"*. c #E5C496",
"=. c #E4C593",
"-. c #E5C995",
";. c #E5C198",
":. c #E5C49B",
">. c #E6C59D",
",. c #E6C59A",
"<. c #E6CB9B",
"1. c #E8CE9E",
"2. c #E8D09F",
"3. c #E7C6A0",
"4. c #E8C7A4",
"5. c #E7CBA1",
"6. c #E8CBA5",
"7. c #E8CEA2",
"8. c #EACEAC",
"9. c #EACEAD",
"0. c #EACDAA",
"q. c #E9D1A4",
"w. c #EAD2AD",
"e. c #EBD3AD",
"r. c #EBD5AD",
"t. c #ECD5AF",
"y. c #EBD5AB",
"u. c #ECD8AF",
"i. c #EBCFB2",
"p. c #EBD4B0",
"a. c #ECD6B2",
"s. c #EDD8B4",
"d. c #EEDBB7",
"f. c #EDDAB4",
"g. c #EDD6BA",
"h. c #EEDBBF",
"j. c #EFDDBC",
"k. c #EFDCBD",
"l. c #EFDDBA",
"z. c #F0DFBD",
"x. c #EFE0BD",
"c. c #F0E0BE",
"v. c #EFDCC1",
"b. c #F0DEC3",
"n. c #F2DEC9",
"m. c #EFE0C0",
"M. c #F1E0C5",
"N. c #F1E3C3",
"B. c #F3E5CA",
"V. c #F4E8CE",
"C. c #F4E6D3",
"Z. c #F5EBD3",
"A. c #F6EEDA",
"S. c #F8EFDE",
"D. c #F7F0DD",
"F. c #F8F1DE",
"G. c #F7EDE0",
"H. c #F8EEE1",
"J. c #F7F0E1",
"K. c #F9F3E3",
"L. c #FAF6EA",
"P. c #FBF8ED",
"I. c #FCF7F1",
"U. c #FDFBF4",
"Y. c #FFFEFA",
/* pixels */
"w y e j j e j R y *.j.d.d.t.r.j.$.M.h.6.a a 9 1 , * : * = , 1 2 2 8 6 6 6 1 1 2 2 5 8 w y y w C 9 j 2 2 8 2 1 e 9 8 e e w y e 2 < : 8 5 w < < < 2 2 < : , , : : , , , 1 j v n n j e e 1 w 2 ;.9 ..a ,.R C < 9 < < : : 1 e ) *.B < 4 5 4 & @ @ # # @ # # & < 2 e j e C $.*.) } ) n 5 2 < < : : : : : ; : ; & ; & & & & : : 2 e u j e q 5 4 9 q e 9 j n q U n e C 8 4 # : : ; : 8 9 R < 2 n B e q a n e 5 4 e e < 5 0 4 : 2 : : > : 5 # & 5 8 e < 8 a L C < * # # : , 9 < : : 1 2 2 1 * : , , 1 : , : : , * * # : * * 2 2 9 e L e ",
"e a a y l C G a p j +.| e.e.p.{ L ) >.8.1 l 9 2 2 a 2 9 9 , : 1 2 2 8 6 6 2 2 1 2 2 9 w 1 5 8 5 8 { ) F 2 e 2 1 1 2 5 2 2 2 < < < 1 < : 2 5 5 8 0 e 4 < < 1 < : : , , , 5 e x v v v e 9 2 a p 8.$.9 4 < < < 8 2 < < ; : v / @.B 2 < > # + : : 1 * @ @ # # : 9 j G e j L C G ) R e 5 2 < , : : : : , : & & & : 1 2 # : & : < 9 8 5 4 e 5 5 < 5 < < 8 n 9 4 2 4 8 n : ^ : : : : 8 & 5 x e q 9 ; & ; 5 8 5 8 - & 8 ; 8 : : : > : : e < # : 5 : 5 q } 2 C j 5 < ; : * : < : : : , 2 2 , = : : , , , , : * = # # @ @ * : : 2 2 5 w y ",
"1 w a a a a G G G ~ ^ z u e e p C ) 3.} ..R : 5 R { | F L e e 9 2 2 1 2 2 8 9 8 2 2 2 9 a a G ^ G 2 1 C F 5 5 e 8 8 w 9 e 9 9 5 2 2 2 5 5 n U U -.-.' 9 9 4 < < : 1 < < , , < 2 e 8 v x ) R p.) R 5 - ; ; & & < : - - F U *.' B < # @ @ 6 < ; 1 9 # # + * # > n ) e w u C | | G e 8 2 1 < , : : , 2 < : : : - - & ; - & 5 < 5 < < < 5 5 4 < < > < 5 q e n e 9 4 8 : 6.; 2 8 e < : 8 G C 9 j 1 & : : : 4 ; : 9 < ; 8 : : : : : L ! e : - ; - * 2 / - C q e 5 : # # & # * * & & , 1 * : : , 1 < 2 9 9 1 * , 2 2 & @ @ @ * & * , 2 ",
"6 1 8 y 9 1 y 6 = * & @ * G ^ G R ..>.1 | : 9 n ) / / ! / L L a y 2 2 2 1 1 1 1 2 8 w e e 5 v 9 8 e e 5 C j n F F n { F n O.j j e e 8 n B ' -.O.e T x *.@.O.' n 2 < : < < < , : : , 2 n +.+.0.) 8 , ; : : ; : : ; ; 5 U O.O.n 4 * 1 2 8 1 1 2 , 2 1 & # : # ; 9 9 R w >.>.>.>.$.l 5 < < < < < < < 8 8 8 2 : : < : > > ; : 2 < 1 , : : : : & , 1 & : : : ; < e q 4 # , < , 1 1 8 2 & 2 9 : 1 1 & < ; : 2 : e < : 2 ; : : : : 8 8 5 < < : - ; - > R a v 5 4 8 ; # : # # * * * & * * * : , 2 9 w e e j e e e C n 8 < * @ X + # & 8 ",
"& * : = * * : = & & # * : & 2 , : : a ;.: , 9 L L ) ! L ! / U O.C a a y 9 1 2 2 2 9 5 ! ' ) { { ' O.O.U 5 8 5 9 e 5 5 e ' 4 B U O.O.-.@.O.! r ' -.<.O.O.F -.-.-.' 5 < < : 1 < , : : : e ..~ | / 2 , 1 8 a 5 : w 9 8 B O.O.@.U < + : : < 1 2 5 2 * , * @ * & : : n | >.| 9 5 j C ..e 1 < 1 < < < 5 8 < , 8 0 q j C n 2 > : 1 1 2 1 : ; - & 1 : : 8 : , 1 : & 1 : : * : 1 , 8 2 2 | : , : ; * & # 9 9 8 ; 8 : 9 : - ; : : > e 5 5 : 2 4 v : 5 5 q ! L 8 < 0 4 : : & * * ; : , : 1 : , < 8 8 9 v C v v v / L L / a j 8 : : * + * & ",
"& * * * * * * * * # # # : : # * y a X.: 2 9 a / ) F n / L L L C F { ! u e e w 2 8 2 +.R *./ O.{ | +.| { ' O.' / B ' O.v B ' -.U e 5 9 +.L B <.-.-.@.-.@.o.v +.-.-.K 5 2 < : < 1 1 < , 1 2 2 2 8 w 5 w C C } ' ' ' ' e O.O.v B < : : , 1 , 1 w , = , , , @ & < , : 1 1 < 2 6 w e < R e 2 < < < 5 5 1 # * # : 2 < 2 a C a C e a e 5 2 , , 2 < < 2 w w e 2 8 1 : : G ;.: : ; 1 y 2 2 R : , 1 # 8 2 9 1 5 < 5 1 < : < : : < : : : : < < : < R { L R L R n 8 a j j e < & ; < 2 2 < 2 8 5 5 8 e n U B B B m B ' F e L n j e < : @ + # ",
"# # * * * * * = = & * = , @ # , , , , , 2 8 j ! / F O.U / ) / L n n n ' e e e O.) ) O.O.+.) F F *.' ' *.U *.@.*.B / U B U U ' ' O.' 5.U 5.-.<.-.-.' -.-.1.O.U U F -.O.q 2 2 1 < < , 1 8 e 9 w G u 9 ..| +.$.O.o.' B @.O.' v 5 # , < < < , , < 2 , , , # ; * < < , , , , 9 t 9 8 9 2 1 < 4 8 5 5 ; * # # * # # # # 2 2 1 : = : 6 6 : 9 2 * & : < 5 5 < < e 9 9 1 : ; ; < < 2 ; 2 : 1 l p e 9 : , ; : : : 1 : 1 < 8 < ; : ; 2 > < F F 2 < < 4 : R C : : C u G a e 5 < 9 j p 9 8 2 8 5 9 x / e e e r q q 8 v F B / v v n e < 1 @ @ ",
"# # * : 2 , , * * # 2 * * * 1 2 1 : 1 8 9 j F ) F | O.*.,.+.' L n e n a ' ' C C n v +.' 9 , 9 2 L ) F n L x j j 8 < < 2 < < F U ! O.' { ) { / ! U ' *.-.-.<.1.1.' B -.-.O.U e 5 2 2 5 2 9 y C W 8.b.| { O.*.O.' O.@.-.O.q K < # @ ; 1 2 2 2 1 9 8 8 , # * & : : * : e w a G R l z z 2 , & : < ; # @ @ @ @ @ # : , + + @ @ + @ * : * & : : , & # # * , & 8 8 : : & 1 a 8 ; e - < # ; * w 2 2 & 1 ; & # # 2 8 , < : & 2 6 w 9 , < 5 2 2 { e < 5 : : < < : : 5 a w < < 4 q q q e e e e j B e 5 ; : < > : 8 8 8 T ' ' U U B 8 < 1 = ",
"2 : , : 8 e : @ l 6 * l a : * 6 e 9 j ' ) n ! F { q.' 5.5.+.+.O.@.n x v j n v L n +.+.e e 2 8 a e 2 : : : & ; > ; # 2 2 1 : l 2 F 4 5 8 9 F ' { ' ' U U U { -.1.-.-.' F ' 1.-.K U ! U F F ' *.,.6.>.*.*.O.O.O.-.-.@.O.@.v B < # @ 2 : < < < 2 8 2 1 , @ , : : 1 = a ^ ^ a a ..G 8 6 2 1 : & * @ @ & * * & & : : * : & + & , # 1 6 * * : : : : + : : : # # # : : ; ; # @ # * : 1 1 1 9 9 : 8 2 w q 8 e 9 : @ 1 y @ # < < : < @ a a < < < 2 1 2 < > 8 > < < ; ; < < L 9 0 n 9 9 e F B e 5 ; * # & & & & ; : < e 0 q x ' ' j v q 2 ",
"e 2 2 8 2 8 8 9 , R l z 9 y e e C L ) *.) { ) R 7.e e e e x v C n +.,.,./ U ) ) +.,.~ 2 e a 8 2 1 e e { e 8 1 * : { F F U , , 6 1 8 1 1 1 9 9 9 n ' O.' / O.1.1.5.q.1.q.O.' U 1.-.-.1.-.-.1.5.5.1.5.-.-.1.t.<.1.O.O.O./ m v q < : @ 9 < > < 9 8 , , , : 1 1 , 1 e 9 l ~ a G y ^ R y e 2 , : * 1 : * * * : 1 : & * : : 9 @ : : : : 2 2 , w 9 : , 1 * , 6 9 8 & @ @ @ 1 : # : 2 2 L >.O.! -.1.@.v e ' O.{ O.e v F e @.O.O.5.B ; ; # C C a 1 < < ! n 2 j $.> 2 < ) e w j j j e 9 e e 2 > > & & # # # & & & & ; ; : < e e O.! n v n ",
"n F u j e j C 8 9 $.* 6 : R L F 7.3.+.{ ' / / @.O.e a e e a C G C L j +.g.7.e.*.>.+.u C a 2 L { j ) O.-.O.U O.9 2 F @.-.' ) ' ! / ' / x 5 : : 1 9 e { ! U O.<.1.1.@.O.q.5.1.@.' U U / F ! -.q.q.5.7.@.q.1.q.q.-.@.-.e ! e 5 4 < < # 9 1 < < 9 w w 6 8 e w w y 9 8 G 2 6 2 9 a ~ y e G ^ y 2 , : * : : 1 & # # * & : & & & 9 8 e C C G l y e 8 < < , < 2 < 5 8 8 9 e 5 3.B.a.B *.O.8 : < : < e < 4 8 4 5 5 8 e n n e e w 9 +.K n / v # C } < 5 < 2 2 2 8 +.e 9 9 j 5 , 8 , 1 : 5 < : ; - & & # # # # # # # : 1 , : : 5 e ' O.@.O.",
"+.O.n C F U n ) } u } | l C L ,.*.' O.+.O.{ 7.+.F R e l 9 y y p u 1 5 | q.R 2 w e 9 1 8 ~ >.-.-.a.q.5.d.a.1.! F F T l.5.5.a.' ! / -.' / U ' 9 * 9 9 ' O.' T -.-.-./ ! 1.q.5.1.1.q.q.q.-.q.q.y.a.a.y.q.a.y.<.O.-.' B K e q 2 2 5 & @ : 1 , , < < , 2 w 1 9 , 1 < 1 2 9 e y y 2 8 G e ^ G e 9 9 8 1 : * * : : : w e y y e 9 2 e w e a R R a y e 9 8 8 8 5 < ; : : > < 5 e e v e 8 q < a : : e e e : w < , : , , 2 9 < 5 ; < : a -.-.v # : G 9 < 2 < < a 1 2 2 e 8 1 * * 6 , : : : : & & & # # & # # # # # # * , 2 8 < : 2 L / ) ' ",
"C +.@.U F n ! F | ..L R ) ! ' O.O.*.s.d.O.5.@.x R e y y a 8 y e 8 1 2 +.,.1 R C 9 w e } 5.d.q.r.q.1.a.y.d.q.@.O.t.q.q.9 2 F O.{ 0.3.7.-.-./ -.: : y 8 L ' ' ' U / ' { O.' / U ' O.-.q.q.5.5.q.q.q.1.O.-.O.O.O.v n K O.q 2 8 1 * @ , : : < < < < < < 2 1 2 C j u } 5 2 2 w G #.R ) C 2 9 9 2 2 8 9 2 < < 8 w 2 1 1 2 8 w y w e y y y a C G R a w 8 5 5 : , < < : 1 < < 4 e 0 : : 2 2 O.O.O.o.U U U ' U U U O.O.O.O.+.O.F / / > G L @.e & l w G G l R G R G w 9 # # < 5 : : , : ; : - & # # * & # ; , # # # # & 2 w , : , < 2 L e ",
"8 ) *.@.' { n ! F R / U / U F ' r.@.) 3.,.q.5.F e a l a a w 9 2 < < 2 2 e R 1 9 9 w { -.d.' *.{ U F ' ' u.1.q.d.q.5.O.4 < 4 8 8 a w >.r.q.1.U @.8 : 9 y 9 j ' ' ' ' ' ' ' ' ' ' ' ' O.' { O.O.*.1.@.! U U U U T n 0 q 8 9 2 @ # * * : < < 5 5 5 0 9 < < < > : : : & 1 2 , * < < : : : : ; , : ; 2 5 2 < 2 2 2 8 8 9 w y w e e 9 e 5 w p a G R j 9 2 < 1 < < , & # # ; : < : 2 e : O.T U U v v x e v U U ' O.O.' *.O.' +.+.' 5 a C j @.# l 1 # # & 1 # 2 1 # # : e v n e 1 : : ; - & # # # & & & ; 1 # # # & * & 9 2 2 1 < < 1 8 ",
"w L *.5.-.@.O.e j U n e / O.-.z.M.>.3.$.| O.| R e G C C l e 8 1 1 1 : 2 < : : e } +.-.l.{ ! e j L L n q.a.q.5.l.5.e 8 q B T U U U 5 *.q.r.' @.' U O.< * 2 9 0 8 8 8 9 F / n 8 8 F / ' ' ' ' ' ' / / L 9 n q q q e 1 2 0 : + @ : ; ; : > 5 2 < < 8 1 : ; * 2 9 e 8 a 8 1 e y e e ^ G 2 9 2 6 w 1 ; & & & & * , < 2 w e 2 w e w w 8 8 1 2 8 j R C j 9 8 2 1 : & & a a , ; - : 2 >.' U K m n L < < > : : 5 F ! K ' @.-.O.O.O.: ~ y C O.U - l a & : # # # : # : < e e F O.K < : : ; * & # # # # # # ; 9 1 # # & ; & 8 w w e 2 < < 2 ",
"9 e L | *.5.r.-.-.' O.+.5.s.C.p.| 8.$.;...| } ^ R R G G l a e 9 1 1 : : 9 2 9 +.-.s.r.d.) L a R e n v U q.q.q.L j 4 e o.@.r.-.-.<.5 j +.>.' ) / { O.v ' * 9 8 e 9 9 9 8 8 9 9 e e e e y C p ) ! ) L j e q q 5 1 1 O O & + # & : : : : < 5 < 2 8 * * # 2 , ; 1 2 2 2 2 1 9 8 9 9 a a e 9 e w 8 , : : * , 1 : , : : 1 2 w e y e w 9 9 9 w 2 : G R 8 1 1 2 * @ # e { O.O.O.o.O.O.T B B U e e < < < 8 a p w < q ' -.@.1.*.-.@.< j n j @.q & # & 5 2 : # , # < e e e x n e F 5 , : ; : 1 1 : ; # # & 9 9 j w & 9 8 1 & : 8 8 w 9 8 2 ",
"9 y p 2 a n 5.) g.s.h.h.B.h.>.6.8.0.;.>...| ^ ~ G R G C u a y 9 1 < : , L -.1.u.l.a.l.+.! ! e L j v 0 n -.5.1.j 5 e O.y.<.@.q.q.<.F 9 8 ,.$.9 2 8 L / ' n , : : 1 e e e e e e 8 8 8 8 5 2 2 , : 1 6 2 ; : 1 # @ + # : ; ; : < ; > , : < 5 4 8 * & : 1 ; 2 9 e C F 5 2 2 8 w a l e 9 e a ^ R 5 < * * * : 1 1 1 6 9 w w 9 : @ # # @ # @ # : w 2 1 1 : ; & & ; 8 L @.@.O.O.U U F U B v e e : > 5 8 5 5 4 9 , 5 q @.O.F 9 9 5.+.| j e @.F < : q q F B < & : 9 F O.B e e n v x < 1 1 1 2 2 1 , : : 8 9 { 1.+.F ' U 2 1 & 8 2 : , 9 y ",
"1 2 2 G 2 a u R a < ,.p j n ;.g.g.g.>.3.3.;.$.^ a R R a l a e 8 2 , : u y.Z.s.q.@.l.d.q.y.B F n n e 5 8 L < e 2 B @.q.U ' C F q.a.q.' F 9 e e / 9 2 C / ) O.' < * , 1 1 1 1 1 1 1 1 6 w 9 2 1 2 2 1 : * # @ @ & < 8 e 9 5 5 : : < : < 4 < 8 ; ; : ; : 8 0 F { -.O.F e 5 1 2 5 e ^ | } L C F ' 8 1 : * * # @ @ # * & @ # & * & - # * & & ; : ; * : : : < 2 e F O.-.O.K B ' ' ) n 5 q r B 4 : 4 0 q q v e : O.*.O.5.1.9 < B >.q e e e *.9 ' B K O.-.: * 5 v 1.@.@.U e T F e < j e 2 1 1 2 8 C O.*.d.O.-.l.d.N.N.' < & 2 1 : : , 2 ",
"2 2 2 a G e 1 e W C n ) j ..| R l l g.g.;.} | ^ ^ R R G a y 9 8 2 2 8 @.B.-.7.3.+.{ t.r.l./ v x j e e 5 4 4 < e q.q.O.' F j e ' -.M.q.q.q.q.1.5.@.L 5 ' O.O.) ! F < = = : : , 1 1 : , 2 9 j n e e n e q < : < e e 8 e < 8 < 8 9 : > 4 2 * # ; * < 5 8 e ' +.>.-.@.@.{ e 9 ) R ) O.{ { ' ) *.q.+.8 < : & ; : # # ; : ; : : > < : : 5 4 2 2 1 1 2 2 e u B U ' -.-.@.' ' O.L n 9 < e B K ' e ) 4 e C x n j < @.' : : O.F U @.1.,.j } } j -.-.O.O.e -.q - 2 v q.@.-.-.' -.v 5 < < e < 1 2 v 1.t.r < ; ; < v 5.e O.-.2 ; : : ; : : < ",
"9 e 8 2 2 9 8 w ^ ) G 2 G 0.C 3.p.8.8.0.3.G G y R G e C a w 9 8 5 8 O.u.q.s.) e ) { / y.r.' e j 5 5 8 q 4 q v B j.q.-.! C L C e j O.q.-.a.a.l.d.u.<.U 5 8 w n ' / O.F 5 F ' { O.9 5 8 L *./ F L F n e q v n j 9 4 5 9 5 j ! e W C w e 5 & : ; 1 e n ! O.*.5.5.*.-.>.1.*.+.+.+.*.*.-.,.q.q.q.q.q.B 9 2 : 1 < : : < 8 q v O.{ e B ' U F F / U *.*.5.1.1.-.-.-.-.@.o.' -.) : > < < r U B ' K 2 4 4 5 8 e 2 U O.> e j : ' -.1.+.2 y } } e j ! e w j @.K q q ! @.@.e -.O.*.v e e < < 1 < 2 / <.r : : : < : ; : < F u.e : & & * : : 2 ",
"L F L 2 8 w w 9 9 ..| $.} ..6.0.8.,.e ..$.$.....| y 8 a a w 9 8 8 O.q.a.s.$.*.e.@.C L x j e q j 2 j a < 9 5 9 K q.d.O.n { e e e } +.;.} } x O.*.q.a.1.' U n e w { n U { ! ' ' ' O.O.O.! ..,.+.{ ! F n j 5 4 4 4 5 e ,.,.y 1 : : ; & & * ; ; < e ' O.-.-.-.<.y.q.5.q.r.5.5.>.5.q.5.,.*.1.q.q.q.q.' q e 2 2 5 2 < e 5.q.q.q.q.*.1.q.q.y.q.1.5.5.-.-.-.@.@.@.O.' F *.+.L 2 ; : < 9 B T ' F O.K 5 8 5 8 : O.@.-.e e { a : ! < a j ' ' F / F x e / j U 1.1.5.' 8 5 e O.<.F j j j e e < 9 O.q.v ; : > 2 < 1 2 : 2 4 u.< 2 : ; * : < 5 ",
"e -./ e C R -.L e e G C G } L $.} e L U a ! L C R C R 9 2 e 8 8 e q.N.p.#.g.j.' 1.B j w C q 8 e u n T n e 8 B O.r.@.n 9 O.e C u | 9 5.5.8 w | C v t.r.u.1.-.F w n / { n L ! ' F F ! ) *.v e e 9 9 8 5 2 q j e e u C 2 8 2 2 1 : & - ; : : 4 F ' @.-.<.q.5.q.-.r.r.1.1.q.q.q.1.r.r.q.r.q.5.q.q.q.O.' ! e 9 8 e -.5.q.q.q.q.5.5.5.q.1.5.<.O.O.5.O.O.O.O.O.' U ' @.{ e 2 : : < < r ' F B K ' ' U e < < O.@.@.O.e w 9 e a C j -.e T ' O.O.j e e L j e 1.L 8 5 5 9 2 e -.K e n u v / q ' O.2 ; - 5 5 2 4 q e : 2 5 c.e < < ; * : , 2 ",
"8 @.L C j L *.B.1.@.q.u.y.N.B.*.q.-.@.q.+.l.N.' l a y G y y n -.q.Z.g.>.5 e.2 C e -.-.n 8 e e 5 q j n 0 5 5 x d.' O.q.T y l | e R F >.-.5.U q ,.v v n O.l.1.O.9 w 9 L O.O.{ / / ! ! n 9 8 < , < 1 < < 1 2 < : 1 : : 8 8 w 8 : : v v 8 < n ' @.<.<.1.q.q.q.q.y.y.q.q.y.q.q.q.r.q.q.q.q.q.q.q.q.5.q.5.1.1.-.-.5.q.q.q.q.q.q.q.q.5.@.O.O.@.*.O.' ' ' ' ' ' { -.*.O.j 2 : < < < < : v O.K O./ ' K K O.+.O.+.' +.2 w 8 e j L O.q < B -.! e G l a y y w 8 9 9 9 9 9 9 2 e -.U n C j { 1.O.e * : 8 e x e e B v e 1 8 a.d.8 < < : : < 2 ",
"2 e 9 F ! ) { N.-.q.q.F.B.B.S.A.Z.V.y.N.B.Z.Z.l.) C e j j / q.d.Z.d.r.,.+.h.w 8 < 9 / ! 9 < e q F K O.K e 4 e r.-.@.a.1.p W ..,.>.-.q.-.-.5.v C +...L x ' d.1.U 8 9 9 n F 9 9 9 8 5 1 < 2 j ) { C w 8 , : : < , , 1 2 2 : : e B O.O.U U @.-.1.q.y.y.y.q.q.q.q.q.q.q.q.1.O.O.O.@.q.q.q.1.q.-.1.q.q.1.2.1.1.5.q.q.q.q.q.q.q.q.q.@.O.O.@.-.' / ' n e n G G G R R e 2 : 4 5 < < < : : v B O.U U T ' ' e B O.v w 9 O.K 5 5 < : # # 5 O.' v ^ 5 x 1 2 8 2 8 j < w 5 9 2 8 U -.O.n @.1.@.e ; ; : 5 e v v v B U q 2 8 a.N.e < : ; ; : < ",
"2 8 9 j / j ) q./ ) a.S.B.j.B.C.q.r.A.Z.Z.Z.V.V.l.a.p.-.@.l.l.c.t.J.q.| q.-.L 8 9 e e +.n 9 2 U O.n ' F 5 2 4 -.y.r.t.U e ^ } ;.e -.j.l.-.1.1.' n e e j e y.y.<.x e 9 9 9 9 8 5 2 9 j | 5.q.q.1.*.+.! j 8 5 2 : < ; & : < v U ' -.-.-.-.y.r.y.t.1.O.F ' o.U v j L F n e 5 4 5 8 K O.@.' U B ' @.@.-.O.O.O.-.y.-.-.1.q.q.5.5.1.@.O.*.5.O.' F v e w 8 1 1 2 1 < < 1 5 5 8 8 9 8 9 e < B / K ' ' O.' O.n ' 9 e e e 8 : # @ : 9 2 ; -.R e 9 >.>.-.*.' O.O.O.O.2 w 2 2 9 e e -.1.O.' e < : : : < q r e B B 0 9 2 5 q.N.x < 1 : & : < ",
"9 n O.-.{ u e ) ! @.q.A.j./ O.O.F -.y.Z.N.a.u.c.B.V.N.y.q.j.l.M.r.d.q.e 7.q.>.8 , 2 8 <.4 e 4 < e 5 8 e 9 5 5 O.y.r.L e q j ..8 q.@.y.a.d.@.-.+.q.@.*./ j @.a.q.q.O.e e e F L F F O.-.-.-.-.-.-.1.-.-.O.O.F e e e q q e v ' @.1.<.q.t.d.O.' <.-.' v 5 < < : : : : : : < < 5 8 5 9 q B q 8 5 e B O.O.U v F ' *.-.+.+.*.-.-.-.@.*.@.>.' ' F 2 8 w : , 1 2 0 9 9 8 9 8 5 5 8 e q e 8 j e K U O.T ' ' n a n : 9 ' w @ : : : 5 w 9 # e F e < -.F ) j ' O.O.{ e 2 w 8 8 2 1 , 2 0 5 2 : : : : : : 0 v v B K 2 2 5 9 q q.y.e 1 1 , < < ",
"n >.a.a.t.' e e @.t.y.a.O.' F } e n q.r.y.q.-./ -.u.B.x.N.l.d.t.s.g.L 2 U -.n 9 9 e a 5.C j B F q 5 5 < e e ' O.d.y.5.) ' 1.e O.*.q.j.t.t.l.-.O.-.' >.>.L n 1.l.d.q.q.1.5.q.5.1.1.5.5.d.j.x.x.j.r.r.t.y.5.-.O.O.O.' / T O.O.5.q.q.d.1.C < 4 < < < < > : > > > > > : < 2 2 4 4 5 4 8 5 5 5 5 e e F x n j e L O.O.L { O.+.@.*.*.-.-.O.T ! 2 e 8 : 5 0 9 e e e e q 5 5 8 8 8 n 9 p e 4 > e e F U O.O.! ! O./ w r * 1 < : 2 < 9 9 & v ) 2 >.+.O.w 8 8 8 ' ' ' { 8 9 5 9 8 2 9 2 2 2 2 : : : : < 0 m B < 5 9 2 2 8 5 r.B.<.e F q 5 e ",
"Z.N.q.Z.A.j.r.q.A.V.d.O.^ g.e.3.>.O.r.y.d.O.+.5 F -.5.B.x.j.j.r.g.g.3.u +.q.e 2 e w e 1.F < ' a.1.0 0 8 O.' q.d.j u ..q -.5.+.-.+.q.j.y.5.y.a.z.5./ ' { O.F n O.<.q.d.l.r.r.y.y.r.d.l.l.l.x.x.x.z.z.z.j.c.d.q.q.1.O.' ' O.1.q.t.d.x.*.2 < < 8 u e e 8 < 8 9 9 4 2 < : ; < < < < < < < 4 : 9 4 C n C e 8 5 8 9 5 5 e / { O.O.{ { O./ n 5 w 2 5 5 0 e e 8 8 5 5 5 5 n e e u a j j e 4 2 2 e K U O.e 2 2 O.n w O.2 & : : , < 1 # < q.C 0 >.O.! 8 2 w e 8 ' @.' 2 9 8 w 9 8 2 8 2 < < 2 9 9 8 8 r B x < 4 > < < 8 5 v O.N.B.B.B.Z.Z.",
"! n / -.q.Z.F.A.d.O./ L n g.g.6.j q.-.7.q.v e 5 K @.-.u.N.z.a.r.v O.7.+.e / *.j @.@.' @.L n d.u.| 2 e B <.a.s.q.a 9 9 1.z.j.-.O.-.l.y.+.@.*.5.q.z.1.>.q.' ' e a e e v -.d.l.l.l.l.r.q.q.5.q.q.q.a.l.a.y.d.l.d.q.q.O.O.-.q.q.t.N.N.5.L 5 q 9 : 1 1 : : 2 ; , 5 : : y 2 : < 2 : : : < : < 9 9 2 2 2 2 5 9 9 9 w e y 8 5 j v e n F n e 4 8 2 9 9 0 e 8 0 8 8 9 9 C p 1 1 1 C 2 2 5 5 ) p 5 e B ' ' , , < n : e / 8 # # # # # # : 9 -.l C 7.e 9 8 { >.+.9 j O.@.' 8 n n j n F F B 8 8 q 9 e r v 4 m q 4 : 8 : < 5 5 8 e 0 q e F n F ",
"< 9 j O.>.5.+.7.5.O.L } 3.g.p.e.;.U O.F n a 8 5 q ' -.<.y.1.5.5.e / $.,.j L -.O.q F 1.O.B B u.a.' e l.d.n j j n ^ ..@.m.j.l.j.z.y.5.{ n L O.U +.1.d.s.5.d.' ! @.F e e e 1.q.q.q.q.n r e e e q q O.y.' e e O.x.x.a.q.q.q.q.y.l.M.q.n 9 2 e < 4 v F r < > > < < 4 5 < 8 8 8 e e a 9 e 8 e 9 9 8 9 8 e 5 2 9 w j j e y 9 < < < < < < < < 2 5 5 8 j 8 e C G n L L 2 5 , : 9 2 2 : j 0 j W 2 5 K / : 9 : < : 1 5 n e 9 1 2 < 8 8 e e *.C q >.' 2 9 y 5.7.y 9 ) O.O./ ! / U T ' U K B e q 9 e B e < x e 2 1 : : : < 2 4 4 8 e e 8 2 2 ",
"e G 9 w L { $.| O.-.! L j e 8.6.3.3.;.$...} ~ u 2 5 T -.*.U e 9 e ! $.{ n / ) O.y 5 5.j e ' a.t.{ < -.C U O.F 5.@.O.d.e -.>.' e j 9 G G n e e ' O.-.@.@.-.-.>.n T ' n n e o.' e e j e e e e e e e 0 e C C C e O.q.d.l.d.j.B.B.r.C j e C : 5 F n e e e x e 5 5 5 8 0 e 9 8 9 8 j x x x e j 8 5 e e e e C e L L a e e j y y 9 2 1 < < < 2 < < 8 j 8 a e 9 L e 8 1 < 2 8 2 < 2 : < q 2 > : 5 U 5 8 < w 2 8 2 8 5 K @.r e v e e e r +.e < *.@.B F 5 5.+.8 8 8 { O.O.O.O.{ O.T v v B e e 9 8 e B e B 8 < > : : - : < < < 2 2 w 8 9 n ",
"' O./ R 9 y e R +.' R { j L n 0.6.6.3.+.$.+.{ } G L e 4 q e 5 C 2 5 u e.q.5.-.j ' >.O.C e y.q.' { 4 -.1 5.-.-.O.G e < 1 w 2 5 2 2 5 6 2 e 2 R e F e v n / ' O.@.v ' ' F n e e n n ! ! j e 8 9 e 9 e 0 8 5 5 8 j j e O.a.r.q.q.e j 8 F w < F q 2 5 < e 8 e 9 9 j ! x { x e n 0 n e 5 q 9 < < 2 5 5 9 e e C L L R j y j u e w e 8 1 < < 8 9 ; 0 e 8 j 9 8 e 2 * ; , 1 2 2 ; 1 < 8 5 4 R 8 < K ' 1 < , : : , , 2 8 B @.@.*.@.@.*.' 9 G ' >.5.5.O.j { ' L 8 8 L / O.' ' O.U B U K B e e e 0 q r r e 4 : : > ; ; : ; : 1 2 5 K ' ' ' ",
"e v ! *.e w e e C | ) L a 8.y g.e.F C / L n C e L n F n F +.,.7.g.>.g.b.q.*.@.w e -.O.v n n n e 4 2 ' w 5.-.+.9 , * a 1 # * : : : = = : 1 1 e e a e 9 a 8 e / -.L v ' ' x n n U / U F / / F { ! v x x v n x F F 0 2 9 9 9 9 e j 9 w L 2 < B 4 < : ; ; - : ; : < & : : < < u e 8 8 9 e 2 5 4 4 5 5 8 e e e n n L R C L C n n 8 j 2 w 9 l 9 < 8 q 8 5 G a 2 9 : ; : j e 2 2 2 2 e 8 5 8 : 2 e K U ' 2 < e e x j < 2 4 q 5 8 5 4 e w ; q 1.5.q.O.9 9 9 8 9 8 e 9 9 j e ' U F K K B v e e e 8 q q q 5 < : : : - - : : 8 2 B n 8 q e ",
"5 8 n ! O.e C e G ^ G } h.a.p.g.C L 5 2 : : : 2 u u e ' { O.) +.g.b./ 7.' F n 9 e a @.v x U q e 9 O.8 5.j.{ w * * a 8 2 C a 2 e e a : : * : : : < < 5 a R a e O.O.v F ' ' ' ' ' U F B n v x v r r e q 5 5 5 5 8 q e 2 8 9 w w 9 e C e 1 < v e < : ; ; : < , ; : : ; - , < < j e j 0 < : < : : < < 1 8 e e j j n C L L L C a C 2 9 9 a y < < ; : e 8 j L 8 2 : 2 e 8 8 8 8 8 ; 8 8 8 5 G , 2 K U K O.U U O.+.@.' : 8 < 2 < < 2 9 w < < B -.q.U n n 8 e 9 8 2 9 2 9 j e U ' ! T F v e e e q e e e 0 5 2 : : > < 2 < < e U e e 9 9 ",
"8 8 2 G ' +.j C n | >.3.0.a.p.g.) F : C ) G 2 1 , & 9 > y 1 2 2 < l , 8 1.O.+.j 9 e +.j v F n 5 e O.T y.e 9 * 5 C O.@.-.-.-.L 9 6 9 9 e * * # # @ # & 2 2 5 2 L @.L n T U ' ! B B m x r v e e q q 5 q n q 8 e e e 8 j e e e e j C j 5 < < 5 r e : - ; : : : 5 9 e < < : , ; , e j 8 < : 1 : : < < 2 < 8 e j u u C L G n n j e a C 2 8 2 : < ; 9 * e 5 5 L w e 5 j 8 q 8 0 0 5 e 8 5 8 C < < e < : > x 0 8 : < T ' x : 8 < 2 w 1 : ; ; 0 *.1.e e e w 8 9 2 2 1 < 8 F F ' T ' ' F F e e e e e e e q 5 8 4 < < < 0 e F ' e j y w 5 ",
"2 9 e 9 n R ! *.F C ,./ a.v.a.C n 4 8 5.N.Y.F.l.d.t.Z.d.r.D.D.y.y.Z.Z.w @.-.5.9 2 y O.n L F q 8 e o.5.5.e * w ! s.a.q.y.a.u.a.1.C i 2 y e z l t = = @ & 2 9 8 e ' O.+.n K K F B e 0 q 0 0 5 e n e n n U U F x 8 2 5 9 e j u j e e 9 2 : : < < 8 x : : : > 8 # # & 8 < > > : ; , < , : ; ; : < > : 2 2 5 9 9 e e e j j e e e n e e G 9 8 5 4 < 2 * e q 4 5 8 8 8 8 0 8 0 e e 0 5 8 5 j n : < 2 9 < 9 e < 1 > < : ' O.e < < : > 2 e j n U +.' 5 < 4 2 8 5 5 w 1 9 9 a O.' T ' U U F U e e B r r r r r r r 0 0 e B F e e e w 9 a 1 ",
"2 2 2 8 9 a ) L a w C { g.h.5 : 9 6 ) Y.U x Z.B.q.O.5 < O.o.B O.y.L -.s.2 >.n e 8 2 1.F 9 e e e 4 e -.5.5.2 2 @.a.q.-.5.1.q.q.d.5.L C e a 8 2 l a G & # : < 8 5 T ' ' O.C e q e e q 8 5 8 ) { ! L U ' F x / ' F q 5 5 8 8 9 w e e 8 5 2 < : : < e < : > w # # * # # 2 9 9 < < : : : : < : ; ; : : < 2 2 2 8 8 e e w 9 e w 8 9 8 e e j e 9 2 5 & 9 e q 9 5 5 5 5 8 q 0 j 8 q q 8 8 0 5 5 4 8 j 8 4 e e B B q 5 2 q o.' O.U F e ' O.O.O.O.O.1.e 2 a 2 } 5 G 2 2 2 9 e L O.' O.U U F U U U F B x v x v r v B v n q 8 1 & : : : : : ",
"2 e v 8 8 ^ | h.n.h.8 9 < y r.F.q.D.A.U # # < # & & & 1 * : : 1 2 2 9 V.O.8 ' -.F U 1.O.' L e < @.O.j 5.d.2 e O.>.a.q.u.r.1.-.r.d.q.1.-.{ ) ~ R e 9 # # & 2 8 9 5 U ' ' O.O.+.@.@.$.F 8 +.' / U ' ' e 5 8 e { ' n U ' 8 e e 9 e e 9 5 2 : : : 4 5 : : : 9 # & # & * # : ; * < < : : : 5 : : - : : : < 2 8 8 9 w 9 8 < 2 2 < < 9 j q 9 q 8 0 0 0 2 2 9 q 8 8 5 : 8 0 j 5 5 e 0 q e q 8 5 8 4 5 e e e e q q r 0 n : q o.O.' T ' O.O.@.@.@.-.-.q 2 } } | } L ) 2 2 8 2 j O.' ! ' ! U U U K K B m B r 8 4 5 8 5 5 > ; ; 2 2 2 < 1 1 ",
"n L *.r.9 2 O.9 9 B.B.s.I.c.9 , 0 @.: # & : ; # e e e : 2 # ; : : * 1 9 Z.8 -.-.8 e @.-.@.n ' O.t.F 2 >.1.2 e 2 9 R q.<.>.5.1.1.q.q.r.d.>.>.7.| } : : * @ # w 2 8 2 e 0 v ' ' O.O.@.O.O.' U F ' ' q 4 : : : j / *.3.q.5.-.7.*./ e q 5 4 5 5 0 8 e : ; : 9 # & - 5 : # # # # * 8 5 < < < : : ; : : < 2 < < 8 9 e y y a a a w 2 < 8 e e e q 8 0 0 8 0 e q 9 5 5 1 8 0 e < & 2 8 8 q q 8 8 5 5 q q e e L 0 e e F q < < v U ' ' ' ' ' K K ' O.F w e a R | L { < l 8 8 8 F O.' ' ! ' T U / T K B r q : : : : : : : # : 1 2 1 : 0 ' ' ",
"d.l.Z.K.K.L.B.N.q.U 5 * # : & : , : : * # : e F 1.1.1.q.q.O.} < : : : 8 N.W 5 -.j w { @.-.-.O.-.e @.e q.r.5 : l 9 z } G ;.q.q.q.q.5.1.q.t.1.-.3.$.1 | * 6 # # 6 2 2 2 : < q / ' ' ' ! F v e 0 e 0 < : 8 8 9 2 : C } $.e.g.s.q.>.5.5.{ ' v e q v ; < : 2 : # * * e < ; # & & : 8 8 5 : : : : < > < 2 2 2 8 9 8 2 8 y j j y w 8 2 : > 8 e 8 e e e e e e q 9 0 8 5 5 8 j & ; < ; n q e 8 0 8 q e e 0 e 0 v e e e F e < < 4 5 q q 4 4 < 4 e 8 w 2 1 2 w G < } y 2 5 5 8 u ) { O.' U U ' T K v q > ; - # & # # # & : : : < e q.q.y.a.",
"A.a.O.F O.e ] 2 2 2 1 : : ; - ; : : & : @.-.r.@.{ ! x T ' q./ ;.h.: , 2 O.Z./ 8 8 R a w 5 ' O.<.-.' e : 8 +.*.9 y w , : ~ } 7.p.r.1.1.5.y.t.1.5.+.#.w : : @ + @ & e 5 < 1 : e ! U v 9 q 8 < < : ; : 2 1 2 2 9 9 8 2 1 p g.B.b.b.3.+.O.9 2 : 1 & < - 8 e < 1 * ; 2 : < 2 : & : 1 8 2 2 4 < < : : < < : < w 9 e e y y a a j 8 2 2 < : : 5 9 5 5 e q 8 5 e e 9 4 5 5 j 5 : 2 & 8 8 e 0 9 8 e e q q 8 0 e L n e v e n 8 < 2 2 2 5 5 < < 2 2 1 ; 5 5 2 8 8 } ) G G C w 5 8 8 L ) ' U / / e 2 > - & # # * : & & ; < y 2 j O.q.l.Z.V.A.",
"8 : 2 2 2 w a a p 9 { O.{ @.<.-.<.5.-.1.v L F L U U U e e 2.y.O.,.* 1 2 9 U V.1.' -.@.F 8 5 U O.-.1.5.e e 2 5.*.O.d.e < * * 2 | *.q.<.1.q.q.y.q.q.,.: 8 , : * , * # * 9 < : < 8 8 < : > < ; : : 2 : < j e e 9 w 9 2 1 < < 1 8 9 e G 9 2 < : ; : - 5 5 e 9 ; # ; ; # < 8 1 : ; : : 1 : : : : ; : : : ; & < 5 w y j p C C a e 9 2 < : : < 2 5 8 8 8 8 8 8 8 5 5 q e e < ; # & 5 8 j j e q e e 9 , 5 e n 0 e L F F e e e 8 8 8 5 8 0 e e j n C C n n F e 5 9 9 l 1 j e y w 2 5 j e 5 ; ; & * 2 : : 2 9 < 2 < j e F v @.q.B.B.q.O.' ",
", , e | ..w R / *.*.5.O.O.{ ' ' / ! U / ' ' ' { O.O.' x e @.y.a.l.: , : 2 w e -.B.d.q.*.G j -.' 5.1.O.v e 9 e w 5 -.q...< < @ 9 ..q.q.q.y.y.y.q.1.q.w 2 : , 1 1 * @ @ # 5 < , : ; & ; & - : : 8 8 9 j 5 e w j C ) 0 2 8 9 e a p 2 y 9 : 2 5 5 1 < 8 8 j # , # # # # # < 2 2 , & < 2 1 2 1 : < > : < 2 8 2 ; : < 2 2 2 5 8 e 9 5 2 < : , 1 8 9 q 8 8 8 8 5 5 5 e u w 1 : # # 1 1 < 2 2 5 1 < & & & < < n a C e 9 ! e e e e r e e e F e e B F / O.+.>.>.-.O.O.@.O.+.' e e R R 9 1 2 1 9 e ' U F 5 T F B v F U @.q.y.d.Z.O.j 5 , , ",
"8 5 w 9 y O.1.*.O.-.e j n C L B B F U U F F L U U F v B e q <.q.a.q.: 1 2 8 9 j O.B.l.-.O., O.O.1.-.-.<.1.-.F n e F q.q.e n 1 & 2 3.1.q.q.y.5.y.1.1.-.U , 1 1 1 @ @ @ # j 4 < 2 2 5 9 : : 9 e q 5 4 9 2 , , , 1 2 | L 8 9 e w 0 u 9 8 < 2 2 1 : : < # 1 # * 2 & # 5 & * 8 & 8 8 < < < < : : : : : : < 1 1 < e : - : : : : 2 9 8 2 1 < : : < 2 9 e 5 8 8 8 5 C L 9 2 ; & & & 8 : ; : 8 6 2 2 2 6 2 , * < 1 2 1 1 e ! ! / n F +.e e e e v U U ' { O.*.-.-.-.5.1.1.1.5.q.-.| ' L O.O.@.@.1.q.2.O.o.-.1.q.q.5.<.t.c.N.5.F 1 1 : : 9 ",
"1 2 j / -.O.O.-.O.8 q 8 0 e / U / U L F F F C x v n q q v 8 -.d.@.>.: , : 1 9 9 n n B a.' 2 / *.1.-.-.-.-.>.1.q.@.9 5.@.-.R 9 < # , O.q.1.q.q.<.-.1.*.*.w : < 1 # @ @ # * 9 5 5 4 4 5 e e 4 0 e 9 8 , , & @ @ : 2 5 ) | e e C } L 1 : w # * & @ # # @ # & # < & # 1 & ; : - 2 < < < : : : : < 8 n 9 9 1 < 2 1 e e : * & ; : < 2 2 2 < < : : : : 9 e 8 e j e L : 2 * : * * & & & # & # # # # @ @ # 1 , & & ; # ; 1 < # # # @ & a e # @ ;.| | ,.| ) C e e e r v B o.1.5.q.q.q.q.q.q.-.1.<.O.-.q.q.q.y.y.d.d.c.j.-.F e 2 1 : , 8 2 ",
"2 L O.+.U -.O.e 8 q e q 8 q +.O.-.+.' O.' K x x e e r e n 8 r a.3.$.G , 2 1 9 1 9 9 8 V.L 1 n *.' O.@.-.-.>.-.-.O.9 5.g.{ 9 < < : * : q.y.q.q.1.-.y.y.r.O.9 : : 1 , @ @ # e e e 5 e 9 8 e y 8 , & # @ , , : * = : : 2 G ,.a.#.1 e 6 * ; < , , < : , 2 8 # & * & # # & : : 9 1 1 , , ; < 5 e v / ' ' ' j 5 2 < < j w & 1 & - ; : < 2 < < < < < : : 1 9 w p a 9 2 * ; ; ; < : : : * # # # # # # # @ # 1 , , * @ : * + + + + + + + + + + + + # : : : : : ; & : < 8 L { U O.-.-.5.*.' / O.' F ' <.1.5.y.a.y.q.@.n 2 1 1 1 ; : 2 2 8 ",
"! ' ' -.O.F x e e e j e e L O.' 1.q.1.-.-.-.' F U B e K v v 5 @.l.O...: 1 1 * : 1 2 n d.*.< 2 C ! ' O.>.+.O.' / 0 8 ! a./ 1 ; < : # : G 1.y.y.u.y.y.1.q.@.C 9 1 , : 1 @ @ @ # 1 a w : 1 ; @ + + + * 1 2 2 1 , : : : * | .., a 1 1 9 , w : : - ; ; : : : : : e < ; ; 2 8 1 5 ; 9 e ' ' U O.' / ' @.-.@.O.L w 2 , : e e w 9 ; & - ; < < < < < 2 < < < : : : : : : , : , 9 : : 1 1 : : , 1 8 & # # @ @ @ # @ @ @ @ @ @ @ + + + + @ # # # # # @ @ * * : , = , 2 1 1 : : , 1 } $.) w : : 2 < 8 F ' F j @.q.q.e j 2 : < , w 2 5 5 < < ",
"' { O.n e x e u n e e v C C / ! ) { -.q.5.5.q.q.q.O.O.@.x v e @.r.u.0.R 1 1 2 6 * w q.V.<.e 2 2 1 e L n L 5 1 2 w 1 v j.} < ; < : @ a ..-.q.y.q.q.F v F y.<.O.' j 2 1 , * @ + + 1 # + O + + + # 1 , , & : 8 e a ) ^ G 1 1 1 | 9 8 9 9 1 , < j e e r T O.' : : & 9 2 < < 1 : e T ' <.O.-.-.-.-.-.O.1.O.@.*.L 2 2 : : w e 9 * * # : < < 2 : ; - ; < < < < : , < 1 w y : 8 1 , : * & & # * w 2 : & & # # # # # ; # # & & # # # # # @ # # # # # # * * : , , 1 2 1 * , , 1 2 1 2 < , + + + @ # & @ # : 2 2 8 , 1 : 8 e a 8 8 8 : : n ",
"O.U ' e e j n R R C j x u e 0 8 j ' O.5.q.q.5.d.c.c.r.l.1.r x ' q.y.u.d.O.a 2 2 2 5 O.r.-.u : y : R ] ~ : 9 9 2 1 w ' l.) < < < : @ , R -.y.y.q.1.x ' L v -.t.r.@.2 1 : ; * @ + @ ; + + & * * & & ; 1 1 2 9 l a 2 e 3.^ ..} 8 2 2 2 1 1 1 5 e o.' -.q.' U o.U 8 : & ; < e r ' O.1.O.5.<.@.q.y.u.u.y.r.-.@.@.L w 2 ; y w 8 2 : : - : < < & & & : : # & 2 < 2 a 8 w 2 2 : & * ; : 1 * 6 2 ; & # & 1 ; : : : : # # & # & # # # : * * 1 8 j ; & # & & : 1 2 8 8 2 6 : : 8 1 * 2 # + @ # # @ @ @ # # @ # @ & w G C e 2 < y , < B L @.",
"U *.e F F F O.*.,./ L j j j n q 0 / >.q.q.y.q.D.L.P.Y.Y.y.@.B 0 -.q.1.t.a.O.y 2 : e x.y.e.C : 1 2 2 0 5 2 1 : 2 w C B q.F 9 ~ e & ^ : : C -.1.q.F e p.t.' T @.a.q.' e e < 8 < # + + + + # & & 1 : 1 2 : 1 e e 1 < 2 2 2 8 8 8 ! u < < : < e O.O.1.-.1.@.y.1.q.O.U O.o.' U 1.-.q.d.q.T n n v v O.O.O.r.1.@.O.O.C : : e w 2 : < < # & ; & 2 1 1 , , : : : p a l 8 : ; ; 2 2 ; * : 1 1 1 & : 1 w 1 # & & ; 1 2 , * * , 1 1 , 1 & @ @ # & ; & } & # & : , , 1 6 8 2 1 : , @ : ; * & - < : # # & 4 < 2 n n C j 2 : : u e F F *.{ ' { ",
"-.O.0 ) *.-.-.-.-.-.O.j v L n e n F >.,.>.a.K.K.A.K.K.K.d.@.' F 0 ,.q.t.d.r.{ 2 1 e d.Z.g.@.p 8 2 8 d.t.>./ ! { O.O.-.2.q.j w , @ a : 6 : u @.y.K x l.d.*.F ' O.r.y.<.q.O.< & 2 : @ + @ 1 2 < 2 < 9 e e < < 1 1 2 8 u e 9 +./ q.x < 1 < L ' 1.1.1.B.B.a.u.@.1.@.-.q.-.-.q.u.-.O.B F B B v v n r v O.y.q.y.7.O.l 1 , w 2 - ; : 1 : * : 2 2 2 : < ; ; : : 2 9 2 : 2 w 2 9 9 2 2 2 1 * : 1 , : @ : 8 6 1 & * # # @ # # & < < < 4 5 8 < < < : & +.$...* : < 2 , , 8 1 , * 1 2 < < < 4 4 < : & < 9 5 2 < G e y : ! ' -.>.>.*.' ' O.U ",
"e e +.y.d.l.a.l.d.l.1.C L U O.*.! @.-.+.q.y.Z.d.q.q.q.j.L.V.@.O.F 9 { q.d.O.| 1 1 2 B V.r.q.Z.@./ N.r.K.y.q.q.q.1.1.q.c.-.x 8 , @ ] , : : C q.q.U { a.d.a.U L ' r.l.y.y.q.O.< & 2 : # : : < ; 8 0 e j v e 5 5 e L { +.*.| | O.F ! < 2 < O.q.a.V.N.y.q.x.a.q.B.B.c.a.<.@.O.F ' U e e q q < 2 e e e v q.q.-.y.O.L 8 , , ; ; : ; 1 8 2 2 5 ; & ; : ; & : , w y w w y y 2 : : ; & : & & ; & # ; : ; # # # # * 2 w e 0 e O.*.O.' F n q *.n 8 4 : - * >.; : , < 2 1 2 1 : 1 1 < 9 5 5 < < : < < 4 < 2 & 5 : : ' 1.@.-.@.-.@.O.n ' O.O.",
"{ @.d.a.a.d.l.d.y.u.d.<.-.>.y.q.@.O.@.>.d.S.Z.1.q.q.y.-.c.A.U.x.O.L e 1.a.-.| < 1 2 w O.Z.K.a.q.B.K.K.Z.K.B.A.Z.V.z.y.O.y y 8 , = ^ G O.@.5.r.T x r.a.a.q.! O.' a.u.y.q.y.@.5 & 2 5 , 2 1 * 2 e F O.-.' j e e v ' -.e.7.) L | 2 1 2 1 ; O.1.Z.r.q.q.y.a.Z.q.B.q.q.5.@.x n U e < 1 2 1 : < < < 5 n e e v B -.o.O.a 2 : : < : : - 2 2 : * , ; ; : : : , 2 8 9 y 1 , < 5 ! @.O.U e < < 4 : : : # # # # # ; e -.' F K B / B B v v v x e 7.-.| 5 > : * : : < 1 1 1 1 1 1 1 1 9 e 9 0 2 > : 4 < 9 9 2 x / { >.-.U U ! U n F x j e e n ",
"d.d.u.u.a.a.a.y.y.a.y.t.l.l.d.q.@.1.-.q.A.V.l.1.y.d.r.y.q.@.@.L.K.<.F 1.d.r.| , 1 2 w w / B.Z.Z.Z.x.y.y.l.B.l.q.O.x e 9 8 8 2 : @ ..} *.1.q.1.T *.l.z.y.q.v *.' -.l.y.r.<.o.q < # 2 9 * # 1 q O.-.2.q.O.! e e n O.@.q.| w +.e 5 5 9 8 , e ' B.Z.t.y.d.t.B.a.l.y.-.U e ' / e < 1 5 < 5 < : : : : : 8 q e U ' y.O.O.' 9 8 1 : - : & ; : < : 2 2 1 : < , : : , < < v @.y.5.1.@.@.@.O.O.' B x < > < < < 9 ' ' O.@.-.5.O.1.>.>.1.5.-.B r 0 7.5.F < ; 1 - , : 1 2 2 8 2 2 9 e e q e 5 2 4 < 5 8 1 & & e / @.U x j n n ' / n ! ' O.O.-.",
"f.u.u.u.a.u.y.a.r.y.y.u.y.a.l.a.d.l.B.V.B.5.1.q.a.d.q.1.1.q.O.<.P.l.q a.d.@.l = 2 1 8 1 2 9 U T e v n 8 9 9 8 e 9 1 1 1 6 , * # & 1 e L L 2 n O.F a.c.c.O.' <.-.c.r.y.@.e e 5 < # < 1 & < 5 x <.q.q.-.@.' e e n F / { ) e j e 8 9 y 8 2 : ' 1.Z.B.B.c.r.l.M.y.d.O.' ' j 2 2 8 9 < 2 < 9 8 < : ; & & < : 5 F -.q.5.O.' O.) { 5 , : : < , ; : : < < w e C C 2 F ' q.5.O.O.' O.@.o.O.@.O.O.O.O.O.o.O.-.-.*.O.1.1.-.*.*.O.{ ' { O.1.{ e e e.n < ; * ;.< : , , 9 e 9 2 8 e e R e w e q < 8 < 5 ; 8 / L / >.T n j n O.q.O.{ *.*.-.1.y.",
"u.u.u.d.l.a.q.y.l.t.a.t.u.y.d.l.x.B.u.q.<.q.5.t.d.5.-.1.1.q.-.O.L.x.e a.j.6.& : 1 1 < 1 2 2 8 2 < 2 8 8 2 1 1 9 2 1 , : * = : R ^ G ; } R w e a.U e -.y.e @.q.-.c.q.@.O.' x q < # 5 : : 5 F -.<.a.u.r.q.O.L U B B B F O.| $.w 8 9 w w 2 1 K -.-.<.q.r.d.B.l.B.1./ U 2 2 9 9 5 8 e 9 8 9 e e < > : ; - # ; 5 n F q.1.q.-.U ' @.) < : : < , < < < 8 O.O.{ @.O.q.q.*.O.q.a.y.y.q.q.q.-.O.@.@.-.-.-.-.-.-.-.1.1.1.' ! ' L U ! ) ' *.O.x r q 3.< & ..; ; : 2 1 5 w 9 2 5 e e a , : , e e e e ; ; 8 2 2 U ' -.F n ' @.-.>.>.-.1.1.5.a.",
"r.t.y.f.l.q.y.a.>.-.-.q.u.r.r.q.q.1.5.q.a.a.a.a.l.1.-.1.5.q.-.@.@.N.j y.-.l : a : , < 1 , , 1 1 , 1 1 1 2 2 2 & # = * : : : 9 l e ^ ..e a l ) @.u.' e e e @.! -.l.1.<.O.O.v 0 < < ; : < r q.t.a.r.d.d.d.a.q.1.1.O.' F L F ) e { 9 8 2 2 < U ' 5.<.B.1.y.B.B.B.O.n 1 8 9 8 e e 2 , 2 < ; ; : : : ; 1 2 ; ; # 8 u L >.5.q.q.5.y.' @.O.e 8 < < : : < R O.-.5.q.-.O.1.r.s.t.r.q.1.1.q.5.1.@.@.1.5.q.q.q.5.-.-.1.>.$.C e a 9 w n ) @.7.B B e g.< ; ^ < 1 1 2 2 e < 1 2 5 9 j R 1 ; > w ; # : ; 4 1 - & 5 ! -.o.n -.@.>.3.-.>.>.r.a.t.",
"r.y.y.q.y.r.a.d.-.,.-.*.-.q.a.d.a.y.a.a.u.a.f.l.y.-.' O.q.5.1.-.O.L.2.! a.6.: : : G e : = , ~ w : : : : , : , 2 , 1 1 6 9 6 w 8 2 } ^ & 9 ) L @.y.y.' ' v L *.O.a.q.1.y.y.q.-.n 4 1 4 x <.u.q.y.q.u.d.l.l.c.x.l.d.q.@.O.' ' { ' +.O.+.e x O.T -.Z.z.a.B.l.B.d.B 1 < 9 8 e 1 2 1 , : ; : 2 < < < 4 ; ; , 5 ; 8 @ 9 w ) 5 C *.q.q.u.' 5.-.{ ) ~ e C / O.1.q.O.1.a.d.t.a.1.*.-.-.-.-.1.5.1.1.1.q.q.q.5.1.1.1.1.-.} e w 9 e 9 w ) O.*.v e q s.< : ^ 1 2 < 9 e < < 1 < e G 9 1 : : & # & & - : ; & & & ; e ! F j -.*.! L n U -.u.a.r.",
"t.r.y.r.t.y.a.5.-.5./ n ) L O.1.q.q.5.<.q.a.r.q.+.{ n x x -.*.' -.O.L.L <.l.,.: * * : : : , : , : , , 1 , 2 2 2 1 , 1 1 e a G G | $.} ..{ 1.<.y.y.q.F O.O.F q -.1.l.u.d.a.y.y.q.O.e ' q.y.q.a.d.y.y.u.d.l.j.x.N.N.M.d.r.q.O.-.1.5.s.r.@.x O.-.-.t.t.q.a.t.>.r n : 9 8 e 2 < , e 8 , , 2 < > : : < 2 < : - ; w w # # # 2 9 2 +.{ -.q.O.5.1.>.1.1.O.O.*.q.@.q.d.s.d.r.5.O.' U v F U x U -.<.1.1.1.q.1.1.>.1.1.-.+.w w w 9 5 w ) -.q.r 0 5.>.8 < : l 2 2 < < , < < e 9 2 5 5 B < q 8 2 - & : & 1 < & & C -.L j L >.*.n F C O.-.q.u.",
"u.y.r.u.a.r.1.-.+./ F -.{ / n O.*.*.O.O.' ' / ' / e q q j n F n ' O.K.' e u.d.6.9 : ; * & * * : : * * : 1 9 w w 9 9 2 9 a C G W q...$.+.e.-.1.u.y.T ' O.x.U q L 1.*.N.q.5.x.d.a.q.u.u.q.q.l.a.r.d.u.r.a.l.l.l.c.N.M.B.B.Z.Z.Z.A.Z.M.d.d.*.' q.q.a.a.7.t.F -.C : e 9 e 2 , e 5 w 9 2 < 2 8 0 9 9 j < : < 5 : : e : a ; & : w C a C ! y.-.O.O.O.1.q.5.q.-.-.d.r.d.5.*.O.' / x e e 0 5 8 v -.@.1.1.5.5.1.>.-.-.-.) e w 8 8 8 j ) ' 5.e q q e.F 2 1 2 1 1 2 : 8 w 2 8 8 5 2 j L n n ' L 8 q 5 & 2 : 0 e ' @.-.v n ) @.j U n j L -.d.",
"r.u.y.l.5.-.>.O.{ L 8 e e j e 8 q L e v e q 8 8 8 0 9 a p 9 8 j O.O.L.' e q.5.*...3.8.g.6.$.p.g.>.>.| R e 8 2 2 2 2 1 e -.1.1.q.q.q.0.-.1.q.r.q.5./ a.c.j.N.q.O.B e O.O.q.l.t.l.r.q.r.a.d.t.5.1.y.l.l.a.q.q.q.t.y.q.u.l.N.x.a.y.l.B.B.a.r.y.q.q.B.U O.r +.: q e j 2 1 e w w 8 U U / ' O.@.O.O.O.O./ q < - < : 2 e 1 G w w 1 e 1 e G L y.r.a.s.d.1.' -.q.a.r.q.{ L U n j e 8 9 q 2 < < 5 5 e @.O.>.1.1.-.-.-.{ ! y 9 9 2 8 w L ) 5.x e e $.F 0 2 1 8 , : < 1 2 2 2 8 F { n 2 ) e 2 8 e r e ; & & e U n -.-.' F n x n U n u ) -.l.",
"u.y.l.a.p.-.U ) e *.) n e n ) ,.,.+.j e e 8 8 8 0 q j F 0 2 2 ; | O.K.-.q -.r.*.+.*.,.>.O.-.O.+.+.@.O.+.{ { ) ! C j L q.d.y.q.-./ y.y.q.<.<.<.1.U n u.<.r.y.q.5.q.-.q 5.q.' ' y.O.-.O.-.q.@.O.-.O.@.-.*.@.O.@.-.1.1.y.a.C.r.O.*.O.-.d.V.r.q.M.B.q.@.5.w e j C F 8 , y w q O.q.5.q.q.1.-.-.5.5.1.5.O.O.T B 2 8 2 8 2 R l G a 9 9 9 0 G C F j n *.s.a.a.a.q.@.L e 9 9 5 2 < < < < < : w : 2 ; e j n / T F ) / ) ) e 2 8 5 8 5 9 n O.e.d.K e ) u 2 1 8 : < 2 2 2 / g.>.R 8 ' ' ' K e < e ! e U q / n L O.-.O.-.O.B x v n j *.d.a.r.",
"-.y.-.1.y.>.+.e j x F >.O.-.e m B F ! / L n n F F U U ' +.+.F : +.o.D.-.e { q.u.5.O.O.*.l.d.@.d.l.d.d.r.q.y.q.1.5.5.a.u.q.<.F v ! C r n v e { / v U l.y.-.1.y.y.q.l.a.x e { -.' ' n O.*.@.*.@.O.@.O.O.{ O.@.*.*.@.O.+.@.@.*.q.7.*.' O.<.y.1.O.U -.a n O.L L ! 2 1 w w e q.q.<.>.-.-.O.O.{ { O.O.O.@.q.-.O.q 9 w j p < 8 9 a 9 y e 1 8 j G n l e -.1.@.! e e C C y 8 8 8 9 w 8 8 5 9 5 8 2 2 < < : ! +.R C ) e w 9 2 2 2 2 5 2 5 { ,.q.g.v e >.9 2 9 1 5 < e 3.{ 1.O.L { @.@.@.O.n < n e q o.v o.O.O.-.O.*.-.-.U x u C -.a.r.a.-.",
"F F L U -.F ,.) v >.*.x +.e / e e O.5.>.@.' o.! U e e n e j e 0 e -.K.N.L q -.q.y.q.q.t.u.a.a.r.t.t.t.a.a.a.u.r.y.y.q.q.-.e n +.@.d.d.d.d.l.q.<.y.r.1.5.O.O.q.y.q.r.q.a.x B B e F q q x e e F O.' ! F F F / / ! ' ' | *.,.t.p.,.U m ' ' ' / L j < *.! | a u u w e e 9 5.q.-.O.O.O.' ' n e e u n n { ' O.@.-.T O.' 0 2 y 9 e e 8 5 e w 2 e e C a e e e a j 5 1 < , , , : > 8 w e 2 5 2 < : : : w : < 2 9 w 9 9 9 w 2 w w 2 1 2 8 9 $.$.0.g.x e { e 2 2 ; 9 $.F -.,.,.*.*.*.*.*.O.e 4 < e B O.O.O.O.O.@.O.@.@.' U n n ' -.r.a.F F ",
"e e e / O./ e ,.n U 7.e e q q q q e { F e e e j C n n +.-.e 9 8 ,.-.N.Z.-.e { -.2.1.q.2.q.2.q.-.-.-.1.q.q.q.q.1.1.q.5.*.e B *.q.l.a.u.y.q.<.<.-.<.q.q.-.-.-.-.-.-.1.t.y.q.q.q.5.q.O.B O.-.O.v v n o.1.5.5.-.O.F ) O.e.C.>.*.>.B n L q 9 q 9 / q.) ! 2 ~ 9 1 e y e 9 F 5.1.O.' U n 9 8 9 5 8 5 2 2 e F U T ' *.-.-.-.*.5 e w 9 e y 2 8 e 1 9 p w C a a 1 1 1 2 , ; & # : : 2 8 2 2 < < : : : : : 5 8 w 8 8 2 8 8 2 8 e e 9 2 1 , 8 e a R q.h.x u | j y e e R / -.,.) *.*.>.*.@.*.5 2 < e U O.O.o.@.O.O.F U / B n j ' -.t.a.U v e ",
"n n n L e n #.| F 1.O.+.e v F F K K K r e e e j n *.@.-.-.U 2 2 $.@.P.Z.-.F e @.@.@.@.-.@.@.@.F 8 q O.1.7.r.q.U q 9 j ! @.1.q.u.d.d.r.y.1.-.-.q.{ <.-.1.1.-./ F e O.1.5.1.y.q.q.q.1.-.-.-.-.-.-.>.1.q.5.r.5.5.q.q.s.d.O.-.5.-.*.O.F v -.-.-.C *.l } a 1 y y e 9 r q.q.-.' / x 9 9 8 2 5 5 5 9 q 9 0 5 8 j ' n C O.O.-.-.-.@.>.) 8 a y y e 2 1 5 9 8 1 2 e 1 ; & & 8 # # : : : : : < < : : : ; : : 2 8 8 9 w 8 2 1 8 e w w w w 9 1 - , a >.p.d.e u j e L e e ! >.+.*.*.e.5.-.-.n 4 5 4 K O.o.O.O.O.O.U e e q e j ' y.u.a.K F e e ",
"e e q e q { C F 5.! L q F F ' O.@.@.@.o.! U ' { O.-.-.-.>.O.8 5 a O.L.B.-.' 9 0 K ' F e q 8 5 5 9 e n e j n C C U *.y.l.c.d.l.c.l.d.<.-.@.1.F F U / ' 1.1.' e : - 2 C ) / O.1.q.O.-.1.1.-.-.-.-.1.5.1.5.7.q.q.t.q.q.5.e.M.d.@.-.' e w 8 a : ~ 1 9 w e e e e B q.5.-.O.' x 5 9 9 5 8 e j 2 < 1 2 5 8 < 2 8 e e e j n n { ) L n n O.e e a e e w 9 2 9 w e 2 e 2 < 2 & 1 # # : : : ; : : : : : : : : : 2 9 9 w w e 8 2 9 w w y 1 a 5 9 , , 2 ..7.B e e q 4 e F { 5.3.1.,.-.p.O.B 5 e 8 4 F O.{ O.' ' ' F q n O.{ O.q.y.a.B v e e e ",
"' { O.@.*.T { e e n ' O.O.O.O.-.-.-.-.-.1.>.-.1.>.*.@.@.O.O.r 7.G O.P.x.1.q.L 9 v ' q 8 0 e e x U ' { U L -.>.q.u.d.c.B.B.N.N.c.l.x.-.-.' U e C C 9 ! ' L 8 < : & ; w ; # : # 8 5 ' -.5.1.-.-.-.-.1.r.a.q.q.d.v.M.B.A.S.C.<.' n L e ; : : : 1 8 e / n -.n e 1.q.5.O.' e 9 2 8 2 8 2 8 8 2 < < < < < < 2 5 w 9 8 9 w 9 n C w 9 8 ! O.w a 5 9 e 2 w 8 w e 9 9 9 5 5 1 & 2 @ # # & : : ; : : : , : & : 1 w e 9 8 9 e e 2 w 9 j a p j 8 1 9 1 w ^ p./ e 8 e *.7.q.{ { | 3.>.s.*.U 5 9 5 e @.@.O.' U n e 9 q 1.y.q.q.y.a.O.e e B U { ",
"B e / L L ! e e K @.-.-.-.-.1.-.O.O.O.O.*.-.*.O.-.1.@.@.O.@.v j : ' L.K.Z.y.U F 8 q 5 5 e r @.a.Z.B.c.c.N.d.M.V.B.B.V.B.x.N.B.c.d.q.@.v m B x C w , 8 1 w < 1 * & ; - # , = * & & U 1.-.1.1.1.1.q.1.1.q.5.r.d.s.q.d.Z.J.M.O.u j 9 2 : 9 @.' 2 8 -.1.q.q.5.q.q.1.@.' 9 9 4 e e 9 4 4 8 q q 4 8 q e e e 5 8 9 w w w w w 9 w 8 0 8 8 +.O.9 C 8 8 8 8 8 w 9 y e 9 8 2 8 2 & 1 : * # # * : : ; & : # * : 5 9 e 2 2 8 y w 8 w 9 y e e 9 8 y j C 2 a | e.' U { | >.| G C +.O.5.-.*.*.>.' U -.*.O.R < 2 : 5 v F q.y.t.u.y.T x e / q v v ",
"O.' ' e e O.' 1.1.1.q.q.q.-.O.1.r.q.y.q.5.1.-.<.5.>.@.O.O.-.-.2 , 5.L.Z.K.N.a.L q 5 0 e B <.B.L.K.L.P.P.F.K.K.D.D.Z.Z.N.d.a.l.q.<.-.-.B v e v n w # # # , < , * * , # , @ 1 % & < O.<.5.-.5.-.1.O.O.O.1.s.d.g.5.5.N.C.A.B.F w w a * : ' N.l.{ 5.a.q.' o.-.-.O.' v 8 5 9 e 2 5 5 2 < 5 q q 0 9 e / { U j 9 w 9 w w 9 w w 8 9 e 8 2 j O.G 9 e j j y e e e 0 5 4 < 4 < < 2 ; : : : 1 # # # # # & & & : 1 8 y w 2 2 y e w 9 9 5 8 a G 2 l e ) C , $.+.F F O.;.| ) G a 0.6.{ $.) C ! +.*.+.W p < 2 5 5 B 5.1.q.y.y.K m q e ' x F O.O.",
"-.q.' ' ' t.y.d.5.*.@.O.O.-.1.O.' ' ' @.-.-.5.5.q.-.O.O.O.O.-.K y q.<.O.V.K.D.q.F F F ' @.z.P.1.O.d.Z.P.K.L.L.K.S.Z.V.N.x.a.q.-.-.1.v B v B e p @ & 1 2 * & : : : @ # 9 # @ * # : ' -.@.O.O.O./ C F O.1.1.q.5.1.1.5.q.-.U e e w 1 & : F y.5.q.a.q.' 9 5 8 9 5 9 8 2 2 w 8 2 8 q 5 < < 8 5 < 8 e F U F e e u F e w 9 8 9 9 8 ..9 2 n O.O.R j 9 e e e q 8 5 9 2 e e < 5 < 2 : : & : * # # & * & & : 8 e 2 1 < 2 8 1 9 w w a a e C : 8 : < 8 j 5 , C e n R | 2 8 9 8 y a e w 8 1 2 e G : < < < v v U q.5.q.q.y.K B e B e v O.5.5.5.",
"+.-.q.q.q.q.q.-.5.-.O.O.' T / ' U F x / { -.@.@.q.q.5.o.g.g.-.8 8 O.O.O.q.P.P.K.u.*.1.y.a.K.K.t.O.1.F.P.B.5.q.t.t.z.l.r.5.1.<.U O.O.B B @.U q w * # 2 1 * : 1 2 2 2 : # @ 2 1 ; # n { O.' @.n : ; 1 { O.1.1.1.-.*.+.' e e 9 w e & , : : @.l.l.q.O.T 9 a < C L C p G 5 8 2 5 r ! < 5 5 5 0 q e / L F F n ! L F L e e 9 9 8 9 G 2 2 j O.O.O.O.C e 9 8 e e 9 5 2 < < > 4 n e 5 & 5 : , 8 2 : & 2 w 2 G ..} l l W W , a w j C w e 2 R > n < : | 2 & w 2 9 9 2 2 9 9 9 e e e 5 8 8 < 1 < < 4 B U -.-.-.q.<.1.y.q.B q e U v q.O.O.O.O.",
"L ! { O.O.1.-.O.1.5.O.O.' U ! B q q e e { -.-.-.5.,.5.d.,.5.s.5.C e C >.-.q.l.P.D.N.l.B.K.P.A.@.O.O.O.1.' *.-.>.O.! >.5.>.7.5.U / ' B n F v n = & & * 1 : : 2 8 4 1 , 1 , < : < : : L u L C - & : : F { O.O.O.{ O.F e L 1 8 & * 2 : < e l.d.1.r.q.x 9 8 y G a a e j 8 5 8 < e ! 2 2 < < 4 e v j 1 q F e 9 0 e F ) ) ' | 3.8 2 2 5 C O.' O.@.O.C j p O.O.{ U B v v 4 < q e 9 : 1 2 l p 1 , , : 8 | a R a G G G R 2 a y e 5 w 2 ) R > v 4 9 } 9 < 2 1 ; , 1 8 q 9 n { L O.j e 8 8 q 9 4 q -.@.y.y.q.q.1.q.q.U 5 v L x @.O.O.F F F ",
"e F n { O.-.-.>.@.-.-.o./ ' ! q q q j U n { q.5.7.5.O.7.>.7.s.5.@.5 1 | 5.,.*.*.Z.P.L.P.P.K.q.O.O.-.-.-.@.O.7.e.*./ / U ' @.>.U e q q n n q C 8 * + # * : F *.5.1.U 8 O.e B B < , * n 2 # - : : , = < F U F / C F | l , z ^ 1 2 : : B x.r.1.d.r.q.' 9 F 9 5 9 e e 8 9 9 < 4 4 5 5 < < 5 9 9 L 5 2 5 8 5 2 8 5 5 q 9 8 ' } 2 5 2 j e R O.O.' @.) ' O.O.O.O.' ' ' ' ' 4 C R q 4 : # : a 8 2 2 , 1 & # # * 1 1 9 R e 2 9 2 j a y ) : < F : } | } 2 1 : < < < 9 e / j.d.s.5.' e e e e n @.*.@.q.O./ U m F F F 5 U q x @.O.' e 9 e e ",
"e n ! { O.q.q.1.1.1.q.o.@.@.o.! { ' ' { { 5.q.q.-.e.+.+.$.,.s.1.-.F ,.9 8 $.G p.O.1.5.-.@.O.O.O.O.-.-.@.} L e.{ g.+.' ' / L v 8 2 2 e j C G w w * 2 * 2 q -.*.5.-.*.e 1.5./ e , < : = : * ; : , , : p e y C 9 w , G e e a 2 e : : F U 1.<.r.q.1.B x 5 U e 2 a e 9 2 < < < 2 < 1 < < < 2 5 9 F x v F ! ! 8 5 8 8 9 8 2 e +.2 e 2 2 8 e n C ' @.O.@.O.O.O./ O.U { / ' e L F q 5 1 ; * & & * : : : & : * # * : & e R R G e w a ^ } w 2 q l ,.$.6.| e 8 *.v 9 F -.e.p.@.*.-.7.) U F -.@.@.q.5.5.U B 8 F e 8 8 x ' x U -.O.{ 9 9 8 e ",
"e j ! | O.@.5.1.1.-.@.o.-.-.1.+.-.@.-.*.-.1.5.>.@.O.O.q.d.q.s.1.q.2 +.} q.9 2 8 q.,.>.O.' O.@.-.-.*.' } w R } e ,.*.O.{ / 9 e e 2 1 < 2 # & 2 w @ * 9 : e O.-.5.q.1.n *.1.q.v r B 8 * = & # , , 1 : : , 1 1 a y 8.^ | C e 2 9 1 8 F U 1.y.s.d.' a R 2 8 9 8 a 9 9 8 < 2 5 4 < < 2 < 8 q j F F n F / ' / B 5 2 < < 2 2 9 e O.j 5 2 2 5 C e ' O.' B F / ) { / C e j O.O.0 e 4 e 4 9 < < 9 e e 9 8 9 : 2 j 9 e 9 ; 1 ; : e n 8 8 : 8 5 8 ; +...) ) x O.{ { *.*.-.,.7.@.*.*.q.q.5.-.-.s.d.q.F F ! e O.e e ' ' U r r / @.O.O.n e e e ",
"C ) ' { ! U O.O.' B v T o.<.q.5.-.>.1.O.@.-.-.-.-.@.O.O.O.1.j.b.1.' 5 9 e e | 9 1 8 6.p.*.,.*.@.' O.L } 3.6 C y G p w 9 : 1 & 6 * # @ # @ @ * 2 + # & , : 2 O.-.q.<.-.5.1.y.5.1.1.F : : , : , 2 1 = = 2 2 1 3.8 9 | 7.} w : < y C F 1.-.a.q.e R R a 5 2 y / L a 8 < 2 < 0 4 2 5 5 5 < 5 e F 2 2 5 5 8 q 8 < < < 2 8 9 9 e j ' / 2 2 5 j e n F n 9 w y e e w < : 2 e O.O.5 2 L 9 5 q e n e e { L C n n O.L ' v v n n n n O.{ 5.-.5.q.n 5 5 2 9 y w 5 O.*.{ | n 5.r.5.p.g.O.5.+.e.q.O.O.' -./ e -.F B B v r x e r ' -.O.' O./ L F ",
"{ O.O.O.C e ! ' x e e x o.O.1.1.O.1.O.{ +.+.) ) 9 e 8 ' ' O.d.q.1.' U s.a.d.' 0 e 9 2 : 2 R L L R 6.l 8 : : & & : & * * , < < < : : * & # * * * * & # # , < *.<.1.r.q.5.5.y.5.1.5.2 * : * : 8 9 w 9 e R 8.j.b.j.g.| >.y e ) w a j F j.q.j.O.e R +.F ) L L F C L 8 < 5 < < 1 < 1 2 q B x n 5 1 , 1 1 1 < < < 1 < 8 < 5 e u w e C L 5 2 2 8 9 5 8 9 L e e e e < : > 1 a t./ C F n { n q 5 0 ) x +.@.>.7.@.*.*.7.-.>.-.5.5.>.q.6.+.+.>.s.s.r.,.F F e F -.>.5.5.,.) ,.U e e C R e e e q >.7.) e 5.F ' ' O.<.@.O.B e K -.O.O.*.-.O.' ",
"O.>.>.O.O.O.n ' F e j 9 F O.5.' 1.' ' j e j j L L j j e 5 o.-.1.o.F O.r.@.*.d.' 5 +.9 9 9 , : C y , 1 2 1 8 8 8 8 8 5 2 j R C e 1 1 , 1 : * & ; # & & 1 : 9 @.-.-.1.q.5.q.-.q.1.-.1 : * : 5 5.5.e -.q.d.t.5.q.q.1.r.1.5.5.-.} G 2 U y.r.1.U a } L q n v n e 8 U v 4 < 2 1 2 < < e R e 5 2 1 , 1 1 < < 1 , 1 < 1 2 8 w 8 w j w w 9 O.! L n { U n @.O.O.@.O.O.e v 0 5 q C l.' n *.0 5 L ) | >.*.>.>.3.>.+.,.,.+.+.O.7.7.7.7.{ { ' O.@.>.>.>.-.-.-.+.O.+.L -.t.d.d.d.' M.a.y.d.p.,.F +.-.q -.' ! *.q.q.5.1.1.-.v e e O.-.5.q.-.O.@.",
"-.>.5.+.@.O./ ! F e r e ' 5.@.1./ n F L e U x L L C e j 8 8 K -.F 5 e y.j.e.d.-.-.a 3.$.6.,.8 1 , 9 8 9 e C 5 5 ) j a 9 / 9 q q 2 : : : : ; ; < e 5 2 e U O.-.-.-.q.q.q.@.5.q.1.1.< # 1 2 -.1.1.1.1.q.1.<.1.-.1.q.1.1.<.-.-.*.{ ! F j.5.t.F | u n v e e e 2 8 9 / < < < 9 2 2 q e 9 2 < 1 1 1 : 1 1 1 1 < 2 5 8 w C w w w w n e 8 9 9 9 9 9 } ) 9 w e e n O.@.*.O.e n j n M.@.v { q < e e L { | ) { O.5.>.,.5.O.{ ) ' ' ' q.e.O.j.d.g.6.' { ' ' F n o.y.7.b.l.j.r.j.q.q.{ s.O.q.q.-.F @.! O.q.O.U 8 q ) { 5.@.O./ ' O.O.@.1.-.O.",
"@.-.1.5.q.@.O.{ L U / @.5.-.O.' n e e L e U K n F F 9 C j 5 5 B e 9 v -.y.N.a.' ' ' U ' ' e W +.| } e ~ L ! C n C 5 q q r ' ' F F F r e 5 w F F B e 9 v *.O.-.y.q.r.q.q.-.-.*.O.5.e e 8 ' 1.-.U -.O.1.1.-.<.-.1.q.1.5.1.5.5.-.1.-.@.q./ 8 e } C L e e e e 5 2 8 ' 2 < < 9 4 < e w 2 , : * 1 1 : * # : 1 1 < < 2 8 9 9 e a 1 e a C 2 2 2 2 2 e p a a n j e a j U -.9 e } C O.l.-.j ~ ) 5.p.0.7.p.p.>.{ n n F C F *.g.p.s.e.F U F { O.q.q.' x e F 1.7.5.r.a.t.@.a.Z.M.l.l.e.5.j.g.*.! t.1.q.1.j e 5 1 5 a e ' @.1.1.-.@.@.1.' O.O.",
"O.*.-.5.-.O.+.O.{ ! O.q.*.-.O.F n x e L L e U e R w F 9 9 8 8 q 0 0 v q.q.r.s.O.' ' a.d.d.a.q.' n U O.U e e u F U @.q.a.l.a.d.y.1.-.O.' K T ' ' ' F n B *.@.-.<.8 O.-.-.5 < 2 8 q.-.v U q.1.9 e e w j ' -.1.1.q.q.y.q.y.<.-.q.y.s.q.-.! y R ) L } F < 9 n 8 2 9 / x 8 < < < v w 2 , : 8 1 : 5 : : : * : < 1 1 , 1 2 8 e 2 = 1 8 w a n n W C R u a 1 G C C C w e { 9 w } R F d.j.@.e j C ! / ' L R ) ' O.O.O.O.' / L L O.F ! / { O.>.7.5.-.O.q.-.5.q.d.d.r.9 e ! ' r.Z.a.q.d.O.>...l R -.| C 9 1 9 < 9 < j j n ' O.1.1.O./ ' ' O.",
"{ O.@.@.O.' ' O.v v O.r.O.-.O.! F n e q e L e e e +.-.*.' ' ' U v e U 1.q.5.O.O.q.-.y.d.j.*.q.a.a.a.a.a.@.@.a.d.d.d.d.a.q.q.y.r.d.y.1.2.-.@.<.-.O.o.' @.O.@.1.r e a 8 e > 2 8 w *.q.@.1.5.9 8 j w u G L L 1.1.q.q.q.q.5.r.q.-.-.-.-.5.' G j } R R e j 5 8 5 5 1 1 e { e q *.1 w e 2 ; * < : 2 < : ; * @ < 2 1 9 2 5 w C 2 : : , 1 9 p G l 1 1 y R n l C C C e e -.e 9 n ~ n p.j.s.@.' O.O.-.*.' ' -.q.y.q.1.1.l.-.O.{ ) ) O.r.q.g.s.d.-.-.-.q.1.d.d.d.a.' e j e w e G ....0.>.} } L R a j e 9 8 0 2 e 8 2 < w e ! n F ' { / v U ",
"n F F ! / n n F e v ' O.q.-.@.K U B v n B n L @.-.>.-.>.-.@.O.' e B K 1.1.q.' O.O.O.d.l.e.L *.+.O.O.r.a.a.a.d.d.d.g.e F j L C ! -.-.y.t.a.a.d.l.r.q.<.O.-.2.@.< 1 w C 9 w > : : e q.5.q.B e 8 j e 9 8 9 O.1.1.q.q.-.@.-.1.O.-.O.U O.O.e C R C } R ) e 1 , 1 < 1 2 8 9 2 y w y 8 , 2 2 : 9 e w 9 e : : * : : 1 1 2 9 l : = = : : 1 1 1 8 9 , 1 1 e F < < a a a j B @.v L +.| x ' g.M.j.d.d.s.d.g.s.d.d.b.j.q.r.d.y.j.q.-.@.-.g.d.g.d.r.@.O.@.t.-.-./ q F q l p C R w h.C >.} g.e.>.j j L C a p e 8 5 5 4 < 8 e 9 j j a j e e e e ",
"9 9 2 9 e v e e v n / ' 5.1.O.O.O.' ' ' ' ' O.@.-.-.-.-.-.O.O.O.O.O.U -.-.-.1.q.@.r.M.) +./ *.-.*.+.*./ ! ) +.O.| 0 < 5 q q e e e C *.y.u.t.+.L -.a.u.r.1.<.< < : 2 8 8 2 1 9 2 e x q.' e 9 w j j C w 0 n 5.1.1.1.<.-.O.O.-.@.n n e j W w ) C | L n j : : : , , 1 2 2 2 8 2 2 , : ; : 8 8 : ; : : < < : & , 2 5 5 w : = : , * * * = , 2 , * 1 , w L 2 9 < , 2 9 j O.5.7.@.,.} { ' ' O.-.' o.@.q.O.B B ' ' O.O.@.1.g.1.a.g.r.5.g.d.a.t.y.-.@.e p a G G C a p C R 5.U n B ' ! 9 8 x { *.-.L j e u B 9 2 5 5 5 e 9 : 2 : ; < 9 9 9 ",
"e e e 9 9 e e e e e j O.-.-.-.1.<.@.O.O.-.1.>.-.-.@.*.-.*.@.O.O.@.+.@.-.*.q.-.-.q.q.b.{ +.| *.*.) ) ) / F n 8 e 5 1 1 1 < < 2 2 2 e n ! / C e C C e e L 5 8 < ; 8 : 8 - 2 < 2 9 : 8 j j e 9 8 w e 9 8 9 C 5.-.-.<.<.-.@.O.-.j u G 9 j ) ^ ..! q : : : * 1 < 1 2 2 1 : : : : 9 : 8 : w : : 9 w ; , 2 : , # : 2 2 9 C : : 2 , : 1 2 * 2 1 , : * * 1 w ) L n F e : 2 n ' O.q.O.>.L C a | G C u q 9 q e C j 8 e ) e U -.q.l.l.a.a.s.1.o.q 2 w w a ) L a a j u C | v 5 e e w w e w w 9 8 9 e @.O.O.@.*.F e 8 8 q < j 9 2 e e < < < e ",
"< 2 5 9 e j n C j e e n U @.-.q.-.@.-.1.1.@.*.-.1.-.-.-.-.>.*.O.' O.d.s.s.s.d.r.d.g.7.*.| ) / L | ! R C e w 8 8 1 : : & * ; * : 1 8 u j n C a e e 8 e 8 : : & 1 2 * @ @ : ; w 9 : 9 : 8 0 2 8 e e 9 2 9 n ' L ' q.q.5.-.-.*.C 9 y a R L 8 q 0 : # # * , 1 : : : ; & * 1 8 6 9 : 2 e 9 : 8 2 w 9 : 2 : 1 & : 9 8 e 9 : : , * * 1 2 * * * 2 * : 1 9 9 5 ^ G j n < 2 < 9 e -.5.*.>.,.,.+.,.-.{ ^ R | ;.} | G } { ..} e U F ' { U 0 8 y 8 a u a p C } R ..$.*.U 8 e 1 , 1 l ~ ^ | 6 9 w 9 8 w 5 n n e @.{ O.n e 0 < 2 9 > < > < < < ",
"e v L e 8 w G a : 2 < e e v / O.<.1.O.-.-.@.@.*.-.-.-.-.-.1.5.-.r.d.d.s.d.>.6.,.O.g.s.*.| { e.a.n L e e 9 8 1 : < * 2 w 8 : : < 2 w w e y j C a e 9 5 1 & & ; : # , @ @ 6 # * & 8 1 < w e 9 9 9 e j y w 9 C F L O.q.q.5.O.C p e n e 9 8 : : : ; : ; : 1 * * : * , : : : 8 & e 1 6 : 2 9 9 w 9 5 9 : , : # : 2 w C 1 , , : * , : : , = 2 , 2 8 w 8 2 9 w 5 e j a j 2 2 r -.5.5.q.O.>.O.1.1.5.>.O./ ! *.,.6.,.#.>.$.R n +.| } R G R R C C C C C n G { *.O.F 2 w : w 9 l 6 G y l | 1 9 9 w 2 e w 8 q x r e { F e q 5 8 e e q v x v ",
"' / F ' | ' | L e n , 1 9 w n L ' O.q.-.-.5.-.-.1.-.-.-.5.1.q.q.5.*.O.{ +.$.,.F C R ) L { e v 5 } | y e e 8 2 e l l G a 9 8 9 , * y y w l w a y w 9 5 ; - & & + 1 @ 1 6 @ @ * : ; : < w 9 1 8 9 w j 8 a 9 9 9 8 ~ O.*.} y w w j ! e 8 & & @ # : : : 1 9 R 1 : : 1 8 : : 1 : 2 * : a * 2 j e y e 2 1 : 8 1 & : 1 : : * , : * : e y y , * = , , 1 1 , 1 2 9 9 p 9 < 5 < 9 e v ' v B v e v 9 0 B v o.+.@.*.O.' / ' U K >.O.) ) ) ! F ) O.| a u n n / -.O.U : 1 6 ^ >.2 2 9 , 1 9 | ^ 2 1 1 9 9 w 5 8 0 9 9 F F F { ' F F / ' { { { ",
"e w 9 w w w 8 8 2 5 j 2 , 8 q e B U ' O.o.O.O.-.O.-.5.-.O.{ O.+.+.,.>.R p n e j j 5 n e 5 y $.3.>.) a e 8 e e e w 5 < 8 < < < 2 9 8 & 8 8 2 : 2 2 9 1 < , + @ # , q e q 5 9 @ 1 @ & : 8 2 5 w w w w 9 L C w 9 9 n ! ! { W 2 8 e L e 9 @ 1 , ; ; : # 2 < 1 e 2 1 < : < : 8 9 a 2 2 : e y C a j 9 8 1 : < 1 1 1 , 8 = * , 1 : w 8 5 C y 2 1 : : , : , , e : , 2 < < < 8 > 9 | e j 9 p 5 < : : 2 4 0 8 8 5 w 9 a R 9 } < B U r r v F ' F U ' O.O.O.O./ < < 8 e w 8 1 2 , 1 : : , } $.| ~ 9 9 1 2 9 e w e w 9 e e w w 5 5 8 8 2 8 9 ",
"8 9 9 8 8 8 1 : , * < 9 F 2 0 j q e F U U ' B ' ' ' { ' F n C L n R L 9 2 2 9 w R a ~ y 9 w e ) } } a l p w w 9 w 0.L.I.C...5 C 9 w a u a e w a w : ; 1 @ @ 2 : n 4 < 2 5 5 9 @ @ @ @ 1 , : 2 8 2 w w C C 8 9 8 C L p 2 8 a 2 j e 8 & # < : : , & 2 < 2 * 2 < : : : < 1 : e < : : 1 9 5 a e 5 8 8 : : < 1 * , , = 2 1 p j e 9 9 w e j , : * , , 2 * 1 : , 6 , 1 2 < 5 8 W 5 y C $.L } < < < G : 2 4 < 1 < 2 e 8 9 w > p 8 5 2 < e 4 2 4 4 8 5 L v y w 9 1 w a 8 w 1 , , : : : < | y R y 9 8 , 6 8 w 8 w 9 1 1 1 8 9 9 9 8 9 9 9 ",
"8 2 5 8 2 1 , , : * 8 < q < > < 5 e 9 9 9 j u e q q e j e 5 2 9 e j e e < 1 1 8 2 < 2 ; a ..3.7.;.| } 9 a G ^ ;.a.B.S.6.;.6.G e a 6 a a t w 9 2 6 1 # * @ < e 9 * # @ # & 5 5 # : & # 1 # # 1 : * , < y j e 5 8 9 8 8 1 e e 9 e n 2 # 2 2 2 2 # 2 2 5 2 * 8 < : ; : w w a : e e 8 : 8 2 e e 5 8 1 ; : < 2 * * 1 : w w w w e w y 2 C j , 2 2 , : : , = : 2 # , # * 2 , : < < : ; ; : ; : - : > 5 | 8 9 9 e e 9 e < < 8 9 8 5 8 : : , 1 2 5 9 9 w y e w 2 9 l l 1 e 2 2 2 9 e : , 1 | a w w 9 6 , w 9 w 2 9 2 = * , 1 2 1 2 2 2 6 ",
"2 2 1 2 1 , : : * 8 2 < r 5 < 2 : 4 9 8 4 5 q 9 e u < 1 , 2 e v e 9 8 < 9 C | | >.$.*.3.) ) 3.R 1 2 9 w e e z ..i.n.9 + + X @ = * 2 l a 9 1 1 * 2 , , * : B 4 * @ @ @ @ + + 4 5 < 2 : , * 1 & * , : 9 : 9 a C w 9 9 8 a e 2 C j 8 * 6 1 2 , @ ^ a 2 2 2 2 1 : 1 : a y : < w e : 8 2 ; 8 e e 9 2 ; ; < 1 9 , : 9 : e C j e 9 y w 8 a 9 9 , 1 , , 1 w C e w 9 2 1 = = & : ; @ + 6 G } e 9 : 1 @ ; : < 2 5 2 5 < 1 < 2 : : ; : : < 4 9 8 e j G w e y y a l a < < 2 8 e : e G z ;.^ y , , y 9 9 2 , 1 1 : , , 1 1 : = , , 1 1 6 6 2 ",
"1 1 : , , , , : 2 2 2 < 5 q n < 1 2 : , 2 < , : : : < x 8 < 4 5 e j C j j C { +...| C ) 2 < : : , 1 1 2 9 , , : = * @ # @ : ~ , 6 2 1 @.+.{ O.e 2 1 < B j # # * , * , # #   . < 5 4 9 2 : & : , # 1 1 1 9 G p 5 j 2 l 2 2 L a e : 9 : : : : 2 8 9 5 2 2 1 : : 1 ; a w : < : e : ; : : 8 2 5 q 1 < : : 5 < , : 2 : w n C e y w 9 n C y j y 5 : 2 G l 9 8 8 w 2 8 1 # : , 1 & w y l ;.$.| e 9 2 * , # & * * * * ; : * # , # # & & , & 1 5 < j C a a y a a 8 2 2 2 2 , 8 6 9 6 2 2 e l G , 9 9 9 9 1 1 , , 1 1 1 , = & * : , , , , ",
", : : : , , 1 , : 2 1 1 : 8 e B F < < < < , : 1 < C 8 < < : : 8 8 : : < 9 e 2 2 1 1 1 , : # # # * * , 6 1 1 , : * @ @ # 6.: : < L -.8 : * : X 0 e v q ; @ . : : 9 : 1 : & : + X : 4 4 5 9 9 2 8 y w y & l 9 R C C 8 L C 2 e e < 9 w : & : 9 2 2 1 & 1 < < 1 : 2 1 : C 2 9 : 2 2 8 2 1 8 5 8 9 < 1 : 2 1 e 2 1 1 , = 9 j p p w w C C j y y 1 , 8 8 n e e q e e 9 5 : ; & G 4 8 5 5 4 5 4 > : < 2 < : , , , 1 < < 1 2 1 : < : 2 1 : & : ; : 9 9 2 < : < , 2 2 1 1 w w 2 8 2 , ] } 9 6 k 9 w w 9 z y 9 : = 1 1 , 1 , : , : : & , , ",
", = : = : , , , , : * < < 2 8 8 q x L n e C n n q 5 9 * * * * # : # @ # = : : * * * * * * * 9 9 ~ ~ k e 7 2 1 , : : 6.;.* : e -.9 = 7 9 1 G y , X & + . 1 : 2 9 w w < 1 , : *   . : 4 4 5 2 2 < 2 5 a R G 1 8 R } | ) L C j 1 , e : 1 * 8 w 8 @ : * * 1 1 , : : : : e : : : 2 y 2 < 8 : - 8 q 9 : 2 2 2 5 2 1 2 , , : w j a a e n w e 5 1 : w a C e w 8 2 2 w e 9 8 y j 4 < ; - ; & - * e , > 5 8 9 4 , < 2 8 5 4 < < < < < < 2 8 : ; : 1 8 8 w 1 2 1 , 8 8 1 2 1 w 1 1 1 0.6.} ] 1 9 a 1 e w w e w 9 : : , 2 1 1 : # @ = % * , ",
"= : * = = , = * * , , 2 9 2 2 2 2 5 q e e e q 5 5 < : , % * * # + @ * , 2 , : 9 9 9 , , , , , 2 t ~ | z a 6 1 2 9 * : : : 9 *.L , , 8 a 9 G R 2 y 1 1 1 8 9 a L L a 2 , , : : & *   : , : 1 * 1 2 < C ~ G : a ; C l w e 2 1 6 2 : 2 , # w 8 1 * # * & * * 2 : : 9 : : p 1 ; : 2 2 : 8 ; : : : , , 2 5 , 2 1 , 1 , , , 1 e j a C C w , , , , 8 e j 9 e O.) 5 2 2 e 9 8 < : C ' ' | / { | { n < ; : 1 2 8 e 9 9 > < : < 5 8 9 9 4 2 2 9 2 1 2 w 9 w e e 9 8 2 w w e l y w ;.y 9 3.} ^ 1 9 l e y a w w 9 6 6 6 : : # + * + @ + + = ",
"@ * : , 2 6 2 , : * , 5 9 9 < 2 < < 5 5 8 5 2 2 < : , * & * , , : , 1 , 6 : 9 1 w , t 9 ] 6 e ] ~ 9 6 R 1 , , : : : * : 8 n -.2 2 2 l j n W ) R a w e C C C e e e C w 1 : , : ; # :     : * X X 2 2 < < R a a < y 6 : 1 8 2 < 2 8 9 # l 1 8 8 , & ; : : : 2 : : 2 * : 1 9 2 < < 2 2 ; ; : < : : 2 < < 8 9 1 , 1 1 : , : a a 9 e e 9 : * 1 e 9 j w n q.q.*.j 8 2 5 < < 5 L O.-.-.o.O.@.' O.U n e q 0 : 1 < 2 2 5 9 5 < 8 9 8 9 e C 9 < 8 5 8 w a l a p p j e e e 9 e j j a j e e R | 1 2 e 1 y e w w 6 1 = 1 8 2 1 + @ @ + @ @ + ",
"# * : , 2 9 e e 1 * : 2 1 : 2 1 2 1 < < 1 < < 2 < : : 6 1 : : , , 1 1 2 , # 2 , e t w * ~ 6 X.a | ..| , 6 6 1 , : ; w e j *.O., : a a a { { R R e L C e j e O.+.e e e 2 2 q e e : # & & & # : + X o w 2 > 9 e e 1 2 , 8 , , : * : * : 9 2 2 1 # e e e 9 1 : 2 < : : , 2 2 : 2 5 e 1 : : < < < 1 5 1 2 < 9 1 , 1 2 6 : : 9 l p y w w , * w 2 C w w U r.y.q.{ a F n / -.*.-.r.q.1.-.-.@.@.O.@.-.-.' F e 5 < 5 8 x n q : < : < : 2 < l $.8 e j e j C C C G C n 8 q e 9 8 9 9 e e e e a 1 8 l 1 , 1 2 9 9 6 1 2 2 1 : : : @ @ + + # ",
"2 , , , , 2 2 9 1 * , : , , : 2 8 w 2 : < : , > 1 ; # 2 1 : : , 1 & * * : 1 e y 9 9 e t l * 9 ] G 9 X.~ G e 6 , w j ' { +.7.2 9 8 G W | ) n R C e e e n e F O.O.F e v x v n F F n 4 < < ; - & 2 = & * < 5 5 2 p e 1 2 1 9 e 9 a 9 2 y ; 2 9 * y w 9 w e 2 1 , , 1 : : a w : : < 2 < : : < 1 < : 2 < 2 : 1 1 1 6 8 9 2 , : l G w 9 2 , : w 9 a j e F y.y.q.q.5.q.y.s.r.>.-.O.O.O.O.' ' o.' ' ' O.@.-.! e e e n n n 8 4 < < < < < 8 5 1 : q a y e a C G C j 4 < : 8 9 9 9 9 w e e e G 6 9 a 9 2 w 9 9 6 6 6 2 1 , , : : 1 1 2 2 2 ",
", , , , 1 1 2 6 e , * , , , 1 , * , 2 2 8 < : 2 1 : , * , : : * @ @ + @ , 9 e y a 9 y a G 9 R | | ..| ^ l y a L ! ' *.g.F 1 6 , C ) { *.>.e C G e e e { o.O.-.<.@.B n n F n B v x q 0 0 q e : : , 8 + 2 e : e w 8 2 8 9 w 8 2 8 2 < 8 w 2 5 # w w 9 e j 5 5 8 < e e y e : 2 8 8 2 8 < ; ; : : 1 : < < 1 5 2 , 1 2 1 1 1 : 1 2 : , * = w 9 8 j e e w ! q.q.7.y.-.-.@.1.@.*.' O.@.-.@.O.B e e e m o.-.O.o.' O.' / ' F U e 2 < < 8 9 e 8 9 ; e e e y G n e 9 : : 9 1 : 2 1 2 2 5 8 9 ..~ 2 9 ..a 9 9 9 9 1 2 1 , = = : , 1 , , , 1 ",
", , : : : , 2 6 1 y 2 , * * , , , : ; : 8 9 1 9 2 1 , * , : @ = : , : 2 9 e w 9 e z z l , a R a G >.>.^ a G ' { >.5./ ..1 * = G +.| 5.q.1.L e e e ' O.O.1.1.-.U -.-.' v r U ' ' v ' ! ' K q v 5 < : : , , 9 # @ @ @ 2 9 e 5 9 w 2 2 1 : w @ & w e w 1 9 e e > 2 9 5 2 2 9 : 8 w 1 5 2 : ; : , : , 2 2 5 5 1 1 : 1 < < 8 , = = , , w 9 5 e j u y e w j ' ) *.q.@.F U B L L ' F n n v v U O.U r r ' O.O.@.O.@.1.-.1.@.<.' 0 < 4 8 q e e e 8 ,.C p G n 5 R 1 8 9 8 8 8 2 8 2 2 9 w 2 9 | a 1 6 1 1 1 1 1 2 1 1 , * + @ , , , 1 , 1 ",
": , : , : : , : , 2 1 w , = * , , , , , : : , : * # * * , 1 * # , 1 w 9 9 w j e 8 9 y G l ^ ..;.;.3.) C @.-.@.@.+.g.w e * = p a { v q.q.1.@.U e B O.-.-.-.-.<.m B <.@.r x ' O.o.' -.O.O.o.m 0 B v U e : : 9 5 2 2 9 : : : : 9 e 2 2 w 8 1 * e e w 9 9 e < < < : < e C a * 1 : 2 < : : : : : : : < < 1 2 2 2 1 1 5 y 5 9 8 1 2 2 8 2 9 e e a j u e e F C O.q.q.-.F -.*.+.{ *.*.@.O.O.O.U F K U r m ' ' U U o.O.O.O.-.y.<.F U B <.<.{ v ) e 9 - >.q >.; : w 8 8 w e e L L e w y e e 2 y ~ 1 9 a 9 2 1 , 1 1 2 # - ; # # # * : : * ",
": * 1 , , : : = : & 1 1 w , * * & # # * # * : = : : : , , 1 : @ , 2 j e w 9 e L C e ~ 8 } ^ ..w e ) >.*.*.@.W R e C., 6 : : R R ) L q.1.-.-.@.O.@.@.K @.-.-.-.B v -.<.O.' O.O.' O.<.<.-.@.O.' e ' O.@.) 5 9 2 2 < 5 8 , * : & 8 8 e < w : : j j e 8 8 e e < < 4 < e 8 w : w 9 * 2 : : 1 ; ; : < < < < 2 < 8 2 8 8 e w < y 8 e e j e 9 w e e a y e 9 n F ) 5.r.>.U *.+.u j L { { { / n 8 e v m U K v n m e F / ' U B -.1.r.d.q.d.l.r.1.1.n e e e 2 : w e p L L L n j O.-.,.;.j y w 2 9 y G e e w 9 2 1 : , & ; 8 9 e a a 5 < # < ",
"j 9 : : 2 , , : : * 1 1 9 w , : , 2 2 , , 2 , , , , , 2 2 2 : , : e 5 u n e v L 9 < 2 1 : : < e.' *.O.O.O.| 9 ..z 6 a : ..a w R ) F q.1.o.O.-.-.O.U x U -.-.-.-.e e B -.@.<.-.O.' <.<.<.<.<.-.O.-.5.1.-./ ' ' U 8 2 8 2 2 1 * * 9 9 8 : & e j e n n p 2 8 2 e 9 < 5 q a 2 : > : : 2 ; 9 1 5 2 : : : : < 2 1 < 8 5 9 9 8 2 e 8 8 8 9 8 9 9 w e y e 9 L ! ! 7.y.>.-.| n n 9 R j e 9 4 5 4 2 8 5 e K T U ' ' U F O.O.O.' *.B ' q.d.q.q.l.q.{ { L e C C e j O.-.5.5.*.! O.5.q.0.} y a e 2 9 w 9 9 8 e e e 9 : < 8 9 9 9 w e e e j e ",
"e j 8 : : , 2 1 = : # 2 1 1 a : 2 : 1 6 : : , * : 1 1 : : : : : ; e q q q e x U e < 9 : L @.*.' ! O.@.L 9 8 w e 6 1 # & C 6...! ' 5.1.O.n n F O.e x e r e v O.@.q 4 0 e @.-.-.' ' <.1.' 1.O.O.-.{ +.{ R +.,.7.q.n e e 8 2 1 : , , : = 2 w e e F n n x n 2 9 < 5 5 9 2 e j 2 2 : : : 9 8 q e e e e , : : 1 1 < 8 8 8 9 9 e 9 5 9 9 y n a C a w e e e L O.1.q.r.@.*.! e e a y 1 y e e 8 < 1 < > < q K K m B U ' ' ' e 0 T o.m v U l.q.-.N.5.q.-.{ ) { O.5.a.q.a.1.5.5.1.7.e.b.>.G p p e 9 8 w 9 w e 9 9 9 e 9 9 w 8 9 9 w e e e e ",
"w w w 2 2 1 , 2 2 : : * * : : : : : : : : : 1 , # * = 1 * , # , 1 j 8 q q e n U F < : ' ' @.' ' O.F 9 8 a ] a * : : 0.>.3.*.O.j y.5.L v v v e e 8 e q e e 4 q 4 < 5 2 4 8 v O.<.-.1.O.e 0 4 4 9 < 2 5 9 C C w >.,.-.j 9 w w e 9 1 : ; j j C F L u 9 9 j e 1 0 5 8 < < < 9 9 8 8 8 q q q q L e B e 9 < 1 : : < 1 2 2 8 8 5 8 9 w j @.*.*.*.*.1.7.y.5.q.q.r.1.@.-.F e : 9 , w e 8 1 1 < : ; ; : > > 5 q 0 q e B x q 5 2 0 / @.O.B K O.U B -.a.j.j.b.j.j.p.5.,.@.-.-.1.1.5.q.s.a.g.6.C C e y 9 e e e 9 e w 9 9 8 8 9 9 9 w e y e e ",
"e w e e u y w w 9 9 , * = & & * : : & 1 1 # @ * # @ @ @ 1 2 2 6 6 e a n e e n U e L ' O.+.O.' / U 8 3.6.i.z : 2 6.G y 8.6.x -.1.q.F q 8 e C n F n e 8 < 5 4 < 2 5 e e 8 < 8 8 0 5 0 q 5 4 2 2 2 ; : : < 8 < : j 7.7.O.O.C j j p : 1 w e j F F e 9 9 9 w 2 e u : < 2 8 2 > 5 e e e q F q x j e e e e e e x 5 5 8 9 5 2 5 9 2 9 e O.@.-.@.-.q.-.@.O.+.-.-.-.O.L / { G l , * * * : : : : = & @ @ @ ; < < < < < < 4 < < 1 2 x O.+.@.-.*.-.q.T U @.O.L r B e r v n n O.-.q.1.1.q.M.-.5.5.<.-.n p e e e e 9 e w 9 8 8 9 8 9 9 j j e e ",
"j 9 8 w e e e e p a w 8 2 : = * * & * * @ * * * : : : 1 8 w e e w w w F F F F e F { O.O.' ' / L 8 p 4...1 v., w L.S.>.C $.7.s.y.q.F j L O.O.O.O.' ! x e B B e v B o.U n e < < > : : : - > 4 : < 4 8 q x e x e e 9 G p *.,.O.j a 8 & e w j L n 8 j w 9 9 5 5 q 9 5 < 8 8 2 < < < v 2 u 8 8 e e q e e e B e x r e 1 1 1 2 8 2 e F -.O.U n F L ' ) ' ) O.O.F O.*.{ n e 1 & : : # + + + + @ + + + + + @ + : < , < : : < 2 9 8 9 w e L { O.-.-.T ' U T K F B n K / { B ' O.1.O.O.1.q.1.O.K v ' <.L u j e e j 9 9 9 9 8 y w j 9 j e 9 ",
"a e 9 9 9 8 8 9 e e e e l y 8 : * * : : : : * & : 1 , 1 9 e 8 8 8 8 j j L C n ' O.O.O.' / / U 8 ^ ] 6.8 2 9 3.I.K.C.+.B.b.-.' ' F 5 L ' O.@.+.O.' ' ' ' ' ' ' o.K K K / o.T U n j 5 2 5 0 q q q q F -.B U @.F { ' j j 2 1 { { p a y y j e L v 8 9 8 2 4 2 4 2 2 5 U 2 5 9 8 5 < < 9 < : 1 < e F e e v U L v v 8 5 < , < 1 9 ' *.O.O.n F F ) { ! n n C ,.O.-.*.j 2 e & : : : ; & & * : w e < # @ + @ @ + # # # * * : : 5 : : 1 w j n / *.s.*.U U ' U U ' T ' O.@.U n ' O.O.o.O.@.o.F e x e q O.U e j e e e e e j e a u p j n L L ",
"L 8 9 9 9 9 q 5 e e e a e 5 e 9 y 2 1 1 , : : 1 2 9 w e e C L / U K F L F U ' ' U T ' ' U n 9 ~ G 6 9 1 6.e L.,.@.Z.s.| / u 9 w R L ' ' r.r.q.5.@.' K U U F F K O.-.' K K K ! o./ v q r v v m K K r B ! -.@.-.-.q.5.v { F 9 { ! n j a j 9 C n w 9 8 5 8 8 < < 9 ' ' 2 5 5 5 : 8 < 1 5 e e e : 9 n 8 n n C x v x v q 8 8 1 q O.1.O.O.F e e e e e e < R F | *.) ) a , & : 8 e e v K -.@.@.O.r < : & # @ @ @ @ # & * : : , * : : 2 8 C n 7.q.-.-.-.-.@.q.t.O.O.@.-.*.*.B o.' v ' O.K e e C n / @.<.-.) x ' O.e j u p / ' O.O.U F F ",
"O.9 8 9 9 q 9 8 8 e 9 5 e 8 8 9 5 5 9 e 9 9 w 9 q q 0 q v n F n F ' ' F B F F F B e v m j 8 y a 9 2 1 G 9 A.B.O.a.+.{ n ..g.>./ O.' 5.d.N.j.z.x.l.r.q.q.q.' T O.-.q.-.' *.! U F U ' K U U U K m v m U O.O.O.-.1.O.-.O.+.' L 9 ! ) j j n p L j 9 F 8 5 5 2 5 / ' U ' 8 8 < < 8 : e 2 e 9 9 w e < e 1 > j a n U U ! F ' ' T O.*.O.+.n L 0 5 5 1 2 < 2 < ) L C ) 8 1 # : w e U q.@.@.U U ' T o.m 8 < : : # @ # @ & * * , 5 5 e e : 2 e e O.q.q.O.q.y.s.a.r.r.y.y.*.{ -.L B n v v r e F e v F n / ' @.-.-.-.-.-.C j j *.' F j F F e ",
"B K 8 8 9 9 q e e 8 q 8 9 a C x e e e 9 5 9 5 5 8 0 e e x x v u L n B v x n n n n e 5 8 2 9 e a 2 2 7.C.H.Z.A.q.| a C | b.+.7.@.O.q.x.N.a.d.l.l.c.c.N.c.a.5.1.y.5.*.@.O.5.q.q.@.U F F F B v B U U K ' O.O.O.@.-.q.q.s.d.O.F | e / ) R 8 w F j 9 L L e 5 < ' U r r ' 4 5 < 4 8 9 : : < 2 : 2 9 e < < < < < 5 a C n F C O.' O.O.O.' n U q 2 1 1 , 1 8 2 9 9 y 9 1 & < e e v -.O.-.1.@.O.' ' F o.' q 5 < : * * # * : < e @.@.O.-.' 1 | O.-.e.-.+.O.-.5.q.r.q.O.q.-.n / ,.1.-.{ v e e *.O.{ *.*.F 9 F O.+.! n C 5.1.@.n u F U U v F ",
"F B 8 9 8 q q e e e e j j e j n e e e 9 e 5 9 n 9 5 8 e e e e w e n j j j L F C 9 5 & : 2 6 6 9 v.6.,./ h.P.O.! a 8.v.b.{ s.@.q.M.N.l.d.l.l.l.d.l.l.d.a.l.j.d.a.u.r.t.y.y.y.l.d.q.-.-.@.o.' O.-.@.O.O.@.@.O.O.@.y.q.5.1.1./ 5.+.n 4 / L L F 8 j / ' ' / / ' v x n v o.K v 4 < 2 5 w 2 9 e 8 : 9 e j e n C 4 4 5 5 9 p ' O.O.{ U v n F 8 1 : : 2 y w 9 9 9 6 : : 5 F y.o.*.@.-.1.1.@.o.T ' U K o.q q q q 1 : * * , 5 q O.-.1.-.' w 2 e *.e.q.7.7.5.q.q.@.' @.-.F B L 1.q.<.2.@.x F @.@.-.@.@.@.F L U U ! { ' L -.O.u ' U d.1.U n ",
"B e F 5 e 9 9 w 9 9 9 e e e j F e 9 e e n e e n 9 4 0 8 2 1 1 w 8 e e e y w 9 2 : - : 1 8 l | b.| g.-.Z.B.+.| | | 3.+.+.s.@.b.Z.N.l.a.d.u.1.y.q.q.u.a.l.l.a.u.x.j.x.l.c.x.d.d.u.a.y.y.t.r.q.1.q.<.-.@.@.@.@.-.5.a.q.-.{ e -.s.' -.{ F u j F / ' ! U K B r B r -.*.<.1.v K O.K 8 9 5 9 8 w e e 9 9 2 5 j y e e j a u w n { O.' n j n n 2 : 8 6 9 y e 9 w 1 : 1 / O.1.O.' O.@.<.<.-.O.O.o.U U K O.e : 1 2 1 , : * & ; < q r e O.v 9 } F { q.x O.e F r.e.1.{ U @.1.F F *.q.@.@.1.1.-.@.O.@.@.@.@.O.@.-.1.5.q.+.{ O.L F ' q.-.q.y.' ",
"U F e F 9 8 0 8 8 5 8 8 0 5 2 5 e n 9 j q 5 5 < 8 q 0 8 2 2 < < < 2 e 9 2 1 < < : < : e j 0.F g.g.g.g.-.O.) a a $.L.B.{ 1.1.V.N.l.x.d.q.5.1.-.d.7.s.q.y.d.d.l.l.d.t.d.d.l.l.l.d.a.u.u.u.u.q.q.q.2.1.q.-.q.y.y.q.r.y.-.{ F e 1.d.5.@.O.O.' { { ' { U F *.-.r v -.@.O.O.<.O.n ' q e U U T T e 9 < 1 < 2 5 9 < 2 , 9 j e e ! { ' F j n q < : w w 1 9 8 9 * = : , ' 1.O.1.<.@.o.@.@.O.O.O.K K F @.o.q * ; 2 2 : ; : & : ; 2 r ; > : 1 } F ! O.e v | C 9 5 9 w v -.-.<.5.5.-.<.1.1.-.@.@.@.-.@.@.@.q.1.q.q.a.y.5.O.' ' O.-.d.y.a.a.5.",
"' B e K j 9 9 j e j C n e e ! 9 > 5 e e e e 8 9 e 9 < w 2 1 < < 1 < < < 1 1 < : , ..C { { +.e.N.B.1.' F ) L ;.;.;.g.$.O.-.-.N.N.l.d.a.q.y.B.>.2 2 ,.@.y.y.-.q.q.y.q.q.1.@.<.q.q.q.q.2.q.q.u.u.y.y.y.t.r.y.y.r.y.r.q.O.) j n v T 5.a.q.O.@.-.-.-.O.+.O.-.@.v v -.-.1.-.1.q.v @.n O.O.! n B 1.' e e e ' O.e 9 9 2 5 8 n w L ! L ! j n q 8 q 2 < 2 2 2 w , 1 a e O.-.@.O.@.' K ' O.O.O.K K B @.o.m : * : 2 5 * : : : : : e U 5 * 2 y 1 n L ) 9 G 2 2 : ) O.1 < F { @.<.q.@.1.5.-.@.@.-.@.@.-.@.-.u.q.+.q.q.r.q.r.1.z.j.l.-.O.{ *.q.",
"' B q v F R L ' ' ' { ! B B n { 8 8 1 2 j v v q 8 9 8 l e 8 < < < < 1 < 1 1 < : w e u @.1.B.B.*.C n e e L C a :.$.b.~ ' @.5.j.N.l.a.u.q.2.<.: : : q.1.q.@.g.d.@.Z.g.@.{ L U U ' <.-.<.<.@.-.<.q.y.y.y.1.*.*.-.1.5.*.! F 9 w 9 9 e K O.-.-.-.' >.-.-.-.@.@.-.-.-.O.1.1.<.@.' o.U -.U y.d.q.v @.O.-.q.-.O.r.5.9 9 2 2 u e e j L n n j v e 8 e w 8 2 2 w 9 { ' L ' -.-.<.O.O.' O.O.O.o.' B B O.O.B : : : 1 2 & ; : : , : O.O.q : 8 y e 8 2 2 9 5 e ' <.O.o.-.2 < r ' -.@.<.*.{ -.-.-.-.@.@.@.@.y.q.q.n e j n L *.-.1.+.O.' x n q.a.",
"n F B ' ' U { ' F U n n e x L x / n 8 F n F U n / n e e e < > : < < < < 1 1 1 < } n L O.,.-.F e e e $.a U p } g.h.B.0.+.@.7.j.N.l.l.d.d.y.q.; : ; 5.-.-.L ; ; : : ; : 5 : : 5 x ' O.' K F x ' -.-.-.-.@./ L L L / C u j C < : , 2 2 < 8 8 : : : < j < w 5.O.O.@.-.<.@.q.q.q.@.O.F f.' 1.y.l.a.B -.-.-./ O.u.*.e 5 2 e n e e e j n e j n e e 2 , 1 : e : ) 5.@.-.<.-.<.-.O.O.O.O.O.o.O.K K O.O.r : : : : : : & * * # v F 2 : < 2 ' -.! e 2 8 O.@.@.B -.@.U 2.a < O.-.1.5.+.F F U 5.-.@.@.@.@.y.r.s.q.v -.q.r.q.1.x e F n O./ ' O.",
"n F F / O.' K T x v n e e e n L v { ! B F n F j n j q 2 2 < 8 2 < : 2 < < < 1 a +.e ' O.5.L j +.e 8.e j ' n ,.L.B.{ >.-.s.N.l.N.l.l.u.y.<.*.: & & : * n & ; : : # * & ; : : : , 8 n e 2 1 5 L +.*.' { ! n e w w a C 9 e 1 y 1 , : : : < : , 8 : & : # # : 5 8 @.-.1.v T e 4 O.u.q.e O.q.1.a.' B.-.1.-.U 1.O.a.! 5 2 2 n e e e j x x n x e e 9 < 5 : 2 9 : U *.@.' O.-.-.@.O.O.@.@.O.o.K O.O.O.O.< : : # * * : : : : & * , ; : U @.-.-.{ { 1.{ O.o.,.>.O.O.U -.2 O.-.@.q.>.F B n F >.-.@.@.-.1.a.r.q.O.q.q.q.-.q.! O.' ' ' n U -.",
"F C e F n e v F n e e j F e e n L F F C n C F 9 4 8 2 2 2 1 } ) 2 : : 1 2 2 R | v C 1.1.q.e a.h.$.$.j n n j 6.I.v.1.@.q.N.l.d.d.d.c.a.d.q.F : ; < : ; ; * * 2 < 8 # & # & : @ & : : 2 , < 8 j n L L L F 9 9 w 2 # , 9 8 e 9 8 9 y a e 2 G G 8 9 < , 8 2 1 : & O.-.@.v v : 2 5 8 < 0 F r.O.-.e -.d.d.-.a.B.O.r.r.j 2 1 w e e e e j j n 4 q e 8 e e e 1 9 : : e -.@.O.@.-.@.O.O.O.' O.O.T O.< ' O.9 : : # & * : : : ; , : 2 6 < e O.' K @.-.{ *.>.>.7.O.-.' F 1.5 e U -.-.-.n F B F O.5.@.-.-.q.y.' e -.q.q.5.5.@.y.-.-.-.U v ! -.",
"U e B F L F C e n F L L L F q 5 L n n n e e e j 1 < < e 8 9 j x n F n v e q e q 8 O.>.@.{ e 7.{ *.U g.p.p.0.C.{ C.@.@.B.N.N.d.d.a.l.d.d.j : & 2 # * & & & # 2 2 2 2 1 @ # # ; @ # : * ; : : 1 8 a l n y 8 2 : : 2 : # ; : , , : : 2 e e 8 2 8 y e 2 8 w 2 ; & e : : # # # 2 & & 5 / F T F e e O.B.5.t.a.V.N.-.r.*.8 1 2 e e e w e e u 9 8 e 0 2 8 9 : 2 * , : : : O.o.O.-.-.@.O.' O.O.K O.8 O.O.< : @ # & * * : : : 9 : 2 : < e -.T 7.+.3.+.O.e.5.' @.O.' F F 2 8 q -.q.-.F B n { 1.-.-.-.-.r.-.9 *.q.-.q.1.5.+.q.O.-.' -.' n O.",
"q.o.U F n v B F F v n B r x ' n 9 n e e e e e n 4 < < e R R } F ' e U U U K K K / O.-.e >.) *.@.5.5.7.O.g.) G.h.b.q.B.B.x.N.N.d.d.l.l.u.5 : ; 1 & ; * # * ; & < 2 e 5 * , 1 1 * & # # @ # # @ @ & 2 9 9 * * , e ' r < < 5 1 : 1 e j ' q.-.U ' 1.{ ' O.' j 1 # & # # # & # # * : B O.e 5 5 2 8 x V.-.O.B.V.N.-.u.{ e 2 2 2 j u e 0 q n 9 4 5 5 1 2 1 2 6 w & # # ; e o.@.+.O.O.' B K o.O.K O.o.O.2 : : * # * * * : : : , : : q @.O.-./ +.-.O.O.q.o.5.@.' ' F 9 e x r -.q.>.n B n +.>.-.-.-.q.' 5 d.q.*.5.-.5.-.5.s.j.g.O.-.1.@./ ",
"O.a.y.' U T / e r e x j v v e B 8 j e e x L F 0 5 4 e C L u x F U F K K K o.-.' O.{ e O.-.e.d.z.M.O.q.v.M.S.K.K.@.g.B.N.N.M.c.c.y.y.l.a.+.e x & * * ; 2 , & # 8 8 q q 5 ; & : : < < : # # & - & # # # # ; > q -.5.q.1.@.U F j e n F 5.q.q.q.q.1.1.1.<.1.@.9 : # # # # # * ; : : : e 8 5 v 9 O.1.B.-.a.q.a.d.O.@.1.-.y 1 2 8 e e p j w 1 : : 1 e 8 1 1 2 9 * ; : e e o.O.L 8 6 1 @ C @.O.F O.O.O.B 8 8 , : : * & : : < ; & F <.e 1 O.,.,.x *.e.' *.O.@.O.' F B 8 O.-.@.q.q.' K { 5.q.-.1.-.' e q.+.5.-.5.-.5.1.q.C L L *.O.O.1.L ",
"U s.d.a.a.s.O.U ' ! { @.O.K -.q ' 8 e q v U U v q q e r e F U e e O.U -.! ' L j e e ) g.@.j.M.B.g.g.O.s.s.1.G.g.q.F.B.N.x.l.d.x.U y.d.<.*.O.q.' * 2 < 5 2 & < 2 5 8 0 , @ : @ < 5 5 4 : - : < : < 8 4 5 e e -.1.F n { 5.r.y.O.U -.-.q.@.O.O.O.F -.@.q.<.1.O.8 # , , & * ; # & : : : 9 U 2.2.y.q.r.O.B.q.Z.-.O.5.r.j 8 8 2 2 8 9 8 5 2 2 1 < 9 2 2 1 y y e : 8 ' v O.o.O.G @ @ @ # @ B o.o.' O.O.' O.O.O.e 5 2 2 # : * & : U O.<.@.U 6.B ' -.q.' ' o.-.o.U K v < q O.@.@.@.5.q.q.1.<.-.O.F < 1./ 5.g.b.j.q.5.j.R e 8 e { n 5.1.O.",
"n U 1.q.o.O.a.' ' ' ' O.O.U @.O.! ! ' { / U / ' ' / F ' B q e ' O.O.-.U 5 8 9 n R } { ,.@.5.>.B.M.g.O.M.Z.V.e.B.Z.c.c.j.l.l.a.c.r.x.d.u.a.a.q.q * 2 e e 2 # 1 : # < : # @ # # 2 e B n e q 5 < 8 q v r U 1.*.@.) e j j C L 1.r.r.y.-./ B v v e v ' 1.q.<.1.U 2 # 8 # # & * # ; : < < 2 n q.q.N.1.B.@.x.Z.B.' O.a.q.F 8 8 8 8 2 < 2 2 1 < , , 2 2 8 2 1 1 2 : F q.O.O.O.@.w X + # @ 9 K ' o.' F F F ' O.@.@.U e 9 2 & : v ' U U ' U ,.U U ! O.q.O.K o.' B B U -.C 2 5 ' @.-.@.@.@.@.@.-.O.e < q.-.j.C L B.d.B.) w a -.L ..{ n @.-.",
"O.v F ' ' F q.u.y.1.O.O.q.@.O.O.F e e n r e e v n L C q e B O.O.' / L L 9 q e j n ) ) 7.O.O.O.d.B.j.7.v.B.N.B.c.N.c.x.a.d.d.d.d.l.d.-.q.d.t.-.e ; 2 8 e 2 2 8 2 @ # & # @ * : 5 v O.O.' U v e e r @.-.@.j G e j j j e 9 w 8 { ' ' x < < 4 < < j ' 5.q.-.O.j ; # & # # # # # 8 : 8 5 8 B 1.c.O.-.O.' O.B.<.q.a.1.j e e 9 8 w 2 8 2 2 1 1 , , 9 9 8 w G 8 9 e 1.O.o.-.O.@.8 * & & @ w v B U o.o.O.F F ' O.@.@.@.@.x e 8 -./ +.B T 1.{ B @.' ' +.@.*.U 5 < < ' K ' L w < e ' @.-.-.-.O.' e : { q.@.7.6.! g.h.) w y / 5.@.G R ' q./ ",
"5.r.a.O.! / F O.a.d.a.q.O.@.@.1.-.-.*.v v e v n e F { O.O.' O.O.@.B 2 q e q e e j n *.q.{ d.>.7.d.d.g.B.B.c.B.q.q.r.d.q.*.q.y.a.d.u.g.5.O.O.O.; # 2 8 2 2 v n v 8 * # @ & : ; < v / e n ' O.-.@.-.-.@.u e w w 9 9 a w 1 : : 8 2 4 < : < < < < B 1.O.q.1.e 1 # # # < 4 < , & - : : 2 U q.1.B.' q.-.-.o.o.U t./ e e B F 9 2 9 w 9 8 1 2 8 w +.*.R 9 a -.1.| q.y.q.-.-.-.*.R * & & @ 8 9 8 B ' O.o.U K O.O.@.@.@.-.<.@.@.' O.O./ @.@.O.O.O.-.@.q.>.' < # # & < F B O.1.e > 5 B K U x q 5 j ' 1.O.0.*.*.>.e e e j.b.U e.e.e 9 C B -.",
"@.5.' 5.q.*.v ' O.@.' U ' / U ' ' O.-.' +.' F e U ' 1.1.@.o.*.O.O.n e e ' e v q e / / ' 1.5.>.O.{ O.*.t.B.c.B.-.e 1.1.: 1 e , 5.1.d.s.-.{ * & e B n B r v x 4 U v e < < e v q q U ' e e e F ' @.O.L j 9 9 1 : 2 9 9 1 8 1 , ; : ; : : : < < , 4 F F @.-.< & & & & & , 2 4 : * * : < -.c.q.u.O.q.q.@.O.' { t.1.U u ' F v 8 5 2 8 8 2 e O.<.q.<.-.*.*.<.1.q.y.a.q.q.<.-.{ ~ # @ & : @ # , e v O.' O.U U ' ' O.@.' ' o.U U o.O.>.>.>.' o.! ' ' e.{ e # 2 2 ; ; < ! F K / e < < < < < e n q.O.O.-.g.e C C C a 5.p.q e a @.U 2 2 n B ",
"F O.5.@.-.@.F n U F B x x +.*.+.U ' *.q.' @.@.O.' -.-.@.-.-.@.K U B e m ' B n x ' ' ' @.O.{ ' O.O.{ { O.M.c.B.N.x.q.< j n e : : j.: : ; # F : 1 1 @ : 5 5 < , 8 q U e v U U ' O.' @.n ! n C L a j a 9 9 1 6 1 , 2 8 e a e 9 8 6 , : , , < , : : 9 ; ) <.: : ; & # # # # # # * : : < U ' -.<.' ' B O.a.1.O.y.t.r.-.-.q.@.' 9 8 9 e +.-.1.<.q.1.<.-.<.5.a.a.d.u.r.r.1.<.L a # @ @ & & : < & @ v ' O.F U U K K U / B U O.' ' -.U U U 1.q.s.o.1.O.9 - 8 1 8 : & # < K F K 2.F 2 F T ' O.1.O.O.5.-.>.2 *.*.+.p { U } 0.} L 5.F 5 w B ",
"/ q.-.5.5.q.y.@.O./ ! L { | F O.B ' ' O.1.q.y.q.-.O.O.' O.' B v e e e e v <./ / O.U @.a.' ' ' ' ' O.{ @.d.N.M.c.l.< w ' ' ' j 1 , 8 n v L < + # @ # + + + @ : < < 9 ' ' v ' u e n n 8 e w y a y 9 e 9 1 w 8 2 2 2 1 2 < 9 y e 9 1 : : : : : : 1 ; 1 2 q.C & # # # # # : : : < : , , , , j 1.c.B.x.Z.B.d.' 5.y.y.r.r.r.q.-.n U *.q.q.-.q.a.q.y.t.a.a.d.d.l.y.@.q.q.5.-.{ u a @ # ; ; 4 9 2 : @ v O.O.' O./ ! ! U ' o.' @.*.O.B x U U K U / U v & a e 2 8 5 5 : < < o.F B ' O.O.' ' o.' ' O.q.g.q.l $.M.v.*.q.+.e R ..) 5.q.F n e ",
"e { x r.@.-./ O.O.7.a.-.! ! U F / r B U ' ' o.O.K U ' n F F r x e e U B ' B.B.-.a.-.B.N.-.' +.{ ' { O.d.B.c.M.N.) e e O.5.F U U F -.b.$.< : # # * * @ # + + @ # 2 4 0 q 5 e e e 8 2 < 8 8 9 e w w 8 1 w 2 2 1 2 6 6 6 ; : 1 : ; ; & & : : < 1 & 2 w ; >.1.p 2 # # 2 K 8 8 -.O.> < U 1 2 , 2 e O.-.y.Z.N.' ' -.1.1.y.q.r.q.q.r.y.-.d.x.l.d.1.d.x.j.j.l.l.-.O.1.y.t.q.<.{ R y + ; 2 q e v e 5 < : # n F B O.' @.{ >.-.@.' O.F B 0 x B q e U B : l L 4 4 5 5 5 5 : # < ' K B B F B F ' ' r ' -.q.) y M.B.e e e 6.3.G a } G { 5.q.-.",
"q.e q e F O.r.q.1.-.{ q.r.@.-.@./ ! n v v F F F B r / ! e v e j / T L ' u.B.N.N.N.N.B.d.@./ ' ' *.a.d.B.x.B.B.<.w e L *.) ) L q q.8 e 8 + @ # & ; * : @ & & @ # 5 q e e v F e e 2 : , 1 1 2 8 : 2 2 w 2 1 2 9 & # & : 1 1 1 : # ; : * : : : : 5 w - : < s.O.! e 1 ' @.K ' @.<.' @.O.1 2 , : , 2 x -.V.B.Z.-.' O.T / { 1.r.u.r.1.@.l.c.x.u.<.l.<.1.@.q.q.o.4 e ' 1.1.-.R 2 # & ; 2 F F e 5 e 5 : ; , @ e v x r e x r O.O.O.F v 5 q 4 ; : < ; ~ 4 < < < > : < 8 4 : < 5 o.U T U K @.O.@.-.<.5.-.C 2 +./ e n >...l 8 8 8 9 e 8 1 1 ",
"< r.e 9 2 5 5.L +.q.@.@.q.5.q.a.<.@./ U U / / *.| U ' L q e n ' ' / ' F z.B.l.B.B.N.c.-.O.U / -.a.M.c.c.B.N.@.j F *.| G R G | 1 L a 6.X @ @ & * & # * * # @ @ @ : 2 5 q e U q 9 1 = : , , 2 , 2 9 9 5 1 1 : * @ @ * # @ * , 1 : * # @ # # & * G : 2 : : < q.O.O./ q.q.-.1.< q O.x -.2 2 1 , 1 1 < ' { -.-.q.B.V.l.-.O.T O.>.-.O.1.t.l.a.r.y.d.B 4 e U n e 4 5 8 B @./ 1 : + : 2 q C w 5 < 4 0 < 4 < - 2 # 2 & w 9 & e F B 5 2 : & & : | & a ..: : : < < > < 8 0 4 < < 4 F ' O.O.@.@.*.F e ' ) 9 9 ) >.F 8...6 a 8 , , 9 * , a , ",
": 2 : : < O.e e n { 1.q.1.o.O.5.5.-.y.r.5.-.-.O.-.q.y.-.O.' / U x ' -.1.B.B.l.1.N.N.N.d.<.' 1.y.a.B.N.B.*.j j j F @.u w w : e 2 1 : # @ # # @ @ # & ; & @ @ # & 8 5 5 2 2 < < 1 : * & * : , 2 2 8 1 1 2 : * # @ @ = @ @ @ @ + & + + + @ # * # 1 # e 2 : < y.-.O./ @.q.' U < < F ' @.T 1 : < 1 1 1 8 e n j F +.-.d.Z.c.y.@.y.c.-.r.l.d.c.c.c.q.e ; - 4 < - & < 5 e e j + ; 5 5 e 9 e w e ; j < 4 q 4 4 > : : < < < < : * & l G ^ 8 ^ w a a ^ < : < > 4 < 4 : : : 5 4 : 4 < B O.O.@.e ! q C e y >.v.a 0...2 6 , l 2 4...8 , , 9 , ",
"2 e < : : < n v a $.L -.y.-.5.q.' >.q.5.r.1.r.d.g.r.q.@.' ! F B ' { 1.c.M.j.d.O.N.N.N.r.-.<.d.N.d.c.N.N.e C G n O.' p 2 e w 2 , , @ @ @ @ + & & & * * & @ # @ # * 1 1 1 1 ; * * * # * * , 2 8 9 1 8 , : * = # @ @ * + @ @ @ + + + + X X + X 1 6 : # < < e < r.@.' @./ < 4 5 5 0 <.O.v , : , , , < 2 e e 2 e e j / 1.B.B.V.x.d.V.B.B.B.d.c.l.@.5 & & : : # # # & : + + ; 8 e e / a e e 5 < : 9 < < > : : : < 5 4 5 5 2 < > : : : < 8 < j G ^ < > > < < < < > < : : q 5 & 5 5 < 4 < w L v F e y F C 1 : 9 6 9 8 | : 1 : : 6 , , 2 ",
", 2 1 1 w : 2 2 0 U C e.q.-.-.@.' 1.-.@.q.O.q.d.e.5.' L U F ! O.*.-.1.x.V.l.N.l.B.B.B.B.B.B.B.B.N.N.B.1.e n / *.L 1 , 2 e # # 1 # @ @ @ + + # & & & * # @ # @ # * 2 2 * # @ @ @ & 1 2 9 9 9 y e 6 , , 1 * % @ : * 1 , + # + X + . X X + + + + 1 2 * a < 2 9 9 O.q.q.< 4 w 8 0 < @.-.< < : , 5 e 8 2 8 9 9 5 5 2 e ' 1.q.1.-.d.B.l.@.O.U @.t.T 4 - < 4 ; - : # & @ 1 ; > 5 F F F u w 9 9 2 e < C < C > a a 9 5 8 < w 5 2 5 e 5 5 4 1 4 9 < : 9 < < < 4 > > 4 4 < 2 : q 2 & : & 1 : - : p e < e.j , : 8 R 2 v.1 6 R } l < , 9 * 1 ",
": < 1 1 1 2 : , 9 ' U L L O.1.y.<.O.' ' o.-.d.*.@.s.r.q.O.{ o.O.O.-.q.c.y.a.M.M.B.M.B.N.M.B.N.N.N.N.B.' j 7.' ' 9 1 @ @ 1 # : * @ @ @ @ @ # # # * & & * # @ @ * & * @ @ @ : * < , , 1 9 9 1 1 6 6 , * , , : 1 , e y w 1 , : 1 # . . X + + X @ # 9 , y e 2 9 8 e { >.q e : e q 8 5 @.O.1 : : 5 8 8 8 e 9 e 5 5 2 9 e n O.O.+.5.q.' ' U F T -./ e B e 5 e : & # @ & ; > < F F 8 / p 1 : : j e w : : & 5 & & & & * e , : : : < < 9 4 5 2 < < 2 e C > < < 4 < : < < 2 < q q < : e : e F U : < >.$.< : e 9 G : 1 y 2 2 6 < 2 2 8 e : ",
"1 , 1 : , : 2 , 6 9 g.n -.F O.-.q.y.q.y.q.1.-.*.-.@.O.-.y.y.y.y.1.q.c.N.q.y.a.N.N.d.c.N.N.B.N.B.B.B.N.w n e 1 9 , : @ @ 9 e w 1 : @ O @ # : & & * * ; : * * : @ @ @ @ ; : < , , , 1 : : : : , , 1 : 2 9 : 2 , y 8 e e e 6 6 9 , . . X + o X + 1 8 8 & 1 y e 2 < e O.{ < 5 8 - < e u -.< , : < 5 4 5 5 5 8 2 2 5 8 5 2 e v ' *.-.O.' / C C ! o.O.O.q 0 ; # # @ : 2 < < < F e L n j 2 9 1 e : : : * < & : & # & & & : : 2 2 2 < : < < & & < < 9 : 5 ~ e j e 4 < < 2 > 8 e n F F L e 8 C F F e 8 9 y >.a 1 , ^ 2 C G 8 9 a } a e # ",
"1 1 , : : : , < , 8 e U e 1.U v ! { / ' *.q.q.r.a.d.d.q.q.q.q.5.q.l.d.r.q.q.N.M.l.q.5.-.*.+.O.1.a.1.v L O., # , , @ @ 2 1 } ..6.: * , @ + * * & ; & : : : : , , : , : 1 , : , : : * # # : 2 1 , 9 2 : w e 9 9 y 1 9 w w 9 6 t e + o o + + , 9 : 1 2 R , y 2 e p : < < 5 4 9 - 5 e -.' , : * * & 2 ; * * : , , : : , , 2 2 0 e x ' { a L U U O.-.O.B 4 : # # @ : : > < 4 F C ) L C e : 1 : < e 8 5 ; # & & 2 u 4 ; - - ; ; ; 2 < : : : ; # : < p < ~ C j 2 8 8 : < < < > : : : < 8 5 9 2 y y 2 1 ;.: e 2 ..2 | C y w w a ^ 6.9 9 ",
"2 & : * * * * * 2 : 9 -.j e O.1.7.>.*.5.F n r n @.r.>.@.-.*.1.>.-.-.-.-.<.1.l.M.a.j.7.U F n v n n e F g.9 , , , : # 1 1 a / C a., | e j X @ * & ; : : : : , : , , , 1 : : * * = : : ; ; : : : < < w 9 1 1 9 e 2 1 9 e e 9 6 2 9 = + + o X # & 1 8 6 z : 2 e j C 9 j 8 5 4 8 q q 5 <.< : : : # # # # # & & : : : , , : : , 1 2 8 2 1 & R L K F ' 9 q e < & # # * : : 4 5 U / L j e < 2 : e n a y G n L L L y : : R 9 e 2 : : ; < < < > > : & # < < < > 4 4 < 5 2 4 2 : : > : e 1 9 9 1 9 2 w $.: : ..8 y ../ x x j e e v +.$.| e ",
"e 8 2 9 9 6 2 : : 6 : 9 q.j G v K B v F ' *.O.-.q.g.q.-.@.-.5.1.q.5.1.5.q.y.d.q.q.s.{ ' { ,.n v u { / e.8 8 1 , 1 1 9 e @.O.n C n.g.G 0.+ # # * ; * @ # ; : : : 1 1 : * * # : * : 2 9 2 e x n C C j n n 9 8 2 e 2 9 e w 9 2 , , 1 ^ ~ o : # & , 1 w 8 2 y 2 e 2 2 1 < 5 4 < 4 4 5 @.< : : : : & # & * * : : , , , , 1 2 1 1 2 2 : * < 2 5 e F n 5 v j 8 : # + * 1 5 2 5 B F / j 8 : / ! 9 G e 8 w 8 R 9 < j < < : ; e p 9 : : ; ; & & # & : ; , & < < < : < : : 2 4 5 < w * * < 1 2 2 1 : # R < 2 ..R ) ' -.O.F n n n { @.n e.} ",
"l w a } 2 1 = = : 2 : 8 / F a e 8 9 e j G a n j R ) F L n n n L U @.-.O.-.-.@.5.-.,.O.{ 3.+.O.5.5.>.t.<.n 8 8 1 , 2 1 e L *.*.u g., : : * + # & & @ @ @ @ : : : 1 1 : * & 9 0 < < j n n n L L L C C G C R e 2 9 8 2 9 w 9 w G R 1 1 1 + # * # , , e e : 1 e 9 y - & : e 8 < L < e 1.@.' : : : : < < < , : < : > < < : 2 2 , , 1 1 , 1 : & & u j < 9 9 , ; # + : 2 4 2 4 U L u < 2 w 9 w w : < : e 5 1 G 1 e L 0 4 2 L : R e : , & ; : & # & & - ; 2 : < < < 2 2 < : > ; @ 2 : 8 1 1 1 * 8 8 e n n / O.-.y.y.q.-.U U O.-.-.@.q.v ",
"F F n e 1 : * * : : , 8 9 <.' j 8 2 9 e G p y j e j L ) ~ } R F } j j j F n F ! O.| { -.' O.-.*.>.s.q.U 5 9 2 , , < , 2 C | } } ~ , = 1 : + & # @ + + @ * : : : : : ; * & e e e n C L L R n n n j e e e e p 9 w e e e a C G C a } | 9 9 o + * & a : ^ & C e y e : ; : : e 5 < 4 4 q U 1.U n e n F F K K e < 9 F U U U < 1 1 1 1 , , , , , # # # # # & & # & # 2 9 2 5 e U / C w q 8 8 9 < 5 @.0 5 j G 4 O.! / ' O.8 < L : C < : , : & # # # # # & : # < < : + : 2 4 8 # 2 9 2 , : : * 2 5 n U -.-.1.y.r.q.q.y.q.5.5.q.q.q.y.q.s.",
"l.d.q./ , : = : : : 1 , 8 w ' *.e e u j F L B -.r.5.-.@.O.O.F F n n n n x j e L L U O.' 1.l.-.1.-.@.v 2 1 5 1 # @ # & , 2 9 j G 2 1 , : * @ # # + # # # * : : : : # * * 2 v v B n C n R n v x ' @.B v j e e R q n e e q 0 5 5 5 e | ..: 9 # . * , a j ^ * w : : : 5 w w & j 8 9 0 q < ' @.@.1.@.-.-.<.q.@.O.O.@.-.-.@.' 5 > , : : : , 1 , * * * & & # & ; + * 9 j 4 v v ) { a < & { e 8 2 @.8 9 2 < / U K U O.o.o.O.4 < R 2 9 < > : & # # # # # # # ; : # # @ # @ @ ; 2 2 1 : 9 1 e 8 < F @.5.y.y.5.' *.O.O.1.q.q.a.a.y.r.t.l.d.",
"d.N.a.' G 1 1 : * : w 1 1 8 9 9 a.5.*.-.g.g.q.U 2 9 e ' r.t.r.q.r.y.y.O.@.-./ x ! | O.O.5.q.' B v < , , , , , @ & : , @ , 1 2 w e 9 1 * + @ @ # @ # # * ; : 2 , @ # @ ; e x n T O.q./ v ' q.<.l.j.y.5.y.B v j e 8 5 e 9 5 4 4 4 4 5 e ..: * * .   9 , 9 | | 6 9 9 w , 2 # : & - : e q q *.1.O.1.2.1.-.O.-.1.<.-.O.O.<.-.@.@.O.{ L 9 1 : : : = : = * # # # # , 2 u 5 x +.+.R C 2 2 : e 9 5 0 < 1 e *.<.d.-.@.' <.@.' ' 4 e 2 5 2 < ; & & & # # # # & & ; : : & ; 1 2 1 : # - w w < 1 L L @.q.t.q.O.q.q.q.1.-.*.@.O.' O.O.O.-.a.a.",
"j.x.q.' F < e * : : , y a 1 , 8 9 9 ' / x 9 2 1 2 2 2 w 9 e B e e e e e ! e y.O.' -.-.q.r.q.' v : , , : 1 * , 1 * , 1 , @ @ @ 6 * # # @ # & * & & - & & ; 2 : @ & # : e x x n B O.B.N.c.V.B.B.N.Z.V.V.B.N.d.q./ n j e 9 9 5 2 < 4 5 5 0 e w & = = X 6 , ~ @ ; : X @ , + # 1 ; & ; < e 0 < e v ! ' { L e 0 n U F F n F ' -.-.-.*.+.{ L e n n 9 6 2 w w 9 2 2 5 w e 8 v { O.R G p 9 y : C 2 8 5 0 { u.l.c.d.<.' -.1.q.O.U 5 ) n < 2 1 ; - : & # # # & & * : : , 1 1 , # ; 8 2 > F L L *.>.q.q.1.' q.1.<.q.q.y.q.<.1.5.-.O.O.' <.a.",
"d.M.B.d./ w 1 1 w : : : : 8 1 1 : 9 9 9 8 5 2 < 1 , , 2 8 8 w 2 9 2 8 8 8 < e L @.{ *.-.@.' r 8 < * 1 : 1 : ; * : : # # : @ @ @ : @ # # & & : ..a y & w 2 @ @ # # # # 5 e e B ' d.Z.B.B.Z.B.V.Z.Z.V.V.B.V.V.B.d.*.O.O.' L L n n ! v e e e e 1 & * : : , : 2 9 e 4 5 : - # + 2 : : : : 9 q < < < < < < < < < 5 4 8 e e C v n / { @.*.O.' / U U F n x e e e e e 8 5 n e O.) +.L p 8 w ; e 2 l ' y.x.Z.Z.Z.Z.Z.l.j.B.x.r.U 4 n | 9 : 1 ; - - & # # # # * ; & : , 1 * # ; 2 2 a F @.F O.5.q.y.1.@.q.1.1.1.1.1.1.<.1.1.<.<.-.' ' / y.",
"q.q.N.B.-.L , 1 a : , , : : a 1 , < 8 8 < : , , = : * : 1 1 : : : : : , , 1 , 2 8 9 2 j C 9 e 2 : 8 , 1 , , : : : ; & # # 1 * 1 : # # # & 5 , * 1 + + + + @ @ # # # # ; 9 e B 1.Z.N.N.l.j.j.l.N.B.B.B.l.j.B.V.B.x.l.d.a.r.y.q.q.2.-.O.n n n F e 4 5 e B 0 ,.-.@.@.O.O.O.O.U & + @ : : : 8 8 0 0 8 4 5 5 8 q x v e v F L O.O.! ! L L v e U v q F B B F F B e e 8 5 e F W ) ! L 9 : 2 < y < C r.B.N.N.d.d.a.N.Z.Z.Z.Z.B.a.' 2 { L 2 , < : ; & # # # # & & - : : : # & < 2 n L O.@.F F 1.r.1.@.y.1.<.<.<.<.1.-.e j j F -.@.@.-.O.' ",
"O.*.a.N.O.L a < 1 2 2 } , : , l 9 1 : : , , * 2 2 1 , 6 1 1 1 9 8 9 2 2 9 , : : * : : 1 2 w e 9 2 9 : 1 1 1 , , , : * * # # * # & & : : : C.# @ + + : : : * # # % & ; < e e O.V.d.d.d.c.z.x.l.a.a.a.a.d.a.a.B.B.B.B.B.B.B.x.d.a.r.q.-.U n x r +.-.>.O.@.{ { ' ' O.{ -.*.*.' n q 2 : # ; ; : 0 w e 0 8 0 9 2 < < < < 5 8 e n L / ' ' U U B U B U F e e q q q 8 5 n B O.L ) W G y 2 1 C e *.a.B.r.-.-.*.O.O.-.c.Z.Z.Z.Z.x.-.B 9 +.u : < : : & & # # # # # # & : & 2 1 1 e ' O.F < < L F q.@.q.1.1.1.1.-.-.e e ; ; ; < 5 8 9 e ' @.",
"@.O.-.V.<.U L a < 2 2 a , , = 2 8 : & 1 6 : e : , * = : 8 8 e : * * : * 9 1 : : : : : : 9 a * # R 1 : 1 w 2 1 1 1 , , ; & & # & : 9 R ..^ & # & : < : 8 4 : ; & & : < e e O.B.a.x.c.d.x.a.y.r.d.z.j.z.l.j.l.a.t.u.a.t.u.d.c.l.d.a.q.<.B n v @.B B ' 5.O.>.-./ ' @.*.-.T F B ' n F n : * : : - ; * & ; & ; : < 2 2 8 9 9 w 9 8 9 5 2 5 L F x r e K F F F n e e e e e B e ! ) G a j ; a e N.l.O.' ' @.' ! T ! -.B.Z.Z.B.l.d.O.! ) 9 > : ; < : : & & # # # * * & 2 , < 5 e ' F < w 9 1 C -.1.O.-.1.<.<.-.8 ; ; : : : ; : : : < e ' ",
"' -.O.q.d.' F ! F F 2 5 C , : 2 8 w 9 2 1 1 : , & * y : * : * , 8 8 ^ , * 1 1 9 1 2 , 2 1 8 e y a : 1 w 2 2 2 1 1 1 2 , : : ; ; R l } : w * * : 1 1 e U v 4 4 < 2 9 j x @.N.c.d.l.d.l.x.l.y.r.d.d.a.d.l.l.l.l.d.d.d.d.a.q.1.<.<.a.q.<.' B U -.U B ' 5.5.' { / >.e.O.@.F -.-.n { B v K # # , & : 1 5 : ; ; ; < < & : , 2 2 8 2 2 1 1 1 9 2 e 9 j j F e n U U B e e e r q ' W ^ G w : G @.V.' U L L U L U U / ' q.c.Z.Z.B.y.' q ) q q 5 : : : : : - & # # & ; & < < 1 e j n 5 w : 2 w 2 n -.1.O.O.-.-.@.: : < , 2 < 1 < < < , : < ",
"C O.@.O.l.c.x.q.-.-.' L 8 ~ : , w < , < : = & * * 2 < 8 a , a a 2 9 8 8 : * : ; : < 8 1 2 w y y a 8 2 1 , 6 8 1 8 2 : < 1 2 w : a ~ , * & * : < r ' O.u.O.U F e 0 e B @.B.c.d.l.x.x.d.a.x.y.q.s.q.-.q.y.y.s.5.-.-.-.t.s.r.y.y.<.y.r.q.@./ ' K ' B F K U ! U / -.q.>.*.@.O.U B / B ! ' ; # @ * 2 : , : : , < ; : , , 1 , 1 2 9 a # : 1 , 5 9 2 2 2 2 e L e e q x e e j L R ) G y w < a / V.O.L R n n n n n F ' @.l.B.Z.M.d.O.O.9 ) / e 9 q : ; - : & & & & & < , 1 1 1 2 < 1 w w * * 2 8 e q.q.y.O.O.@.O.{ < : 2 2 1 , < < 1 2 2 ",
"9 L 5./ U q.q.l.d.1.@.L 8 ^ * : : : : : : * : 2 , < y 9 2 2 8 2 e w 8 8 8 2 2 : 1 , : 2 1 8 8 9 a | ~ 9 2 a 9 : : ; : , , , 1 9 2 9 1 , 8 5 r U -.Z.Z.a.B.B.N.q.@.@.1.N.B.d.c.x.l.a.u.c.x.y.t.d.a.-.-.-.-.<.q.-.-.t.@.7.t.q.1.q.-.a.u.y.q.5.1.q.5.*.K ' @.L 1.d.>.>.*.U O.B ' n { O.x K e 8 & @ @ @ & * * ; * : : : : , 1 , 2 , 9 : , # 1 : & 2 2 w 2 5 5 e n < < < 9 e a R y a ; e 9 O.V.! / e j e e e e n { ' 1.d.Z.Z.V.a.o.' x { ! { e L < < : : : : - < : : < < 2 1 8 w ; # 2 2 : : 2 j F @.a.O.' ' ' O.e 1 < 8 : : : : , 6 ",
"8 9 n ' ' ! @.x.l.t.q.O.y 8 e 1 * * * * * 1 < 1 l 2 R L F L L C / { ) ) ' 8 9 8 : 1 = : 1 1 8 y a e ^ | } 1 , , , : , # * * : * @ , < B T F O.y.B.d.B.N.c.u.a.Z.c.V.B.a.d.x.d.q.5.<.u.d.y.y.r.d.a.-.-.-.q.-.*.' O.3.1.q.-.O.1.<.q.<.y.u.y.y.y.r.q.1.B @.) { >.q.q.q.O.' >.*./ x ! F ' K F B j : : : : * * * : : : , 1 2 1 : ; 2 2 < ; & ; , , : , & 8 8 8 1 8 5 2 1 2 y a G C e j y 2 ' B.' e e e j j j e j e { O.a.Z.Z.Z.N.l.-.O.L { e U v 0 5 e > ; ; : : : : < < 2 2 9 9 # , : 9 1 1 , 2 2 ..*.a.a.a.1.' O.+.@.' 5 : : , & 2 ",
"2 e w 5 e { U B O.V.l.1./ 5 G , , : : 1 : < 2 w G U O.-.-.-.O.@.-.-.-.*.@.O.5 2 1 * 1 = : 1 , , 1 , : : : & * 1 , ; 1 2 8 8 : , w ) q O.O.@.t.K.x.B.d.y.N.l.N.a.l.d.N.N.r.<.-.-.<.-.-.q.q.q.q.y.5.-.-.-.1.L n e e +.,.-.-.@.' O.@.q.<.<.<.-.1.t.q.-.B F K O.q.q.q.*.1.' -.! v r @.o.e B ' ! B F ' F B e 8 1 1 : , 6 8 9 j F e e 5 9 ' B 8 : & 2 2 & : w 8 2 & & : : 8 : 8 e 2 < n 9 : O.V.' e 8 1 5 8 2 8 9 e n ' q.B.V.Z.Z.A.B.q.' ' O.@.! q e L q m < ; : : : < : 1 8 8 & * , : 8 1 2 2 1 1 | 7.-.u.r.q.a.a.q.{ *.U 8 * , 1 : ",
"1 2 ; < ^ 9 U L U e q.B.*.1 8 G 9 w , 1 C G F B ! q.l.q.q.5.-.-.-.-.*.+.O.O.2 5 : : : : , = 2 e a a a l l ..1 6 1 2 9 5 e 4 2 8 O.-.N.d.-.q.K.K.B.l.q.<.q.a.M.N.N.x.1.<.-.-.q.q.q.q.q.1.q.1.-.-.-.-.-.5.1.9 e 9 8 j @.*.@.O.o.' O.<.q.q.q.-.q.r.r.q.q.5.1.1.-.' -.q.*.*.*.-.v U O.O.' x v e U / n n n B ' U n e w U v x e e G y 2 2 8 5 2 n 5 ; ; 8 < * : * & : 8 1 2 ; l a 9 5 w y 8 y.c.U e 8 2 1 : ; : 2 5 C F <.2.a.B.l.N.S.B.x.l.x.l.U 8 e B B v v 4 ; : 8 q : < 1 8 & # : : 1 : 9 8 1 , 2 ..! >.7.+.q.q.d.-.-.F 9 : : , 1 ",
"2 2 2 2 , y 2 F n j -.V.1.R 1 2 2 < 1 , G L O.<.u.c.N.z.d.-.-.-.5.-.@.O.+.2 2 < 1 1 : , 1 1 e a u R l R | l a 8 9 9 8 ' -.5.5.B.V.d.d.S.1.N.d.Z.l.1.a.-.q.<.y.l.y.1.<.-.q.q.-.O.*.5.q.r.y.y.q.5.q.q.5.1.1.q e e 9 O.+.@.@.@.O.' O.@.O.O.1.r.y.q.t.u.d.t.d.d.s.-.1.<.q.' 5.*.-.@.O.{ ' ' / x e U F F F n e B r B v e e n j C w j 8 w 2 2 , e L 2 8 & 2 # 1 & * ; * - , 8 * : L j 8 a 8 j.B.U x 0 2 < * : ; < 2 5 e B @.-.u.-.-.c.D.K.Z.Z.d.q.' K <.O.K r v < : < q 2 1 1 : ; # # : : : 9 8 : 1 & 1 1 ,.5 5 B.x e.c.O.-.) 8 : : , ",
"6 1 2 9 w l : , 8 F v x.a.*.R 2 1 < e y L -.a.z.Z.j.N.V.j.d.y.y.t.-.-.-.O.5 2 2 2 2 e 9 e a a a l C R 9 C } e G w e O.<.j.N.z.A.Z.Z.K.D.a.d.S.j.t.a.1.' -.a.q.q.1.1.-.q.1./ < 5 0 F q q ' @.5.1.*.,.O.*.O.C w w e / / @.@.O.o.' ' o.O.o.@.-.@.2.t.t.-.d.-.1.r.d.d.d.*.@.1.-.*.-.@.{ O.F F U e e e 8 B F n v e e j 8 e 8 w j 9 w w w 2 2 5 2 2 L ' 0 5 : w ; 1 * 8 e < : F j L 9 9 9 q.Z.q.+.0 4 2 * * * : : 1 < C / O.-.@.T -.<.z.A.F.F.F.d.y.q.c.q.q.-.K F 5 v F 9 < < 2 < : * * : , < ; : 8 1 1 : w e : 6.6.>.d.O.-.u 8 * 1 1 ",
"< 2 2 9 y ^ G : 2 x e y.c.q.O.G 1 : 8 L / t.Z.r.<.O.-.-.r.V.B.B.l.r.1.1.O.< 8 8 w y w l a a l G G G C 5 2 5 e e < j 1.d.l.a.Z.B.Z.Z.A.S.S.Z.Z.a.1.>.x e e O.s.r.O.-.-.e 4 8 > 5 2 2 5 2 q v F ' { F e e 9 e 9 8 F O.+.@.@.O.O.O.O.o.O.O.@.@.-.1.5.q.q.r.l.-.5.>.-.*.1.1.y.1.-.O.' U U F F B U x e e q 0 4 4 8 e 4 2 8 w u } L a < e 8 e F q ; 2 : ) ' 0 : ; 2 L G w y R { l 8 < 4 1.V.) n e 2 2 : , = = : * 2 2 5 F $.F K T O.O.y.V.Z.Z.M.Z.V.A.Z.Z.Z.B.y.K K B F e 8 1 < 2 < ; * : & : 2 9 9 2 1 1 : < 8 ..8.F s.-.-.9 & : : 2 ",
"< 1 < < 1 1 C l ; e e 1.B.l.1.' F F F U -.N.l.O.e e e e e O.q.d.N.l.u.y.1.n 2 8 9 e e a j 4 4 < 4 4 5 5 8 8 5 < y ' u.d.u.B.B.B.M.S.Z.J.M.a.q.C j w 9 2 2 e n e 8 e w 5 : 1 : 2 : 9 8 y 2 5 e 8 9 9 w e w 8 8 8 9 ) U O.O.O.@.O.' v B T o.O.O.@.-.q.r.r.s.d.l.j.l.d.a.r.q.>.>.q.<.<.O.K F F B n n x j e e e e e e e e j C | e e *.4 < U ' / O.e < 2 2 e 5 8 9 8 2 2 8 8 2 a / ' j.j.' 5 2 : : * , * * & * , * 2 1 j e ~ q F e x O.q.r.z.<.@.s.c.B.x.N.B.d.y.O.' o.B q < < < 2 : * * : : & & 2 : 2 1 : * 2 3.g.Z.' d.O.2 , , 6 < ",
"< 1 1 : 1 1 2 y : 8 j 1.d.V.a.@.O.U O.@.a.c.q.v / L F v x e O.q.V.N.l.y.q.O.U 5 2 1 8 5 9 e j C >.$.} +.) } L ) ) q.a.r.B.B.c.N.g.a.r.q.*.L j w 9 w , , : 1 1 1 1 5 < < , . . . * * 1 : 8 j j y a y e 2 1 2 6 1 1 8 5 9 q 8 / ' U B q q e < v ' -.1.y.s.e.a.s.r.s.g.d.5.1.5.1.1.-.-.-.-.-.F F n L r x F e j e e n F F L ) | | +.*.+.' ' ' K -.q.U : ; : q 0 ' { 0 2 1 1 y 9 v q.B.O.j 2 * , & 1 * * * * * : # 8 < 5 F j v a j L R n B -.B n F -.l.s.t.y.d.B.<.-.@.U e 5 2 : 1 2 < & & & * : : , 2 < 1 l 2 2 2 ..*.z.O.' 2 , 1 , ",
", 2 8 6 2 , 1 l 2 < e e O.1.B.a.<.-.1.q.l.j.O.e n e e e e e v *.1.Z.N.y.q.q.@.O.v e e C t.q.q.q.r.r.*.*.r.q.q.y.a.a.r.B.c.a.d.l.g.+.! a y w e e 1 , : = * @ = * * * : , . @ X . + @ * . # 8 y w < : 1 , 3 2 : < 1 2 < 1 < 2 9 q 8 4 : : : : < 5 U O.q.d.5.q.q.q.7.7.r.r.r.q.q.1.5.q.-.-.-.O.F F U O.O.O.K F e e n n C F ) { / +.,.{ { { / l.z.N.N.q.U F K q.t.O.' F < < v ' @.y.N.' e 2 < * 1 * : : : # & * * 2 2 < < 5 e n j e L C G L C C y } ! R C L q.a.N.-.<.O.F e e 0 1 1 2 : : & * # & # * : : ; 5 1 1 | *.a./ ' w , , 1 ",
"8 9 w 8 w G , < e , , e e e u.N.a.q.y.d.z.d.@.v F e e e e q e e F N.B.x.q.q.d.l.a.q.q.y.a.l.a.y.1.q.q.y.y.y.y.y.r.B.B.N.r.q.7.*.3.C G e e a 1 1 1 , , : , = + X X X = @ o + X + o + X X + : j < , 6 @ # 9 9 # & e e < < < : : < : : : : : > < 2 9 O.q.s.r.s.z.q.d.j.d.s.a.q.1.5.q.d.-.-.-.O.O.O.-.<.<.<.@.O.x e x e j n F ! O.*.@.O.O.<.l.c.d.-.-.r.N.a.q.d.d.r.-.' { e *.1.y.a.N./ e 9 2 : * , , : 1 : * # 1 1 8 < < < 1 < e n ) | } W G C a C 8 < e y 9 K t.a.1.@.o.F ' ' e < 2 : & : , : : : : # # * w 2 G >.y.q.O.L 9 1 : 2 ",
"w y e 9 R ^ 1 < 2 : : 9 q e 1.V.N.l.c.N.V.l./ v F e e 9 8 q 8 e q q.Z.V.N.l.u.a.d.r.y.d.L.K.K.K.B.c.c.x.c.c.N.B.B.c.q.5.+.+.*.j } } G e 6 1 9 2 , 1 l , = * , * # + : * # # # & * * : # 1 # * , 1 2 2 2 , , 7 1 ; & & w : : : : : : : ; & < < < e n O.q.s.z.N.N.N.N.d.d.r.r.y.q.q.-.-.-.-.@.-.1.1.<.1.1.@.O./ v e j v n n L O.>.,.*.l.l.z.q.@.O.-.*.q.N.a.l.l.a.q.q.' @.d.c.c.N.l.U j e 1 * : : , : , 6 : # , : ; 2 < , : ; < < < 9 a 9 9 : : : * w 6 & 9 2 O.q.d.-.O.@.' ' e C 1 1 5 : ; : : * : & : w 9 9 l @.a.O.-.| 2 2 , 6 ",
"w e 8 e w z : 1 w : : : e e 1.B.B.V.N.l.a.r.+.F v e 8 9 9 8 4 5 q q -.d.D.A.V.Z.K.Z.D.L.N.-.O.y.+.M.V.B.B.B.c.-.-.| 5 9 y ) e >.a G y 7 z 1 , 2 e >.X.e 6 : : : , : # 2 1 : * * * : , & : , 2 1 1 , , 2 : * , 6 2 * & - - 2 : : - # # # X & , 2 e e e / q.B.Z.j.b.s.s.a.l.d.y.q.p.5.-.<.@.O.O.O.@.@.-.1.-.O.O.' v e e x n F O.>.>.l.d.q.O.@.O.O.' e F 1.N.l.d.d.d.d.u.y.x.N.<.' O.n j 2 * , , , : : , , 9 * * , * 1 2 , & < : , : : > > # 6 9 w e 9 2 , & w 2 n @.y.q.@.-.' j n : 1 2 1 < < < < 1 1 9 9 9 9 v d.U -.} 2 e 1 e , ",
"2 w w w 8 w a 1 9 : * : w x @.5.-.-.+.' n B e F e e 9 9 8 2 2 < 5 e 0 q y.N.B.d.N.F.B.y./ F B F L / -.s.-.' ' a C 2 1 8 2 ;.} 2 ^ l t 9 2 1 a i.0.9 6 ..a 1 : * = 2 : , 1 1 1 2 1 < : , w = , = * , , * : = * , , , + # @ @ # # # # O X . X : * 9 j G L ,.,.R h.B.M.g.d.d.s.d.d.a.t.r.1.' x O.O.o.' O.-.1.2.<.-.O.' n j v F { -.1.d.d.t.q.*.O.u a 8 8 R *.N.l.u.a.u.l.l.N.-.v v n w 5 : , : , : , 2 1 1 : 6 1 @ # * # @ # @ @ # * * * & 1 : 1 * , 9 8 8 1 : , 1 ,.O.1.q.O.O.O.O.n 2 2 2 , : < : 1 < 2 1 1 x q.-.' *.2 8 w 7 , 9 ",
"9 9 G G 9 5 5 C < 2 * : 8 e e F e e B v B F B v e e 8 w 5 5 < : > 8 e e e U @.' *.7.7.B v R e 9 e +./ ! O.F n < 2 2 , a ^ ~ ^ ~ ~ 7 a e 2 1 , a z n.9 e y l 1 , 1 : w 9 9 8 : @ # : * , 1 9 : : , , # : : * # # @ = , , * * + + X . . X X + @ * : < R | } R R G a.g.g.g.t.r.q.5.5.5.O.n 5 < < F O.-.-.O.O.-.@.2.-.@.' U n ' *.1.u.d.d.d.u.U | y 1 w 1 C F 1.l.a.y.d.N.l.q.' C 5 1 : * : : , , , 1 9 9 9 , : * e : @ : : * & & # * : : , , : w w e y w 8 2 1 * 2 < >.7.y.O.-.<.q.-.*.C < < 1 < : > 2 : 1 L ' y.O.O.L w w y w , 6 ",
"w 9 y ^ y a y , < : * : 9 e L F n e v x e e e 2 1 1 : 1 8 1 < : ; < 4 e e e R { { ) / ) j 2 2 : : , 8 { L L < 1 8 , R ^ ^ 7 t l l a 9 ~ 4...b.| 4.G :.;...y w 8 1 e , ; * : 5 4 < 2 : * ; , w e , 1 1 # + X X , , * + X X @ @ + . + & + @ $ + 6 w t 6 , l W 6.R L L $.6.g.p.+.{ U / e 5 w 5 2 < F *.-.-.' v ' -.q.-.@.O.' O.q.y.a.q.-.@.q.@./ j 8 e 1 5 C +.q.l.a.l.q.-.' C e : * , , : = : , , 2 9 w w : 1 : : w e e 6 * @ # # & * * 6 1 1 w 1 : w 2 1 1 : * 2 : e <.1.@.-.@.O.1.-.' F < < < : 8 q e F F <.t.' ' ! w : 2 a : w ",
"a l l G ~ C e < : , * , : e v e e 9 2 < 5 2 , : : : ; ; * # 8 : ; ; 2 4 5 e n C L L | 2 2 1 : 5 e a : : 2 : : 1 8 2 l e ] 9 z e Y ~ e w k 9 0.n.2 z | ^ G 8 G l e * : u -.-.5.y.' < : : : : 2 w 2 , , , , : , : * X .     . o @ O X X + @ # * : 6 a 7 ..e k e G $.>.| ..R R ~ R j w 8 9 : * ; : < e ' O.5 4 4 ' @.q.1.-.@.@.t.u.<.-.-.' U { ) { C : : 1 : L >.B.l.B.>./ L : : * , , = , , , , 2 8 9 9 8 1 , = , = # # # * : 1 : : , * @ * 9 1 : : 9 2 1 : * * , : -.r.@.@.@.O.-.O.q.-.-.F e 8 e e q e B 5.y.O.' O./ * 1 w e y , ",
", 1 2 w : w 9 , 1 * : * ; < : : : : : < , : : * ; ; ; * : * : ; ; & : , < 5 a R } G w , 9 2 1 1 2 # * e w 9 , 1 a 2 9 6 t 7 a a 6 2 6 a a g.4.t n.>.^ 9 y ~ 6 1 1 : e q.r.s.r.s.l.U 1 : : * , < e e 9 9 9 6 2 2 , : * # @ + + # # @ @ @ + & 1 : , e G l ~ 0.a...^ a a 9 9 R W e 9 < 1 w ; & , : 2 2 < < 5 2 4 x @.<.2.@.O.@.r.u.<.a.d.<.F n -.O.n : 2 1 2 2 n q.N.1.O.n C < : : : , , , , , , 9 2 5 8 9 y a 9 : , , : 1 1 1 1 1 1 6 w e w 1 : 8 8 8 8 6 , * : 1 : <.y.y.-.@.@.-.5.*.1.y.O.e e e e v O.*.q.r.O.@.' 9 2 w w e e 2 ",
"G 1 : : : w 9 , 1 : : * * * * ; : : : : : : : ; & & : * & : ; # # # ; : 2 e G R p 9 w 1 1 1 1 1 * # # @ : @ : , 2 9 1 2 2 w w 6 a l l X.9 a a.6.6...2 w R e 1 * : C -.s.q.5.y.a.a.-.2 , 8 9 e , 2 8 w 9 a a l y a y w 2 , : & : , # ; - : 2 : 6 9 z l e z g.:.k R a 9 l ] 9 2 2 9 9 w # : + # : : 2 : : 1 : 2 4 ' @.1.<.1.5.u.t.y.<.<.F j >.| +.w 6 : 1 9 : R { -.O.F L C 5 : * , : : , : 1 8 9 : : : : : 2 a l a 9 G G G G 9 2 9 6 9 2 9 9 u : : w 9 2 , * : 1 : *.1.q.1.-.1.1.>.y.@.q.@.O.U U / ' @.q.y.O.O.' 1 : , 9 < e a G ",
"^ l 1 , < < , , 2 : : * * : : : * * * % & & & # @ # * & : & : # : & * : 1 y a e 9 2 1 1 1 1 , * * & 1 * : * , w e l ..e y l a l z ] 9 9 l 9 G | 6 } 1 9 l l y 1 C ' 5.q.q.5.q.q.d.l.-.5 e n a e , 8 9 8 2 < , 1 1 < , : : & & # & : & : : : : 2 9 6 9 l 3.6.| ^ a 9 e 6 1 : 8 = @ * 2 1 @ * @ , : : , 1 2 < : 5 4 O.-.<.1.y.1.1.' x v F O.) G y 2 9 = : , : n F / +.F L G : : * * : : 2 1 2 : : 2 w w 2 : : 1 8 8 9 8 8 < < < < < < : : a 9 e a 1 : * 8 , * * 2 < : < <.y.y.q.1.q.y.@.5.-.' T / ' O.q.r.<.O.@.O.2 , 2 1 < < a l ",
"G a w < < 2 8 6 : : : : 1 1 1 : , : ; * & # # @ & @ + + + + @ & & * , : , a 9 w : * * , , , * : : @ # 2 : , 2 w G w a 1 9 a a z l a } l e h.n.| 6.9 a 1 a l e 1 u a -.s.t.s.1.g.N.d.l.5.1.r.q.n e , 1 1 8 < 8 , < 8 2 < : : - * & & & & # & ; : 1 2 e a , G X.| ~ t e 9 1 , 1 , 9 * : * = + # + 1 : , : 1 1 2 : < < e +.9 5 5 e n e e r ,.^ 8 9 1 2 2 9 , : G n e e K 8 2 * 1 * , : , : , 9 e l / U ! C w : : : : : * , 2 w 2 , 9 9 9 a O.{ 9 G w 8 * 9 1 : : * & ; < n 1.1.<.1.{ 1.@.<.-.' O.@.-.q.1.' O.@.-.' 2 2 : 1 9 : 1 w ",
"2 C 2 1 e e 9 e w 2 8 1 < , 1 1 , : : : ; * * * * * * * * + + * # : 1 9 2 l 1 , , 1 , 6 , , 1 1 & a : , : 1 8 9 8 2 9 2 9 , , 1 * e e X.:.9 R e 2 8 1 2 G e 1 : n n *.a.q.q.q.q.M.j.a.r.a.a.l.a.<.{ L / q.l.a.a.y.y.-.@.5.O.e : & # # & : : { C a l l ^ l 1 G 2 7 9 9 6 9 , @ 9 , & , & 5 : o @ * 1 : < : < 2 < : < < 2 < y y 9 e e ' +.R | } R e 8 w w 9 1 e 9 9 8 8 2 , : , , , , < 2 a R { -.1.@.O.' l y l R ^ ^ ) ~ R { W C C *.q.B.B.M.s.F 9 2 1 9 6 : : & * & # : < { 5.C : < q.O.-.-.-.O.O.*.@.-.-.-.-.-.< 6 : , 8 1 , , ",
"1 2 2 2 2 1 y 6 9 9 , , : 2 : : : : , : ; ; : ; : : & * : * + @ * ; * 2 a 2 : # * , # @ @ # + # : 2 & & 9 8 6 2 2 1 9 9 e y w e e , y y e a y 9 9 8 w 2 l , : F O.! -.a.r.y.r.r.s.q.*.>.*.O.y.y.u.r.a.d.a.y.r.u.a.d.d.a.u.y.-.5 & & ; F ! ' -.-.5.,.l ..^ >.l 8 2 t 1 w 8 2 = = = * 1 5 1 < + # + 1 * : : , 1 8 < < < < 2 * , * & w C G W } | | n C w 6 2 9 : : : * * : * , * = * < : e @.u.q.-.1.t.y.@.) ) { | ,.-.$.$.>.q.a.y.q.N.l.-.<.-.s.x.q.: < : * : : * & # # & 1 : { L : 2 n q.-.-.5.5.q.1.1.-.-.-.L 8 < 2 * 2 2 , 9 2 ",
", 1 1 2 1 < 9 a < : 1 : 2 2 2 8 : : ; # * & ; ; * ; ; ; # : * @ @ # , w : e y 9 , : : 2 # @ @ 6 9 1 * : 8 , 1 1 2 9 a { | e R j R ..2 1 w 6 9 9 w w e e w < a -.-.-.1.a.q.5.g.B.q.,.>.j e O.v O.O.O.O.O.O.@.@.*.-.y.y.y.u.r.@.e : 5 T O.O.@.-.q.t.1.) } >.>.$.} } z y 8 2 < < 8 : 1 { *.*.' 1 o & # , , , , 1 w : < : : * = + 2 , 6 , * 2 e W C G | 9 1 6 6 9 8 , = , 9 2 * 2 2 < 2 1 O.1.O.v F O.<.q.t.-.-.1.5.q.q.5.r.g.x.B.B.V.q.O.O.' F B q.B.-.O.8 , : , : & # # & : : -.! 9 1 : +.q.q.q.1.1.<.>.! u e < < : 1 : : 2 : w l ",
", 1 1 , 2 < < l : 2 2 1 1 < 1 < 8 w y j * * & # # # # # ; # : , 1 9 9 : C l , * 6 9 : : 1 2 1 : : 2 * w 1 : 1 8 8 R B e B ' >.R j a 8.g.R 8 9 ;.l z 9 : 9 U { -.r.-.q.a.d.q.*.q.| C e e 9 8 8 2 v 8 n n L n n L O.' @.@.<.y.q.O.B O.1.q.y.q.q.5.s.d.,.>.g.7.s.>.| l l C L L e : 8 e -.-.d.O.: : + * + + X : 1 8 5 < a 1 + + 2 @ + 2 # & 1 , : C R 9 ~ & 9 9 6 1 1 9 6 2 , 1 9 1 2 2 9 y.@.e w 9 e O.-.-.r.a.a.t.d.t.l.c.j.t.q.1.o.' e e e e e n U M.d.-.v 5 @ 1 * # # # & : ) +.: : : 8 q.<.5.1.' j < ; ; ; ; ; : : : 1 < 9 9 l ",
"l 1 : : < 1 < 2 , : 1 < 1 1 1 1 < 5 : : e : # & # # # # # # & * : 6 l R a 1 8 2 1 < 2 9 , 8 6 9 9 w 9 8 & : j e T q e x O.B U +.>.L B.C.2 9 6.R w 1 C ) -.q.5.-.j B -.d.d.j.s.>.{ e e e 9 8 5 8 8 8 8 8 8 8 5 2 9 : ; j *.-.-.y.q.y.q.q.q.y.,.w >.y.N.d.N.b.d.7.5.@.>.$.{ { ' ' -.-.a.O.v a.q.q < + : + X @ , 1 8 # # , * 9 : : @ 9 2 6 , * # 1 * 9 # e 9 1 & , t , e 2 w 8 L 9 8 n O.q.@.8 j q j e O.@.<.1.r.d.l.l.x.q.q.-.@.O.r q 8 8 < 9 9 5 e ' *.1.d.u.2 : ; * & # # : : : : < 1 : F n n 8 ; 2 1 2 2 < 2 2 1 : : 1 , w w a ",
"8 l } ^ 9 , < : w 1 1 , 1 1 < < , 1 < : : 9 9 : : : @ @ # * * : 2 8 w R G C e 1 1 2 : : : , 2 : 1 < , 8 8 e O.e { e e e n ' F ' B @.e.h.G.6.a.$.*.+.q.5.r.r.t.<.e U ' 1.u.l.j.r.,.e 9 9 5 8 9 9 8 9 5 2 e 9 5 5 < < : ; F @.-.L ' ' +.{ ) 1 > < 1 w >.a.a.a.d.y.-.a.a.y.q.q.a.' -.' 9 j e 8 ' q.F 5 + * + X + X & @ 2 = + 1 2 : @ @ @ # * 1 6 e 6 , a t 9 : 1 9 e : < a w ) O.L ' q.<.-./ w 5 8 9 8 e O.-.-.5.1.5.q.-.-.*.' U e j 2 : < < < < 5 9 e O.' @.@.t.0 8 & * * , 1 : < ; 1 8 1 5 : : < # : : & * # , 1 # : : 1 , 2 e e ",
"8 2 e j G a e e : < 1 e F n e q 9 e : 1 ; : : - 2 < , 1 : : 1 8 w a e l 9 2 1 1 2 : < ) a L e { v n L O.v e e q 5 < < e e e e F F B q.3.| R B.*.q.d.5.r.O.-.r.r.u.q.O.@.y.z.a.p.6.9 5 5 2 < < 0 j C y 9 8 2 2 2 8 2 1 ; j n j 9 - : < 2 8 e ~ C e e a 5 2 $.} #.^ w < < : < < < y a 9 : j : 8 @.u.U 5 1 : , X 9 , 6 2 X X + 9 9 * * = 2 9 = @ @ # + @ # # = 9 9 1 l y a O.1.5.5.q.5.<.O.F e 4 5 5 q 8 q O.@.@.@.*.-.O.T F j e e 5 > < 2 5 q 0 9 e e n n ! ' 1.B 2 * * * 9 8 2 * # & : : : , 2 : : : : & ; : : & * : , < 8 e 6 w ",
"0 5 2 w , < : : 1 1 e F L F ' ' | O.j : : : - : * 2 : : ; : < 5 a w R G a j 8 8 2 ) L e v n e e e e j ) ' x q < 2 : 2 : : 2 < e F L *.p.b.q.>.1.@.1.*.L { q.y.r.a.<.F j 1.u.q.O.9 5 2 n 8 L w 8 5 : : : : : 1 2 9 5 < : - & ; : C 9 2 1 2 1 < 1 : : L n 5 9 5 1 a 2 2 1 2 e e 2 : : e 9 8 5 1 4 C y.O.< 8 j 2 1 X o X X 2 + 9 # : 9 9 * * * 2 9 9 e e 1 1 : 1 e C 2 C +.>.y.y.y.1.<.<.O./ 8 8 5 5 5 e 8 e F U U / v e 9 e e 9 e 2 < < 8 B F n ) ! x e n e O.*.5 1 : * * ; 9 1 & & # # & * : 1 : : , , : ; : : : : : < 1 9 9 2 9 ",
"e 8 8 , 1 < 1 1 2 8 ! / ' { O.U { { { q : < < - : * & ; 2 2 5 a w C R j j w C G e @.-.O.L L O.' ' { ) B q < < 8 : ; 8 2 < : : j L / -.r.p.>.q.-.O.O.>.) { y.r.1.@.e 9 2 e x.d.*.9 5 2 2 5 4 1 : 1 2 2 2 1 : < 1 2 < e < 4 4 q w < ; 1 8 w 9 ) ^ R ) e C R a e 1 2 8 u C e e u x e 9 9 8 8 e 5 < 4 q l.n < 4 y C a : , : = 9 6 , : : * * * : : * & * * 2 l e w a w L O.q.q.1.1.<.-.<.<.-.O.e e 5 5 5 8 e 8 9 e e 8 9 e e e e e 8 4 < 4 8 L C e e e e ' e e L *.q 1 : * * : * * & & # # # # # * : < , , , , , , , < 2 y w 8 2 2 9 ",
"w 1 1 , < , , 8 5 F L B B F F ) ) ! ' ! e < ; < - : : : < 2 8 5 a p | n ,.{ @.F n n L u a *.' B x r q 4 < : + + @ @ @ @ , : ; 2 F U +.h.5.q.O.' >.{ { *.{ @.5.t.v j e < 8 l.d.! 8 j G 5 4 8 : 8 1 2 2 1 2 8 8 : ; : 2 < & : : < w < : : 2 2 2 : : : 1 8 2 1 < 2 9 2 2 < n 2 5 2 9 w 5 8 8 e 2 F e v s.x.q.F v e 4 C G 9 G 2 < < , : # & , < < , < , 2 ~ G a a a a O.1.q.1.<.-.-.-.-.<.-.O.8 q 5 8 8 5 0 e e 9 e e e 8 9 9 9 e q 4 2 5 e U C w 9 e a a ' v ! O.B 2 : : : * * & & # # # # # & : 1 : 1 : 1 : e ; : : & & * ; y e R ",
": : y R ~ < < 9 B F B q.q.q.q.q.5.q.B L n n e : : ; ; : 4 1 2 8 w } >.! / O.*.*.-.-.>.>.7.*.B O.q 5 e , # 6 e e 8 9 5 G @ : : : 9 F -.q.q.*.| ) ) ) { O.L / *.q.1.x j 9 q l.-.n 5 p a y w 2 : 1 1 : 1 : 1 1 2 2 : & ; & : 1 8 < : < < : & > : 5 e q 5 5 j a R +.| / | 2 2 2 4 2 4 F n e e q 2 u j e B.q.N.' ' ' ' > 2 0 j 0 R 2 , < < 2 2 5 2 2 2 e R 1 e n n ' O.5.-.1.5.1.-.*.@.@.@.O.! 8 5 9 9 e 8 5 8 8 9 9 8 e j j u e 9 9 q q F F C C 9 : 9 < l j v F +.e : 1 , w * : * & & & * ; ; : : < : * < : 1 & < 2 2 : , , , & : : ",
"1 e e 8 w w 0 n U y.y.q.q.-.q.q.q.r.-.v F e e r 2 : : 2 e v R ) { O.e ) ,.*.O.O.O.' *.{ >.! r e , , # l y C 5 8 q q 5 < ..# : < C O.@.q.-.+.{ ! R { @.5.O.) | 7.s.a.{ e U z.F 8 8 L 1 8 2 1 : , 1 < 2 1 : : : 8 < : < : 1 : # & < U F x n ! ! ! L ! ) *.,.*.' ' F L F u 5 e n 2 e 9 q j e 8 < u j q e -.+.N.O.x.' F ' e e v j 2 2 2 5 8 R R y R ! 8 8 v -.O.y.d.1.5.5.-./ e 5 5 q F 8 8 e 5 8 q e u e 9 e e q e e e 9 9 e e e e v j 9 e w 8 2 , : 2 , q U F @.t.-.< , 2 1 : : ; i G y a : , < 2 : ; 1 : 2 5 5 5 8 9 8 2 2 1 2 2 ",
"2 2 2 w 9 v v v q.2 * * , 1 5 e 9 >.q.-.e q e e 0 e e q 8 n n u p | *.@.-.O.O.{ 2 F n v j e < 2 * G l y 8 v v K U B x e 5 R < e ' *.5.-.-.' ' | ) { O.r.O.) { { q.a.q.1.a.l.,.8 9 p 5 w < , : 2 1 , , , : 1 w < # : : : : 4 q K ' ' { ' ! ' ' 5.6.,.@.*.>.O.v n n B F u 8 e v 8 F e e e e 5 n 9 n C e e q.d.d.r.a.y.u.o.q.a.q.F 2 G p 2 9 5 e 5 4 e j 1.-.a.-.O.' U ' O.e / e e e j 9 5 q 9 8 e 8 8 8 8 4 8 8 8 0 0 e n x n x e 8 8 & # : : , : y e ; G q.n +.r.t.' < # * 2 6 @ * @ @ 1 2 1 : 8 1 2 : : 2 9 q 8 q e ) e 5 5 e 5 ",
"e n e e r n ' q.@.& @ # & & ; : : : *.q.q.O.O.O.O.U e r v j C { +.O.*.7.@.1 1 1 , * ; : & * * * a e 8 C e B ' O.<.1.' n 0 C : 9 O.-.q.-.' ' ) L / ) +.O.O.{ / 5.q.a.O.q.l.a.5.e 5 5 8 2 8 1 1 : < : 1 8 : , w 8 2 # # : v / U e 5 8 0 q +.' ' 7.>.-.+.+./ @.{ F v n F j 2 2 5 e e 8 e e e e < n w e n e s.l.d.O.l.u.y.-.O.o.o.y.O.U e v v e e n v U *.O.d.q.' U F C e { C e n e e q e 5 < e e e e 9 8 8 8 q v B v v j e e e w 5 ; - 5 8 : & 8 1 : * * : x e { @.a.1.-.e < : 2 8 < e e 9 2 2 < : 2 1 8 < 2 e F F { e | ,.e e u j ",
"u U F n F <.q.+.2 * : : # & * * : * : : e { *.1.1.q.O.O.' T ' >.q.1.5.-.1 , , 1 2 6 1 2 1 e a y 9 r F F T +.<.q.a.a.r.2.e 0 : 9 O.@.5.+.{ ' { U ) ) L { O.) R q.t.q.-.q.a.d.@.F 5 8 9 5 5 1 2 : 8 1 1 1 : # # * : ; # 1 q U ' 5 ' q q 9 >.>.B e e U +.{ / ) { ' u F L 9 2 5 8 8 8 e e e e e 9 C e 9 n e O.l.o.-.-.1.v e e q r F r.-.' ' O.O.{ O.' o.@.a.<.' F C C q q L L L w 9 e w w j j L U L L n B F n j 8 v e 8 5 2 2 2 1 : 1 9 1 a a y 2 & , , : , *.v n ' s.t.a.a.1.j.g.7.-.O.O.{ O.U n 9 : 1 , < 8 x ' r n n v e n v ' ) ",
"F v n n @.q.@.8 * * 1 1 : * * * = ; & * * = : G ; ; R q.q.1.1.t.n n 2 9 , y w 8 w e e e p 9 ! n ' o.O.@.O.<.q.<.-.<.r.q.O.v 2 2 F / U { { ! ) ! ' ,.1.5.q.U n ! r.t.a.<.d.l.d.O.2 8 8 8 5 5 2 8 1 8 : : : 8 1 : : : 2 & : e { q B q *.+.O.U x ' { ) x { { R / ' ! v L 5 2 5 8 9 e v e q e q C 9 e n W e e e { *.e q L q ) ) q B y.O.@.O.' O.-.q.a.a.q.@.n n L q e L e 9 8 a n ! n j q 9 q e 0 9 e 0 5 8 5 8 5 8 5 2 < 1 < : : 8 2 & # * * & : w y l : : 8 F F { ' -.r.-.-.*.>.q.*.O./ ' ' F / e q 9 5 5 8 q j B x x r e U O./ +.",
"F F n -.1.q.+.: * , 2 < 1 1 , : : : 1 : 6 & # : : = & G ' @.-.e 1 : , e w F *.*.{ *.F F U ' @.-.O.1.-.-.q.q.y.t.y.y.d.<.U v 9 , < L F L { F ! ' ' { s.r.t.q.5.q.t.t.s.-.q.d.e.*.8 9 5 2 5 2 2 4 e w : < * ; 8 q ; : : 1 9 1 < ' +.*.' >.{ x e +.+.v L j ' { ) / F v e 2 4 5 8 2 n e q e e e q j 5 n e e L 9 j j n n ! ) ) j n -.q.-.q.d.l.d.y.-.T F B e e q L n u 9 R j F ) u C 5 8 2 2 < < , : : : : , < < 1 < 1 2 : 1 2 2 < * # ; 1 8 2 w w 5 q C : 2 e 1.F U L { O.-.,.U O.) O.O.@.d.*.U F r e v F e e e e n x v v e U ! j / ",
"' F @.q.q.q.2 * * 1 8 5 8 8 1 1 , : * 2 ; * : @ @ @ , * * : : , 1 8 e ' ' O.*.5.r.q.>.-.-.1.5.5.q.q.5.u.y.q.O.1.1.q.y.q.v F y : a e n e e ) ! ' { / 1.s.q.5.u.r.t.t.r.y.1.a.l.+.O.8 5 5 9 L n e e < : : : ; ; ; ; & 0 C C : a i 4 < 1 ! U F @./ B | U v v / L U n e C 2 5 e u e e 2 5 < < 2 v e 9 n L e e j e q 5 R e e ) j e ' q.a.y.@.' B v q q | | } 8 q 2 9 a n e j e w w 9 8 8 2 < < < : : : 1 < : , : 1 < ; & ; : : , : : 2 2 5 4 8 5 n F 9 p ; : 1 8 ' L x L L ! L e.r.' @.<.q...-.u.O.-.O.U T v B e e v F U x e { n -.*.",
"*.u O.1.-.1.: & * , 9 8 w 9 8 2 1 1 1 : 2 9 9 : * # * # * = : 2 j ' O.O.o.O.O.-.5.q.q.t.s.t.y.x.d.a.r.y.O.n e O.q.r.a.a.1.x n w < 2 9 w C ) ) ' } a / *.q.y.s.q.r.y.q.1.1.q.a.g.>.! 8 5 O.y.-.@.@.-.q.+.e U v - ; ; ; - : a : 5 2 2 R : 9 9 C ^ F ;.F L j v v x v C j 9 5 n C 5 4 < 2 8 < 5 j j u 9 ! W e e j e C n n e n e e e O.q.<.e 8 j +.0 < < < 2 ^ n q e 2 8 9 w 9 2 , : : : : * * ; : * : : & & & : : & : : , 1 , : , 8 q n B n F n F n r 8 w 1 1 l 2 8 >.O.@.,.>.e.s.e.5.q.,.l $.,.*.-.y.*.O.n x e e F F r v v e e e O.",
"n F O.q.1.5 # * 1 e w 9 9 9 e e e 9 e 9 w e e 8 < & ; < 1 5 9 ' o.O.O.o.' T o.-.r.a.t.B.M.M.l.y.1.q.1./ < : : 1 / q.y.a.y.F e p , 2 9 8 e | ) ! } R a { 5.1.t.y.s.q.q.q.q.t.a.a.a.5.O.O.q.u.y.y.r.d.l.q.O.U 8 ; e - ; < v C 2 < 2 2 : | 8 : : < < 2 n U F L F F j n e 9 8 n 8 n e 2 < e 0 e 9 j e e ! { F e 9 C n 8 n ' n n e L q O.v R ) 4 ~ p 8 5 8 4 2 8 8 9 e 2 < 2 1 2 2 2 6 2 2 , : * & & # & : , : & ; : : , : ; : 1 5 0 ' ' U U K e n e e q 5 & 1 1 1 w 9 2 2 e ' s.g.5.q.1.5.,.< 2 : 9 d.O.F x r n U e v T U U / / x e ",
"e L O.q.q.! * 1 w e e e e e e e e e e e 8 v n e 8 5 8 v F ' U @.5.5.O.O.F U O.1.q.l.B.M.d.d.a.O.j u j 1 ; & : 2 < O.5.a.y.+.x n a : y w q e ) n ~ a a G a ) ) +.q.d.t.a.s.s.r.s.a.a.M.j.d.u.u.y.l.a.x.r.>.' e j n F : < 0 1 2 2 : 1 < 1 2 l 2 1 : 8 n ! n R F F n U e u e x F ' 5 < j a 2 9 L 5 e e 5 e e | e j n C e / j n n 4 5 C q C 8 e : 2 8 9 e w 5 9 5 : < 1 9 ^ R R R L L L L p w 9 , : < 8 9 e < : : : : : : 5 5 e v ' O.O./ U U L F F 9 5 8 w : 9 8 & e w y a 8 F O.~ *.7.| : 3 9 1 * y.K F n B L ' B U *.*.5.-.5./ n ",
"/ O.-.y.2.2 & 1 e e y e C { ' / ! C n n F O.O.O./ U ' @.-.@.@.-.-.@.O.B B ! O.5.y.j.B.l.l.a.-.L 5 l 2 & # @ : 2 w -.5.>.1.d.>.n x 2 9 e a e n { j w 9 p >.L C j { *.5.-.1.5.q.y.q.q.y.b.b.j.t.a.l.u.a.l.u.q.@.@.-.*.e > C 1 9 L < 2 1 < 1 8 R < 2 | L L g.e.| F F u e n / F F e 2 u e 8 j 9 < n 9 5 5 q e C e e C n n j 5 e L 8 q j e j < 2 0 9 5 & : : & ; 1 C C / ' O.@.@.@.*.-.-.-.' R L a 8 n F F F n e 9 2 : : 1 q 0 F { O.O.{ ' ! ' ! / K 0 8 5 5 2 4 2 : * e y a 9 e e a 8 : : 2 9 * 1 1 a.O.F ! F U B O.@.O.q.-.<.*.-.' ",
"1.@.q.2.9 # * 6 2 e y y e ) { ' ' O.O.@.' O.O.O.@.@.-.1.q.1.q.1.O.' ' F O.U O.1.1.c.B.a.5.>.*.y G 2 1 : # # & : 1 R F F q n a.q.u R 1 9 , 9 < C e 8 a e e 9 ;.C G | O.+./ R @.O.*.+.*.5.q.s.j.l.d.l.l.d.f.a.a.1.q.-.; < j a w w , 5 1 < < 8 a < : : : 5 6.3.| L C x F j L e e 5 8 9 5 8 5 < p 2 4 C 5 n e L 9 n e q e e q 5 q < < y q 2 j e : < < G +.) G 1 G ) ! @.@.@.-.-.q.5.y.q.q.-.O.' U U O.O.@.O.' ' O.e 8 < 5 v F ' O.' U ' ' ' / -.-.-.x r q 8 5 4 2 , , 2 w l a l e 6 , 1 9 6 : 9 2 : $.q.O.*.-.-.U ' 1.1.y.1.@.-.@.1.",
"O.r.y.e @ # * 1 w 2 9 j e n O.O.O.' o.O.@.<.<.-.-.1.a.x.N.x.d.1.@.O.@.O.' ' @.-.1.c.N.,.e R a 9 1 1 2 , * * & 1 , * w 2 , : ' y.L } & 8 ; 9 9 2 5 ^ } 8 :.C ..} C e C { ' { / L L / ! O.s.B.q.1.q.M.N.l.r.y.y.q.-.+.: < : , 1 : R } 2 < 8 2 | 1 < : 2 < e F L F h.) R a e r j 8 4 n 9 2 2 e 9 5 e 2 B n e n F e C e e 9 9 p C 8 : 5 5 ; : a 9 >.K K O.-.-.U o.-.5.q.q.y.y.y.y.y.y.y.q.q.-.<.-.1.q.q.<.q.-.O.O.o.q q e / ' ' F K U F U U O.y.q.5.<.O.O.x e 5 2 : , 2 < 5 9 | 6 8 1 2 2 , 1 C * 6 +.q.' O.O.O.O.O.<.d.y.2.@.@.-.*.",
"a.l.e > @ # * : 9 1 1 y e ' ' ' o.O.<.q.y.q.q.1.1.l.N.t.y.r.d.a.5.O.' ' @.' 1.1.q.B.s.R ^ 2 , 2 e , 1 6 : * # * : e , , : ; q r.r.e w ; 1 8 9 2 8 a 5 , 1 z G ..| | C L j R ) ' ) ! / +.3.,.! 5.-.) +.-.@.O.@.+.n ; < p & & & 2 } | | < 1 } 1 : : : w 2 : | ) 6.7.R v ! x v n 9 2 4 v e e e 9 } 8 j 9 9 j a n 8 8 2 e w e 9 9 e : 1 ) *.K O.O.O.1.q.q.q.q.1.1.1.q.q.q.q.q.q.y.y.y.q.1.q.q.1.-.@.O.O.@.O.-.1.O.O.' ' o.{ / U -.O.' O.q.1.y.1.-.-.1.<.@.U x 4 1 1 8 e n n y l a 2 n L L R L ! : = q.5.<.q.O.-.-.-.q.N.j.q.-.-.@.5.",
"O.F r ; # # * : 1 1 6 e O.' O.O.O.-.d.l.d.l.c.x.c.z.r.q.5.5.q.t.z.5.-.<.1.1.5.B.B.g.5.~ R 2 2 8 2 1 9 6 9 6 & & * * 1 : : ; ; B y.q.! 1 < { L 9 9 e O.L w $.6.G a.w C ;.0.C a C a j e n C ) ) C n C j 5 5 e 5 < < 2 < e & < y l 8 < 2 : 2 , : , 8 G n L y ..+.) ! F U U e j n 8 < < < < < 8 B e C { F u R C j < a 8 9 8 2 < ; 9 K U K o.q.q.q.u.a.5.1.q.q.y.q.q.q.q.q.1.1.1.q.q.1.1.1.<.-.-.@.@.@.O.+.@.O.-.O.O.O.O.O.O.1.q.q.q.y.d.d.r.r.-.-.-.<.1.O.O.n 8 4 2 8 e +.O.C 8 ..C n O.{ L U ) * : q.y.q.-.5.1.1.q.c.d.j.l.a.a.y.d.",
"< - : # @ @ # 1 8 9 w ! ' O.a.q.q.y.j.x.d.y.r.y.r.q.5.+.$.+.-.>.r.N.M.B.B.N.d.j.g.5.C a 1 9 R y 8 1 8 1 6 9 < j 8 ; # & : ; : 0 K q.5.9 | | O.{ : 1 ) F : 2 9 } R a >.8 p.>.C C p n C n j j j e j e 5 5 9 8 2 2 < 2 2 9 ; : w w e < < < 5 < 5 e +.O.' ' ) v n L L n e e e u 0 x F L F U q U -.r.U v e G G G F ' L F ; 8 2 : U T O.K ! @.q.y.2.-.2.1.<.<.-.-.-.-.q.q.1.-.<.<.1.1.1.-.-.-.@.O.O.O.O.O.O.O.O.<.1.5.q.q.q.2.-.@.-.-.-.-.-.5.-.@.@.-.-.1.1.-.O.q 4 8 e O.O.+.+.C G ) U O.{ ) L C , : q.a.l.q.q.l.j.y.q.5.q.y.-.*.' e ",
": : & @ & 1 2 8 F e n ' O.1.j.d.a.q.q.q.>.+.+.*.$.$...C a l C C *.,.,.-.r.O.) >.*.R ..6 :.| e 1 l 2 9 e 9 9 e / { ! ' ; & * ; * & 4 q.*.| ) e e ' @.: 1 : 1 e g.| $.} e.9 >.8 $.0.,.} ) L G j ;.b.g.3.;.j 2 8 8 9 e 8 : & 2 e 2 2 >.F x -./ / L L { L e e e j x n n L n n j v F U U F @.T @.l.d.l.l.' O.-.' O.1.1.1.' U F / ' ' @.O.q.2.u.2.O.@.<.<.<.-.-.@.@.-.<.-.-.-.<.<.-.-.-.-.@.@.O.O.O.o.o.o.O.O.O.O.O.O.O.@.@.@.@.*.O.O.-.1.@.@.r.<.-.-.-.q.q.<.-.O.5 q e O.O.+.+.{ 5.-.@.@.O.L R C : 1 7.q.y.d.d.y.O.3.>.7.7.-.e , : : ",
"& 2 @ + : < < U o.' o.O.1.c.@.O.O.O.O.-.{ ~ l a C G a C C G G C ) +.L | } ^ ^ } | ..8 y 6 1 1 ^ ^ a y 8 e n U ' O.*.1.< * , # @ @ & e q.q.y.y.@.+.3.O.< @.' 5 e 8 : < w 2 e ..2 l h.) ..0.g.y 2 < 1 2 < < 2 2 1 2 1 : & e : : < F +./ *.,.! W 1.5.*.U ) ) ) U L F F L j F L ) / U u.c.c.y.l.D.B.Z.Z.j.l.l.N.a.d.N.q.a.y.l.y.<.U o.1.a.d.a.q.-.-.@.O.-.@.O.O.O.-.-.-.-.-.<.<.<.1.1.-.O.O.O.O.O.' ' ' ' ' T ' O.O.O.@.@.@.o./ { O.O.O.' / O.-.*.q.1.-.r.1.q.' e q e ' O.O.*.5.t.q.-.O.O.L L 1 , 9 : ..O.q.y.q.O.>.,.#.$.) 8 : : * ",
"a : < < 1 4 F o.o.O.-.-.N.<.O.e e e e e y C e e a G l y e e y C G l a C a G R w e 9 | ..: : : 6 w a a a 6 e U B F U @.: & : # * & * # @ * 2 2 n n a.g.g.B.v O.O./ v O.5 1 2 1 1 9 2 } R j 6 < 1 e 8 1 1 : : : : : ; 5 : & L { +.j N.M.a./ -.B.B.B.q.,.q.g.| b.h.s.y.-.{ { j v T N.V.Z.c.j.B.5.e e *.B.@.U F *.y.' ' *.@.y.1.u.d.a.d.a.q.q.q.O.q.-.@.@.O.O.O.O.@.O.@.-.-.-.-.1.1.-.@.O.O.O.O.' O.O.O.o.' ' ' ' U ! T / / / ' @.-.q.O.5.q./ O.@.-.-.*.@.7.<.-.' ' / O.O.O.1.-.1.q.1.@.U L ! w : 2 2 : R ..6.e...| } 9 w u 2 : * # ",
"a 1 2 < 2 n ' ' O.u.O.-.l.q./ 8 8 w w w y y e w w a a e y a e a a l G p l C C y w w ..2 1 1 1 2 8 8 5 6 9 L B v U U >.: : * # @ * & * : = , : 2 1 F l.j.d.B.e v ' v.g.v F < 1 , < G R 9 | 9 y a w 2 2 < 2 2 1 : , 1 # q ! e j d.D.l.B.Z.B.x.Z.Z.A.c.B.B.d.l.l.N.N.N.B.l.t.1.c.B.F.>.+.-.u.e e p j n { n j e e e e x n j x 1.y.a.1.q.-.-.1.q.1.@.-.@.-.@.-.@.@.@.@.@.@.*.*.-.-.-.-.@.O.O.O.O.O.' o.O.O.o.o.O.' ' ' ' ' o.' O.' ' ' -.! / >.O./ ' +.{ O.-.q.q.@.@.<.<.1.q.>.5.q.-.1.@.! L L R 1 2 2 : , : ^ 8 : : : : , : * # # 6 ",
"e < e 9 F n ' -.q.y.-.@.N.O.e 9 9 9 8 1 6 : 2 9 w : : : : 1 9 a l l y R l a G a z ^ 8 * 9 e 1 2 } ) R n R { F O.' / 5.8 , & # * : q 8 & 9 & : : & 2 F v M.*.L b.n -.5.! n 3.F ' , 2 | ] 1 , : * * : 1 1 2 1 , , 1 # 5 T 5 l.d.V.2 9 R p u.B.5.O.y { B.A.D.N.V.A.D.F.K.B.N.N.Z.K.B.e 8 +.q L G a y y 9 9 8 9 2 2 2 0 8 w q v { ' l.y.-.-.q.q.q.q.q.1.-.-.q.d.r.q.q.<.@.-.-.>.-.@.@.@.@.O.O.O.O.O.o.O.O.' o.' U ' ' ' ' ' ' ' { O.' O.{ O.U / ' @.*.O.{ O.+.r.q.q.-.-.5.-.5.5.5.r.-.O./ O.O.! C < 2 2 , 1 2 1 6 2 2 1 1 1 6 9 9 9 ",
"2 9 q 2 8 U -.d.r.l.y.u.O.8 8 w : : , * 8 w 9 w 9 9 9 w w , , 6 a a l a C a l a 6 # * * : ^ } 9 G 9 | } C *.' U ) F >.*.: ; : n ' ' o.O.! 9 * e & G , 2 l.y.l.-.u./ 1.a.l.a.5.>.U 2 9 6 2 , e w : * : , : : : : 1 8 U 5 y.u.q.< w 8 * : 5 j R e : 1 C 8 e F F n 9 9 { @.O.a +.n e ) 9 } ) R C p e 6 2 1 1 9 9 8 2 2 2 < 1 y e G ' d.-.@.q.d.a.u.q.q.@.-.g.q.q.q.q.q.q.q.5.5.1.1.-.-.-.@.@.O.O.O.o.U v e 0 e K ! / ' / / ' O.' U } +.>.$.! F F U ' @.@.O.O.O.*.-.-.5.7.7.7.7.5.1.@.5.@.O.O.U L ! C , , 9 9 6 2 9 9 2 * * 7 9 9 e ",
"1 C B q B ' c.N.a.N.y.-.9 9 9 * : : 8 9 9 a C n e e w 9 9 9 2 : 1 1 : 1 l G 9 * 1 1 < R y ;./ *.e | ) C j ' v 8 e -.U @.: : < ' v B U ' x U / j & 9 1 y F ! G & C 2 C C 5.B j.L B U 8 0 5 < < < < 9 9 9 e e e q e U T 2.j.-.< 1 * 1 1 1 6 1 : , 9 9 1 & # : 1 8 w 1 e j 9 2 / F C n | y l l C y w e , w j a L 9 ) { { 8 2 < < w ) d.q.q.d.u.a.d.a.q.-.1.s.-.@.1.1.*.O.-.1.<.@.O.O.O.O.O.O.' O.U x 8 4 < < < 4 0 e n U / ' B n F ..^ ^ R C ) L e n U O.@.-.@.O.O.5.>.5.7.7.q.7.<.q.-.-.@.O.' L ) ! C 1 : 1 : 1 1 : * : , : & * 1 ",
"5 5 ' ' ' y.c.1.c.y.9 < 9 w = 1 2 9 8 e C x j x n e e w e w 8 9 w w 8 : : , * L : * ; ^ y ,.e.7.7.>.>.*.+.' ; : : e 1.O.O.O.U F ' F 4 4 4 O.O.O.' O.6., * : : h.8 ; & : 1 7.l.d.n R ' ' ' F L U B U / { ' ' ' o.O.' 8 y.F < # 2 C { ! ) +.) 2 w w 9 R y y : : : ; * : : , G 2 y a y R e : ; 1 y e p 2 2 G w C { O.O.-.! < 2 5 < e a.q.q.d.u.a.d.d.q.@.1.q.' O./ ' O.{ ' ' ' ' U F F F F x v n e 5 < : : : : , < > < 5 q e e C R G e 9 y l G w e e e x U <.*.@.-.-.*.5.7.5.q.-.1.-.-.1.*.O.O.O.O.*.! L / R n e e e < < : ; : : : ",
"2 ! ' q.l.l.<.1.n 9 w 9 w : ; 8 9 9 e F e e e e e e n n F u w w e a a 9 w : y G R < a R 5 7.3.*.-.-.+.{ / 4 ; ; , 2 +.-.>.' K ' ' q < : ; 4 v ' U @.>.: ] 4.} 9 ~ | 9 , e a B l.d.L 0.$.F K F F B n x e e j C e a e -.B.: * U n e 9 q 8 9 e n { W j 8 q 5 e u 5 e n v 2 < 2 2 1 , : 2 w : ; : : a : R R R ~ | @.! C n n { F : , 1 ' a.2.q.1.r.d.y.-.-.r.q./ ' { { U F n F e e 9 9 9 e e 9 8 5 < < : - ; * * * * & & , 2 w e e w 8 2 1 1 1 1 , , 8 2 5 e B ' 5.1.1.-.1.5.q.r.q.q.d.s.O.-.{ O.O.O.5.*.-.-./ ! L U { ) e e e e 8 8 ",
"{ >.' d.a.a.1.9 1 w : & * : 8 9 w e a L j R L e e C ! / e n n F L R L G G a e 8 *.5 8 8 3.7.7.+.G : : < : ; : : 1 9 9 e C ' / F ' U 2 : : < v F *.O.{ >.8 : : y , ..w e 9 9 e @.j.s.j.F x e.3.C ) { C j ' q.y.q.O.-.q.q.< : e 8 5 4 2 4 5 8 9 4 2 e j j n a j 8 q 9 e j L { ,.O.! n w : : ; : ; e a ) @.O.| { / e e w e e ' U < 8 9 { q.q.-.1.y.y.@.<.l.O.{ { C j 9 2 2 2 2 2 2 2 < 1 2 2 2 < ; & # # & * : : : , < 1 1 1 1 1 2 1 2 2 8 2 2 5 8 w 1 , < < q F -.q.q.t.5.q.s.s.a.r.a.q.-.-.@.O.@.q.q.q.1.>.*.*.-.*.L ) ) { L ' { ",
"O.' d.y.@.p.8 1 e * , 8 : * 8 j n n n e ) e w w 9 w e 9 e ) n ) u j +.+.*.*.*.O.-.>.>.7.+.$...y 2 < 8 , < , : : 2 9 C 9 L @.O.B ' ' 8 ; : ; : : 9 -./ ' e.-.b.b.2 1 5 : 9 < l C ,.F d.a.j.1.-.q.U e j @.q.y.r.r.y.q.l.e < , q 5 2 2 5 8 8 8 9 8 8 4 5 4 2 4 5 e e q e p n } O.{ O.*.{ e e 8 1 e O.-.+.) ) +.' e 9 8 1 2 5 F @.O.< 1 8 R *.N.q.1.<.<.q.d.' ) a < 2 2 2 2 2 2 2 8 8 5 2 < - ; & 1 < : : : : : , : : : : : : , < 2 8 8 5 8 e y y e w e w < & < e B @.q.>.s.a.a.p.r.y.t.a.q.@.@.@.1.a.l.y.y.r.r.q.5.>.>.-.-.-.-.O.@.",
"O.a.f.v.< < 8 w : , 2 2 9 9 w n j e x F w e 9 9 8 9 9 9 w e a a l l 8 w e +.+.C L L e l l $.^ C < a 9 8 : : 2 ; : 1 a a 8 w 2 : q F : : & & & ; & 2 j { O.O.O.*.{ ' -.U >./ ' e : 2 K j.d.r.q.d.d.r.q.q.r.t.t.d.O.q 8 < , 2 / 9 4 5 4 5 5 5 8 < 2 w 9 8 8 5 < 4 8 2 2 w n C C | | +.,.>.>.-.e O.L e e e e ' e e e 2 2 2 8 e F +.F : j w ) F -.*.1.-.s.>./ w 5 5 2 2 2 2 8 w 9 9 9 9 9 5 < 1 : < , , 1 < : , < < < 1 1 1 2 2 2 2 8 8 9 | ) C u C | e y 1 < : 5 q U r.1.q.q.a.a.t.r.t.u.a.r.1.q.y.d.s.l.a.t.t.u.t.q.r.r.t.r.-.5.>.",
"u.a.a.{ : 5 p 8 , 8 8 9 9 e n e L e ! e e 2 , , , < , < 8 , 1 e 9 G y 9 a l ^ R C R ^ l G ^ | ^ 6 8 < < : & & : : 2 a e w 9 5 : ; < ; & e e 8 8 2 ; 1 n O.O.*.! *.>.M.>.O.B q.K : w *.U 5.5.d.q.q.q.a.-.1.y.1.e 9 8 : : # 0 / U 2 5 8 8 5 2 e 9 * : : , , < 1 , < 2 2 2 y n e e e R | G C C F ) C a w y e e w e 8 2 2 2 2 u F +.O.: : 1 e C { { { { { { e 8 2 2 2 2 8 5 9 5 5 2 2 2 5 8 q 5 5 < < < < , < < < < 1 < : < 1 2 2 8 9 9 e } W y e e R 2 >.1 : : < 0 U q.q.a.d.a.t.q.q.5.y.r.a.u.r.d.5.5.M.d.l.l.d.u.r.t.a.u.a.a.y.-.",
"a.d.q.4 : 8 : * 2 8 e n j e e n e w w e y 1 1 2 1 1 2 1 , , 2 2 C ^ ^ ^ ^ ^ ] } ^ G } e e w 8 e 9 , : & & & & ; 1 w y w 8 5 2 : ; : & r O.' ' o.B , 8 w C F 9 R n L a a C ,.' B 9 & 5 >.K r.d.j.l.+./ e v e 9 w 1 , 2 & 2 F / U 4 5 4 5 2 w : : : : : : , 8 * : : , 1 2 9 2 8 1 w j e a W e j y u : ; e a e 9 8 2 5 2 1 w e C ' -.! < e e a j ! 2 9 9 8 2 < 1 e 8 8 9 9 5 2 e e 9 9 5 2 < 1 < : < > : < < < < 1 < : 2 2 < 2 5 w e G $.C w n { ) F } 6.a 2 : < 0 m q.q.y.1.1.1.' L n U y.y.y.q.1.-.3.y.l.N.l.N.M.d.d.l.N.N.d.a.y.",
"d.f.q.' : 2 a * 5 8 v n e e e e e w e e 9 , w 1 y 8 9 w 9 8 8 8 a a 9 w | l G ^ | C a w l e 5 e : : : * & * : 1 8 1 y e e 1 2 ; ; ; & B ' ' v v O.n 1 8 9 e e w e ~ ~ R F M.' L 8 e < 8 >.,.' K O.j 2 1 8 e w w : 1 , < / e 8 4 4 e j e e : : : < q 9 w 2 1 : : 1 : , 2 e e 2 9 8 : ; ; & : , : : : 1 9 e e e : 1 2 2 < 2 w 9 ' *.-.e 1 1 9 j w e 8 2 8 2 < e 9 < 5 2 2 2 e O.-.O.n e 8 < < : < : > : : : : > : > 2 8 9 e e e e w 9 9 e ! -.@.O.{ q.< | a : 1 e B O.O.@.-.-.' L j G L B O.>.>.@.5.q.q.y.d.s.a.s.q.N.B.B.l.c.a.a.",
"a.a.<.: 2 < C * * 2 8 8 n e e e e n w a 1 w l 8 9 y l 9 e a a G G G C C G w C e a a ^ y C | a : 2 : : : : : < 5 9 1 y w 6 9 : : ; e e F ' ' m B B O.q < < 5 e e y e e y C U F { ; e e 1 9 e < : : , , # 1 , , 1 : , # F 5 2 4 5 w e 2 : : : < 4 n F B r e n n e , 2 9 8 9 e 9 1 : , : * & & # # e a y 1 w : < , 8 2 2 2 2 5 2 u ! *.' , a 2 < 1 < 2 5 2 8 1 e 5 8 u 9 e w j @.@.@.O.F e < < 0 5 < : ; : : : : : 2 e j x n B L F U ' O.*.1.-.' ' ' +.R < a 2 1 e B U T ! ' ' B e 1 , y L L ' >.O.-.-.5.5.*.,.>.6.7.1.q.s.N.B.N.a.",
"a.2.< < } w # ; 1 5 8 9 8 n x e e / w w e 1 2 a G w w C G a G a y y C G C G G C a e >.W l e y 9 1 < < < < 2 8 q w y w e w < 2 : ; x K ' K U U ' U K U & : & 2 5 8 e 9 w L F F L | 2 2 9 : e * * * ; * * * 2 2 , 1 5 U e 5 e 1 : ; * * : : < e B ' ' / B B B x r j j v 8 / e ^ , 1 * * 2 a a e e a l 9 : 1 1 1 , : 2 < < 5 n F C L -.@.e : p j 9 < < 8 < < 1 e 5 1 j e 9 e O.O.' o.O.e B r F U q 9 2 8 2 < 1 1 2 e n n U ' O.@.-.5.5.r.d.! K r q O.' ! R ..2 ; 8 0 v B B F v q e , 2 < e ) ! n B L n U e x F L / C u j 0.q.N.B.l.",
"-.q > { @ # ; 5 5 5 2 8 e v v v L e a e 1 a C y y G j p G R ^ y a a y j l G R a y } w >.^ a 9 2 < 2 5 e e q 9 9 l e e e 2 < : : 2 v ' ' B ' T ' K K O.' o.-.@.q 9 9 9 e L e.,.M.B ) w , 2 1 : * 2 8 4 j F e 5 e / n e 8 8 9 : ; ; * : : < q F ' o.O.-.-.' ' U F F L / { O.O.n j a : 9 $./ F ' / ) G G R 2 , 9 1 1 1 < < j F / L O.*.>.B : 9 5 C < 1 1 1 p 8 e w 2 y F j F O.@.O.o.O.O.O.O.' B ! U 9 8 q e 5 5 e F F ' O.-.-.1.r.q.-.' K B 5 < 2 5 v U F >.~ 2 1 < < 5 q 4 2 4 8 , < , 1 w a L ) L L ' ) L | 3.+.,.| ,.! n >.-.s.",
"5 < < ! 9 # 2 2 2 9 e e e e e F L y 2 1 9 C 8 ^ w a e W 2 2 5 9 2 2 9 9 l w ^ p j G a a l y 9 8 1 2 1 e n e u 9 8 e w 8 8 < : : 2 j ! B ' K B U U B U ' O.' ' 1.e w w 9 C G ^ ..b.' U B F C 9 8 C { U ' ' U ! F B v 5 9 9 < : < : : : < v / O.q.1.-.@.O.O.O.O.o.' ' ' / ! L O.) x e R j j n v e C / R G G C y w : 1 2 8 e U @.F O.-.-.-.q > : p C p 8 p y 2 8 2 < C O.-.*.-.@.' ' ' ' O.O.U ' ' B e e e v e e U O.@.-.-.1.r.r.@.' n e 8 < : & & : < F F U j C 8 2 ; < < 1 < < 2 , 2 : , < < j j e w 3.p e 9 a R W R ^ 2 ,./ n e ",
"e e w : * : < < 4 < e q e e j w e 2 2 w a 8 e l w a w C 9 9 w a G C G G G C y a e 9 6 2 5 : : , : : 5 e e 9 w 5 2 e 9 2 8 < 1 ; ; 8 ' F ' ' ' ' ' ' ' B / ' F -.q 1 p w 9 e a R e v.g.g.U B F K F ,.e e e a 8 x e 2 8 1 1 : 1 < : : < B ' 5.5.+.O.O.{ { / ' U ' ' O./ { { O.*.+.O.) C ) ' ' { O.e R R G C n e e : : < e e n ' / ' *.1.-.>.< : y y e 2 9 , : , j O.@.O.O.@.O.O.' ' ! U ' O.' ' O.O.' L n B F B ' @.@.-.O.{ *.{ n 9 2 5 , : * & & & - e e U O.< a 2 2 : ; : 1 , , , : e 9 , 1 , 1 1 9 w 1 : : : , 1 1 G ~ a 8 e e ",
"9 < : * : < 2 8 e e q 9 e u j w 1 2 < C e w ] G a C w a 5 e l C G G C C G a y e a a e 9 5 , : : < : e 5 8 < 9 a a w y 5 2 2 2 < : j o.F U ' T ' ' B / ' o.o.O.O.1.u a 9 9 e R 9 ^ | e e n p.v g.j 9 9 a p e j a e < < 1 : 1 L K F B B O.q.*.@.+.O.O.{ *.{ L F F / F O.{ @.*.O./ U O.O.O.{ ! e F | R L C n e e C < : 1 8 8 5 n ' K ' 1.1.1.e : : : : : : 1 8 e -.O.! o.U F U U / U B v ) U ' @.O.o.@.@.O.O.O.O.@.O.O.{ L n a a G ^ w 1 , , * & & & - 8 5 F >.} < a W 6 2 8 8 2 1 1 j w e e < < : : : : < 2 : 2 1 , 1 1 1 8 ] ~ e ",
"< : : : < < 9 q 8 q q q q G p 8 1 : 1 9 l G R G l C p } p a p G C G C G C a p a w w 9 9 8 > > : : < e 8 2 8 e C a y 9 8 8 2 2 : : 2 ' F O.' T T ' U ' ' ' O.' ' 5.' : ^ 9 ;.b.>.l ~ >.8 e 9 9 e 8 } G < y e < 9 2 < 9 5 5 e U O.-.-.O.-.O.+.O.' v L U L ) R C n n B ' @.*.*.F n u v v v ' r e e { j C a e j e 8 1 : > 2 1 9 C a F L ! -.' e < < : : : 2 e v O.O.U / F e 8 n e F ! { e ; 8 B o.' ' ' T o.O.o.' ' ' { ) a } ....~ e l 9 6 , : * & * # : ; 4 v U R < ..^ ) 9 y e e a e 8 5 j w 1 < < 1 2 2 < | ) } $.e e y 1 1 < < ",
"e 9 < : : 5 5 8 8 9 8 e n G 8 8 w , w 9 C y a ^ C G a ~ C R a C l C l l l a j e 8 9 e C 4 2 < < < < < C 9 9 y C u 9 G L u e 1 , : : v T ' T U T U O.K ' O.' ' -.@.e , w y G g.0.8 e 2 R G $.| w } 2 9 2 8 j 5 8 j @.O.@.o.U o.O.q.5.5.O.O.{ C 8 < 5 8 8 > e j F n n L ' L F | +.| u q e e e e B ! R n C n j e C 1 * 1 8 2 e u j F U R U >.e < : < 4 8 e v U @.' F F n 5 : : : 2 e : : ; 5 B T U U K F U U T / / L ! ! } ~ $.:.2 , 2 * : = * & * * = & & & < F ,.| C ) ) | } ) 5 2 9 e 9 8 9 9 a C < , 2 j ) p e 9 C C y G $.} C ",
"e e 8 < < < < 5 8 5 0 q n ) a C 9 2 a 9 a G u G l G l ~ a R a l l j e p e y w w e e C n v 0 e 5 5 8 5 j ! / l a a ) ' -.O.y 9 < : : ! F ' B F T ' O.' o.F -.1.O.B C , p C y < y e.b.v.2 C 5 8 8 2 5 j @.! 1.y.<.1.o.O.' 1.q.-.q.1.O.+.@.n e C j C ! ' ' C 8 2 n L n n n ) R y a $.a 5 5 0 e v | O.n C F n e q 5 : : : * 2 e F F F C n U 1.B 8 0 5 e U B B 1.@.O.L F e < < , : : * & & & & / B F K K B B n F F L C u a ^ | ..1 2 e } e e u 8 2 2 9 e 9 & & ; F U T 7.5.O.B F { / j e e x j *.L 9 e 9 2 R W j 8 8 n | e.0.7.v e e ",
",.{ L e 0 5 5 5 4 4 e L C ) } R 8 < w 8 9 G l C a G ~ C } R l a a a a a w C a e n j L n e e e v 8 q 9 8 e n 5 e l +.>./ O.L 2 1 2 < U B ' B K ! ' O.O.U O.O.0 e e R < C C F 2 e n 6.< R j ) 6.C a e 1.N.j.y.O.O.U < q n ' { O.O.O.O.' 8 w ) -.-.1.O.O.O.O.n 8 < < 5 e | j 2 9 2 e 5 2 4 4 4 q | | p j C n n q 2 : 1 1 : < u F F n n e U -.' F *.O.e B U -.' ' ' / B 8 , : # & * * & & & # * C n B B C e , : 2 2 5 j G ^ X., 2 C R } ..G < : 1 2 5 , < : * ; x U U U U U U F B B / U U ' O.>.>.e e j C C G 5 e g.g.s.L G +.7.7.>.",
"C j 9 8 8 8 5 4 5 7.,.C $.R R 8 , 9 9 8 9 G 9 8 l C y C G ] G e l l a a e n | ) ) ! L j e e e v e 0 8 e e j +.e a $.} | { G 8 2 : , B B ! ' ' ' o.O.' ' / +.e ; C : 1 n U U ' 1.-.O.@.1.-.@.*.<.-.y.b.g.1.C 9 < 2 F n 8 5 5 e 5 e F e ! *.1.q.@.@.q.q.5.@.{ n 8 u 5 2 < < e F / e a y > < 4 5 0 F ) L F e j q 8 1 1 1 , 2 9 e e n C n L ' O.B *.5.5.O.5.' { { ' / e < : & & * : 1 : < : & # - : ; ; : ; * & * 2 8 w a G ] , 8 | ^ | R : w 2 : < < 1 1 1 * # 5 v B B F v e e e e e e e F ' { ) +.e 8 9 9 8 F g.p./ R 5 e u L n ) ",
"< 2 2 8 8 j 8 n R ; : ; ; : : : w w , < w 2 L G G e R | | } G e y j y e n } } n j v e e q q e v e e q 8 e { / y a e a C G e 2 , 1 < n T m ' B U T O.O.o.' ' w e a e v -.@.O.l.d.Z.J.K.Z.B.B.B.s.B.g.' y e F O.j O.O.1.1.-.-.~ < 2 5 5 ! @.1.q.@.O.O.-.q.q.@.{ ' { ' n 9 y F O.5.1.-.| G : ; : < 0 L ) ! e n e 9 9 2 < , 5 w C C e x F L U O.*.1.>.-.*.F { / 5 4 < w : * # * 1 : < , : : ; & # # & * @ @ @ @ @ + 2 w e ~ ;., 2 9 G w G 9 j e 2 5 5 4 5 : R * & ; 2 5 4 0 1 2 8 5 2 5 e C e F / O.*./ >.q.0.3.7.) 8 w 9 < w 9 2 8 ",
"1 2 < : ; : 1 : # # ; ) C , : R 8 , < 2 2 8 l y G G y } W } y w e a y y { n e v / O.L e x e e F B e n F / | ) 1 p C w e e w 9 9 1 2 v U B B F F m U O.' O.1.T O.O.O.1.y.q.d.s.z.B.e.>.5.-.@.r.L q.>.n e b.1.O.' U @.@.O.O.U 1.{ ' ) -.q.-.O.O.O.' { ' @.q.-.O.5.q.O.O.{ ' O.5.1.5.q.O.O.e a 2 > < 4 4 5 e C w j j n 8 : < 2 9 a e j j 5 C R L *.@.L ! R 8 2 j y y 9 * : , , : , < : : : : : : # @ @ @ @ @ @ @ @ * & @ * ^ , 2 $.8 R | 5 j R 4 9 8 2 2 : < : * & & * ; ; & & * * & * : : 5 j j u C R { ) ..$.n 9 w ..2 , ^ e 6 8 ",
"1 1 1 : * & # # # # 3.: : R } 5 : 2 2 2 2 p l R C C l a G ^ y w 9 j e F ! v q.l.c.l.q.U B v e F v j e T { { | 2 G R e e e w y e 1 5 n U v B m ' U F U F ' @.@.@.1.1.1.5.e.1.*.@.{ F | R L F n U } n | e q.g.5.5.U q e x 5 T O.' ' ' ' O.O.{ { O.O.O.O.' ' q.y.5.5.q.q.O.{ O.<.>.6.L j j v n y : - ; > 4 j e e j 8 5 4 : * 1 1 9 9 8 8 2 y 8 R / ! C e < e w 1 - & : 1 1 , 8 2 < < < : : : : ; & # # @ @ @ @ @ @ @ @ @ * : , >.8 e l 9 ;.| u G e 8 5 2 5 2 < 8 & * & & & & * , 9 a G 8 & : 1 w y e e n ) $.R w y 6...^ l 2 : 9 y ",
", : ; & * & # & 8 ..& & ; : < : < < 9 8 9 C 9 y e y e C ^ y a w 9 a a ) e d.l.l.l.l.x.N.O.B e v F L F ) ' n +.8 G G 8 5 8 w a w < 2 U ! o.' ' K ' K B K O.O.U ' @.@.*.1.' L ) | L L R } ..| | 8.e.8 v l.1.q.O.O.o.4 4 < ; : q O.O.*.' *.-.! @.K O.O.! O.O.O.O.@.<.y.-.q.1.-.-.L n { +.q q r < 2 # ; < 8 ! j e n 9 e e , : < 2 2 1 8 2 : : 9 9 9 e 2 9 e 1 : # # * : , , 8 5 < < < 2 2 2 1 < , ; : ; ; & - & & # * ; : : 2 ..w w a a e e x e j e e 8 e 2 2 < 1 y & * = # w a 1 < 8 1 y a , , 9 2 2 2 w w 9 < G ^ l 2 1 l ^ j 2 : ",
"2 < : : : - >.; & & & 8 5 e 1 e 9 e 8 w u e 9 9 9 j 9 y a G C C l y | e z.d.q.q.q.q.q.a.j.B.F v j x ! ' { L 8 e y a e w p G a w 2 < 5 n ' ' U e B O.F F ' O.K @.v n p C C e e r +.{ +.) ..;.$.| } 8 r.5.b.*.F ' e 5 > ; : & & : e e < 2 4 e K 8 8 0 5 q F O.' O.-.<.*.@.{ L x n *.) 8 e 0 e v < : # 5 5 B C e e a j j < : 2 2 < 2 2 < & * ; : : e 8 2 u 2 * @ @ @ 9 1 9 9 2 8 < 2 5 2 2 2 < < : : * , : & # & & & : : 2 2 6 R | ^ G >.L e e e e e n e 5 2 4 1 < < 2 5 5 2 < 1 < < : , < e : : : : 9 1 l 2 1 2 1 2 8 ..< w a 2 5 ",
"2 2 2 2 < & & & : 2 4 R | ! ! R L < 8 9 9 e 8 2 1 2 5 8 l G p l G C L -.y.@.' ' U O.-.q.q.a.c.U n j n F { ) y w a a e y a y a 8 2 1 5 x U ! F K ' o.B U U O.O.U u e O.x j B B.Z.j.B q ~ L ) L j n d.y.j.1.U 8 < : : : : , 1 1 < < 2 < , 1 2 2 9 2 e 8 2 5 U *.U ' O.F n / +.{ | ..6 : : 5 8 r r ) , - < q { L C e n 8 8 1 : 1 , , * 2 1 9 5 8 6 # : : : @ # 2 w 5 , e < 2 2 2 5 2 5 5 < < 5 5 : : : < < < < ; : 2 G C w e C G C ) @.*.q.+.@.U e n U L a 2 2 4 4 < < 1 5 8 2 < : < < < < 2 2 a a 2 2 1 2 2 G $.>.C G < G p 5 e 9 ",
"9 2 , : & & & < { ..} ] ^ ^ R C a a j e 8 8 2 8 9 8 e 9 l y a { { { L l.+.n 5 5 e ' @.-.q.a.l.<.n F F ' { n O.8 a e y y a G a w 2 2 5 B ' ' ' ' o.B ' o.U e e j u ' q.q.@.B B.d.N.Z.d.e v v v B d.r.-.d.-.e 5 G a 1 - : - - ; : ; : 2 2 2 9 9 w 9 w 9 2 < < e U O.O.O.L e w 9 2 8 , * @ : 5 e r : w 1 : < < 2 < n j e 8 9 1 : , < 1 2 < < 4 : 1 2 1 : 1 9 9 w : j e < 9 9 8 5 8 4 2 8 5 4 5 5 < < < 2 2 : < < < < 2 8 0 9 y j q.q.5.5.q.*.1.1.-.-.-.@.O.' { 5 2 2 5 5 5 2 2 4 < > < < 2 < 2 9 e y a C e C w 2 G | >...G 5 1 8 e ",
"1 ; & & * - < L ;.^ y : : 1 2 9 9 y 9 8 5 2 9 l G G R ~ R C L j u n l.5.j e C e 9 1 / { { s.a.d.@.U n / ' | F +.2 9 9 e e y e w 2 8 n O.O.' ' ' m o.o.U U e e e ' F { -.l.B.B.M.j.Z.V.l.q.d.M.l.r.r.j.q.n 8 8 C , ; , < : < 2 2 1 : : : 1 9 e e y y 8 2 8 6 y e 2 1 , : : 1 y G 8 : # @ : 2 0 e n { 8 : & ; & 2 0 2 C e e 0 0 e 2 q q j e n 2 : , 1 1 2 , 2 8 < 2 e 9 4 < < < < 2 5 5 5 5 4 4 4 5 8 2 < < e 8 5 e q n e e j *.q.O.v F ' ' O.@.o.' U ' ! O.-.*.) 2 < 2 2 2 < 4 5 5 2 5 w e e y j j p e e w C 6.] a e e y 9 2 1 8 ",
": ; - - < < ,.>.| & 2 p 2 y w e w : 8 8 2 a y C C n e n a n q.l.d.l.@.9 e { { } n 9 2 < ! O.s.c.l.1.' n ' O.+.R e 2 e 2 1 9 2 2 9 n O.F K F v K ' e e B e e K l.x.r.q.s.N.d.M.c.z.d.j.a.K.V.d.t.j.d.1.' 5 ;.: a : < : - ; : : : 5 < 2 2 : : w 9 , : : : 8 8 e w y e : : : 2 w w 1 : @ @ : < 4 5 8 e F e 1 w 1 : : < : v C L L C e 9 9 e e < 0 9 < 1 < n q < j e e 4 2 2 2 2 < 2 5 5 8 8.>.n 8 8 8 8 8 q q q < < 4 0 8 e e n ,.r.' q 4 e r F x x q 5 < < F o.-.O.*.e < < e 8 1 4 8 9 w w 8 9 e G R C e p >.C ~ L | L u L L e < < ",
"q 4 e >.6.3.G .., 9 +.| y e y w 9 j 2 e y e a 9 5 e C } { d.a.q.1.{ 8 { | { { O.+.~ n < : L / q.a.l.c.-.{ ! O.*./ { +.5 5 5 0 n @.F ' ' ' ' / F q 8 q 8 0 x -.N.N.l.j.l.z.d.a.d.N.N.l.j.j.j.d.M.a.-.U 5 : p } < : ; & ; & ; # # & > : 2 1 , < 8 y w e 5 , e 8 : 2 1 1 , : , 2 8 1 6 @ + & < : & & : < r ) R < , : * ; < < : ; > 5 e u j e 8 e 2 q 9 < < p 2 5 5 4 < 2 5 2 < < 2 5 3.;.a ..^ ~ 0 q q 0 e v F e 5 5 q e U O.,.s.-.e 8 < 5 e 4 < < < > : : > 5 T O.O.{ < L ,.) 8 < 5 9 : < 1 2 5 u w e j +./ G ) *.+.{ ) { { R n j ",
"n / G ;.: , , 8 8 a 2 9 G G G R C j j j j e 9 9 | q.s.q.-.-.) C j u G { ) ) { ) ) +.{ L q : l } ) q.d.j.c.-.U +.R ) { *.{ @.O.! -.' U K ' ' v v 8 5 n F ' O.q.l.N.c.c.a.u.t.d.z.d.j.s.q.r.1.1.-.-.@.x 2 | w < - ; - : ; ; : : - 8 : : : 5 5 2 2 : : : : 1 < < 9 p 9 2 8 2 , 1 2 : & * + @ * @ @ @ @ & : q U { 8 , , 1 , : : : : : : 0 : < 2 8 8 5 5 5 2 8 e 0 5 < 2 1 < 2 2 2 < b.* * # @ , e C e 0 j j 2 e ! e n L / O.O.-.' v 2 < : : , , < , < : : : < > 5 ' O.O.| *.' { { 8 < < 2 2 8 8 e { / e e F ! +.) / L ) F ! U L e q ",
"R L } 9 < 2 ,.9 < q.q.@.@.! e u C n 9 9 { ! q.5.q.q.o.O.+.e y ) } O.{ ) ) ) ) C n e n / ' x > < q L 5 ) d.N.*.{ O.*.>.+.{ { ,.O.U n e n B B q e q K O.1.-.-.l.c.c.c.l.u.q.a.l.r.d.y.q.5.>.-.O.@.O.n 2 : C e ; : : 5 e 1 < 2 < 8 : 8 : : ; : : 2 w 9 w 1 : w e 2 , 1 * ^ a a w 2 : # @ # + + + @ @ @ ; : q e e x B U n F 9 2 1 : : : , , , 1 ; 8 j e e j j e 8 2 8 < < < 5 < 5 R : * * # # @ + y e 8 * # : w 9 e L F F F F C n e 1 2 w a u e 2 ; ; & , : & : < < 4 O.O.' @.O.O.! w 2 8 e n n O.-.*.*.*.*.q.O.O.F x / F F / v n L ",
"C e < * 3.< -.q.O.' ! { { O.7.7.5.>.-.1.-.-.O.O.O./ { e e a U / ) ) L R R ) ~ | ' ) e n { O.8 : 9 e j e C x.t.@.) ) O.O.+.+.O.F n e e e e x 0 0 B O.' -.q.q.l.N.N.d.q.-.-.q.r.q.q.1.O.' / / x e e 2 R 8 2 4 ; , C B e v 9 : 8 9 8 8 9 e 8 2 9 j p e 9 9 8 9 w a e a G 2 1 e ^ 2 # + @ + @ @ + @ @ @ * 5 q 5 < < < 4 e e e v B F F 2 : * , : , 1 ; < 8 e e a p e 2 > > 5 9 G * # * * & - ; & @ @ + * < < * : : 1 9 9 8 w 9 9 w 5 9 G R e 0 8 q 9 w 9 q e 8 , & : : < B O.@.@.O.' n v j n n @.*.*.>.-.5./ 8 1 4 5 5 2 5 5 5 5 8 w ",
": ; - < < q.' +.+.| O.{ | { O.O.-.O.' ! ) +.+.F n j e G { U ) ) L | O.@.O.{ O.O.' { F n 9 O.e < e 5 e e @.c.j.z.q.t.{ { ! / / n F B F B x B K F O.o.' ' 1.y.x.B.d.r.1.O.' O.5.-.O./ L C j e w 9 9 :.e y w : ; y F o.F ' q < : : 9 9 8 e 2 1 8 C l l C L L L L ! L L C C a 9 2 : @ + # + @ @ @ @ # @ @ : : : : : < < 1 2 2 1 2 8 e 9 F B 8 q n 1 @ : : < < 9 2 < : : < 0 8 # : 1 < 2 : 5 5 5 q q 9 e R L j C C R L j 8 a ^ a w ~ G ,.e 8 8 < : 5 q q 5 4 5 q 4 e - : : < n o.@.@.@.O.' U ' O.@.@.@.O.' e 8 p 2 > a 5 2 < < 2 2 : ",
"j C : C 5 U +.e j q q ) L { { ) ) / { e e 9 e 9 9 L B B U { O.{ O.O.{ { O.{ { | ! e e j j ) +.9 , 2 < e +.1.c.j.c.N.N.d.O.O.{ ' ' q.-.q.q.q.@.-.@.<.-.<.q.c.B.c.u.q.1.O.F L / ' U C C e ..$.w G } e G w < < & 9 e B ' U e 2 2 8 8 9 w 1 1 : , a a L ! n j U ' / v e j $.a w w , : @ # @ @ @ @ @ @ @ # @ & ; : : # # & : * * @ : , < < 2 , 4 q e y , 1 : ; : > : < y , * : 2 4 F 6.n 5 ) C j 9 5 w , : 5 9 9 9 8 e C ) / n a 9 { e e e > : : , : : 2 < : : < 4 q 5 q 2 < < 2 K O.@.O.O.{ O.O.U e 9 9 R 9 e e j 5 8 e e e 0 9 < < ",
"5 8 < 4 e.) $.{ C ) } { ! L C C a j e e e e q F ' / F L U O.O.O.{ { ' { O.{ ' / 9 8 8 v ! 9 ) O.O.O.e 2 8 e +.q.d.N.j.B.j.B.B.B.B.B.B.B.N.B.B.d.2.q.l.N.B.M.j.a.q.O.' ' n e e L n C j w W p R >.a 0.} 9 < < ; ; 5 B K F j n n n ) ! C L C G 1 e e R e n U ' F L O.{ / ! G ,.e < & : * # @ @ # @ + @ # @ # @ @ # @ * * # # * : ; : * : * & : e e e y * : * : w 6 : * < < 4 g.C.^ 2 w | w w & ; 2 w : 1 9 8 } 9 1 2 a 2 2 p / C j e 5 ; 1 < > : : : ; ; ; & - ; < 4 5 e 2 < < 5 q U O.F e w j y e w C R +.B q U e e e n u e q 0 0 ",
"O.>.*.O.{ ,.$.) | +.+.*.O.O.{ L n e e R T U F / e B ' @.+.{ { ,.+.+.} ) { ) G w 2 2 8 e ! n e R ' ) { 9 1 e 9 8 O.+.B.c.c.l.q.t.d.x.l.a.t.5.d.B.B.B.B.N.y.y.r.q.q.' n ! n 8 9 e 9 j 8 >.a ^ | ..! 5 ; ; - < ; & q ' e e j j ' e e e / ) R a a 9 n e U ) u j j e e n u ) +.n } 1 : # * # @ # @ @ + @ @ # # @ # # # * : * # * # * # # & # : & < 5 q e e q e e w 2 e 5 5 ,.C.3.< 1 C 1 1 1 : ; 1 1 : : 5 a L 0 e j w ; 9 ^ 1 1 : : 1 9 2 < - # - * : : < ; ; ; : ; : < 5 q 8 1 2 2 9 e C C w e e e R +./ O.< 1 5 U U ! ' ' u ' ' O.",
"L ! / | 7.| *.R *.@.@.O.{ ' ' ' / F e ! L ) L v ' @.' { O.{ +.) ) L L a e 9 8 5 2 2 8 p L n p 8 ) { O.' / e 9 9 w j ' q.a.O.' n 1.a.a.n e ! 1.y.y.5.q.r.q.*.O.O.@.O.! F U e 5 8 2 8 ~ e 3.;.L L 4 5 ; - ; < < : 9 U x v O.C F @.@.-.e ' F n e e U { +.9 8 9 9 e 8 8 q 9 p +.) 5 2 & * @ @ # # @ @ + @ @ # # @ # # # : , # & : : : , : ; : , ; : 4 4 4 n 9 e e j j ..g.h.: e n.} $.y * * : : < < 8 O.v L ! U / ) { 9 - 2 9 R y 9 q ; & & 9 < 2 2 < : : < : : ; & ; : : 8 0 e e 8 e w w ) ' / ' ' ! U e 5 : 2 < e e 8 5 8 w e F ' ",
"n R ) $.6.6.+.L *.+.*.O.O.O.{ / ' / / n ! n x U O.' { { O.*.) G y j j e 5 2 2 2 2 8 9 C e +.L e 9 L O.{ ' ) a G G 9 a *.R L e 5 e n j 1 : ; e F @.*.-.' ' e e e e e F / n e 2 2 8 R } >.g.C G $.5 2 ; - * < 1 : : e { F C L e O.@.O.-.F v n F q n p e O.<.O.-.5.5.1.1.U u e C R > & # * & # # # + @ @ @ @ # @ @ : , # # # : # & : , : , ; ; : y 1 5 : 1 1 1 1 : , 1 : : g.l : : : < e v n x x n n e n e < n F q B / 8 e 9 * : : ^ 4 q 0 e x e q q e < < : * : - : , : : , 5 5 F ! } C n L F u j a 9 2 < < < < 2 < 2 8 9 e e a j ",
"j L R #.$.$.6.) ) ,.*.*.{ @.O.' / / n U O.' K @.{ { { ,.+.} l a w 9 8 8 2 2 2 2 8 e w G n e j 9 8 9 ' O.{ / j / ) y 5 5 2 2 < < < 8 < , , < 1 F L e e e : : : , < 9 e x v e w e 5 w ;.0.R } y ) 6.2 : > < < 1 < & < 2 2 2 l ' @.O.O.@.@.O.O.-.O.-.<.1.O.! ' { O.+.' e.q.@.e 8 e : ; : : # * * & # @ # # # # @ ; @ # # : & # # , , , & : : : & # # : : 1 2 2 1 2 8 y >.C.; 5 | L e +.e { x { O./ j j e e 8 5 4 5 w F B F B B F B v B K m B B F U K B B v v 4 < < 1 : < < 1 2 8 8 a e w 9 9 9 8 8 w 5 8 8 4 1 < < < 2 5 e w e e y ",
"j C L ) $...C L W ,.*.,.O.+.+.O./ / U ' @.O.F @.@.{ $.+.W G G a 9 8 2 2 2 2 2 2 9 y e e u e ! e 9 8 / { O.{ / L L w e 5 5 2 < 8 < 8 < , 1 < , < w ; : : < < < < : , 8 e e 8 9 a | a G C.| ) C $.>.2 < 8 : , : 1 : < 1 y 1 a ' @.@.j e U o./ U -.@.-.' ' O.-.-.>.>.>.>.q.5.O.e 8 4 : 5 < 5 < ; - & & & & # # # # ; : # * , : : < < : # ; & # # # & * , 1 1 1 1 , , * * 8 C 9 { e q.| +.q e } a a j j < < : 1 w 8 8 : 8 n F F n e 8 < < < < < < 5 0 e x ' o.B n e 2 1 : , < < 5 8 < 8 8 8 8 w 8 2 5 x F F e q e e 9 8 e e a e 8 9 ",
"e e e e j p a ,.e +.*.*.+.O.O.O.{ ' ' O.@.O.O.! O.{ ) { G p a e 8 2 2 2 2 2 2 8 8 e e e j e / e 9 8 e R ' O.{ L a w y 8 5 2 2 2 < < 1 < 1 < 2 < < 1 < : > e 8 ; , : 2 9 9 2 w C l 2 | 3.) } | | 3.e u 8 : 1 ; < 1 : j : 1 G ' @.O.v K B L F F L U ' 1.1.5.*.@.+.$.*.7.5.+.8 e w < 2 : 5 : : 2 2 : < > : : ; # : : # , : < < q 2 < : ; : * & & & * : < 1 2 2 5 5 5 h.{ p.C.g.L 6.{ ) +.~ F / e L e > 2 e n F e 0 e e 2 5 5 5 < 5 2 < 1 < : > : : : : 5 U U ' ' K B e 4 2 , < 8 2 e a y n e j ' O.O.' q.<.@.O.F K K B L L j e 8 8 ",
"L y 9 e e < j +.0.q.*.-.@.O.O.O.O.O.' O.@.' ' ' ' ,.G C a p e w 9 8 2 2 2 2 2 2 8 w w G u / O.n 0 e e 8 e ) { { e w 9 e y w a G 1 < < 2 2 2 2 : : > < 5 e v e > < : , 9 9 2 8 5 8 8 e l R } | C $...e 2 1 : < : 1 : > 5 C G L @.L F e e v U ! U F F L +.+.+.! e 9 R L *.$.5 < 2 9 : 5 : < 2 < < : : : < < < 2 2 2 5 5 8 < 2 2 2 1 < 5 e < ; ; : < 5 9 q F e / L n { 5 9 6.>.C u l C e G C L a < 8 2 n v e q 8 : 8 0 q 8 8 2 : 1 1 * * : : : : : ; & & : n ' o.O.' F U 5 5 j L *.L n ! O.O.@.@.a.1.-.r.y.q.<.@.U ' U U / T / ! v ",
"e j 2 < 9 3.3.7.| +.,.>.>.O.O.O.O.O.{ O.O.' >.>.-.L G l a e w e j e 2 6 5 2 2 2 8 2 e e e j C | j n j ! 9 8 8 { O./ n C e j } R G ^ C y 8 2 2 < q e q q q e 9 4 : < : < 8 8 2 8 9 e 2 e g.} ) 6.8 $.: 2 * ; ; ; 2 < < e ' e -.@.B e e 5 < 0 e e v / n u e e / ) ' O.{ ) { U 5 : q < < < 2 > 0 5 2 : : - ; < < 4 4 > 2 1 2 2 < 2 5 < 2 < < q x n e L < j 5 5 e a | 9 6.3.,.e 0 e e { ~ L C p < n e n e 8 e j : ; q 8 e 9 0 8 2 5 < : : & - - ; * & & # # ; { O.o.O.O.U 5 5 { O.O.-.*.O.*.-.F 5 v x L q e u.@.O.@.@./ O.@.' ' ' ) ",
"/ F F >.3.e.g.*.@.@.*.*.*.*.O.@.O.O.O.O.' 5.| G G G G G e w y ! ) C 2 1 2 1 2 2 w 6 2 a G e e e e 0 5 5 4 e 8 w ) O.@.{ ) ) ' ' ! ~ } G y 9 9 e / L v q < q q 4 : : 1 : : , < 2 2 2 2 ..a p $.6.a e e ; > : : < : 2 : n e -.-.U K r < 4 4 2 < < < x ' { ' { { O.O.O.+.L ! / U U : 0 q 0 5 9 < < > > : ; : : : : < < : 2 5 5 8 8 2 2 < 1 < < < 4 1 2 5 2 e 2 8 2 1 6.g.5 | 5 5 a 2 n 8 < < 1 2 q q q 8 q e : ; , 8 e - - 5 4 5 e 4 < : & & & & & & & # & # & : ! O.O.' U e ' O.+.@.@.q.B 1 : & # - ; : 0 e 1.-.O.2.q.q.q.<.*.-.' ",
"' O.O.,.-.*.q.1.>.5.*.@.@.*.-.j.-.*.O.O.@.*.^ e e a e 8 e j p { { L 2 2 2 2 2 2 8 8 2 y G C w L 2 a 9 w e 9 9 8 w 5 R ! *.*.*.+.O.U F F F n ' { e w U e e e e 0 > ; < < < < < < 1 2 8 l p.y ..} >.C 2 e : : : : - 2 < 2 +.@.@.L v < 2 < < : # & < 4 v L O.F n n L R *.R U ) L v n F 0 < > > e n e 8 : : : : > < > 4 1 5 8 5 2 5 5 9 2 , < 2 < < 9 w 2 2 < 2 8 e / < } L q 8 8 C 5 2 < 2 8 2 n L L q e q j : - 4 8 e : q - : ; q , ; * & & # # - # # # # ; # # 1 @.@.' F ' ' <.<.<.-.8 1 : : 1 @ 1 , @ 2 e q.q.5.U F / -.y.1.*.' ",
"-.>.{ 1.d.r.b.s.g.s.1.>.,.-.-.B.N.-.@.r.r.L G 1 , : , 1 2 w a | { C 8 5 2 2 2 2 2 8 e y C e 9 9 2 9 y 8 e 2 9 L R ) 9 w ^ / R a n e e u p j j e : 8 n ' U x x e 0 < 1 < < 8 0 < : 1 5 2 8 e G ^ u u l : * & : : 2 & : 9 C u -.L e 4 < < : > # # & < 8 L L e 5 9 j n a | G n j e q e q j e e v 9 0 9 B q < 2 5 < < < 2 8 e e 9 9 q e e e ; 1 2 2 9 < ; : < 5 e u < q 4 5 5 5 1 ) j u e 2 9 u v e 8 j e q p e e e 5 8 8 w - 5 < 9 > & & & & 2 : : : & ; & # ; # 2 O.@.O.' O.-.@.+.-.-.4 , : : 1 , * , : : < q q e 8 e v L @.q.-.-.",
"q.q.q.q.q.j.e 9 q.d.7.5.5.7.y.M.B.M.M.h.{ ..l 1 , : : , 1 2 a a l 9 2 2 2 2 1 2 2 9 w e u G 9 8 2 1 2 < 2 e e 8 5 5 e n e j G G a 8 2 2 w < < : : < < e n L F B v n n n x v x 5 , < 2 2 9 u e 9 ..l y y w 1 & : < & ; : 2 ' -.U < 2 4 ; > & # # # & : < 5 q 9 9 9 u / +.l e 8 2 2 1 < 5 4 < 5 : : : < 9 5 q q q 5 0 q e e e e e e 9 8 9 4 : 2 2 8 - ; 8 u e e 2 C 4 : ; : , 8 } e e j 2 8 n v e ; : e e 5 e 5 8 q q 0 ; < > > ; w < & & & 4 5 8 5 < 4 ; ; @ * < ! O.@.@.@.@.+.e e e : : : , 1 1 = = , # # 1 1 2 2 5 e L -.y.y.q.",
"n ' >.' ! x e C e j.g.q.1.r.a.b.b.b.B.b.6.1 2 1 , : : : : 1 6 e w 9 2 1 2 2 2 2 2 8 9 e l 9 l 8 2 8 8 2 1 1 2 e j j e w 8 n L e 8 5 1 9 2 2 w 2 1 2 : : 2 w e e x u j j x v x e 5 5 1 2 2 j j } ^ w : 9 ; : G - & : < : j e -.n 4 4 < < : # # @ @ # # # ; < 4 e e e O.$.R R ) a e 5 1 : < < < 2 1 ; 1 5 : ; : ; ; : < 5 5 q e n e j 8 8 8 : : : ; : : n j n e 9 0 5 : , >.1 9 e ) 8 2 > < 9 5 e , < < 8 8 9 9 5 q 5 5 < : : : > : 5 ; & - 4 R 8 p R ~ 5 ; # # : < F F B 8 < 2 2 4 2 1 : , , 1 1 & * : : * : # , 1 2 9 e ' 1.1.O."
};
