/* XPM */
static char *_b4c931f2ad4477ac101b608938ff408YSHoH57Z8JIu9r9R[] = {
/* columns rows colors chars-per-pixel */
"256 256 256 2 ",
"   c #1A1A16",
".  c #221E18",
"X  c #27241D",
"o  c #342A1E",
"O  c #2C2B24",
"+  c #292924",
"@  c #332D24",
"#  c #342E28",
"$  c #35332B",
"%  c #3B352B",
"&  c #3D392E",
"*  c #383226",
"=  c #3C3B32",
"-  c #393832",
";  c #2E312A",
":  c #1E211C",
">  c #433B2D",
",  c #46392B",
"<  c #433D33",
"1  c #483D34",
"2  c #523E2E",
"3  c #442D1A",
"4  c #3E4138",
"5  c #444135",
"6  c #4B4335",
"7  c #45443A",
"8  c #4B453A",
"9  c #4C4A3C",
"0  c #49483A",
"q  c #534B3C",
"w  c #5B4C3C",
"e  c #554736",
"r  c #5C523D",
"t  c #56513D",
"y  c #51432D",
"u  c #644D38",
"i  c #63533D",
"p  c #6A563C",
"a  c #76583B",
"s  c #694A2F",
"d  c #78623D",
"f  c #4C4C42",
"g  c #494842",
"h  c #534D42",
"j  c #594E43",
"k  c #4E5146",
"l  c #545244",
"z  c #5B5444",
"x  c #5D5946",
"c  c #54544A",
"v  c #5B554A",
"b  c #5C5B4B",
"n  c #56594D",
"m  c #5C5D52",
"M  c #585952",
"N  c #635543",
"B  c #6B5543",
"V  c #645A45",
"C  c #6B5B44",
"Z  c #635C4B",
"A  c #6B5D4B",
"S  c #63564A",
"D  c #735B44",
"F  c #765C47",
"G  c #635D52",
"H  c #6A5E52",
"J  c #6D594D",
"K  c #5D6154",
"L  c #5E604F",
"P  c #65614D",
"I  c #6B624D",
"U  c #6D6247",
"Y  c #73634C",
"T  c #7B644C",
"R  c #7B6B4D",
"E  c #776547",
"W  c #646353",
"Q  c #6B6453",
"!  c #6D6955",
"~  c #6B655A",
"^  c #6C6B5B",
"/  c #65665A",
"(  c #736553",
")  c #736B55",
"_  c #7B6C54",
"`  c #736C5A",
"'  c #7B6D5B",
"]  c #776556",
"[  c #7C7155",
"{  c #74725C",
"}  c #7B735C",
"|  c #7C765C",
" . c #6F715D",
".. c #6B6C62",
"X. c #766D62",
"o. c #757463",
"O. c #7C7462",
"+. c #7D7A64",
"@. c #7C7B6A",
"#. c #777669",
"$. c #737669",
"%. c #3F4941",
"&. c #86623B",
"*. c #86684A",
"=. c #956B4B",
"-. c #89724B",
";. c #96764B",
":. c #836C54",
">. c #8B6C53",
",. c #836D5B",
"<. c #866955",
"1. c #946D53",
"2. c #847354",
"3. c #83745C",
"4. c #8B745C",
"5. c #847A5D",
"6. c #8B7B5C",
"7. c #8B7654",
"8. c #937B5C",
"9. c #977757",
"0. c #A57958",
"q. c #AE7851",
"w. c #837563",
"e. c #8A7663",
"r. c #847B64",
"t. c #8B7C64",
"y. c #847C6A",
"u. c #8B7C6A",
"i. c #85756A",
"p. c #937C64",
"a. c #937D6B",
"s. c #9A7C64",
"d. c #887D72",
"f. c #8A766A",
"g. c #A57D63",
"h. c #B17E62",
"j. c #835D44",
"k. c #7E8170",
"l. c #98835B",
"z. c #8D815D",
"x. c #A6865A",
"c. c #B7865A",
"v. c #B4915A",
"b. c #8C8265",
"n. c #85826B",
"m. c #8C846B",
"M. c #898569",
"N. c #938364",
"B. c #9B8364",
"V. c #93846C",
"C. c #9B846C",
"Z. c #948A6D",
"A. c #9B8B6C",
"S. c #9A8A64",
"D. c #9C916D",
"F. c #848472",
"G. c #8B8472",
"H. c #8D8A73",
"J. c #8B897A",
"K. c #938472",
"L. c #9B8572",
"P. c #948B73",
"I. c #9B8C73",
"U. c #948D7A",
"Y. c #9C8C7B",
"T. c #978579",
"R. c #9C9274",
"E. c #9C947B",
"W. c #979379",
"Q. c #8C917A",
"!. c #A38C6C",
"~. c #A78867",
"^. c #B68967",
"/. c #A8946A",
"(. c #B6976A",
"). c #A38C74",
"_. c #A68C77",
"`. c #A39374",
"'. c #AB9374",
"]. c #A3947B",
"[. c #AB947B",
"{. c #A49A7C",
"}. c #AB9B7C",
"|. c #A99A75",
" X c #B39B7C",
".X c #B69877",
"XX c #B58D73",
"oX c #ACA17D",
"OX c #B8A47A",
"+X c #BDA26D",
"@X c #C98B59",
"#X c #C79669",
"$X c #C59977",
"%X c #CE926A",
"&X c #C7A779",
"*X c #D6A779",
"=X c #CFAD73",
"-X c #EEAD76",
";X c #E59C6C",
":X c #F7C476",
">X c #9A9684",
",X c #958F84",
"<X c #A49B83",
"1X c #AB9C83",
"2X c #A79887",
"3X c #B39C83",
"4X c #B79C86",
"5X c #AA9A8E",
"6X c #ACA284",
"7X c #A9A38A",
"8X c #B3A384",
"9X c #BBA384",
"0X c #B4A48B",
"qX c #B9A98A",
"wX c #AAA695",
"eX c #B7AA95",
"rX c #BAB398",
"tX c #BCB28B",
"yX c #BAB6A5",
"uX c #B1AEA5",
"iX c #9EA18E",
"pX c #C5A988",
"aX c #D6AB86",
"sX c #C8B48A",
"dX c #D6B789",
"fX c #C6AB94",
"gX c #C8B697",
"hX c #D6B997",
"jX c #D4AD93",
"kX c #E9B88D",
"lX c #C7B9A5",
"zX c #D5BBA5",
"xX c #C8B5A9",
"cX c #CDA58A",
"vX c #D8C599",
"bX c #CFC295",
"nX c #E6C799",
"mX c #F3CC93",
"MX c #CAC3A9",
"NX c #D8C6A8",
"BX c #D7C9B5",
"VX c #D3CDB5",
"CX c #E6C8A7",
"ZX c #F9D7A8",
"AX c #ECD3B2",
"SX c #FDE6B7",
"DX c #FBEAB1",
"FX c #FEE394",
"GX c #ECDBC7",
"HX c #F9EDCF",
"JX c #FDFBE7",
"KX c #FFFFFF",
"LX c #FFFFF2",
"PX c #F4EDE3",
"IX c #D8D4C4",
"UX c #BFC1AE",
/* pixels */
"$ $ ) 3XD C *.^.=.9.aX:.4.0.0.%X9.1.%X4. XF V l   5 O % ^ b j S ) Q 6 + 9 A 9 w N ;.*.u u >.4.Y < 6 5 < $ A ) | L.~ d.kXqXp.4.,.p. X,.hX<.,.s.cXzX,.,Xv ] ' i.e._._.q S 0.@Xq.h.*Xh.2 q.^.$X9.Y G.! E.r.m.{ { V.' *.*.*.u +.6XV.AXtX5 vXZXdX>.^.7.a I.8.u _ D =.e g.9.e %Xq.q.q.@XB * . 7 5 # 2 u h.-X%Xx.~.N t.g l c X.E.n W $ l M c g ..7 v m l = j w + N w > *.*.9.1.0.%XF +.R.E.8XaX~.&X9.y.L.b 3..X~.p.~.&X&XmXDXvXvX(.FXOX/.(.9 4.h X.G u 9 e q l o.V.) 1Xr.W.oXtXsX<X7XE.6XE.t.Y 8 O b b b 3.Y _ V.8.4.:.Y N 9.1 >.1 H & ",
"; + 7 c l 6 7 m !.*X.X@X^.#X^.^.:.e.V W m.*XF *X%X0.0.:.& B % 5 T 9.e I.<.pXs.<.>.>.w w a F *.p.` ( T & < Q ) +.v w.v ] F T ^.<.v e.S fX1Xg.XXF ~.S J 9 h h g h h w j.j.q.@X0.q.%X;Xe @X^.aXT I Q c ! +.I.y.Q .X^.~.%X$X^.B 9 O.| 6X{ +.}.:.$XaX*.9.T s S j r s.u i e i # w kX-X;X@XD 9.q.q.^., 1.#X%XkXaX4.9 p.Z $ = o.9 R.A Q } { #.O.G.M ) H S N u u 1.6 a D D *.>.>.c.B.e.6XgXR.|.}.8.!. Xa.9 ( | r.pX!..X'..X|.HXmX/.nX&XD././.I *.Z y 6 % < w 5 + ` Z.) m.+.V.H.}.tXE.E.E.H.{.pX XY C 4.g.1.7.>.u e.B.~.8.$X<.N 9.*.p h 4 ",
") $ X = + M q { R.E.pX3.qXU.<XR.'.~.B.4.8.$X0.x.#Xg.0.^.@X-X-X*.:.pXe.! Q +.` ) r.~.4.;Xu y , w ~ 8 & 9 j = l } 8 J j 1 ,.g.XX$X0.J F 4.).XXcX%Xg._.T B F <.<.j.F a =.=.1.@Xh.h.-X;Xj.c.^.~.p.] v f ^ m.m.{ Z.`.I.E.P.oXZXaXsX$X5.Q r.y.} I ( x.F :.4.u 4X2 *.*.D R E 0.> 1 6 mXFX-X=.u 0.q.1.~.% #X9.ZXZ.e.t./.V O Q m ~ o.o.+./ W #...W K $.Z 9 l i < w w u *.>.F ~.1.>.' | R.D.H.NX| 6.8.p.) ~ W f.} C.I.}.A.}.gXoXDXOXZXvX|.D.(.S.*.B.% w.B % + 8 % l ` b.b.K } M.8X8X{.H.n.@.r.m.lX( <.0.F 9.s.1.7.:.C Y ~.I & 3.p C a B.+.",
"Y 9 t.9 = @ f ^ M.M.n.R.8X$.+.n.#.H.qXnX.Xs.(.*X-XkXHXOXmX&X) V.V.l W ..O.G Q ) | '.> , a *.a a :.S 9 1 e l ~.'.p.C.0XC *.>.^.0.%Xh..X_.2X3XfXkXcXs.C S 4.<.>.*.=.=.0.^.g.9.$X.X<.2 @X@X^.~.I.z c v Q V.r.P ! 8XV.P.P.E.{.b.M.tXAX1XBX].I.I.P.T C T =.:.2XN =.^.a C l.7.OXq 6 # q x.@X=.9.0.kXp 6 $Xs.eXF.{ JX_ 3.Z W.h l c +.W / n b m c g 9 + 1 :.N 6 F p D B T :.~.0.*.} b.Z.D.|.sX}.&Xb.}.W MX' E.t.].r.A.A.`.qXsXHX&XnXbXvXD.Z.E.I 2.6._ 9 5 & < >.w.f v b o.| Z.W.hXR.>XP.@.H.Z.8Xt.' [.~.~.*.~.>.7._ :.s.>.c.D F a + t.|.",
"N./.! - $ : X   W +.b.P.y.` r.@.{ m.eX>X].~.1.x.I.u.o.) Z.| l / o.` #.{ W v { = + O y 6 # u s &.F ( v < 9.e >.$XpXhXjXkXZXkXfXnXg.w.<XxX5XY.T.5X2XwXf.,._ ' e.' ` ' K.L.)._.N ,.4.9.% > , s.:.I ~ b ^ +.` ) { E.`.r.{.U.M.t.Z.P.R.gXm.W ^ 6XA._ ) 1 fXD zX9 2 i R !.l.&XR l.=X7.I 6 @ 9XJ pXV.pXp.~.1X].! m.tX6.8 F.Q ! ^ P #.` Q Q ..$.m 7 +.$ & l 5 ) c 0.p F q B.s.@X*.V +.{.M.M.qXgX| }.}.2.] P.+ ' 3Xw V % Z.$ I.!.pXR.Z.gXU.o.n.P.D.6.5.q O 6 $ ; e.C.4.) l { n.Z.W.Z.W.U.H.H.H.H.H.n.` r.!.1.>.0.aX*.T &X!.x.=.9.^.2 6 $ ",
"5 t pX{.e.b.Z.} n.n.n.P.H.{ n.r.` r.W.E.{.C.~.4.~.3XOXY `.K W I.c W ^ < & f $ b !.+X=X=X:X=.q.% a ^.q $ w ^..X'.CXhX3X4XfXxXxXHXHXHXCXGXhXCXzXfXzX>X>XX.K.] e.w.( ( u.a._.N O A.j ~.*.p B Z ' a.^ W | b b Q ` m.m.n.E.6XH.U.M.P.`.t.P.W.H.o.W r.1 # ' e.D E q.a X |.dX&X&XOXl.nX} l.O pX5.A. X5.: x gXn.<XZ.tX~ 7 @.b ) #.| / ^ @.@.n.m @.K ! { + 5 = ~ M 3.D :.>.:.D 0.=.p I b.|.Z.`.m.P.+.r.W w 3.l $ - 9XV 6.A.{.qXpXE.6XE.r.U.G F.| R.9 b.b.2.b 5 $ o.n.m.W | V.{.+.R.U.E.P.n.n.E.8 7 o.J.` B.>.>.1.:.7.:.~.F pX*.c.v.u M.m.",
"dX2.) | t./ { +.P.+.^ V.+.{ { +.+.R.o.K 7X!..X-X:.0XgXf F.<XH.m.G.$ 7 W 5 ^ E.5.!..X&X=X:X=.=.> D $X4.1 g.^.s..Xp.3XzXpXhXfXfXzXCXhXhXCXCXhXzXfXBX# ].h Z g ] a.' a.e.] gX4. X9Xh 1 j.1.F 4.t.f.b ` X X r.Z W ) Z.Z.gXX u.M.m.n.r.y.+.n.H.H n Q A h 9 3.s.=.=.H q   N.=X&X2..X=XY /.q e.9XsXhXhXfXqXO { |.) 0XR Q v o.M O.G.W 4 m k @.J.P.b y.^ W Q b n n r.j e.` C.*X>.0.0.q w I oXoXR.5.} ~ v l t.V.V X [ qXb.sXoXtXA.W.n.6XZ.GXqX{ Z.7 { b.b.| { A n E.` | W W n.tX#.bXR.W.<XE.+.Q.VXc m.~ m.4.9._ p.hXC p.B.Y D F 9.v.8.t.|.",
"|.) ` k -   X | I.Z.H.} o.m.V.) t.m.gXH.<XB.!.-Xw @.m.@.m.P.{.y.l n.^ 7 = O + ` .XOX&X7.FX@X&.a y w ( l w.4X.X9.3X_.pX3X_.3X4XpXpXAXfXCXzXCXfXxXCX3X` ] T.O v ] ] ' w.e.a.T A S OXA #X1.=.C L.` W P 9 X Q S ) t.+.I.W & Z.].pX@.r.m.+.m.r.^ ~ ) N A N N *X~.*.*.2.%   S.dXS.dX(.l.S.( A.}.}.qXdX_ 7 % = & l dXi.I V V ~ E.b #.b W W c F.@.7 W A m n ^ ` V.o.j Q y.e.4.*.>.w w N {.R.R.Z.].[ } Q b Z.) q |.O q D.A.{.0XB.n.F.n.} ^ o.H.+.l +.9 +./ W } l ` ~ P.^ n % O = X X n.7 eXn.E. .b { m.`.:.0.>.>.T ( '.3.B.*.D D p.3.M.{.",
"V.{ 3.!.pX}.{ ].{ { t.+.| n.m.!  .| M.@.6X> ZX|.B.Z.Z ^ H.8XF.G.H.{.b.) b.) N.) Y 5.(.=Xv.:Xq.q.O q [.u.w.).!.g.a.[._.3X[.4XpXfXjXjXGXjXhXCXNX1X1X,X% 8 f X.v u.( _ 4.C.,.T . 4.OX< $X1.*.a ,.I A b V % +.! 3.w.{ qX|.I @.o.+.O.O.o.{ r.W W.W P 4.A A z { '.%X>.R N.C   r b.OXmXR.e gXV.b.9Xb b.nX/.b = 5 0 eX# & = 7 g yXf W 7 n k n n $.n G 9 P b b ^ W $.' V / C.5.T 1.*.i X 4 Z.P.E.| ` 7X` h gXOX_  XV > A.A.oX9X6XqXm.6X#.F...P.G.Q o.} H.o.+.V b ! $ + 8 # 6 % @ ) # & @ ; $ P.E.` ~ ! m.4.*.8.V.Y ' tXm.Y *.>.C P.5.I M.",
"r.Q Y | e.{ I Q b.Z.| m.y.o.! V.b.+.| o.HXw qX| } A.).` n.+.n.S ^ n V.Z.q 9 V ].`.2.-.mX:X-X=.@Xu < ).T.` [.<. X~.( J L.).B.3XpX1 < jXAXAXCX$ 6 ` < L.~ ..d.e.H ' ' Q ).jX'.!.).A.^  X<.s.1.C.S z < 9 r.{ t.P ! 8XP.Q +.P.+.{ gX' n.o.u.1XU.n n W z @.b b 3.&X0.o 5.& 7.i * . sXr.`.A.7Xm.Z.5.X t R vXI < % v X eX= J.  wXc M c Q c 7 #.g 7 v b ^ / b { / ^  .} +.= < w D 0.e @ 7 l | 6XP.+.W ' >XP I.5. X!.w 6.|.{.8.qXP.m.@.n.U.$.#.$ + = f - + 7 9 < $ @ X $ X 6 > @ N.I 6.6.5 7 & = eX( o.r.*.~.e.V 6XZ.+.' ,.D T T r.+.) ! ",
") ! ) { t.! OXB.6 +.+.Q m.Q ` ` r.r.! r.b   tXm._ pXn.@.n.) ` Z O.y.#.E.y.+.5 V.b.(./.l.p @ ; > j 1 _ a.rX_.a.I.K.V.[.aX( u.Z $ 1 6 1 < < 1 XX7 v Y h 8 1 j h ,.] 2XH Q a.hX3X3.[.t. Xg.*.C.G J a , , O 7 W | | ! n.+.r.H.<X>Xm ( X.V.].<Xb ~ k l ` / { q v N.~.  /.i ~.7.U *  X6 C.Z.{ | A.A.S.OX< M.qX/.+X7.o.* % n 5 & 4 W 0 W M M G.b l b Q ' W W W +.b $ l ) C # , # C *.i & $ < 9 G W w.Q y.} >X) I.! | '.C.P.8.tXR.0XE.G.n.r.W W b m $ 9 5 % 8 - * 1 6 e @ o X X     !.Y V v P 7 7 W.k.) 1.4.Q o.o.| P +.A T *.T <XH.+.W ",
"3.| ' r.| 3.N.m.C.y.K r.+./ ` ! { M.r.$.gXX + |.5.AX@.E.y.@.F.t.( h ~ n o.y.G.9 5.D.OXdXbX:X;XF # 5 1 % _.s.L.I.a.I.t.u.!.:.( T N @ , e 6 8 T hXhXaXF 6.9 O h $ ` BXl e.' NXQ e.9 P.sX%X<.T S X.q C D *.F N X ; - l y.+.o.m.n.L.' +.b o.uXv b m W #.l Z ` v P.~.s S./.(.7.D.6 `.p.} r.r.Z.) vXdX6.vXOXN.pXmXT t.9 7 W 5 l wX` ` S $ c uX7 ` K } W / ! ^ H.) c .   + & , u < , ; l ) X - 5 % >XQ t.W i._ b.| ! r.`.m.D {.R.P.W.r.+.} W ^ 9 f 5 & & # 1 % # , i p w w y 9 , @ U vXq gXv S ! X P.A Y I.>XF.l ) P Z.].D *.N Z.! ! } ",
"Q C } 3.[ 3.I.| }.^ W O.@.Q ) Q ! t.H.) ! q X + r.Q./ m.n.K / { O.].^ ) = l ) I.r.3.& Z.vXZX%X%X^.:.N j S ' ' ).L.I.e.].[.ZXpX&Xp (.9., (.7.@ # `.kXw  X) Z % v + ).f.Y.a.e.sXm.C.1X&XXX3X8.w = A N _ ' ) ~.Y :., 1 . & < W ) B O.S y.o.^ uX7 P.P.` v P ! ! +.A.2.e D.OX_ % b.) | t.Z.) +.B.oX|.V sXqX6.[ z.*XB.% = /.I ) b 0 F.W.+._ l M 7 W P $     . % 5 $ . X q , 6 5 9 @ O 5 P A.n.hX_ G.A G.` m.I t.| ) t.b. Xw Z.m.8XE.r.F.! Z.U.I B.I 6 > 6 w , o * z e * ;.(.a e 6 6 /.|.W + 8 5 - ' X V.o./ o.l H.! m.' T 6.+.Z.m.! { ",
"r.} 6 Q Q } | ) | ^ W ! ^ ` t.} ! | qXbXsXoXE.N R.].H.0XE.$.o.` 0X@.@.Z b u.< v m.! w Z.oXpX%Xh.c.pX.XpX_.9X>.' a.e.V.r.1 w Y dX#X2 p mX*X.XFX7.nXpX1 h 0Xv L.4.< . _.C._.].a.0Xa.N.aX9.^.9.I v z I Z W ^ I./ ^ z _ *.p D !..X< e.f G h j m.) ` ` n.F.9 P b b +.Z.D., S.z * < 7 | ) [ t.}.R.5.b./.qXsX&X/./.mXu N.w b V b c W W W ^ ~ b 7 Q c ; ! 7 * X X o $ X X * p < 8 * 1 , $ l Z.M Q 9 P.P.( 4.W ) C.V.` P 5.|.B P.F.R.{.m.7XtXZ.qXB.) *.-.w V -.*.E R 7.p R i 7.i U p X Y sXb.Z ' Y.= ; O $.J.W ` H.) ) ) A._ t.}.t.~ H wX",
"u.t.9Xj m.` Q e.R.}.t.E.` V.^ Q +.t.{ o.+.gXP.b.r.r.H.{ k.{ { ` } W y...l c Q I T V i ) A. Xc.#X0.h.9.L.,.u.p..XN Z a.].!./.:.7.-XE *.@ kXSXkXnX'.pX~.y.I.` z $ & < L.].L.a.[.3X9X.XnX~.%X*.5 t.m.r.n.o.r.{ W +.R.`.( ~.w &  X/ ( b.` 9 7 H ` ].#.O.' v b b b P | M.sXY X I % V t.I } | 5.tXtXZ.AXAX8XP.|.5.aXoXMXZ z = ^ ` l W ` #.0 W 4 : 9 + 5 # X X X * X + , * o =.=.p 2 x.C z O n.o.W 5X) y.` I V I.[ P W +.B.p.Z.H.H.oX#.{.6X{.P.{.r.2.l.7.e 6 6 > * D E 9.-.Y -.. # * % 7 A.b.) Z A - I W.P.^ m X.eXP.y.P.b.R.{.P.<Xl } ",
"Q ` ) e.N ~ I ' [ !.].+.{ Q m.r.Q o.+.{ m.U. .`.E.) H.eX{ ' ` W O.Q F.v Z l W Q ) _ 6.2..X*X;X%X@X*.g.!.N i.w.t.).s.'  XY .Xl.dXmX7.*X@ e jXZX1X9Xw ~.Q u.u.] ,.$ $ j 3XI.t.[.gX Xt.SX/.XX0.N A ! Q c W W n o.@.l h 4.e.A F B $ 8 1XH.^ l - 7 +.6X~ m ! W n v ` ) | r.sX, ) + O 5.y.Q ) | `.b.r.n.tXoXM.W.'.4.oXqXeX[ ! 0 b gX% +.@.l b w W f $ 5 e y @ @ y ;.;.s e c.p 0.@Xu N |.C z ( 3.I.` 5Xw.} E.3.I V.U.Z I _ 2.Z m.m.P. .! W tX+.r.) z |.OXR l.v.-.d l.y r 7.R -.l.e * 6 & X $ O ! oXN = P.} 6XF.q ` G t.n.N.I.I.>Xo.b ` ",
"Q ' ) Q m.!.N W ) N.[.! I.n.r.{ ^ ^ +.{ H.n.+.b.H.r.1Xn.y.+.1XV.b W @.Q W Z Z ^ 5._ _ 6.% >.;X@X@XXXp.A B S L.K.a.).~.4.C.nX/.nXnXdXC mX, w pXjXHXZXaX_ e._.L.V.A 8 + _.[.' 3Xu.V.m.gXdX%X<.1.N A >XW ` Q #.g +.m.+.A w./.~.qXh h n.` b 7 o.` l W W @.b k Q b P ! ` qX) pXe ; $ P +.o.b ) r.5.{ +.W.n.rXbX~.@ +.n.` P.M.! = ` )   $.@.} V Z - $ > 6 i a ;.*.&.-.;.X *.d e a 0.Y V.z < T Q qXI.} r.' O.y.P.N q J ' 2.' 3.'.3.Q n./ O.m lXrXO.Z t.2.2.7.x.l.;.7.l.[ 6.-.d -.d 6 6 % t 5 < v 7 b { { o.` ! Q r.H.O.} r.8Xb.y.X.t.u.",
"A ) e.| y.4.*._ I I.R.qX| o.[.~ ^ n.| +.E.! +.| P.}.H.) +.t.).n.1X) ` W W v ` W o.C.V l.# > % *X#X1.>.>.~.& H A u.I.s._ _ e.I 9XZXZX~.~.dX% > pX3Xi.gXhX)._._..X!.pX( t.jXF C.T.Z.m.{.OX(.^.0.*.N Z O.h - + X / F.Q m.a.Y D C j v ^ n ` b l r.t.9 ! b G ` c b K P ! m.) ) C u _ ) W +.Z.t.r.M.o.Z.H.o.y.rXT 6 b.n.` b b r.Z.A ! $ c K n.Y ( 7 t.R e y *.*.*.d ;.o d @ ;.u 1.F B.f < 1 9.N V.r.t.w.m.I y.) w O.7XP y.! U.` | N.| ! o.F.W 5XwXb | | V R /.7.|.|.b.7.e dX(.(.x.(./.R E E 2.< h 5 - ; x ! { Z.} Q ' r.m.`.! lXy.` Z ",
"( ! A | I.:.4.N.p.V.A.R.( +.| !  .n.Q M.Z.[ P.P.3.| ' ` Z R.y.m.` F.H @.b Q P w.8 ^ Y ! > > % 1 1 0.%X0.0.s.9.A 1 ( <.T _ _ m.I.gXnXsXZX~.kX6 fX4Xw.L.AX3Xh ` ).u.w.L.XXs.B.].V.m.I.}.oXmXjX(.0.B X ; c W & = 7 + O # v 9 l #.M i./ 7 / - 9 < - + - = k k c ! b W Q m.b.U w & & } b ` Q I { F.} @.J.K [.NX*.6 { +.n.l F.b Z b.b.Z < = y.[ R   I C p s E d d ;.&.d x.l.v.-X0.D w p.< eX1.C w b b ! ! Z Q U.#.Z O.9 3.W | ` ! J.7 @.m.m Q.q O.v >Xm.I.} OXN.OX|.9.*.2 R 8.r v U p V 7.T U Z & Z 1 % < f % 5Xt.r.Q V.1Xe.E.{.t.K.W ",
"Q ` A Q _ w } 3.I.0XE.`.5.' x ` +.+.n.M.b.A o.Z.} 0XqXQ A ].1X<Xi.Z z W ! b b V.e.O |.T 9.p % 0.Z 1 8 j g.*.F 4.w >.T D F A 4.C T A e.sXSXw pXqX2XL.4X2XK.e.w.w.K.e.).XX9.e.V.I.r.m.t.X < < 1 6 S 5 * ; v % 8 = O w N 0.=.* @ 6 1.^.e Z X < $ I l ` n l / W Z W b v b b.8.N 5 + n W 9 t.% % c { +.J.W W N.=.h P.@.P.W P ! W ` P P.+.  g 2.2.X 6.7.v.*.a &.*.a y y l.l.z (.*Xc.~.6.~.*.pXD p 3.*.>.H > / #.` b >XF.S z { 0XQ % v 7 rXo.) K.m Q c b {.3.N R.8XvX=X#X*.1 =X=X+Xx.-./.z./.l.q r # 5 & $XN h w u.n v ].R.e.6.oX7 ^ z ",
"! r.} I.E.} u.' V.t.I.b.sXB.3.l Z w H.t.). X`.y.h qXn.N.].u.P.y.n.W ` ` Q w.l m.`.t.OX*Xx.FX> T s.6 j 6 1 q #Xs.a.*.>.<.1.B :.~.'.'.[.[.hX[.3XfX1X4X3X2XL.2Xu.,.].' C.XX:.C. XO O % O > & = & 1 H b 1 & 6 g 5 & > = > < @Xu *.> l._ 6 w ( &Xu % : P.U.5 e.Q b.A ` Q ^ E.A.+.{ = 5 c = +.} N :.9 b k.+.5.'.u ) n.) { l ` l b ! m.! P ` e x (.. Z.7.;.v.i v.u x.;.=X-.U 9 % q *.l Y ~.9.~.A 7.1.9.p F v H @.c J.^ o.c z $ b X A ) 7 < ..n.o.y.U.W S ! [ b.Q oXR.dX=X#Xy 5 vXOX~.(.S.6 I x.6 x ) r I 5 # 1 7 '.3.j V `.'.).hX].q ! ",
"q Q ! ` } ) r.r.3.t.m.0X}.`.`.~.=.o M.Z.R.b.V.0XK.' Q ' E.E.>XQ A ) A ' r.+.) ) V.A._ &XY (.#X9 *.g.S 6 v 1 8 g 1 < s.>.1.D w X t.}.I.u.hX4.4X1X3X4X[.a.a.i.' L.e.v I.e.z t.SXpXsX&X/.+XnX-X8.dXmXkX0.u v z + < % D 1 & 1 e O q z l.8.5.3.|.fX5 [.b Q.< / G.r.W b v O ^ eX^ l 9 o.= W c W +.' 3.8 ^ >Xm.*.N { ) rXP Q Q c P c / o.5.Y U e 7.O r.R x.v.-.-.-.o &X&XFX&XD.OX&X~.3X8.!.4.B.:.p 8.T V.wXS i.G.G c / { U.+.+ f gXMX| m.$ uX$.` wXb 0 I I } r.R.{.6XoX+X6.U 8./..X6.S.OX7.!.B % l @ X 6 P.J.# + % G I.4.V.|.`.tXR.{ +.",
"I.1 n o.( V.r.3.5.t.V.}.m.t.R.(.1.D N.N.V.qXI.t.X.U.' } U.Y.J.X.A Y.X.9 r.v b Z.z b.C /.!.$Xc.A 8 ^.A 7 7 5 < # h 7 h 7 S ^.0.=.2 X 8 e.3XpX3X3Xa.fX[.u.' ' ` [.K.w [.}.Z Z.hXV OXmX+X/.&XR &XNXR =X*XkXZ < 1 < x.0.=.y 1 6 * 6 2.R Y I ) R.Z ' ` 1 B % +.P ` h ` b + $ P.r.7 m.Z.; / 7 g i.k +.m.F R.t.*.9 >XJ.Z ^ q 7 Z ` Z o.b z | | 6.i   ! l.7.x.-.2.p Y ) 2.|.[ q |.'.x.~.~.gX[.`.4.9.~.D ~ r.z z @.V z S ~ c ) 7XQ K +.rXb.}.yXX.#.@.v Q b e.3.( m.8XH.Z.gX[ O SXOX!.7.x.S./.Y ) > 6 q N r 9 7 5 J.W 9 A t.e.A.R.].J.{ o.",
"} w + M.y.I.} t.' 5.V.R.r.+.6X.X^.9.6.e.t.R.1Xr.,XG.' 1Xy.G.v ' A O.y.` ` S } Z | 5._ /.nXmXc.u j w ` A 5 Z $ h + 6 & ; b $ q ^.1.0.1.D w 9.; ].2X).].V.].) 3.3.O.Q C.I.Q Z.m.NXtXbXZXnX+X=X!.x.B.X dX(.=.a & O D F w *.w O * [ 6.N v m.V r.8Xb._ w >.w 9 P f b W W l ; m.oX{ F.n.n K b g g n / n.r.).} *.> U.P ! W } ` l P 9 7 M.{ b.! V l q `.R l.7.C r _ sX/.sXS.z qX<X}.XX.X XC.3.O.G - Y C >X( ( G.W 1XwXo.y.! Q gX} ! n >Xn.Z.! z iX7 7 - } | ].Z.) W.| hXvXz l NXdX&X(.l.7.x.-./.Y = * = V v / ~ < = G 7 Z.R.A.m.! M.y.! ",
"7X:.e.v Q 2Xe.V.t.V.t.3.+.e.I.[.:.[.pX_ I.qXy.0XG.` K.V.P.l y.v A ~ H W O.Z u.Q l P r X vXmXc.~.w O 5 b h < H z C % = # $ $ % z $X#X0.=.1.0.1.B X.O.V.Q u.` ' r.Q A % 7 O E.{.qXgX`.pXp N +Xw 8./.%   kX(.9.q h ;.*.=.p -.i # * <XV 9 ) 5.$ b.{ V 8 :.T X o.y.v ^ E.A < = }.` U.n.W k 6 A g o.b m.<X}.F *., n.b ) P c ! A ` c G 4 n.9 b 0 ..W o.w q C.7.5 { oXbXP * R.8Xe.!.B.'.}.I.b.t r.E.~ w.( W wX#.q W W k.#.>Xm < #.P.o.+.+.7 ; / I ~ - % : I.I.t.qXZ.t.qXsXz I.gXvXSX+X(.dX(.(.} Y Y E % $ l o.7 c h 9 $ P v }.3._ +.I.#.",
"y.Z _ q - | e.C.t.t.8XE.E.R.C.p.t.Z.0Xe.t.0Xu.E.W 3.u.2XwXd.i.H ( e.A v ' ' R.|.4.2.C X bX=X-X@X=.N 8 > X.q 6 1 & q N % % % % > X % & 8 ^.$X0.~.0.*.W V.` } } e.} ' < v 1 O ].m.`.ZXnX&X&X&XS. Xl.5.h C -.;.:.= 0.q.q.y e , 6 ^ & 5.t ` e.b.} R.OXq C p K.Z ^ ) q +.( l ! c W r.H.` ..v M g F.f +.{ W.9.D > lXQ ^ q P ! W P ! A & h v l 7 k 9 P ! v } C & gXZ.Z.x.pX|.'.B.e._ 8X` c | }.{ ! R.3.uX& X.Q.$ c c c ..F.R.P.@.Z.H.F.^ gXv V.4.g P | 5 + }.e.`.r.m.V.t.V.].V.fXjXhXnXl.S.Y E Y C C 7.Y b h t 9 Z h 5 8 # m.hX' ! n.>X",
"x l } a.w % V.b.' V.`.m.P.R.'.p.E.| ].[.0Xo.r.y.' t.7X5XK.J.i.H ] O.H A S h } B.^.x.^.. sXmX@X@Xx.(.-.8 < z N 8 $ * % @ 8 < * * h 7 $ & < = c [.h S 7 u : $ v }.`.}.' 5.:.  I.Z.Z.P.vX&XdXOX|.B.D.I l.A 8.*.% e *.0.=.*.s * y 6 & I C.r.R.gXt.n.P.z 3.T Y ) O.b._ ) m.f l l & ) o.n.Z - Q c GXg ! ~ P.[.*.q b 9 P n.l b c r.m._ z m n 4 - - q l q ~.5.q b r.pXE.N.6.8.$X.XsXB.gXqXM +.AX` $ $.k 2X2X/ y.n.W.` 9 n.NXc k M W ` +.P.0Xn P ( ` u.b 8X1X}.m.].P.V.K.].u.L.a.u.[.`.=X*Xc.(.*.z 8.}.l.I r.! v ( l l V.I 7 q m.o.E.eXO.",
"~ ( } A >.w h I.P.R.5.3.].m.p.) ].I.I.qX`.,.0X` e.].2XgX>XK.o.S Q H S A ' T ( ).C._ 6 N.7.Y =.1.T x.7./.5.V O % * @ < q r * @ * , 1 I j f O % $ S h < - < j $ + 9 :.'.q u o n.Z.m.Z.oXCXbXgXrXH.p.t.'.F 0.@Xh ,.1.0.=.=.c.&., * & l W.P.m.R.E.y.Q A Y 9XzXl W ` ) ( b.{.N.Z E.5 ) n.m $ + @.n f Q +.b.T T w <XwXP Z @.l r.W yX5 q 7 k.G l 5 } ) ) +.l P.{ ` M.R.~.>.c.0.XXHXpXCXZX@.,X}.MX} g M X.q m.E.R.P VXy.#.>XE.5 9 $ ,X< v Q >XH.C.9 V _ z ' tXP.I.I.r.I.p.V.V.Y.pXs.nXZXZXaXgXgX2.B.S.gX5.t.r.m 5 5 6 S I ) $ E.>Xy.` Z ",
"@.Z W I T *.X P.' N.b.U.m.A.).5.V.' C.p.).5X` W w.d.K.r.G.2X5XX.Q S ( Z ^ A < w._ e > OX&X-Xa 9.7.*.x.-.Y E 7.% > , q X i * % @ q 1 A r S c $ O ~ z 9 [ <.D , % 2 F 9., p y ' r.n.W.Z.H.n.n w.w.S.%X^.F (.@X$ u.0.=.%Xc.c.c.9.u X v G.m.+.n.K.I w.Q ( t.o.l ` Z Q Q } ` 8XT +.| v $ 5 4 ; + 7 9 G   O.p.C F m.VXb b ^ >X9 9 ,X= f G G $ Z l { o.{ l b r.{ Z.`.|.$Xc.q.#XfXNX1X9XvXO.1X,X>XR.l v ` X x 6Xz ) <X}.W G.R.6Xm.F.rX].P.f 5X7 Z v P ( _ A 9 Z Q W t.NX1X( H .Xa.).3X).NXqXB.'  XpXA.D.r.f Z b ~ J.= = 6 % 8 = +.{ y.,X",
"i.U.#.o.| 4.*.. b.tX{ 7Xy.4.V.1X1X3XC.,.fXt.` Z CXK.o.n.5XY.2X' o.Z v 2Xb z c z 3.N @ sXS.-X0.[ l.;.!. XU E -.E p E > * e > * 8 < 8 e._ < 7 7 + g 9 q x 8.C B w p *.0.> 0.F A V I b ` m.3.:.9.p.A *.^.c.0.0.% :.g.~.#X2..X(._ N 8.B - #.P.+.HXQ } 6 } } eXz b ! +.Q W n.Z.OXA.. z # F.Q ; $ 7 7 h G qXu _ >.` #.W W P >Xo.f yX^ o.= ..g g ..k K W ^ | ! r.| +.A.^.@Xa .XpXt.qX1XHXQ ) ].HX}.7X~ @.7 $ < W.P.wXH.O.F.o.{.6X{.+.gXV.Q P V.y.n ! | C.Y B.8.u % G.hXhX[.' v L.).[.I.1XI.1X`.I.1X{.N.V.[.E.O.A <X) V Q t b.y.7 2X@.,X",
"G W b F.c Q e.1.  9 E.M.V.Y ) 1XR.qXzXe.].P.O.K.Y.K.e.y.i.K.( ' i.` K.G.' <Xb I 6.i % oXS.#X7.(.7.~.2.C.p -.-.-.p ^.l.x.-.w w 5 8 < 9 N.N.w 9 X h 8 $ h N.3.q q D u 9.D >.*.9.T R >.r ~.0.1.1. X_ B.B.(.kXY ~.$X:.*.OXD.[ E.z P.} !.w N A a.Y.] w b Z 5.BX9 y.( { { ` | M.+ ! ' 7 ) z.oX; w b.m.M.+ ].w F Y > F.K ^ W F.0 l / W 7 wX7 k b g c g k P { I.W { Z.t.^.*X=.fXqXfXBX!.0X9X3.Y.gXgXeXeXwX^ & c E.W / @.W.E.Q <XW 9 o.r.u.u.+.} 7X9 l U.3.B._ =.j.F 4.i.' 8XlXgX2X0XlXlXz y.T.8XqX5.H.V.M.sXp 5X` m.| Y 5.Q 7 u.F.O.uXJ.",
"G W >X+.O.Q ~ |.0.>.N Q 6.N 3.e.7X].).I.0XY.z ].Y.w.( O.X.w.Y.2XH O.z ].Y.' V.8XN h $ oX~.(.=Xv.9.-.5.e.p *.E -.y , 6 *.*.*.-.# h q O.8 I.A h X 1 6 % ) 6 Y u.I.> 9.w 1.9.>.*.1.:.>.1.9.s.0.8._.Z b.{.R.gXV.m.XX9.B e.oX6X$ #.b.oX6X:.>.N A u J Y V q 4.' l +.) V +.! o.Q N.N./.T V 0 _ V $ $ 1 9 < & ; & C <.W $ h + F.7 g b >Xm l - f ` l c c b n b ~ z Q M.'.}.pX~.fXfXNX'.fXCXzX<X<XU.b.lXBX= ) $ 7 +.eX>XJ.P.r.) wX{.9 M I.t.| K.I >XW Q U.` p.*.0.T A V.` eXu.qXeXt.t.V.) z 7Xw.}.).7XHX].Z.Y 5.) b X.o.R.MXY } M.W U.#.Q ",
"+.) ^ Z W ) P.r.n.(.9.>.9.~.C.Y e.qX!.).A } ,.K.P.' ].Q >X' 5X} y.H ' ' m.L.I.P._ S . }.aXnX=Xv.x.v.].i 2.~.E -.9.-.l.*.7.*.;.;.N ( r z Y ' C Y _ 6 V q I b.6.3Xw e 1.>.:.T *.>.:.*.*.1.4.[.p.wXH { #.+.o.H.F.t.~.*.5.eX{.#.{ W b.I.8Xs.1.F D j ` z 3.*.( S Q P +.+.| 8XCXnXDX|.r [ >   _ O f # > 1 # $ % w u 1XC D > o.^ h ! lXl #.8 g Z 9 l W W ! 0 { o.o.Z.b.m.[.[.3XpXC.w._.HX3XhXz MX! U.E.[ 5 6 $ 6 P.rX<X7XA <X+.E.W.M #.) } } G.o.~ n.m.P.N.!.8.( 1Xt.<Xo.V.R.r.P.I.b.1Xn.eX1XA.MX<XMXm.wX5XrXF.` b ` I.VX].m..Xw Q.$.W ",
"y.w./ { eX) ^ o.E.Z.^.9..XD 5 3Xt.B.pX'.p.I.3XK.V.e.MX' ( X.' Q lXH Q K.).I.}.I._ `.) pXdX=X&X(.&X/.8Xz -.~.R -.x.-.B.x.D ;.#Xx.N G V u.G H I Y I R t.8 V Z.[ C I.Y T 7.s.*.T <.9.8.>.4.e.`.r.O.` +.M.m.n.o.k.Z.~.D S m.+.E.r.W n.A.K.8.<.1.,.e w.w t.a.v Q r.W r.` r.r.+.bXqXtX|.OX< 5 D c.% w C s.6 & h - 4.p.N w e.e j < h = wX>Xf ^ x & k K Q t.q A Q | r.b.N.I.1X3X9XlXt.).[.gXgXZ P.<XPXP | l.X v > rXQ P.) >XH.J.{ >X~ % m.t.t.>Xy.P.@.^ | m.Z._ V r.| m.} V.| ].r.].} t.E.n.m.I.I.].<XVXrXZ.b.@.w.3.v } MX+.P.G.h rXb @.",
"` ) r.Z W P.o.` ` R.!.F 0.0.9.F s.p.u.eX3X3X).$X[.].e.lXd.A i.) y.Q ] Y.S qX3Xw.' 6XT dX.XZXaXkX=Xx.p.x * /.(.-.*.;.E =Xx.x.(.+XB.B.8 t.].Q Y 4.^ H 5.V & z C X Z ~.T T _.,.Y T 4.4.B.p.5.b.J.lXQ R.m.n.^ >Xo.{.N.>.j { +.r.gX1XZ.`.hX4.9._._ 4.j N _ fX( W z Q | { |.t.Z.6X6X[ {.OX#XA < e i @ ~.E = ; = y.U.AXI Q ' qX5 j w w # uX>X7 w b v b m 5.p u ! | R.b.C.A.I.9XzXBXt.).L.pX5X2XwXy.o.,Xb.N.!.O - <XP.+.F.J.>X! M.t.S r.Z.P.) W.].e.t.t.+.+.I.I.( r.+.P.n.u.V.`.m.pXE.I m.w.|.5.7X} #.r.y.MXwXuXG.' MXm.Z.<XW.m.E.Q.y.,X",
"` E.n.n.Q U.{ o.$ $ :.*.).*.~.1.>.V.( ].I.fX[.s.e.1XK.W u.eXu.2X) z w.W w.Y.i.' u.0Xu 3.!.A 7.~.p.N.u.E !.w -.l.~.p D (.8.~.&X(.l.R ( ( r.z O.K.G Z 5 C 5 Q P q 9 ^ p.( T 1.~.T N.B.6.3.} W.H.@.t.P.R.8XE.7XW.P.I.c.9.q I.m.<XV.A.` 8.5Xg.e.4.a.D C :.2X` W O.t.V.) m.P.M.qXR.b.N 1.;.a % 6 9 C < Q < I 9 ^ W ) 9 ~ o.9 l A z _ N & >XW k u.q 8 V p B ( Z.[ [ [ A.9X4.].jX2Xt.pXfX2XlXU.) E.yXA z R.8X!.m @.M.>X` W ' ,XJ.` ,X! o.{ {.P I.) P.+.U.b.V.r W.AXm.E.P.I.].6Xr.{ t.eX{ <Xr.m.r.7XVXr.W.Z G.v n.( P.M.m.m.E.eXE.H.n.W ",
"O.K.y.) i.m.+.` qX{ *.T s.v 1 9.1.'.1Xi.0Xm.I.[.a.L.K.i.5XrX5X>X>X..( A ' i.r.m.' V.a p.&X*XkX(.+X~.w.N.#Xx.&XR *.D OX=XN (.(.qX8.2.I.Q ` C ) ) c % U h X | l | % | '.( :.e t.r.( e.8.t.) { { o.n.V.^ ^ 8X) +.tXqX!.^.i NXV pX8X{ P.!.9X>.9.e.:.,.,.N ( h Q w.| b.m.Z.Z.P.{.7X' Y ~.*.;.E > 5 $ * + m & g O Q >XwXc @.k W l ! _ Z $ f 1 l v z u u p 2 W r.V. XI.`.|.1XqXAXa.L.4X].9Xu.wXZ l Q.r.9 t.lXoX) < wXwXH.MXU.n.@.^ F.7X$.+.+./ } q | n.} t.C ` n.U.P.r.E.r.V.V.MXI P.^ +.H.C Q U.r.Q u.Y.m.E.i.A.| M.0XE.7Xr.b.H.J./ @.",
"P J.+.r.} | V.b E.$ , 6 =.kXh '.XX'.fXa.B.e.u.L.pX] >X2XY.1X3.>X#.Z ) A i.O.' P.Y.).c.^.OXS.dX=XdXB.m.[ =X#X#X!.p (.z R.< 5 !.e.N.I.Z r.w } e.rXV ) 2.| 6 | t W.{ { r.S 4., ( ' } D _ e.W 3.W  .o.r.Z.6Xr.Z.n.P.H./.c.F C.].} }.sX X~.XXaX4.<.2 <.' f.8 ] u.Z ) } ! +.+.) 8X8XsX&XdXl.v.v.l.E & < < % X.- ,X$.O @.-   $.+ = O ; $ $ F.r.5 2XN C p p o ! 5.M.m.C.`.I.{.qXqX3Xu.qXfX].e.U.v G.O...S q y.<XB.5Xc { wXn.wX@.n.H.6X{ b ^ wXK ^ b ` ! o.N I | m.+.y.r.| m.E.r.+.>XH.F.W.I.6.P.Z.o.MX7XyX) Q y.}.V.A.5.H.U.n.{.n.0XJ.<X",
"| U.y.#.+.W.m.! b 9.>.e y.qX} V.U.l d.i.~ s.C.!.pX1.9.X.2XY.r.y.y.Q W Q Y ' W A a.g.j.kXQ 5.&XdXhXAXG.I /./.kXN O $ :./.~./.2.@.MXV.t.' <X` r.E.I 5.r.r.7 z b { ` ^ u. .e.4.D Y 1.^.c._ 4.e ( { { b.M.Z.R.Z.+.Z.Z.oX.Xc.A V.I.Y.r.4X.XpX$XXXD :.1.T <.h ,.,.u A w e Y Y ) r.R.oXoXsXc.x.OXl.x.8.r O > @.X J.- & ,X9 % O O 9 l W IX= f ; 9 A N e u D   r.) P.P.R.V.R.8X6XpX2Xe.y.0X}.K.5Xv VXrXb Z 3.A I S {.c Q O.+.A o.| g U.P.o...@.k.o.} ^ +.( :.c + + <XQ | P.m.F.b.y.| n.r.e.7X} 6 ) n.n.uXn.O.+.A V.I.I.R H.W.P.b.t.b.Q W ",
"Z ` W Q W b W Z # + 2 + ) +.+ 8 0XI.{.|.+.Y.pX~.~..X.X!.1.G i.G.Q ` ` _ V.m.u.e.9.9.1.*X< dXdXC.t.9XpXA R 8.kXc.#X/.(.!./.C ( V b.) 8Xb E.m.P.' l ` { 1XM.Q Z / { ` H.E.r.B.1.0.1.:.9.0.^.9.T q 0 ) {.R.b.Z.n.R.V.b.{.kXp t.V.].8X1X3XjX$Xh.D g.D 1.<.F *.9.1.*.>.-.9.*.i r N.!.(.kX-.OX.XOX~.l.I ZX> 6 X.l v ..l 7 ,XH 9 < 7 W = $ 7 5 ; 7 w e u u O { r b.M.R.|.R.{.0Xt.P.[.V.Y.eXY.y.Z VXy.z x +.AX*.` b M.} W.wX#.<XH.8 { Q F.>X+.>XW m % h q 6 Z 5 $ & F.>X7XH.{ ) +.F.@.7Xm._ >.~.C - I e.x o.H.G.4.).p.8.e.7XeXZ.N.e.t.8 ",
"| 9 1 { } { N.0.0.$   ^ ; Z R.X v V.m.R.<Xm.qXpX4XXXs.s.1.pXH @.X.w.e.( u.u.e.T g.9.g.g.F X 9XhX|.3.qX5._ ~.(.^.Y [.:./.7.z ' @.K.qXhXz eX( ,Xb W 3.W ` W { W ~ o.r.+.$.F.8.T >.0.0.c.0.c.1.=.>.7., 8 b.Z.oXr.Z.Z.R.E.nX$XW {.E.[.V.u.p.~.0.CXB w 1.B 1.*.>.h.9.1.9.c.0.^.(.~.kXkXmXu /.Z.sXZX7.OXl.w v & & 4 ^ l l l KXA Z $ J.f & O 4 7 l ( u w B T t.S.w } `.{.oXR.sX6.V.).I.< ` d.lXE.i.` 7XP Q I.).3X% Z MXr.t.  J.H.+ r.o.Q.o.o.$ 9 c $ V 1 ~ z ( - f 7 +.l S W.P.G.U.K.P H.` |.s.4.B._ q >Xl Z w.3.^.8.p.5.5.U.t.b.5.p.+.",
"` V 7 - >XW I !.'.dXX % = 5 z y.n 9 = 7 $ = $ $ 4X XF ).*.,.F fX1 ~ ' O.m.2XD >.^.s.9.$X^.aXkX:.e.` e.( pX_ & hX$X.XC.aXS.T i.K.S 0X3X2X/ Q O.S Q r.` W I Q ` W P.! { P.r.:.>.*.8.x.#X^.0.x.0.~.9.[.u % Q r.b.R.m.vX].qXpXg.Q '  XpX9X^.~.s. XaX*.e e ^.0.=.^.$X4.4.6..X/.!.pXU.ZXDX^.gX/.b./.! sX.Xl.pXJX7 : - ' r Q wX7 Y C Y.l ; + l h 8 + B B 1 I { M./.S.(.t.b.{.8XeXt.|.].Y K.7X) n.c G S W O.O.rX<.F , Z F.MXF.9 H.= P.f rX@.n.x $ Z & h P.S #.) ` / c f } { ! O.~ ` o.@.o.` m.E.A N Z Y.AXl } p.C.).qXtX9X!.e.C.8Xt.r.m.",
"m.W o.8 ` Q ! ) E.{.r.# 7 G # ` q 9 5.[ t.`.} ) ` p.4.qXs.a.a.u A N A H u.e.:.9.<.8.p.].sXZX9XpXhX9XD e._ aX'.pXhX6 N hXB.CXw.<XH tX].u.i.7XW v O.) Q Z b ^ ) ! o.o.+.0X X_ B.~.T ~.B.B.qXV._ P.qXA.6.B.:.6 V R.P.P.m.8X]. X!.C.5.).jX].G.( ` 4.A q 1 s.g.9.<.~.t.N. XZ.m.H.{.tXCXJXdXV bXOXV nXOX+X8.hXI 6.w - / @ e $ w.q @ g G $ < l - = 7 O F j W | r.m.t. XpX&X8X| <Xr.0X| 0XS Y.} ^ >X! 0XQ 7XP l q e.:.G.^ H.7X$ ! ) r.Q W.+.>X7X& I.D , Z I 7 W ) = l $ : ` ! n.7X/ Q } ` l W / n.A I.2.0Xw 3.' ].qXR.`.W.`.Z.gXb.o.yX+.",
"v A.) $ - b Q >XP.R.A.5.!.. @ f 9 ) + C.t.} I Z Z [.V.gXfXT e.B ) _ B S a.C _ <.:.pXt.u.Q pX[.).zXgX'.F ). XpXt.hXu.5.' e.NXw.i.<XqXW.K.} ` ^ ~ b b W W o.c Q Z | I.t.{.N.Z.S.9.T B.|.8X} ` m.P.V.K.I.OX(.^.6 m.m.6XAX+.A.V.t.r.[.<X} 9 w.Z Q p.i.N 8.[.C.4.<.4.V.Z.P.M.b.Z.R.R.Z.rXdX> bX&X5.OX&XOX|.sX* v 7.&XE 8.E.6 = X.C.t.6 g A q j 6 q 7 3.} 5.t.y.t.C.t.`.AXgX4.<XW.H.y.J.w.Q ` W J.h b W Q ~ J.q < 8 G O ! yXQ >X8 n.wXb wXJ.W - /.x.g >X5.z = Z 9 = Z O F.` IX/ e.~ m m ,XX.` H.Q q } _ ( I Y.V.}.1XP.R.0X`.e.y.( ) F.",
"Z W ! % + $ y.b { t.Z.5.B.2.S.I.& + l m $ z Z e.4.E.<XlXqXm.B F p.4.9.p B ,.L._ ,.4.I.e.3.t.3X,.y.i.].dXD S [.hX' I.) K.b r.G N r.Y.P.' r.Y.W o.t Z W b c W #.P ! r.^ m.o.| R.~.p 5.m.r.{ uX0X` W m.Z.| {.pXB.P P.b.J.b.Z.r.].}.I.+.pXe.r.P. XV.% S p.a.).C.A :.V.+.R.R.b.Z.`.Z.R.qXDX&.Z./.CX/.CX/.l.AXl.6.7.=X^.x.9.C @ GX2./.pXq 5 7 S = 5 % # 5.5.V.{ ) S.!.`.B.sX'.} @.{ ! G.5X! <XQ lXl ,Xh } F.P d.Q W c = X >XO.U.A.W P J.$.J.N.! I t.N Y Q < & U + 7 & l $ g c H.o.y.,X/ n.b O.l W.m.Q +.} b = X q 0X}.Z.Z.n.M.Z L b u.",
"e.J.} Z 5 $ = W b ) r.B.A.tX6.S.C ' * ^ & I h 1 r.<X) E.Z VXGXO.C.g.s.4.B hXe T 4.4.2X` a.]._.i.Z i.` fXX HXw z j v 7 u.].) i.) G.lXi.r.t.d.W @.l ` ` Q K n. .o.O.W { { ~ n.0X^.F b.P.P.} `.P.r.x 5.e.e.t.R.N.N W R.r.) P.Z.r.N.t.[.9XV.0XI.' A.+ t.g.w e.4._ _ t.+.Z.R.Z.|.P.Z.R.sXAXq.e 8X{.dX+XOXN.OXOX(.l.-.E T 9.E * * r NXW z S l v q @ % & - t.V.n.].5.C.].`.A.8X X{.} W 8 I ` 2XQ X.+.G.Z b Q.W yXJ.x #.y.F.v E.>XU.l U.| ^ >X5.Z w 7 C I V.5.z ` |.9 Z - / c ,Xo.) v ^ r.G.m +.o.Q b b Q.I e.A.q 7 Q V.P.}.qX! W n./ H.",
"VX5 O ) 9 f $ & ^ Q t.I.[ t.A.R.4.1 < D.I c y.v 5 <Xu.i.o.5Xy.O.e.p.zX>.~.C.,.t.a.w.K.' 2XV._.G.i.@.V.I.: jX9XL.i V c Q O.2Xf A Y.K.y.m.E.xX` n.^ v P.#.P F.r.n.m.<X/ o.~ { E.&XV Z.R.b.r.r.5.r.y.O.w { m.Z.7XR.1 m.b.) m.6XV.r.P {.E.+.K.K.].A.v y.v T y !.4._ V.Z.V.R.b.Z.A.qXZ.n.{.9.X bXDXZXdX`.SXS.D.[ (.v.7.gXE 6.6.Y 4.l.7.b.l % % X O ) e $ = 1XV.].).|.fXqX| [ R.b.N.J.JX,XW 0XN y.>X..PXwXI o.v 5 >XyXY.h o.5X>Xn.+.wX} { b.Z.N.V - 2.= ) Z I U W I b.v h l / ^ y.O.o.7 F.Q.^ ^ ! O.b o.<X' w r.w f } |.| x w.O.| ( AX",
"m.{ 5.+.q F.b 7 b l u.C.t Q b.9 lX[ 7 e.% G h 8 1 F.@.8 9 $ l W G.J # v 9 ] 5 ,.C.].1X) I.I.K.@.v i.u.[.)..X$X.X:.e.5Xq V.0XI w.+.V.m.yXI b X.@.Y.& Q ! ) ! { y.r.! o.E.{.P.E..Xu E.0Xt.o.^ ! Q Y.Z I w.Z.M.+.n.4.Z Z.n./ M.+.| H.` m.r.E.@.3.Q 9 G.} ~.u w [.8.V.I.b.| r.+.Z.Z.`.H.`.9.F l qXgX5.b.6.Y bXOX&X#XnXE Y 2.|.2.$ U .Xp.-.7.E U % + > % # ; G.m.N.{.Z.R.b.GXo.{ K.I b <XV.) BXw.F.q Q +.lXU.V.9 o.m F.c o.n n.y.m.m.R.o.` MX) Y X.Q ) $ +.y.) 7 I 9 ! l n.m ^ y.~ @.MXn F.m U.Z k.! h { z [ ' w . X $ q >XO.g j ^ Q ",
"Z.m.! & { W q ..yXQ c <Xq K.J.( Z 6.O !.R v l & & + b o.n < = 6 h c t.w j ( & X < v >X( BXu.0Xi.5X9 ` K.e.jXpXs.B.' gXO.1 I.S ) ! P.eXW.E.wXO.y.>Xl #.b ) O.' V.t.e.n.P.n.m.{.$XC.P.0XZ.P.o.#.x { ) t.+.I ) 5.m.|._ m.H.y.b.1 n.) U.{ W.b ^ ` W 9 z Q I.0.p C T V.I.R.].R.|.Z.I.}.6XP.aX=.7.6XAXAXbXdXS.vXS.vX*.6.R `.R a Y < X tXOXl.E 2.!.Y R ) > = f = + R.R.7XM.7Xk.>Xr.m.Q 7XMXe.<XC <X>X..A ) lXz J.>XwXwXwXxX/ / J.#.W.BX) { { n.[ P.iX8 R.= ! I t.` O H #.o.6 X...m.+.o.n.y.J./ f b ~ ~ 7 b $ 6 l I 6 W `.e 6 m.< v v Z.",
"m.b.|.e V $ #./ 6 7 ` VXw.eXV I U Z.- Z./.gXr MX) W O.U.M Q 9 Q X.q 1 Z J e q * q v % + 1X5XeXrXGXH H <X3X' :.H u.) ,XV.w.' L.A ` O.O.o.yXq v wXeX~ 7 P ! ` r.u.r.{.P.E.K.V.{..XC.{.n.r.y.^ l b b m = r 4.Y P.E.R._ R.% 7X^ - ! o.^ o.wX^ @.) h 8 l A ) a.g.s ( < ).t.5.| p.A.|.].6XsX&Xj.B.oXbXN.OXdXvXOXB.I 5 /.[ @ E i x.y X 6 6 l.U 6.6 8.* Z ) 5 Q r 9 5 @ 7XF.W.0XQ.6Xr.{ ! MX` r.3.K.' f $ : I x ) d.BXeX5XMXm / O Z I.Y.U.} U.P.r.Z.b v } P 7 ^ NXV.` > 7 W | P l ` { H.^ +.m.h @.h O.n.` b b.Z ) 5 1 1 p u r.0X3.E.8 o.",
"6 q qXz.e.= 9 + ..< h o.{ A t.W.[ m.t V.} /._ f ' o.v M % J.q < E.$.1 1 h J F < % v Z + I.].>X5XT.Z ] T.[.hXs.CXI.] Y.U.G w F A z A u.eXN ` ( H v l +.b A b m.t.I.P.u.].P.{.t.$X0XE.m.P.VX,X5 9 ).e.D :.} V.M.+.N.q | b 1X7XQ ' | K U.y.! +.+.2.8 ! Z ) O.V.9.u B ` I.m.m.I.].).I.`.V.B.@ 9 nXvXb.bX) Z.bXmX;.(.t.!.N R 8.Y l.p r < z z.5.l.z S.z F.d.* q % t v 9 $ |.E.AX{.MXN.h PXX o.Z 7 7 v y.JX; BXr.#.rXP HXr l xX7 ` >XQ ].F.) n.wXI wXZ ( Q I / - +.R.b j l c W +.,Xm b @.b Z i.M >XW l | } = r e. XA u *.% 1 <Xt.| T z ",
"9.*.6 r I ) r.e % F.X.F.b V.N.N.5.Z.2.OXb.6.= Y w _ x b.6 } % % h N E e.j h S # > ' ~ q 2XI.d.eX,XQ u.X.T.4XC.].I.z gXy.O.w i ,.p.A ).0XV #.y.xXuXz W ` P.y.3.t.P.A j w 5.Z w V.<Xn.| ` >X/ 9 N ~.s.Y { n.X.m.+.qXN.^ oXI 4 9 Q r.n.! y.m.o.y.x G c Z A N t.!.9.=.1 K.1XI.t.`.).].V.t.T x.b.9 {.qXb.A.DX^.HX9.dXR LXR I.l.x., o Q % @ I &XY x.E (.5 5 % 9 % % O { 7 - + <X{.>XyX& | 8 @.F.1 HX% ( J.c $ D.9 qXE.<X^ o.= - P.>XeX! b l F.Q E.@.o.9 V ` 8 n m Z.I q ) v - m m / #.h 9 >XU.o.Q ^ x n b b ) q I $ % 1 i O.l ~ n.` N ",
"e >.3.z & ) 7 Q - 6 m = % ) I e.Z I Z.sXR !.(.8./.b.E.w w B.C p E ( w G 8 h [.e P.p.N & X.eXVXwX1 ' eXA u.a.' 2XeXh r.5XQ q ,.] t.V 3.Y.h ~ wXrX~ l y.o.r.W Q j F h.a q.0.< ^.w.Z.I.Z.b.I.` H _ V.O./ } +.{ o.n.R.*XV.}.E.f 7Xb Q ` y.y.F.b b O.v - ) W Q } 5.pX0.D N m.V.u.t.[.N S '.8.C }.N.vXSXsXsXOX(.@XT CXhXr ~.(.x.=X-.d , 6 = # z.dX_ V.6.>.-.r x.E A.5 8 # MX6X` n.o.E.F.W.Z.b.) wXZ ! 1 eXG.9 ` Z [ v 2XKXKXiXG lXyX$.z ].] :.` B u.7 l Z t.q c 8 $ r.7XQ W <X/ 5 l $ G W ~ G o.m m / ` ) { 1 ) Y l.7.Y |.h wX7 { C Y ",
"V F 9.A :.5 v W V A % % = v Q S Z.Y '.{ Z.E ) r E OX7 >X= P.Y 5.4.l.S./.8.6.I.# a.G % ( W m ( 0Xr.fXeXK.lX>X,.gX' lXq t.Y.N 4.0Xu.8 2X^ b y.uX^ ~ c O.; j ( F =.0.c.~.$XkX7 `.6X1XR.6XV.] ` P P J.o.x +.o.~ H.P.+.P. .o.8X4 | ! U.Q P U.{ W l E.c = < Z } ) t.A.$X9.u } 3X} P.fXpX XAX*.sX1Xr.X `.I.VXZ.ZX`.-.;.>X/.l.-.&X-X;.X % 6.y & @ 6.8.&.Y e *./.e ) ( R.& E.bXP.6Xr.Q I.| W.qXoX7XS.`.N.p BX{ $ ,XeX>Xx >XV.,XO + T.1XF L._ I.GXsX7.pXY w.H 5.Z.5 # c b +.l 7 o.z 9 @.9 $ 9 @.9 c VXQ b } o.| +.P b l 7 ) | A 2Xf v v z ",
"A q S ] 2.R } h z I [ m.8 ; M h < < 8 2.!.p B.N.8.mXdX` 0XC C  Xh R 2.B.A % 8 # 1 S 1 [.a.5XF.,Xv 6 ,XY.0X5Xi.T.u.Y.t.O.Q h 4.,.p.9 +.o.#.o.Q m.Z w B =.9.1.9.9.g.X pX[.t.R.fXhX_ rX>X! G.d.P ^ { G.I y.W +.{ k.@.F./ H.! @.b.VX{ ` W F.>XF.9 m.S & wXZ A ( 3.e..X=.1.@ } V.I.V.fX9X&X~.gXZX Xe.Y = < f Y x.=X~.q Q O 6 X   v.z.x.l # % % 8 & 2 (.#Xe O & U.5 v l | 7XrXA.H.y./ / rXMXoXqXW.gXsX:.P.U AX{.V W.lX) 9 A 9 d.pXpXT A.Y lXP.` HX`.D *.*.T N % 8 h f Q P v h w.q z } 7 6 #.f y.8 h MX8 J.} e.M.} 9 $ < 6 v M b h c v ",
"{ } f 3._ :.e.z q 8 < O 9 Z 7 = $ I A N E (.&X(.S.S.sX).p e < w N 5 B.8.~.x.4.8.K.1 1 8 g ' Y.X.9 H f G h zX5X1Xu.O.e.Y.J.( O.H r.u.o.G.G.lX7 ` V u T _ 4.4.` t.'.X V.fX@ hX8XtXOX9X6XyX{ iXX.9 F.F.W P.} n.! o.wXy.W V.h n.U.J.BXz n.Q ` >XJ.r.x 9 6 Q ) O.3.4.1XXXD e m.].u.e.C. XB.B.zXe.v _ r r R Y r e E l.;.-.0.-.l.y & X -.;.l.-.) < h X.q a jX# > e * * y.r.A.<XH.7XPXH.o.P.MX+.| z qX} -.).2.C.KXW.IXT w HXGX9 9 JX9 H.VXBX{ >XK.#.S.fXlXq j q 5.Q c $ f m W m.) b.( 5.) [ Q d.) Q m $ ! ' 5 r.l z ) V @ S @.^ 7 g w.! ",
"P W l - 5.` t.O.9.2.i = + 6 + ) + 1 $ l.7.6 l.+X8XC 2.U E 6.V Y r 5 e 9X7.fXu F lXu 5 1 9 X.MXX.& Q v T.U.wXY.<X` y.,XG 5X7 y.H Q lXN Q 2XE.b 5X` l u.Z ' X.' r.9X1XP.t.# pXfXfX9XHXW 7Xv ,XV.; g ! Q V.` +.} +.= { n Q 7 r.{.P.E.` ^ b Q n.` @.{ q S S W ) 4.] u.1X1.~.A w.).I.a.pX.X' CXA.~._ 6..X|.OXx.;.x.p &.v.=X;.v.&.X ( =.y -.~.;.mX/.i < 7.u * * P.U.= M b.b.HX! Q P.! n.rXgXrX8XgX}.).4.C N.3.B.s.hXD u sXCXHX..- 0XwX<X+.lX9 v 9 Q E.p.5 h O.f r.z 7 7 l g < I t.B.' V | |.v rX<XV.t ` { u.M.5.O.Y Y q = ^ & Q wXS o.",
"<XiX% = 5.t.l.T ( 4.:.Y W l t 1 W 6 V # 2.C 2.R R r W.Y.r e G.R e 6 h r 1.T u D A E.N < < / ` $ w G h H J ~ K.2X>XF.7Xw.w.i.( W ^ G.E.h W W.<X>XO 9 5 S 8 j Q I +.r.Y.qX. hX8XgXhXY.h 1X6X,X| r.J.Q.b Q.F.W 3.gXh W b H.$ | O.2Xr.r.` @./ P ^ G.$ h v O.m.( ,.] ].3.1..XT ,.,.4.p.e.~.e.].qX5.6.2.E .X|.w 6 *.x.-.-.;.nXx.&X6 o = *.=.p x.Y.~.* * * , 8 1 @.9 6 h U.R.qXqXO.yX` Q <XwX4.( qX5.AX<XQ s.^.*XaXaX$XB.~.AXt.MXeX` >X6XR.].5XU O.Z OXR.W P.% f V.Z.A.5XA 7 M } Z.I z W Z ' { + lXE.P.d.7 H E.E.) ) m._ $ ) Q Q } { 5 ",
"Q B.4.G h }.{.A.~.(.=.D *.< R /.-.p i 7.w E R l.A.6.r.V [ 6 | r U A % = < :.D F T y.hX> W ^ H ; z N G h GXy.u.i.BXW V.rXz G.d.o.i.O.` ' A Y.v ! z Q l X.A O.y.].V.e.t.vXX gXpXqXqXHXI.A.lX>X! +.W { W >X>X^ ! #.9 Z.9 U.b >X3.qX| ^ E.v @.>Xl W 9 H.Z W u.O.) e.,.F *.*.u '.).p.g.'.~.5X8 l 8XC.T e e gXE x.=X&.;.;.x.(.x.&.e x.;.d *.&.d a =.a #X9.> w v & 5 5 Z.| { HXV.y.yX^ W.lX1XC.gXgX) GXC ~.1.B s.HXhXCXHXAXC.) ! BX].R.qXP.rX|.2.} sXw z.1Xq w Q & l 5.V.Y r.@.P Y n.& @ v 9 b | m.! n.w.O.G.l m.m.) b.b.9 % b } r.[.[ ",
"5 ).Q ) lX~ k n.P.Z.8.x.!.E H V /.l.8.) N.!.8.l.2.l.-.} C C -.C Y |.N 6 5 = *.B 8.e 6.B ~ #.Q A 5 _ z #.<XHXd.>XVXw ` i.G.H v X.U./ y.b o.J.J.Q { o.h v ~ H H ( P.) r.hX. pXhXCXgXHX- ^ >X7X>XP.>XF.U.+./ U.@.E.o.U.O - < >X` { 7X7XN z d.^ ! >Xf U.` v K.` t.( 9.9.1.D J a.' L.pXgX_.pXT } P.LXO [ 2.Y Y -.x.v.&.;.-.(.-.;.s a a &.o y ;.0.$X-.0.ZXY &X7.i F.) b - MXX...) ` +.<X1XT.X.>XxX' fX:.aXmX@X4XfX1Xe.V.Y.i.9 @.K.5.`.7XE.^ {.+Xv vXR -./.BXv X.b } rX| r.` eXz 9 b.) l c M 9 9 PX .+.r.PXl 7 9 V qX5.) W <X0 P % A.I ",
"S ].w.H I X.5 = eX{.}.6XNXI 5.Z Y R R Y c tXOX{.R.C -.5.5.Y Y B.3.C.eX5 z & u F :._ V.C <Xy.:.q u.w ( v }.f d.` eXw.W.H.O.2XH o.S ~ n f M Z O.U.~ c 7 u.Q < v Q w.o.' 9XI.pX9X1XfXAXnXY.>Xn.m.{ y.].H.E.,...A rX6XtXvXb f ,X/ h ) ' <X` G.#.@.>Xc { ~ A r.m.:.T a.V.p.T ( ( i.L.2X2Xj HX3.} r 2.E !.7.v.SXl.v.v.@X&.d ;.d v.(.FXq.FX*X&.$Xq.&.pX=X(.j Y `.5.b.ZXCXF.tXqXlX` v Z C L.w ( fX3XLXeX} 0XqXqX].' HX2XQ ' K.|.P.l qXMXtXE.qXt U /.dX=X(.7.-.i 5 N N.Y W 5XZ.b B.b + < 1 l V.m 7 7 <XY.I.5.'.t.b { BXI / P.b c l = 9 s.",
"+.3.'.hXOXnXbXV.Q R.qX8XgXy.pX_ S Y l.7.F.U vXvXNXl.8.{.Z.2.U 7.6.eXq N 6 6 F pXC V.t.:.I.+.V q 5 i.v G 0XIX+ G wX,Xu.VX@.u.m yXb >XH.m 9 9 W n G.O.v ( v ' A ( ` ( } 5.E.I.qXE.hXT AXZ.MXE.E.).4.{ m.C.>.8.V.^ W.|.qXQ < o.N.Q Y GX+.H.5XrXG.MX} v J.A w.3XB.t.' ) 3.,.Z a.e.w.5X` A 8 E.) I.Y R ) 7.d + g /.v.#X=Xv.d ;.(.6 , a ;XDXc.;XmX#X*.dX2 * > .Xe q o.rXbXNXrXP.LXv 9.~.B.CX>XlXQ 2X( ].5XeXT.K._.qXgX[.BXV.hXsXMXm.NXf W t.=X/.CXdX=XmXc.FX;.P 8 @.A ( >X#.w.:.1.H q 6 BXh I.8 7 9 2XQ t.5.5.5.`.| ! <X5.Y N.) r.5 = ",
"5 w vXpX&X/.9XoX[ | sXOXD.}.yX; s.6 O R E N D.sXsXtX7.U Y l.7.R A.}.} 8 l w 6 p.D C.' Y e.` 6 N V O ~ >XqXHXY.y.y.l eXy.2X<XwXo.y.eX! eXk ~ d.eX~ y.X.O.>X^ Q H +.r.z b.N.).pXCXpX XNXKXW <Xr.5.S { W.pXN.~.W.y.W.>XrXG..Xy.K.eX5XI A {.F.>X` Q KXi.>Xu.p.L.LXe.t.Q l ( Q ( ] e.Y.JX3.!.S.l.Z I 2.p U v.v.x.u a ;.v.x.v.dXl.x.Y > *.*X@X@X@Xc.#X=.D # & 5.sXI ~ m.rXn.eXI.s.<.h. X<XGXMXKXQ I.( t.a.0XGXgX).fX8XeX}.m.{ b.GX<X6XNXvXsX) gXOXNXr *X(.=X~.vX/.N AXp B./.M l.U 8 h ) 8 # 5 W 5.sXgX{.|.) P.7 R.6X! b 3.Y x ) b.& 5 ",
"6 z _ V. X8Xb.oXN.I I }.} 6X| wXe.I :.X | q 8 2.`.Q U 2.8.8.7.7.}.u.eX} R N & 6 m.` ' A B.r.x S ' O v >X+.HX<Xb ,Xv H./ >X7Xi.~ ..X.eXn c h ) X.l wX( Z Q ~ H h V I.< S R.Z.| Z.ZX!.b.MXW.1X` ` <X' W r. .E.! H.+.) lXG 2XE.) b / b r.H.wX#.) Q o.J.#._ V.a.3XC.T z X.N Z Z X.L.JXQ GXm.!.N.3.q t E -.-.(.&X(.=X-.8.E v.=X-.7.(.nXT D *.%X@XaX&.w y Y * 7 W AX9 h X G G & 4.T eXlXE.' BXlXz ] e.AXGXZ HXK.' ).[.` GX) e.m.5X+.H.AXAXD.Q /.|.mX&X$X(.6.l.N.Z.S.NXx.l./.-./.(.-.h N t.Q 7 h 9 - ` n.n.I.= 9 W {.b.).D Y 2.3.6.Z Y ",
"[ * v  X.XN ~.6.OXZ.sXI O H N.Q t 5.2.V 2 > _ e gX0X<Xq R 2.7.:.x.9XB.C V < e ' G ' B 8.3.W n.0 i.< Z #.4.zXw U.G.b 2XMXZ GX3X| n.5X~ sXw.m ` yXf j ] h IXv Q H P.8XO ` |.|.Q t.) }.R.V.F.r.' ! ^ $.! ` ` ,X1X7Xr.W.<XV.Q m.rXw.7XJ.5Xt.7X4.S & 9 e.a.).( e._.e.P.5X` VX) A ,.,.hX[.I.gX! _ C.9.p 7.7.l.=X=Xl.!.2.R x.=X&X=XC *.#Xq.&.@X;X@Xq.=.*.u e * G G w fX#.pXgXs.g.zXA gX_.w.u.KXy.1X_ ].zXBX'.hX$XaX$Xs.V.qX}.} <X+.7Xr.8XMXCXdXnXdX=XdXx.~.vXnX|.|.'.e.l sXdX8X.X=X:.6 7 5 !.N C oXbX/.MXeXE.gXt.sX8 ` -.:.9.4XB.S.4.MX",
".X7.I 9XCXZXC OXY |.Z.Y V & p.P 9 q R 7.9.a C 7.z.E rX>Xl j J.5 Y 6.N.s.E B ) ( G z Y [ V.) wX5 7XX.` e.).MXw IXX.W MXtXH 8XY.yX+.fXK.~ I.C.e.L.m.y.K.i.w.G.j v ' V.) 9 n.n.ZX) 5.`.R.E.wX' y.Q o.+.J./ +.Q.^ n.m.7XMXNX5.^ ) F.Q.{ J.7X) r.V.).a.N } u.( ).p.fXI BXGXX.X.` a.] t.t.eXKX` 5.aXx..X7.~./.OXR Z q w w o &X=XmX#X~.. =.q.u =.@X@X-Xs o 6 w A 1 h G N M ).pXp.2Xw.fXrXw.xXU.z 2X].xX5Xu.AXzXfX$X.X).G.Z H.I gX7XH.6X/ MXbXsXSXbXmX&X~.'.vXsXN.|.[ _ V.b.CX/.+X/.&XAX9 v l '.< / 9 { R.R.E.y.{.{.aXp.( >.e.) p.t.4.~.",
"sXe.N ).hXhXsXA.hXsX|.=X/.X.@.I.D.i Y *.2.*.*.9.G.R Y 1XV t 9 j z 6 9.AXs.*.*X~.i.' I.A l.}.W 1 F.9 e eXeXm.t ..G.K.i.eXNXqX).gXtXMX1Xv l K.HXV.' ,.T K.e.Y.U.` e.V.qX3.+.G.,X' e.U. .yXQ gX@.{ <X7Xn.m Q.n.{ | P.n.W.yXv d.y.+.o.W = <XU.E.G.A z Q @.I.Q 9 Y fX' KX>Xm ' u.u.[._.].zXH z } I.B.N.2./.~.=Xx..X6 S e o e vX&Xv.#Xs , @X&.a s X kXp.6 ` i.( j S 8 9 i.> C.Y.} JXzX1XxXBXKXV BXS eXzX0XBX[.[._.Y.fX5Xy.! | m.I.W.| k.| m.}.qXHXtX1 Y } ) vXhX|.~ |.vXl.pX/.&XsXl.+X X1 8 j .X6.7 5 b NXn 7 6X+.m.E.V $ m.oXR.{.`.B.",
"5.t.`.t.`.b.m.r.Z.ZXvXvXsX2.^ ` _ 6.> w E r p ;.6 z :.*.u m.a B l 6 *.~.>.jX&X9.CXi ( z hXw.F.1 O.^ A x E.W.j ,X>XS { ( ^ gX].rXgXt.v ) ( ' <Xy.X.0.D K.A W w.K.` ) G.`.Z H.E.( } E.7X| o.P wXQ o.W { r.{ b P.E.E.+.U.gXP G W 0X` gX..t.O.1XU.BXa.Y i.w.1X Xq xXO.' [.H w.G.a.V.e.fXu.rX9 Q b E.b.Z./.OX2.ZXx.y R m.p o p 6.v.@X@X* ;X-Xq.nX;.c.@Xc.#X*Xa z j 9 C _ lXeXlXP.I.LX4Xd.lXBX+ uXt.BXMXKXKXI._.[.4.3XQ >Xz rXP.W <X>X! Z.[ qXNXgXDXx.V oXQ 1XsXCX}.d.hX}.3.OXvX/././.S..X4.Q # $ | = q g 7 5 ~ n A..XaXQ H.+.m.b.vX|.",
"q I.e.t.R.M.R.H.b.P.vXJX&X_ ] 5.+X.X(.d Q % i c.c.@Xc.mX-.4XE I.B h T U.2.6.&X7.x.`.S W J Y.} q 9 F.b { E.7X9 H.G.S GXA gXfXo.i.AX{.H.C.e.).G.fXv 9.pXE.~ b O.O.K.u.O.V.` M.}.).y.m.<X} ^ +.7XQ Q P.` +.#.Q W.Z.r.M.U.NXoX<Xr.+.Q J.9 <X$ 5.' eX) ' j j a.hXHXpX5X9 ' ` Q +.).u.qX3X5XE.c 5 A x X Z 5.`.l.OXnXa 2.6 8.;.*.a x.:X-X8.* @X-X#X-XmX;X@X;.s =.*.XXu N C Y.` KXe.t.lXp.<X] 5XV uX#.a.] zXw.CX< % e.gXr.r.h I >Xy.E.7Xr.} Z.W.R.P.AX*X6 |.6 I.tXbXrXOXc sXoXN.) /.OX/.U N b 9 8 % 6 % [ OXB.v Q n = f p.` ^ Z.r.V.m.vX",
"{.t.| ].M.{.Z.m.Z.+.tXJXHXt.5._ z./.+X-.mX;.=.c.@X^.;.*Xq.^.D 4.A u.4.I Q 6.m.z.) !.C t.p i.w u.P <X) MXMXP.Z H.yXb Y.I ) gXeXqX( ) Z ' 9 2XHXqX].<X1XeXA N m.Q o.Z ` ' T M.R.5.D.e.U.KXwXb / Q wXF.v V.y.+.r.m.y.m.| +.NX|.<X` { ' $ <X$ < IXl 7 Q V.8X5 V q w.2Xq KXw.K.3.t.e.a.2XV LX5 w.l A O q U 6 & _ w e *X, , ^.E +Xi E mX#X*X5.~ x.-X-X@X=.=.*.#XS %X;XN 4.u.LXU.` LXAXL.' 2XGXt.5X1 qXS 3XC.LXHXA.' N I.3.M.z _ 5.6X[ o.F.{.V {.7X!.N.`.A.5.Z.` U.7XZ.t.m.oXC.!.O.q l h $ 9 q < I U U % c.(.b.].O.N.K 9 l X.n.{ r.C.t.",
").t.[ } V.Z.H.Z.`.R.6XvXAX<XU.+.|.vX.X7.C 0.0.@X@X*X%X-.x.x.*.U P f l U q N <X6 sXo.N n D u.:.e v 1 U.wXm.x 7X` ` Q Q S 3.P.Y.qXhX0X$ 7 V.u.9 _.K.1XK.NX5XA T.i.+.^ W P.:.5 ' 6.} t._ ) P.} ,X+.u.E.o.o.b ` | +.m.V l gXt.E.E.{ Q.Q O.rX XpX[.b 9 J.9 I.'.pX'.BXGX` PXA u.' t.p.K.' KXN 7 v Q b V e 6 , y p E * i p > l.O w -X7.* 7.mXmX=XR ~.;XDXD u D [.0.> 9.m.W LXX.,.].Y zXu.v L.` `.].zXzXLXfXp.HX XfXNXC.Z.Z e.5.<XH.@.Q.r.H.MX8.$ n.S.B.sXe.V.} A.e.gXoXtXn SXOXD.! | qXY OX, a r E 2.OX+Xa dXdXZ.].' 5 3XZ = r.+.o.) I.",
"m.A.r.) b.m.b.M.Z.R.J.6.rXKXH.w.R.D.sXR h N 9.=.$ v kX9..X-.| /.2.b.gXrX[ [ gX~.OX|.7._ T 8.I D u S 3X6XR.U.w.yX9 } yX! } E.V.L.qXt.G z - 2X1XlXY.zXeX] ~ u.` T.` E.Q ).^.,.Y B.s.!.6.|./.' z P.' I.n.! m.` ' | ! A.@ 7X$ 8 l t.) q z c > 5 ) e.m.5 6 ..q N _ AXh A N F.H.P.} e.lXlXwXHXZ } ` = M.2.5.i H Y u v.e.o X 2.*.O U /.!.R /.=XJX#X*X-X-Xq.^.!.N CXB 0Xz BX) ) e.rXBXK.~ w r.Z w.0XY.3X_.AX3XAX)._.fX`.q lXrX) R.{ VX<X{ R.Z.kXF w ' 1X< N.p.G 3.| H B.OXV b.sXvX8.6.5.R /.9., Y i p [ N.T | | ) BX|...6XE.l ! [.{ | Z.",
"} b.b.' R.E.M.+.m.r.+.N >XU.l ].U.7XqXDX#X;.~.@Xc.=.~.x.6.!.2.OX].>X[ |.l.~.&XS.gXl.6 N.z 5 9 ~.<.B.<X5X0XW.J.T.MX! G.{ e.E.!.1X<Xu.` ( ].e.zXG.lXBXBXT.K.K.A 2XZ ( q pX*.9.[.a.N.4._ t.m.w E.w.{ ^ | V.} r.} V.t.P u MXt.Q <XtXR.3.fX9XV.m.KX9 V.+ % < eXY !.) Q } <X,.) m.t.E.+.JXi.z KX^ R.P <Xt > , 7.* a d NXi * &X(.S.i w +X&X/.OX&Xx.~ :.%XDXg.p.5. XeXNXY.K.m.K.` e.| ^ uXU.~ I 5X' JXgXqXAX[.4.jXjX9XNX1X1XE.I r.J.M.| >X+.rX.X7.*.p S.N w 4.l 7 C.b.I gXNX+.j qXtXOX Xl.6 8.6.7.8.S.D.=.6.N.bXoXl 5 ..W { b m.r.].6XV.",
"#.y.t.P.}.r.W r.E.m.} rXy. .n.F.iX6XW.tX(.9.9.p aX^.T 3.S.!.I 5.OXw % fXgX!.(.sXSXSX<XN P.' q mX*Xx.<.5Xh MXt.<Xn.) JX+.) e.e.eX<XQ ' I.d.1 NX) 0XBXfXI.G.T.] lXa.a.N *.0.*.H G.8X8X5.6.qX' P.Q k.A o.) o.r.R.+.R.9Xe U.].| I ].e.i.' I.| }.[.N ` y.o.q # q ( ` o.W.V Q ` Q V gX1Xw p.BXiXU.y.I AX[ R (.;._ t.a ;.p y 7.=X.Xl.U t /.Y nXN.l.dX(.8 c s.gX_ uXHXGXm.' GX` eXb LXyXwXO.` x e.K.4.p.qX4Xa.p.jXhXfXeXgX}.A.r.+.{ m.| >X| gX'.~.0.6 m.B.A.CXs.` e.t.P.S qX'.b.v bXAXP.N.>.N r.D.D.OXb.e dXZ.5.AXR.[ eX^ ..#.w.E.o.+.}.",
"+.W.` | r.U.r.t.Q I.N.o.>XF.^ o./ ~ ~ NX9.x.OXx.(.6.6.b.{.oXN.7.V.V.Z > N./.sXgXt.AXB.I._ < $ jXkXZX' >.2. X{.rXMXw.7Xt.>.C.' eXV.y.W [.1Xh zXQ eXfXzXeXY.Z i.( ].B w 1.g.g.pX^.~.' P.m.>XGXy.C.G.H.| +.` V.u.P.P V.>.z ) Q r.KXe.lX} r.A Y KXV.E.& 5 A - e.A q l A >XO.Z b ) 8X4.F w J.W.5 w.x Z.[ *.d pX=.E ;.v.a y ~.R.5.N./.D.vX+XD.pX/.6.^.#X^.w @ ,X@.m.W O.s.Q ` G.5XrXwXU.H.A 3.( K.NXqX[.CX1X[.pXgX3X`.r.M.I.I V.7X+.b.Z.7XD.fX1..XB.A  X[.BX`.U.wX' 3X`.) vX8X{.b.E.lXrXhXC _ } r.N.;.e vXsXD.{.X Z.VX<XK.n.m.v +.P./ ",
"H.>Xn.^ o.#.H.@.B.{ +.@.>XJ.` c H.b   P.C } tXx.x.*.N b.AX{.!.6.#./.6.R A.OXoXA.P.' Z.5._ V j hXCXmX9 >.XX_ m.W.iX1Xl I 9.L.2Xn.NXy.O.` fXK.eXu.fX4.L.zXlXG.' w.T.w *.*.0.8.[.!.N.5.t.0X<Xb @.+.>Xo.r.u.} I.' m.` +.lX) c A Q E.Q m.+.} KXeX>X[.hX) q _ w A I ( Q IXH.Y.r.a.I MXp KX* x KX7 y.) eX[ 7.E 6 (.l.l.l.*X& oXoXD.|.) Z.8XZXZ.OXvXDXmXx.w y & ,X< O.>Xe.0XfXQ i.JX].0XrXr.W +.t.` 1XqX_.e.GX[.pX3X3XfXNXV.e.) o.Z.R.m.+.V.b.7.*.=.!.Y _ 5._ ` t.0XJ.` m.wXZ.Z.Z.| J.~ ~ t.i.+.<X!.9.&.) NXbXoX/.P b R.E.wXn V.( W wXE.",
"n.r.n.n.H.<XO.^ o.{ { ^ +.wXW W y.+.b P.< x.z B.Z ,X9 | 7 Z.p.&XtXC OXz.I [ AXpX3.<Xw ) z j % ^ z 6 aX-XB $XB I lX} rX!.s.3XY.qXBX} eXO.u.Y.V.:.XX4Xs.5Xw.lXi.j _.a.a XX9.(  X3X8.fXe.P.m.uXb P W ) m.Q K.<X} w.] } w K.I H W ) A ) O.U.( ) KX4.4.Q z h lXMXx o.W I y.KXq z n.Y KX_ z t 7 7 o.' V b.7.l.*.-.i /.6.|.w 9 VXW.n.gXrXP.oXCX2.) N.I (.=.=.i. XwXZ O.K.lX>XSXCXG GX`.MX) m.qX<XI.1XqXa.pXfXqXCXE.fX}.`.N.tXt.n.+.{.y.| B.C.`.~.aX~.8.C V.1XHXwX} <Xu.m.0XrXb.m.U.E.>X>X( > A ` 8.^.*.b qXSXgXsXP.P.! 6XW.F.`.' ` P. .",
"].m.! n.F.r.uX) ^ o.o.` E.$.^ Q y.5 hXC ^.6 6XtX[ ! z | ..R.N.sXx.' % B.5.z U.rXE.MXP = 5 = 1 w 5 5 e.[..X^.0.T 4.}.T s.9XV.` rX1XlXb w.5X0XC.] 1 J.s.e.2X' p.).e.w u 1.F 5.m.pX:.e.y.<Xn.H.n.wXl c +.z n.} ) ` S ' v Q ` :., ) w.} t.5.m.' eX} KXwXI $ MXVXb ` 7 W Q LXl 9 H.e KX} < LX7 W } R.I r.`.~., &XO OXz I '.u $ n.F.+.b.Z.`.Z.qXZXdXFXC @ 7 J.V +.eXQ BX' 2XzX.X$Xp.M ].HXI BXeXt.1XhXAXpXzXV 1 C.}.9Xt.<X| rXG.b.Z.I.} m.|.C.&XdX^..Xu u.Y.V.@.eXwXt.V.V.V.R.m.@.+.H @.>X8 <.T u >.*.l P.eXvXSXZX{.>Xn.J.F.+.4.9 b E.",
"} ! } $ v 5 l #.m k.H.F.,Xc n.9 y.j I.>.w ! W } qXb.@.| ~ P {.|.=XZXI & pXr.m.y.X.eXz A 8 l 1 * Y [ b.A '.$X9.XX4X XT 4X[.7X7X5Xt.y.K.Z xX5X*.0.4X~ } 9Xu.Y.zX_ <._.a 0.p.e.n.1X4.h ].Q F.1Xm.gXwXH.^ wX' w.Z l A A 7 ` 9 u F 8 } ' u.' I O.` W.v x +.Z | KX@.h 7XP I c W r.GXy.} Q Z  .#.~ +.<XQ V b.-.O.z.I 6 % o.!.0.2 >Xo.n.gXbXvXsX8Xr dXFX$XY l & l m.9 ) C.fXBX0Xw..X0.aX, yXq >X' I.).).pX'.LX( < = A 2XNXZ.eXm.6XrXR.P.A.E.V.3.hX.X.X^..XZ e.n.u.P.NX| qXtX' |.R.n.F.H.K.V 2 Y._ F 1.T >.t.7X6XtXR.P.Q.n.Z S I.s.9.w q ",
"Y _ ( :.*.D 1X} } W / H.K c n +.c z 9XJ X % V.9 wXb.m.| 0Xz ` |.N.m.Y % A.gXt..XMX>XW 5._ (.+X~. X Xt.'..XCX8.$X3X[.*.XXt.[.5X[.@.~ ) X.u.~.$XjXsX>X8 eX] m.] ).C.u.D 4X:.t.} <X.X  I.+.HXy.c #.J.MX+.>XP.lXVX! } 6 Q W a.p.p.A W <X} 2XBXb m G.<Xl +.o.o.JX5 = KX>Xe.b.l V ] A Q l KX9 l Q x wXGXy.{.=.e I 6.y.#.{ P.'.p Z.^ #.k.MXE.OXI b.tX#XN !.2.6 - G.F.m.5.u.e.0X( F 4Xs.1.9.1.T X Z Q [.NX9XBXI.t.3.# 6 = ,X> NXm.Z.Z.0X].I.1Xu.qXzXaXcXzXHXq V.V.K.].a.}.`.`.].6Xm.r.rX6 C A B.u *.F =.:.' r.R.`.{.A.].N.5.e.!.:.>.T F ",
":.B.8.9.:.'.2X( O.F.W k.Z #.M c c v @.*.e l & A.{ v r.7 | ` Z.A.gXl.sXq 5 AX).!.}.{.e.T 4.2.S.pXS.}.SXjX&XAX0.mXp.1.:..Xe.B.lX} W.~ l A 4X_ eX].pX1Xd.wXd.( ~ O.4XI.A B.).B.~.' < >.2 9 Z.J.n >XIXF.rXVXgXZ.I 9 Z } ' ] ,.<.T w 6 X.O.HXu.~ KXw.n.P Q b +.C E.0 ! J.X.IX} = 9 Z Z ' P v Q x W yXW Q.q *.D F.x @./ Q { Q.P.k.$.r.F.eXeX6Xl qXz.6.r.7 @ l h Z ` gXe.e.lXzX9X0.'.4X1.1.$X<.p CX4.O m.E.2XZ 3X6._ '.% e.O b I.Z.5.p.b.1X].].qX8XpX~.9.^._.' 9XeXrXu.1X1XI.R.0X! y.H.z :.<.] <.T 9.0.*.4.T p.N.`.'.!.C.N.*.A 5.Y Y 4.",
"Z V .X5.5 3.{ 5Xo.#. .>XQ o.m b c k wX~.C |.% l t 7 @ k b q } 5.5 A.bX/.I $ B.`.AXrX' p.V.S.5.nXA pXgXfXpXc.0.0.[.C.8.9.1.>.4XgX).' eXe K.).9XJXI.AX( 2XT.~ q v 9 9 e ' I.C.pXdX^.~.<.9.5 = iXo.H.>X<XE.+.eX+.J.t.( N JXH F T .X$.wXh < b % ' ! ].h 3.w } Q V J.b 5 o.b - < O 9 - b W I yXZ c 7X5 c v y q l @.Z ,X>XW @.k.U.@.@.n.6XR./.V 0X(.bX} O 5 J.IXQ ` <X} V gXp.R a.cXjXB.4XhXhXs s..Xh D -Xh.y '.HX9XC.GXP.).A eXNXp.} 0XqXGXfXfXI.CXkXaXkXCX' J Z 0X<XqXrXW <XI ' eXp.e.C u p.>.T *.>.>.1.#X0.*XF ~.R N.8.:.0.*.D ,.} ",
"/ 7 }.t.oXl $ ^ m y.F.>X0 #.c ' l m ^ _ 9.pX8.l }.m.t ..% | & I OXU #.OXAXZ W < 0X7Xw.t.}.C.e.V.}.8XI.jX^.0.*XaX.X8Xp..X9.9.'.2.hXi ).q E.w.[.gXK.[.5.! A @._ T % +   MX3.I.7XW.0X[.'._ [.5X,X; W W.zXn.].{ I.m.} q W KXZ O.I.c.A :.:.:.K.KXr.} S W ( | I P.GXrXf X.: v 9 Z 0 } I O.X + = 9 x PXJ.7 ! i c v l @.Q ^ Q { n.) F.{ n.{ C.0 | CX| 8X2.1X..9 O H b lX' KX>XlX) fXzXY ' U.].4.mX$X5.' h & K.HXHXCXB.lX] Y.V.h gX).qXI.I.).C.4XhXpX2X X$X*X$X#Xj N ^ ^ I '.A :.~.9.[.A Y C jXj.B.8.4.~.^.^.#X^.*X8..X(..X.XaXpX~.).B.5 ",
"^ Y.z ~ `.c { >X>X+.o.>X/ o.n Q W Q / NX`.( 6X'.@.o.N.~ 1 5.[ = V ~.fXz |.B.3.v - PXZ t.I.t.w.[.8X8XgXhX0.0.aX&XN.C.`.hXsXg.7.hXAXw z u.eXi.].AXv rXI v ( J.p.BX0X# ` 8 9 / c eXm.y.lXp.Y HX` SXpXq > R.M.` N.!.3.m.P z U.F.E.GXXXqX+.u.`.6X^ r.VXS A ( t.5.l q 8 V q 9 LX% O = l 8 : + 7 < . X.KXz b V f W q ` Z } ) I +.n.>Xn.E.R.S.!.NX{.NXAXV I Z Q W ` S IXQ n.E.VXz s.u.( ` K.] <X].HXdXT kXt.) GXNXAXQ ' p.- 3X3X3Xg.e.V.V.fX'.4XCXpXAX2XjXCX^.jX$XT.N 8..X$X~..X.XC _.O.fXhX[.Y V.).| {.sX X!.B.2..Xu.8X|.{.K.B.I.I.E.( ",
"rXM n.8 _ $ l ; <Xy.y.eX@.` U.Q S 7 A V.y.) Z.sXMXU |.U.wXl OXD.l l N.gXU I.1X} 2X>X` t.t.[.'.qX3XhX0XXX$X0.CX X}.OX|.gX9XpX^..X8.I.' K.NX) 7X}.N.N r.h 4.>Xz 9XlX$ - ! |.S R.n.P.eX{ E.G = n.z r.tX>.u ).z eX{.K.^ | <X+.eXV.E.!.HXA Y R.KXgXl VX} _ [ N.].8 r.e.{ 3._ (.$ 7 : h < f h + % < IX0 7 k I w l Q l n W ) R.m.W G.P.H.7XP.6X6XNXS.|.b.|.< h xXH b.<XY.m.W.o.) BXQ O.A V.I ].P.`.ZX&XSXnXR.9 hXhXe.3X[.X V.e.C ).gXeXK.3XCX[.pXzXCX).zXfXCX^.XX1.s.4.].hX_ 2..X0.5.H.i.| +.{ P.| P.8Xr.gXOXB.).`.B.{ I.1X`.1Xb.I.) < ",
"O F.P.Z 7 q t.Z n.y.o.>XMX,X$.n./ X.G Q ` } wXyXm.b.Z.|.gXA _ {.S.sXK.8X0XJ.P.r.Y.{ V.V.C.4X[.[.3X6X.X%Xg.pX0XhXgX{.{.6X6XOXgXzXL.1X( lXzXu.Y.h V.[ IXG [.u.S I.wXI ' P.' % $ W W.' } >Xr.v t.o.w.8X!.9X3X9.V r.lX].r.{ Q yXE.P.[.`.[ 6.t.' m.) eX( P.Z.I.E.@.JXP GX& Z 5 H KX* X X.@ ,XO.$ < X J.n t v l S J.f wX! z P.X 3.r.| Z.tX0X].E.tXOXoX| | 7 F.U.l A b x wXt.( W E.! x ].} 2XI 0XV.P.3X|.m.HXz O.5.,Xq  XH u.s.2XV.3X[.3.4XqX[.fXAXfX_.hX3X$X#XcX[..XXX8.^.T }.I.gXP X.W.u.o.>X{ r.b.M.b.8X8X/.2.t.}.H.| 9 X.O.X.8 ! X.",
"j J.} b.Z.z O W 6X+.U.<X@.^ @. ...5X+.~ b P.c d.b V.o.+./.9XY I.|.,.V.u.].yXP.t.m.).e.).).4XpXhX3XgX%Xh.3.8Xt.8X`.tX6X0X7X8XpX'.Y Q ` 0XE.I.qXt.t.Y V Y.2XQ 9 O.q ( U.O.5.| U.A % ].e.w.wXBX2X{ ^ R.fXNXAXgXD S y.i.I.wX7X .5.y./ gX[ A.e.[ | 3.q ( 0X{ r.y.8 b X $.Z z I 5 OXp 2 KX* ) < eX< 9 W X.l I 0 7 = x ~ J.l 9 2.#.{ m.b.r.N.<X| tXR.[ C.U.X ^ J.( ` KX@.rXU.l n.z Q v Z <XQ u.u.).Z.m.V.hXI.n.`.qXC.] % JXzX*.] 2Xt.HXGX'.fX4XhXfX2XHX3XCX.X,.aX~.4.].'.9XA.5.n.E.Y.m.F.W 9 #.l V ) M.o.{.E.tXt.` W.h 5 & ` v = N 9 @.",
"< G {.| [ sX# % Z.M.H.{ >X^  .y.k.J.uXwX#.) q #.b @.W.p.r.m.t.p.pX}.CXI.3X].( u.I.].V.fXC.L.3X4XpXXXh.^.U.{.lX6Xm.NXH.b.M.t.|.}..Xr.Q gXA.qXZ.qXC.(.u.V.5XeXQ m.G.& r.W e.( l [ H { / [ JXW t a.a.n.P.<Xm.aX0.) G 2X{ <XU.E.rXU.H.LXr.|.! t.) e.W ] ) +.r.) b J.$ 7 q | I 5.(.;.a KXX Z rX^ % v J.KXl 8 v r.& ; 7 m.MXD I V 2.) ].b.5.<X} tXNX+.IX! VXMXxXH ! z #.J.Q f ,XU.Y.W } yX} u.' I.) |.|.CXpXI.pXZXpX_ J.L.~.XXe.K.t.a.K.zXzX9X4XfX}._.aXjX.X.XpXXXT p.<X<X` E.Q.! J.' v ! m.Z.v & 9 h H.Z.R.tXP ` { N.D.! Q H.O } W q ",
"o.= l P.) N.I @ $ {.M.T n.wX>Xy.eXW ^ W MXG.( / H.#.o.h +.P.t.A t.}.NXC.K.V.b r.BXm.e.w.4XV.).fX$X;X=.4X}.I.8X8XqX{.Z.H.r.` W.8XK.K.8 1X3X}.P.t.A ~.wXX.v 5XX.W M @.V A.} ' l r.9 v o.V ` G 4X9XwX+.{ 1XtXaX^.7.].n 5XW }.qXI.e.{ u.gXm.eXrX` Q ,X' X.c V ~ T 1 N $ + m.Y N..Xa E KX, e uXKXO W O.Q 9 5 7 ! I l . W 7X* # O e.I.b.r.<X3.{.} HXZ.JX8 c ^ G LXQ yX' 5 iXQ.#.v h K.z y.Z ` Y ).`.) b.R.Q m.x hXpX XK.).( X.p.zX_ L.e.C.4X4XhXfXhXjX.X[._.4.:.fX<.pXE.) t.V.V.5.` Q y.9 U.D.| Q [ z {.8X+.Z.6X` ` v I I {.Q 9 ! /.A ",
"E.f 9 t.3.t.nXl % $ Z } P.r.H.#.n.m n.#.$.yX5.> f O.U.n.P.} ) t.E.1XV.Y.<XK.t.w.X.w.p.~.H w.[.u.c.h.*.1X[.[.vX{.8X8X0XI.wXlXE.rXfX[.p.e.A.(.T ~.s.9.4.4.e U.h n.G.U.m O r.e.| ' Z = 5 / J.) Q e.+.E.eX{ <X8XB.~.>.>.5.z / / ~ / ^ ^ 8XI.}.rX~ a.5 j W Z P.m.4.j { ! 5 v # w :.aX~.wX1 W $ = #.} z c VX< v 9 q 7 = @ w.{.G b 1Xt.A.5.y.| t.Z.gXZ c b JXh 5 @.o.,.:.8 f $.wXo.Q z GXI Y.3.<Xt.I.e.r.b.| m.' ' w a.u.BXHXw._ w.lXa.4X).pXp.jXCX9XfXI.3XBX_.' p.'.C.HXI.V.7XI ! ! c 9 { { `.Q r.r.9 5.6X8XCXhXvXb.8XS.[ 5.0X' ) vXt.",
"y.X.9 } Z.u.S.) V ..b l H.{ H.rXW #./ X.$.G.Y.e.6 b l +.^ U.rXr.P.m.G.1XE.' +.u.C.a.t.3XpXXXp.#Xc.D `.`.w.|.8XqX6X6XgX0XqXE.gXH.2X) Y 4.fX4.p.~.pX'.'.*.:.Q Q NXBXo.>X2Xc #.t.M.r.R.l 9 eXb #.V.r.H.+.P.eX+.].qX).F 8.( %   b ; + ^ W n vXC.q u.GX< % #.m >X[ e _ X 6 b @ & Y :.KXI.E.GXh IX& 8 uXwXZ t b u.V 3.@ v 6 @ o % 5.B.| 5.lX! P.o.^ ` o.G.eXl G.lXA T w n o.9 ! q +.- @ E.t.r.4.8Xr.0X3.! } 5.p.Y BXI.K.u.fXe.GXS 2XT.L.]._.pX3X4XNXfX4XCX1X] C.P.3.B.' +.m.].u.9 P z U.w ) & V.5.9 V 3.+ - S jXT % V.V.z ) y.eXrX1XI.",
"e.f 4 7 N.B./.i _ 7 & $ g |.].W J.y.W.N.7 ) 5X:.K.c b ! O.A o.A _ t.}.1X9XI.,.' V ] ' 1X4XfX*X0.0.hXfXV.V.I.Z.{.gX<XP.rXE.P.gXwXo.y.t.qXOX9Xu.N ,.` Y w .XY ^ ) ' wXK.l h A ) Z MXZ.7 < wXI Q '.3.n.P.V.e.w.>Xn.>._ ` SX'., N e $ 8 u 0XW.[ e BXq 7 < Z q 8 w ( V ) m./.9.C 1 2.vXi xXO V 7 * KX6 o.w z 8 I N e i # # @ m m.7 5.| ) t.e.N.P.P.KXq l b Q.Z o.) AX6 b m.Q ` GXb ! X +.eX3.3.V.b.| M.) m.t.A.3X].m.' 2X,.t.).9.H i.K.).'.).4XJ 4XfXfXY.a.>X3.C._.s.[.m.} } [.lXwXwXm.t.1XO Q Q h # 8 8 w A Z.dX^.6 b.hXB.r.' #.HXb.",
"I.,Xb G ..6 '.!.&XO.| yXx yX>XyXu.F.' eXq = u.].k.>X9 ` W ].1XR.{.Y p.I.<XK.2X( f.' a.e.].L.jXq.p ].8XP.r.6XgXgXR.].E.0X1XW.7XMXE.<Xe.Y gXZ.pX.X2.,.C 1 } t.].Q E Y q N v y.) l >X| y.b ,XF.' _ m.^ <XrXM P.,Xn._ ] dXe 1 T 1 G u rX< % yX+.N HX' h $ % U.KX= w ' ) |._ 8.8.i @ y.l 8 $ ( h 7 O PX9 l l 8 j % 6 r i X X e X l VXF._ Z.b.W W W.` l P.KXA o.E.3.w < 9 % n 5X{ = 6.X 9 I ( r.e.`.5.| V.t.A w.( I.u.A i.' ' f.).s.5XA [.qX.X< < c < fXBXL.Q 3X4.~.s.a.K.7Xu.+.( ' r.y.b R.9 O b.} } Y N l A.) |.~.XX% q ` O.N } v qX",
"A.P.v Q ` 5 l.&X&X6.$ I Z.Z.n.VXn.n.n.} iXo.l I.d.>XF.n.| e.P.I Z.I e.u.a.p.,.).1X2X).eXa.1XpX=.w 1XzXP.zX<XrXH.MX0X0XE.R.P.<XE.w.b VXHXR.OXz.OX8.t.' b <Xv r.Q 6 2.9 w % @.gXl ! b } { y.U.> 5.@.m.+.{ +.c G Q y.G.3.D Z ] B.Y % 7 # X V.4 B.F HXD = A i V h 6 l `.S.8.B.i E KXe 2.IX9 lXX h ; JX7XV z yXI [ 6 6 Y > X < < f Z.<Xr.) | ! ) KXVX5 y.GX>Xo.J.X.= : 8 l O 9 1 q 2Xv l b ) 3.|.5 e.p.u.t.L.I.t.Y.lXm.IX( u.w.5X_.XXF N [.zXZXnXp.Q u.eXeXX.` s.9XfX}.r.).qX) v T.T.i.q l 5.* h Y l.~./.5.OXgXhXkXaX0., 2.' ' N ` ' ",
"].z e.I 2.g = l.Y _ z I 5.MX|.HXn.+.>Xn.H.P.F.W ..J.o.#.r.G.) V.3XtX<XK.LXy.I.L.].L.[.].2XlX[.h.A e.`.MXNXCX<X1XU.qXMX7XMXG.MXY.<XyXX.@.NXsX8XU _ b.) o.) y.P t.I C 8 C Q N P.O.) ) <XlX5.r.v 7 { t.m.^ ^ @.b h |  Xt.q p - B D a Y VXI m.{.A 6 a.T C , 7 q a y _ Z w eX8 7.q AX9XnXKXwXt.<Xq < IXLX5 b 9 7 V _ i Y rX> q $ c q Z.P.eXy.Z ] Q 2Xy...` PXW b 0XS % h O.$ J.W & v HXwX9 Q r.1Xe.:.V.} 3.2XI.3.t.m.} Q H eX] ( w._.0., ' w.hXSXfX7 qXfXeX` _ P.C.).V.[.L.] >Xu.5X' ' S # t.7.A 2.R w w }.dX~.!._ q.^.*.A 2./.A } W ",
"v 9 Y m.e.`.1 /.S.% q A.& tX|.8XE.W F.o.P.+.! ` / U.k.2Xy.K.eX3.r.5.Q u.BXV.e.[.3X_.V.[.2X).cXaXXX8X|.I.MXH.F.H.eXm.e.qXHX) GXlXx V.Q v R.8XZ.t.< [ <X{.Z r.w ) [ N l I } r z 6 ! I 8 m.E.gXt.I = { b { | o.b E.f H.8XpX0.w % D a *.Q + V.8 5 E 1.B.a *.y 5 e 6 l V r.R 2.dX6 LXR HXVX2X; wXm h h yX> 9 O.v ) 6.R E X r 6.C l O } M.b U.` KXW Q rXG.c b KX+.` C.u A 6XQ $ V #.yX@ ~ 2XZ V.3.}.< ( r.| r.w.P ' x } ( b ] ( i.w.a.~.8., S  XpXZXGXA ' wXxXf.( 3X_.u.e.w.` w.K.V 0XI.A I 9Xs.R w R C 5.6 B.>.2.T ^.#Xq.> w 9 8.t.v ",
"I.S 6 [ x B.% A !.q > V @ sXsX}.HX6Xl IXVXK.E.qXi.h Q.#.Z 7XZ.Z.Z.NX X5Xe.0X[.BXw.GX).[.L.NXcX1.1X1XMXtXR.nXpXQ M.m.gXpX6.6XeX! MX3.G.V c <XV.].{ ) ' ].Y 5.Y p I Y N w 5 S j 6 K.R.t.Q ! F.tXm.5 U.) eXn.O.Z / m J.P = ; 0.a =.e F 6 A q ,.( e a KX*.=.;.D e C N (.pX(.S.&XfXC [.SXKX+ IXf PXKXJ.b >X5 8 Q ( ) !.e Y _ ) V oX{.! 0XKXq v W ) Z GX} ! F.7 F.<Xp.A Z rXd.Z 6 Q u.wXVX..) e.5.V.V - eXQ ) Q A ! ' l ) H ~ W O ,.u.C.*.9.# e.CX9XCXhXY.n.t.eXK.t.4X].qXeXeXeXH ] H V.t.e. Xu 2.V 3.& j _ 1.(.aX8.-X0.c.ZX*.p r t._ ",
"U.d.1 y.f 1 w & % N V l.8 < fX X}.qX{.+.yXy.$.H.F   h L #.P.Q Z.| 7.qX<XqXt.].9X[._.fX3XI..XaX4XpX1XCXI.1XqXE.J.P.4.Z Q 9 r.GX{ HXQ { P.1 y.0Xt.m.lXt.N.6.Q V w E I ~.4.e N w 7 b.R.| F.r.x +.ZX` 3.+.W { l b { G r.Z C < 6 0.=.Y % e 1 N N ;.p *.D i 0.a D h z w 6.(.E (.mXl.' 5 < JX' uXw t.KXKX5XxXW ` G ) I '., C.S.6.`.I 5.lXNX[ ^ k.KXKXKXo.VXV JXPXMXo.BXT yX) O v ] ( E.@ C + e.5 rXrX|.}.; ,X) o.b ! Q ` Q ~ Q ( +.A ( ,.j.*.D ,.w.[.4XJXi.7 ( ' e.S pX4Xf.K.eXw.yX' t.l ` l gX8.N.6.r 9.i T x.(./.qXaX%Xq.*Xc.i e A ( ",
"`.U b.) 1 _ > = l.> % > C 1 6 qX[.].V.<XwXP.o.r.~.$ 4 MX^ W.I.Z.5.w.7X5X` 9XB.q j zXNX4XfX^.g.NXzX0X}.lX{.gXqX<X+.F.) m.r.m.r.Y.`.NXV Y W ` pX].P.rXe.6.5.` NXh # `.9XB.8.V 8 9 gXqXI.} v m.` P.( ) r.Q } P l i.pXZ.6.x.a 1 =.9.x.*.6 >.IXz @ Q ( 1.7.p c.e C r q 6 N R 7.$ NXC.*.~ 8XJXKX% KXeXGXxXh A ` ) ) ' 3.zX` Q ) I.3.+.4.t.G.~ >XKXZ rXG.o.LXW.H ~ T i.KXMXq P b KXZ ].>XP 1Xr e.l } ) oXR.h 8 ` c ! M f < v Q ( ,X( 2X].F 1.w L.s.T 4.hXHXI.Z ' pX$ ( ' 3Xu.BXi.( ] 5XJ.u.' 3.5.C pX_ w F ( l.!.8.sXOX-X=.;X#X0.i p.R.",
"<X9 t.2.!.l.2.= R U 2 w 8 !.v 9 Y.lX].I.GXE...wXC.`.9 r.n.>Xn.[ .Xr.<XgXV.<Xe.6 $ 9X[.4X$X%XF [. XgX X}.tXD.8XgXgXgXr.6XHXz J.k.<XMX1X) o.I.^ ~ r.P.r.R.O.l V.` #.6 _ A.5.N v ) _.t.B.` W.` 3.I.Y ! w.! ! ! P { H.9 w -.0.*.w D l.x.C q +.W N y 7 N F p 9.a lX& 6 B.8.l.l.6.|.U r 6.` ].r KXBX<XKXwX5X9 v z w.S Q wX3.<X' I.m.t.6.I y.H.U.IX0Xi.O.HXI 7 q VX4.( Z P ( 3., PXx qX@ v n.Z A.Y Q e.W ` i.7 - h 6 < X.h h H Y.W A ` ' T XXp _ p.).eXC.fXeX5X].gXhX< = G.a.0Xi.Q d.` I Q r.~ H p.w e % e.5 q X ; [ OX^.9.*X%X=.*.N 6 ",
",XV ` ].N.Y ~.= 6.~.q.% 1 A A.t.< 3XAX<X6X<Xr.Z.} Z.b ` U.O.} :.{.Z.6X^ A T ].fX@ fX3XpXq.*X.X`.fX6XZ.NXsXvXP.P.1X7Xr.t.m.Q h >Xb |.R.W r.I.m.d.o.lX].5.T O.I #.e.U.) ) Y & h ].,.p.I.u.wX( V.Z.m.a.' ) ) x n.} } ~.8.l ~.u D p p l.X q 1 t s.E p.T i D 1.*.'.= Z l.8./.OX-.8.7 Y 8.p t.) LXKXV.wXlXT.xXS ' S e.V ' +.K.` } 4.3.I.n.JXVX( F.eXZ xXVXt.) BX. `.9 5 t S | C % z R.b.+ P { @.3.w.m.` +.i.& $ = ( ) h ` ..U.A y.I ' e.T F D <.B _.L.I.AX' GXw.e.jXGXw.4X1X' K.H Q i.H d.' 5 0X:.N # G % Q 5..XU < } 8.&X.X&XpX~.f | ",
"X.e.A.X * _ |.S.e 1 ;.x.% V Q @ 5 v ( NXE.+.F.m.( V.0 y.- m.) ) V.gX1X`.t.fXqX> ( C.zXXX%XF fX}.rX`.{.{.qXCX{.E.R.`.I.gX5.F.>X( `.MXE.W.9XtX2.0X+.E.{.AXA.Z ^ ( [ t.} Y gXY.lXu.qXL.Y.' i.Q ' } u.r.` ( ' Q m.m.3.Z S.% _ 0.r T 2.-.;.;.-.z eXr T.e q H w u } 8 5 I D.|.8.=X(.v.(.N 7.t.t.,XHXAXKXzX( KXKX8 ' H ' 3.h ` | C.B h x ) t.HXHXVXY 7XJX>X' m.N 4.6 yXX.X.Z W Y I.z [ U ) O | i.r.b v O.l >.T 7 v 5 l 7 n q ) A H ] Q ] T *.D 4.u.3XK.1X4XH PXxXT.fXfXX.eX4Xa.eXY.] ~ v i.2Xp._ :.XXaX*.w * 7 2.I 3.} +.6./.pX~.~.' 6 ",
"= [ N.m.V.(   N..X9.N S.q `.qX1X|.Z 5 NXm.<X+.G.h I >.) eX% G P.` R.Z z ) h Q 9 } 3XSXa kX XCXqXeXI.qXrXqXhXqXE.m.R.{.{.gX{.r.+.oXZ.}.2.wXKXMX0XrXeX~ E.I 8 >X@.e I V.I < u.V.K.I.I.C.O.! } ` r.Q e.I.b ] 9 t.Q [ x I r 6 Y S.5 R (.=Xl.CX(. X>.Q 6 C 9 E e B ' & $ I R +X/.JXR 7.'.NXHX6 h lXGXY.lX) xXlXY.z ` S u.1.( [.N._ y.F...% o.~ v JXQ PXu.eXMXCXe.sXo.O l BXwXW BX( z {.y.W 7 u.t.Q ) >.1.>.Y qXv ,Xo.< M Q ( ) P ) ^ ] T B C A a.C.e.] _.4XX.].1XY.lXKXfX' xXxX' xX2XA fXS eX_ u.5.~.6.[ P.P N m.O.C 4.t C.pX~.9Xw @.",
"J.# I [ t.b.q X A & . sX= O V.hXhX3.d.[.gX>XI.[.rXC.e.Z b.W ` Z r.Z.8X$ # | < < v G q u u hXsXAXgXNX6XgX<XH.R.6XH.W.7X0X{ MXt.lXrXgXHXP.gXb.J.x P.`.R.`.zXC 7 LX2X) Q z ~ u.' V.w.e.P.[.Q Z y.Y.P.f 7 lXu.8 r.1 R.6.I U > % q U 7.Y /.2.l.S.l.&XI.a.e S i C y.7 * & } |.|.dX=X+XV DXo HXJX- 0XHXwXlXw.0XlXu.} } S ` 9X( q uXPXW I 7X& v - uX  $ wXLX)..Xs.B :.i O >X5 KXHXE.v 5 5 ! b 7 ^ o.' V I I JX].q >XX z @.G ! ) Q +.l A ' 4.u p.8 ' )._._._.BXT.' 5Xu.2Xw.u.0X2X,XO.( xX3.eXT.5Xw >X' R.r.>X) ! I V 8 I ' x eXA 8.9.:.} ",
"Z 1 ' r.) > e 6 < * O z '.% 8  XV.y.eX1XV.r.V.A 4.N m.vXI.Y Z c A I A.5.t./.N J X s.%X;X<.hXhXNX8X1XCXpXpXhX1XE.vXE.m.>X/ lXP.GXy.fXCXBX<XeXHX{ P.Z.P.{.9X_.w.n >X>XV.I y.' O.u.T.r.u.Q I G.y.K.i.D B z #.v ! } q W S._ x 6.r Y e C @ I $ Y [ N.C.I m.-.F e B N # . . N.|.&X=X2.Y pXm.; JXb gXt.} <X+.A A K.BXG.( 3.L.L.CXhX6.JXr 3XN.B.5Xw 5 9.p.*.pX9.9.IXV.O wXj 7Xb t.q 0X5 ..Q >XJ.{ KXF.,XW MX!._ }.oXY % % v d.Q b Z w.v ' ) T F < ' e.V.L.).w.i.` 2Xi.yXf.4Xu.5XxXeXH d.` u.zXu.l E.l ! e.| t.l [ R _ O.x +.% ) u.Y Y p.",
"v 6 ~ 9 } 3.j 2.> * @ O <X_ & f Z O.= l 2XP._._ :.R m.sXA.Q 3.z Y r I OX XpXD & 1 w w , Q N O CXgX}.qXoX8XgXSXrXwXn.0Xn.+.w.H.m.R.<XF.>X+.{ Z.1XtXJ.<X1X8X3X_ ( ` ` N K.Y.K.G.lX5X5X' ) } w.m.I [.F t.5XG.o.| I l > 6 | l.U 2.7.Y 7.N B.7.r Y & S < x *.N C % 9 > 1 . @ N.D.OX(.Y 2.nXS.!.A.b.KX1XNXwX,XV.( ].yX( 2XHXI.hXp.V.| l Z 0X# 1 T !.9..X4.kXT SXJXLX2 [ VXIX7 r.I V LX5 8 I h 8 < ! i.T.l { P._ |.oXJ.W 9 Q ~ Q Q { v ] ,.4.F ] ] ' f.BX` S GXG d.a.xXX.4XxX,X5XxXh ` Q X.G.I.) qX7X` V.G ,Xl I.E.+.V q ) 5 [ /.eXQ xX",
"8 q f B l O.Y N.6.& $ & O Q r l qX!.eXz v qX9XF B ' m.gXvX5.C 9X`.= l C } N :.dXkXF p =.9.'.  Z.hXsXtXoXsXR.AXAXE.>X6X5XW U.+.{.H.+.<XeXR.K.rXMXt.gXi.<X) I.3XY +.y.u.] i.1XG.K.eXpX9.A Q y.L.8.p._ { Z Z O.I ` ' 9 q 5 ) `.2.6.A > 6.< Z & S z t q A Y * D 2 j & 8 v . X Z..X/.Y P.5.`.' MXKX).[.e.u.a.u.' u.i.K.( Y.4XpX XC./.!.AXdX~ * 6 i.}.!.B.~.u i i ] J.I P.& ].>XE.y.C.{ JXY ,Xl +.+.].0XI.C.V.K.!.!.r X.G i.H ' Q Q A H ^ L.B A ' u.eXL.4XzX5X5XK.T.2XX.eX4XY.K.W W 2XV.U.yXQ ) #.W.^ ) >Xv y.S Q Y.Z [ [ } [ r.0XO.GX",
"q ; @.y !.a Y 7.E /.C $ & h = N = fXC.' t.a.s.s.A V.r.b.nXOX5.D.!.wXq q N D & _ pX^.%X=.j.;Xh.  9 M.rX8X{.6XoXNXtXqXo.P.P.b yXn.gXwX+.7XQ J.k.7Xo.gX5X<XI.Y 1X` 5X>X,XO.<Xi.<X<XY.].C..XfXp.u '.p.m.} +.e.P.~ I ! +.P Z l Y w V 6.+ I O 6 % Z ] 1 % $ _ e h N u , e 2 X 1 # C dX(.%Xp < = w h m.I.lXu.V.HXK.j u H ( JX' a.qX XCXKXsXHX}.~ 5 5.! | HX> % e e.KX# . } V ) % ` 7 S.I & [ Z h f P.t.'.t.v ) 8Xt.b.| M d.KXu.! ] S Q Z W J p.] O.T.Y.u.eXK.d.xX' BXGXv eX0Xi.V ] G.G.' E.<XQ { BXI AXHXc b ^ d.c P 3.Z 5.) m.n.:.i lX",
"e 5 l Z ` !.e 5.5.!.b.}.U C m 7 V 5XrX` ] >.j.p.I.t.t.V.pXhX'.N.A.qX6.T B.8.8.% F 1.;X@X%X;X%X9.w *Xe.{ Z.NXBXgX6X0X@.P.L  .b.P.MX@.>XwXP.i.MXi.y.rX].Y.4.e.V.i.o.G.lX<XQ ~ z u.u.I.!.~.~.) J u.! Q r.Q P W W.) r.V | x j I Z & [ 5.9 r t = S c N 5 9 7.Y w 1 E y * * * 1 & O `.OX'.sX8.HXHX~.*.H O.Z ( ).=.0.s.] ,.' 4XNX1X4X XdX/.E KX|.xXHXR.`.R.HX(.mXKX%XA d.r.) }.b.NX| qXZ.P.b.tX7 o.6 2X} }.V.W w./.4.`.q Q 1 l r.V ^ X.v i.u.J ` ( ( i.a.5X' H i._.5XeXrXw.BXT.xX2XW lXY.+.BXVXv } I.9 ` xX< U.1XJ.E.] >X' x x Y rX@.w ",
"< q Z l Q 5 T I 2.6.) S Y b._ ( 1 X 1XT ' 1._.e.].2XV.I.K.gX].e.N.V fX) Y XX~.N & u 1.-X%XFXq.FX-Xe sXP.qXrX7X7XCXF.W.! F.m.eXU.F.t.7XF.yX) Q <Xa.A 1Xm.V.a.B O.K.2Xz ` y.eXz @.1X].0XV.e.o.A ` A w.Q m.Q b v 3Xm.I.| Y Q I ( v & [ }.I E ( H e r 6 9 *.i o < p o * % @ % % % ) vXnX) [ {.5.JXAXD 9.0.h.9.=.9XA X.d.].[.qX4.C.JXKXhXCX3.I Z.qXeXZ.R.qX9XOXZX(.*.B , 8 R.I.b.E.Z.JXe.b.{.OXj v 5X& ) 3XC.KXz `.B.!.6.X.A ' ( K.H X.+.u.2X~ ~ ' f.K.T.i.Y.i.` K.eXlXK.w.eX2XT.].m.V.4.a.7Xt.,XVX( ~ BXJ.G.G.qX] ^ ( ( K.~ P.AXBXeX",
") w , z z U.p.) sXn.A ! R.< A.5 5 N X.9.>.F >.).K.I.).V.t.1XNXqX9XC.).gX3.6.e..X, F e 2 s.~.ZXC.SXS.5 ! + 5 Z.tXiXF.^ m l o.wX! m.NXE.t.3.7XlX0XqX<X6.4.E.C.T Q K.2X2X2Xi.Q Z +.<X].K.e.) W ` ` l } ` Z ' r.S z U.q b._ x < { 5 O 3.R V 0 Y z > V 6 V 6 T 6 C q y * , * % * # x 5.rXrX+.r.Z.<X6.<.9.h.#XpX_.a.y.w.Y.4Xa.a.L.AXC.SXnXC 5.8 tXZ.lXHX[ r.MXZ.gX!.C.8.B.T + ( 8 ) Z.MXKXKXgX1XsX5Xe.I % t.VXpX{.E.,.L.m.t.,.A ` ( ) LXV 2X~ >Xf.d.y.i.>Xi.H f.u.X.2Xf.' ).5XL.4X} I.1XpXqXrX>X! 8X!.tXN.+.G.' m.l F.w ) t.O.m !.p.] ",
"r i 6 , @ v > C eXrXF.r.rXv $ }.= h Y B *.<.D 4.4.a.V.`.C.5.+.I <XA.V.gXu.H p..X,.>.=.9.& O % & _ ).|.R.nX6 # Z.>XH.n.rX) OXE.b j m._ ( u.E.].IXV fX0X4.Q a.T 3XK.< O.W.E.' wX..V.V.} V.+.{ y.e.7 l y.Z.C.) ( x v ` Z B.) N c ) r 5.z Y t U 6 C i T q ~.e q ] i s , a % @ * X + ).{ F.GX].E.KXe.T :.XXXXXXK.Y._.w.K.X._.C.[.[.pXCXSXhXh % R.qX| | F._ t.H.O.AXr._ ].3XKXK.MXlXeX0XeXBX0X0XKXCX5.$.uXyX) e.m.r.b.u.W.W.( X.a.} <X( h ' u.2X,Xu.u.a.u.5XG.O.Y.)._.] 4XzXfXT.>X( e.I.F lXNX|.n.gXtX3.5.OXV.yX3XE.U.N x m.H.j i Y Y ",
"t.C -.w T 6 * m !.0XX.<XF.` - #.h < 0X1 N *.p G.u.p.V.t.' w.a.rXr.r.d.3XrXX.w e.' %Xa s..X&X@ * & > 3.5 V q dX% # + h IXW ZXT >.e.:.F U.BXK.,X>XlXI m.lXzXeXpXJ.].` <X>X,X+.} b E.` w.y.9 j 7X0 ! ~ I | ].e.I.^ b.e.< `.b.[ a.) 5 _ ) 5.E 2.& V *.T a $XD D *.p * > > u , 6 O # X 9 b G.c L.Z.W.u.+.e.u.V.w.X.Q K.3X).fXa.[.fXpX'.a.KX3.# r.} P.6X_ m.{.m.| ' H.yX} { yX>XJX3. Xe.) +.Z.gXC.SX!.z 1 q LXV.I.E.a.].K.| ].e.X.].e.a.5Xi.U.K.rX5XT.X.w.d.Y.X.i.NXBXZ O.Y.' a.t.W P.[.9.} Y.AXL rX<XC.!.Z.6.% <XA.Y N >X[ e.r.9 Y S.",
":.C p 1 @ < 8 5 f KXr.t.rX' | z ' h gXC ( D B q Y.I.O.BXU.! S Q i.z _ ' 5X3XV.p.N a >.~.kXmXe &X1 z ZXN.r _ & |.V.I # ^ h u.zX_ ~._ :.K.a.zX7X4XeX0XV._ i 2XA Y.Q E.eXGX2XY.BXw n.P.x ' E.= @.| e.` U.1XI.t.V.3.n S.q m.M.5.b.z.N._ Y _ 7.-.q & 6 u N u 6 u e . # > % w 1 e y % * 8 O = n.K.KX+.v G K.u.KXQ yX,Xa.u.).3X[. X_.pX3XC.pXoX{ m.r.b.P.6.Q r.+.m.) l u.! VXMXJXE.r.1XR.|.C.!.aX!..XpX$ I @ n.+.w.u.y.I.E.o.u.V.K.a.gXY ].2X0Xu.xXxXxX2Xa.K.eXO.u.] u.Q H m.xXw.' r.qXN.NXqX8X6X].n.tXgXb OX'.{.2.S.( 8 ^ @.p 7.eXn t.",
"e.4.u R 1 2 < < ( ~ `.) 7X9 b.` X.9 P.pXT F i A ' ].p.e.b.K.U.! W Q r.v ( ' 2XqX*XF :..XkXZXkXT mXo B.&Xw &XC &X( &XV | ' fX( 6.pX*.8.1.zXm.fXgXeX,X$.^ ].Y.Y.NXxXe.Q ].Q.O.N >XrXA X.BXeXl h S c ` #.F.].qX).| } [./ { { b.H P 6.[ 4.6 U Y !.6 6 y F 1 D KXp D u % > % < N % X < % % 8 O i.| ) | ` _ Y.PXzX] u.L.L._.hX3X[.fX_.<X`.e.t.t.| E.| N.G.) qX+.^ J.GXl VXI ! ).pXzXCX!.A.:. X'.'.kXaXz 5 % % oX].u.Y.t.w.{ >X1XI L.Y zXT.K.BXT.PX_.2X3XG.' 5X5XE.Y.w.5X>XO.) BX' ` lX| 9XF rXt.HXbXpXgXS.gX/.P.r 8.4.AX@.` ] OXhX~.e.",
"E.4.a &.& 6 1 & % ~ ` qXE.I ( _ w <.w S 4.*.J _ K.O.} m.V.V.w.y.P v S N Y X.( J ^.$XN :..XmX*Xx./.r nX> nXnXA.DX).I C.H.Q P Z 0X~.B.[.'.pX4XqXpXeXy.5Xy.3Xo.!.[.~._.O >X0X0X2XrX6X5.9 e.'.I ' n.{ i.>XP.{.gX| r. .{ P ) oXKXe.`.I Y 6 7 V =.p JXw 1 E e + CX-.u y u > & < 1 u @ & Z 9 O.7 M.E.| | G eX' zXp.] L.4X4X[.9X'.C._.t.fXz 6 I.E.} E.` ( C.| r.r.n.) U.H.P.].BXK.rX].Z.sX X[..XsXA.pXhXjXC.b.5 ].m.I.V.} t.m.r.[.~.NXJXLX4XH xX] HXJXxX1X2X_.i.yXu.d.2Xw.w.A ) t.( Y.lXm.).L.V.) AXsXZX' `./.x.N.6.8.[ 9XA.P.x.aX*.i A ",
"u p T a =.6 > , % W h R.JXeXx 9 V T 8.*.>.<.1.i N ( V Q ( c V l !.F s.D <.D >.:.u .XZX&X~.&XaX4.2.aX/.X I 9X|.OXsX`.8 b R.6Xe.R.~.s.4XzX9XfXfXqXK.<Xd.K.} <X3XO.a.`.B.Q >X| K Z <XMXl Z e.' Q O.9 V.Y.0XJ.E.m.Y.P.gXt.z V C = I Y !.:.9.p w i F z U E jX& < D u u u -.y y _ u p i O x v G w.b.u.` C.p.~.KX<.' ' ].u.[.zX4X[.).( A , e l ].3.5.8.e.N ) t.+.} H.n.v r.n.6.AXR.m.{.8Xm.V.R.Z.|.4.CX XpXqXx v P.+.n.Y.5Xy.GXHXt.u.e.2X4XXX<.fXV.fX0XK.eXGX' Y.' T.Y.T.K.) } 2X) r.t.t.~.hX!.p.qXqX{.(.dX(.&XY 4.I Y |.&XR (.*X8.Y 1X",
"_ e p a 1.*.d > 6 z Z Y ~.pXE.y.A ( A D 1.F <.*.T >.4.:.4.1.>.9.*.D <.F ,.,._ '.>.w..X.XT dXnXB.T dXDX# & B.h A. XZ v S i.0XK.A.[.[.4XfX3XI.gXSXAXpXV.H _.fXpXfX8XrX9XeXF./ T.].8X X5.I ) 2XeXI.' e.1Xu.( I.[.Z.4X XE.<Xb.r 8 I /.4.N.l.x.T 7.8 r N p E R 5 j a 6 u C p 9., w A > V p.9XT VXm.r.I.u.L.1X!.XX:._ C.0XC.).a.I.e.C.A.qX9 < b.W r._ V ! +.W.W.m.i.l o.| Z.|.qXZ.Z.5.M.Z.`.|.r.m.|.z O N 1Xr.b.P.e.Y.' V.].NX'.[.I.fX3XGXZXs.<._ GX5XGX0XBXu.u.u.S ,Xv d.w.) ` q r.w.' C.0X9XI.<X9XnXC.{.dXOXnX[.I C _ N.r -.ZXx.2.w ",
"D a p a a *.> * w H.n $ fXhX}.l rX1XT p.*.<.<.<.i Y 3.t.p.).L.AXA _.V Q } V A ) '. XB.~.8.:..X*X4.8.8.9 > '.9X5 Q E.n ! r.V.; '.9X!.9XNXHX0XBXN.9XzX.Xi.@.hXfX} +.d.{ 7X>XE.gXQ | R.b.u.7X7XtXV.V.<XV.[.m.| `.| A.u.Z.[ t.r KXV l l.qX6.>.l.E 6 E E _ i Y z = ;.i i Y e i 9.C G K.; { P { 0XlX` n.w.p.4.w.p.[.XX4._.C.p.B.t.e.3X( 9 = 1 KXV.| c x b | <XE.y.u.>X,X! <XP.Z.{.P.`.|.|.P.Z.n.MXrXp.:.q {.hX6 v `.AXKXV.JX[.).K.).O.3.Y.pXcX^.B fXgX4XfXHXBXK.K.L.w.T.; 0XA w.( X.K.3.K.2XG 3.AXpXdXdXvXOXB.&X!.A.q Y qXU > (.-.qXu ",
"p F D w D -.p *.r j & ~ 9 @.! ! lXlXB._ Y :.B.p.>.Y 5.) b.} 3.} T.Q U.9 ) | V j 9 4.8.w , i $X8.(.l.(.4.h e.GX`.J.I.6XW t.hXh pX3X3X0X2Xe.V.t.GX8XpX).X.( jX,.1XU.MXJ.P.r.@.rXtXD.[.r.u.lXZ u.+.K.O.m.P.E.r.e.,.t.) ,.Z R 9.I.7.Y _ /.I.pXR 8.6 E U Y C V Y = q 6 > I N q ) 5 G 7 x h Z A.! Z Z w.}.K.}.' C e.a.).).!.a.V.S < q  X_ = < @ @ F.O x c 4 7X| W J.! m.! 8X6XR.r.Z.D.gXP.n.M.@.E.NXp.C.I m.Z.tXS 9 Z.I.L.K.1X_.).' q h q ( !.$X1.( GXfXhXCXeXL.GXY.>X' ` ' wX4.~.Y ] u.' S 5 ( u.ZXnXDXDXdXOX8.[ I !.Y rX8.7./.nXy D ",
"D p Y Y C 2.q % * 6 Y % l 7 >XG qXy.V.gX3X3.BXlXJ s.Q { A ~ J ( ` h U.J.Q I O Z X N !.(.. X *.B.&X$X~.p.B.pXsXm.>X7X>Xl } fXY.T [.K.gXgXI.BX<XGXzXOXvX4.& pX].1XrXwXrXy.E.}.I P MX` [.E.u.8 ,.' o.{ y.e.e.V.4.).V.I.A.Y 7.8.pXC.z.r z.(.(.[ ~.E x R R P N U q < @ $ q V ) | z 8 l b f 9 Q A x I ) A w.A.:.4.a.p.V.u.Q * & m 5 g % E.r.eXb l.e KX- q # ! Q { V.' P m.b.8Xm.qXZ.Z.|.E.+.7XE.qX6XsXI VXHX} ) 8XV.u.`.[.).0XD Q ).u.~.3X4.,.N @X1.] fXBXfXfXBXD BXq w.Q ` ' C *.p 4XgXS A 8 ZX.XA.nX|.bX&X&X&XU = n.N.sXS.V < 0.i p ",
"D T N C C E S.@ > > 5 5 h 9 X.5 7 m.Z.].9.I.3.lX! I.e.r.} t.( ,.) h ~ q l ) _ Y C S.&X+X;.D T X % 1 * C.[.Z e.V u.NXm.3.G qXK._ j K.I.V.lX6X3.X.HX[.vXOXG B.1X3.qXBX{.b b Z.| ' u.NX[.I.0XO.) 5.) Y.lX+.w.I.3.t.V.B.!.S.l.8.(.6./.KX} 5.l.T  XR R E Y R N a i e & 5 < z [ x H Q & - Z Z & 8 ^ Q { ` GX} u f.e.] 3.8 q 6 1 < < 8 > N I t.) z > h o.I W y.J.O.W W 3.r.t P 2.U.b.b.W.E.R.|.O G V.S p.h ].m.8Xm.8X7XA.I.`.0XB 4.3.' ZXA 4X_ J N ;X%Xj w.3X4X9.F XX,.w.O.( CXT 9.D fXgXhXfXw OXdX.X_ dX/.nX/.OX3.6 eX5.5.|./.i G.*.>.",
"T T ) N Z.C Y !.#.l l 5 q > % ^ h q A pXI.I.].u.>X].rX2Xe.) w.w.' = g 5 ' l ' Y > * T ~.*X~.kX*Xx.~.& & h 9 ).G w.wX@.A = z t.C.F [.C.5XxXhXGX].qXHX9XAXH 0Xe.qXzX<XV.I.O.! 6Xr.P.gXeXfXB.BX3XV.u.~ ` ` ] e.' }.r.OX.XsX/.(.N.S././.D.N.V 2.l.~.q Y U E C r >.F E z $ - = k n $ < ; 9 $ ` b Q P ` ) ) e.q ! ' j 9 q 6 6 6 h > 9 # GX< N 2.I 6 6 % q +.n.^ #.yXHXI.e.T a {.b.b.E.m.R.n.o.tXg wXq B O + / H.V.b.r.{.qXA.8Xs.lX,.5  X} 9 4.).p.$X%X%X^.jX#XjX>.hXfXN w.>.8.>._.a.fX`.!.sX.XAXDXZXgXnXmXdX&X|. X2.q 3Xr S.q.0.=.T 4X",
"e U _ Y 7.*.*.;.y p o p 1 S 6 v O 1 q gX).eXu.<XW t.eXu.O.<X' <XU.) @ ..H ( < V C N e 6.(.*X~.*X-.mX1.~.:.w.& @.` sX} C.( w Q 7 v C.3XzXAXlX).H eXAXpX;.,.0XpXV.) | I.n.c U.<X0XNX8X].9X3XL.lX3X] ) t.Y.eX( I.O.I.pX[ pX'.OX/.B.sX/.OXC.i CX-.LXr C N 7.r D I N 5 6 w h = } l l q h 1 7 l @ = l b x I { A ` % l 8 z Y Y E U * * $ $ < 1 9 r E z & e.A U.H.` W ! n.) 9.u n.$.P.R.{ @.Q.) Q 6.8.c.e *.& U.Y.r.Z.Z.Z.8XV.P e.I q V.'.V._.' w._.4.$X^.0.e.kXaX9.*..XjX.XF F :.4.].].9XsXA HX] HXSXvX9X XZXSXOXN.V _ 7.m.;.;.&.*.T T ",
"r -.R l.*.E d d p x.E a (.-.8.!.' #.7 ].9XG.Y.m.].1XI.5X3.u.Z MXGXeXgXyX,Xv 0 b E V C , (.nX*X^.(.x.>.Y SXZXY X.7 w.O.i.V 9 ) q H 1 ) gXfXCXCXCX3XU.B._.V.V.w.zX^ +.P.eX| G.b eXqXeXV.].I.}.3X0Xu.y.2Xi.,.2XK.e.{.5.N./.N ) XX'.OXOXOX(.6.U l.~.U -.7.E E 7 Y C w ] 7 9 O O.x ) 3.c + v x ! r.P P Q b i.} P I N._ I I 2.C i p GXe 2.q 5 7.6 .X1 7 } [.w +.b.HX( ) zX>.1.Q #./ n.W = {.|.[ b *X#X;.w & - r.I.t.m.V.oX| bXvX|.aX}.'.A pXe.C.pXS kXXX$Xs.pXAXaX^.kX%X9.J e.( v V.[.` p.5.pXsXAXSXnXCXZX3X&X8X6..Xz.*.x.=.@Xa l.1XN ",
"Y e d d pX&.*.d > p v.l.V 2.R 9Xu.Z 1XqXpX( <X+.>Xu.t.a.' 1XL.t.e.,X0XgXJ.' ` q S V |.p >.&XkX*Xc.*.kXZX XkX X9Xl z q Y.( G 4.8 Q Q K.zXzXu.lXpX[.3X1.( o.1X].+.Q ` | { 5X` >XgXqX!.].<XA.[.3XfXI K.y.m.K.V.T.~ V.C.A..X,.z l } ) 5.&X+XO.7.{.U 2.7.C R r q 6 Y & # l x P r.= l w.Z 1 = b { v K ~ ^ K 7 w 9 = + & R E 7.E q e + & 8X_ Y B.[ t.V A ` | 6.' t.4.6.T *.D :.^ U.b ~ +.,X{ {.8 8 D #Xx.sX* d.% P.m.R.{.gXY AXnXR pXA.e.' NX}.HX[.XXXXh.^.9.s.aX0XC.3X~.hXHX=.j.9.Z I.|. XpX%  X8XhXHX|.&X|.) /.dX.XpX;.9.8.x.-.OXT U ",
"sXD 5.E ;.&.*.;.p -., 6 w 7.e nXA.Q {.R.8XV.I.eXeXe.V.e.2X~ Y.4.t.` +.gXt V W 7 S } B.8.~.$X9.aXmXmX~.dXZX:.6.`.pXpXS 4.' z q T H H ~ i.w.G Y.AX3XN.B.i.' E.} ! K.W eXb m.).r.3XL.).qXI.1XfX3XC.e.].W e.n.3.t.<Xm.!.Q .X' 5.Y  XnXOX&XdXw 6.(.KXD.2.*.Y ) N 8.2.A f l n PXA E.! l Q l z ` W k GXyXl H.+ w Q [ 4.I Y R 7.l.7.V ( 6 : z KX3.) ' & { Q | 5.6.e.e.B.~.i p P { @.wXG gX< + I..Xw N (.4.R OXW & 4 m.m.R.8XC.{.AXV.|.3.+ % }.u.4XhX_.0.0.s.1.fXfXVXwXa.u.fXXXg.$X1.F +  XpXgX( `.`.sXHXSXnXmX7.dXOX(.x.&XS./.p 7.~.s d ",
"-.a l.8.p w r e 6 , E -.I w U + R.5.r.I.5.`.AXu.V.' V.q 3Xt.3Xj e.m.3.V.E.+ o.b Z l l Y *.1..X'.hX4.SXSXpX6.A KX`.OX'.`.5.K.B.(.8 1 1 H ~ ' CXH ,.$XC <Xi.0X) A Q t.K.~ <XM.e.3XC.).G.T.V.I.fXI.` ` 2Xa.w.V.` k ( 6 e < V.t.A.|./.sX/.=Xe KX!.vX2.[ Y 6.Y A 7.|.Z H 9 I.) = 5 ~ m wX9 h c $ { c m m VXy.l _ [ ) [ JXr 7.7.E q Y q Q x Y V.L.` ; $ / g % _ y.3.>.>.T F c f + %.P }.* V.) l OXS ~.^.5.T U O < O.M.t.!.z 8XAX' ( !.pXQ ) 9XzXgX^.^.q.^.F 0XL.w.u.L.V.d.V.qX). Xh.=.1   $ 1XA.}.tXSXSXDXmXvXZX&X=X7.(.8.E x.*.*.R ;.",
"R *.&.;.;.*.*.a & o @ o 6 6 C q 8 !.3.S..X$X:.( u.V.r.) m.t._ *.q 9 m.VX0X#.~ 9 Q 1 ' w B N C.,.hXl hXHXZXZX7.pXw.pXNX8.T fX9.sXZXp.H &Xu > < 8 g.D p.).0XeXu.T.xXK.P.~ ).fX3XC.3..X_.].u.'.1Xt.u._.C.Y.V.4XV.[.0.^.0.>.( ) AXsXpXvX+XN. XdX_ gX_ Y S.^.Y P v r.) ~ - } E.*X.X9.].C A 9 S < < 6 z b A.).4.~.6.B.2.[ U A.HXl.V 7 S V 9 & Z b.r.x v N X w _ t.3.:.T >.p C 4.^.6 <Xv N.6 _ # :.l.1 pX X!.ZX.X& O OX.XXXsXC.qXA.nXY w 9X X4XpXkX@XXXg.$X9.].K.a.].].1XV.3XV.I.C.3.kX@X1.e c.% O gXhXJXgXmX^.kX-X7.N ~.;.kX;Xa =.4.d ",
"p -.E p *.;.;.p * y e * > > .X1 & < % P.0XC.8._ { BXz :.B.$X0.9.0.9.x. X3.O.t K.Q h 9 @.2.y A u.3.).N AX9XpXL.jXr. XCX!.!.XX1.4XAXZXpXNXq s.2 w e F p.p.u.<X0XBX2X5XlXY.P.3X8X X).).' E.{.3X} t.u.1XP.].t.].1X1X0.aXpXB.C.N } ` pXAXvX' 8 tXR 7.) l.!.l.N I t.! = l g % / ^ A.s.T gXY z A j z q K / o.y.y.3X.XY N I 6.7 OXdX-.*.U ~ KXx e.Z b.t.'.!.2.V N.N Z C F *.D 4.+.+.z | m.v 6 5 C .X>.|.b.3.{.D.vXpXI.@ '.|.`.[.fX9XSX).( 1X].fXjX;X^.9.1.0.,.u.<X] ].e.5X' +.r.! b.| !.~.-X%X^.*.0.e w 4.-X;X^.B !.$XhX#Xv.v.=Xs *.p E ",
"E E E 7.x.*.i u R X @ 2 @ > O % I I z 9 E.qXpX:.s.*.XXXX&X X8.~.$X8.b.n.+.V.r.y.#.H 5 O.S C ( t.e.gX6.[.SX' e.A Y.Z 2X_.C._.4.e.pXqXjXAXO A h _.w O.g.,.4.B ' < T.,Xy.Y.gXG.qX'.pX4Xe.<XI.2Xt.<X>X].L.t.w.u.LXlXW [.e.u.>X:.[. XV.pXdX9 v 9 b..XA.8 8.OX'.q I 5.z ! { qX@.$ 5 V e.t.4.A I A ( q  .^ o.qXm K vX^.~.S./.e.N.|.Z.|.) h 5 ) l Q b.I { b | ! 1X8.Y <.>.F w y.o.>X6X9X5.= @ = A A ( y.x H.R.n.` {.8X!.e.}.).fXI.`.I.).3X).).hXkXaX*X^..X9.B K.i.K.L.= 2X_ I.r.W r.Q C.|.Y !.(.$X%Xc.0.^.-XkX*X~.pXrXS.-.9.x.=X%XE E T ",
"E E N N i % ;.a 6.x.;.x.;.C @ 5 @ $ % $ 5.6XpXr.r.[.C.A.qX`.t.m.N.+.n.Z.y.P { b Z >X5 9 S u Z ` 3.N.9 3.ZX9X} Q 2Xu.gXyX[.3XL.a.e.a.AXzX_.hX'.,.w.< C.~.).~.F s.4X_.2XX.u.I.H 9 w.V.' p.qX1XQ ` 1XQ I.K.[.e.I.A H ` e.l } p.e.I.4Xw.A.w 9 + Q gX6.B.l pXOX9 >X! +.o.Z.` q sXI O.7 3.V p.h f A S ^ ` ^ 7Xl n P.' 6.tXz.A.[ Z.D.[ b.) - +.| f { x ) | O.} ! _ w Y T u C y.+.gXE.|.OXOX& 5 O u.{.o.6X8 {.! } 8X' '  X9X.XkX'. X].3XqXt.'.9XqXpXaX>.4X9.~.K.( xXZ 3Xt.) qX| / ~ ! { | t.Z.gX|.dX=XkX@X(.^.'.gXAXAXb.l.(.(.*X^.2.T [ ",
"E E 2.-.l.p C e 8.&X;.=X7.R 7.* # /.A.} m.r.|.p.b r.r.8X+.M.H.R.E.r.H.O.@.W ` W.o.b 9 ( } q B w 3.|.* V.P.} ].T.T.` L.u.L.3XL.8.F !.AXhXA 4XHXY w % < s.CX_ ZXXX4Xy.H ].fXqXV.K.a.( l '.].4X].' 7 A u.).3Xt.I.e.Q w.) z t.B.] ' V.hXnXOXC.<X- ) [.v Z sXb.T.b.V v oXZ.}.z sXP {.v E.Q 7XW O.l ( k / ,Xm 4 @.m N.I R.b./.D.! r.b.}.R.= f / u.` Z U.W P.U.W Y B i F w V ~ n.o.F.tX|.|.% e O W F.r.W m.{ = +.' b.* O . hXpX$XA.[.A.3XgX8X}.3X9XCX~.'. X'.V.w.) Q w.t.<Xt.) { ) b | ! ! Z.R.8XN.OXhX$Xg.[.|.gX{.{.7 ] l./.&X~.z V E ",
"C P.4.l.T N l.C 8.(.l.v.-.3.OXR A Z E.b.+.b.pX4.' j O S $ = ; + n n.$.F.^ ^ W f ( ` >Xz Y.I D s.:.$XO r.y.r.) K.u.u.Y.' K.Y.a.>.u ] pX3X5 5 _ I.HXgXw.fXY.i.BXAX4XG.2XAXu.j [.4X3X4X~.t.fX).u.fX].i.m.I.}.fXu.e.r.Y.w.e.O.3.I.).V z XX|.!.) ) hX7 { +.}.5.Z b.- = P.qX{.e.{.` tXW W.{ +.+.^ ,X+. .m +.iXMXIX/ V.) u.e.b.Z.`.5.m.r.{ r.^ l Q l b Z.P n +.P w.e.N D u % k b +.o./ E.R.b.* 5 + n.F.J.^ E.F.0 b.V 8.q O 8 aXfX9XpX'.a.V.fX[.[.fX3XI.( W * >X) ) Q } r.I.! V.m.` | +.r.o.R.M.P.b.tXCXkX%X9.$ ) 1XoX[.N.t.9X/.4.).qXN ",
"8.pX0XZ e # Y = O S.(.(./.N Q N.{.< ! } n.7XX 7 h $ V.Z.} +.Z 5 + k.U.y.<Xn >X9 ^ 2X,Xl ( u.6 3.} |.x vX!.( 9 2X] ] ].K.<XV._.9.$XL.G.K.$ 3.( 2X0XS 4X4X5XBXG.4X0X].S u.hXu.hXhX3XB.pX' qXV._.n.) K.i.+.I.].[.w.I r.e.V.t.w.` }.|.pXhX| qXm.V.sX( W t.| A H.R.P # = 5.sX{ gX! E.n.VXr.n 0 O.~ .. .H.nX+.o.n.W.p.A.Z.gX<Xy.LX' m.Z.b m ^ W n ) ~ ` { Z | Z 4.:.p i i ) m.r.Z W A f {.OXV Q + < n.+.J.c { l z !.(.dXX # 1 [.'.4X9X XfX).L.2XgXL.m.AXt.T A w.eXK.) Z | +.) | W Z ! r.| b.Z.R.b.8XgXZX%X0.pXR.O l ] oXtXsXt.3X}.4.( ",
"q S.7.7.p.Y 6.B.O 6 OXl.2.Y W V 5 Z I.A.' A {.ZX' '.  G 9 < `.w l + Y.o.^ G.= c X.8 $ @.z ) N w C ( ' } ].B.~.T >.N J ] s.XXXX1.I.q ,.L.8 pX1X'.[.xX0XfXa.0XT.2XG.~ ` hX_.S 3X4XfX!.aXu.[.a._.a.v e.1Xr.[.t.r.} A u.- - 1 5 6 ( 8 I Z.P |.b ; ` l <XZ 3.e.r.6X{.oXq ) R.Z.R.R.{ Z.+.| 7 ^ ^ K ~ f n.0 h + X 9 ~._ vX|.x Z R.|./ tXv ~ LXk Z b A { Z b W ! C.B F B r ) K +.t.V.q L m.A._ z b # W o.y.h ].E.( 5.OXkXsX9X% hX9X4X X X X4X X'.1XE.A.C.`.[.C e.>XW b ( P r.W { +.W y.| t.| D.6.b.m.}.aXh.1.vXsX8XgX,Xb ) /./.3.t.[ 6.",
"' A.$ :._ _ 8.w * _ O X 6 [ O b.#.b P ^ ) W.V.tX3._ a.j ` r qXZ.v + 5 r.7XP.W ` <XZ $ m 0 ) w e w J u.D g.1.[.9.g.0.g.s.lXs.s.,Xt.4.C.9X5.( !.N @ zXzX#.5X0X].GXzXfX4XzX1 I.).qXV.CXaX_ jX< _.T Y.5.].).[.3XQ < 5 7 7 9 - h - b 9 z 7 $ 0XZ.! 1X5 ! W r.Q P {.qX) + Q + ( Z.].+.0XG.K l b b +.` + >XP $ % % % < o t.5.tX) O sXt + { sX} +.@.b ~ X.~ m W ! _ F B w ] ~ ` Q r.) G.,XK ,X5.W l Q ; E.wX) b 0XN.Z } sXsXaXjXj '.4XpX[.gXhX'. X9XA.AXE.A.I.8 e.V ( ` P r.b.} r.( l @ 8 r.) +.Z.{.|.3X'.#Xi R.}.AX{.D.|.Z.< oXI.lXfXN.",
"Q u._ X.t.t.' ~.E /.R 2.G l q * f r.| { { r.r.W p.7.9.1.1.e 0 >X+.0 X W ^ Q l ^ IXb = - S A 4.e 1.D '.>.1.g.N / g.< g @.1 M S ( @ m 6 1XA l % h 8 fX~.BX>X4XY.2XfXa.lXu.5Xi.a.w.).BXV & % u 4._.e.] K.V.I.A } ~ ' H 5 S 3.v ' q 7.N.) 5 v - 5 m.1Xh l Z r.H.` Z.}.P B.A.5 tX) ^ I.H.b W b Q P Q X 6XoXb.V A.7.1 > X p Z.N.I tX5.O n.o.o.W ` b F.b n.n W I 4.*.p i 6 Q Q +.4.u ) W 0 Z r.3.Z h f + } O.W E.}.I '  XqX9.pXa.p.).3X).hX3X`.fXqXN.t.` fXA.a.V.V W 0 < o.` Z 9 c c O @ * + # b.V.R.8X^..X<.+.6X! 7Xn.t.5.r.z gXV.t.E.",
"Z N.8 9 O '.ZX~.6 S./.dXY 1 n.' t.l y.r.r.` r.3.w T *.- N T j O rXr.K W m iXf b y.` !.9 l N D t.C 1.*.XX1.6 D 2XpXZX,.( v 7 C.w.w '.+ q @ _ 2 1 < j ~.fXfXfX].<X2X5Xd.<XI.fX}.p.L.jX~.F 1 0.qX9XCXN < w.r.3. X!.[.4XQ ' }.) Q = l.5 ] = H - j T.{ ` W t.P ! M.b.A N tXN.oXR.6X| #.K c W Z { Z.r.b r.P.Z.D.t A a u # % 6 * @ 3.R.Z U./ ^ W 7X+.W.n +.W / Q ( i B T u 8 h _ A Z P / K } 1XA P r.= 7 ! J.W ! ) { 5.' C.s.0XL.4X).[.[.fX4X).NX9XQ ].e.H.eX' b K.A.h q W e D 1 Z.) < _ * # = @ * 5 }.pXOXZ.` m.V.G.| / V.oXgXw.) X.I.",
"3.O.8.I 7 < 5..X$X}.2.R.[ r.Z I 9 x A +.H.! +.V.u.' ~.!.Z _ C.1.* - #./ { Q J.G.b Q Y.r.p.<.<.D 4.*.1.1.s.*X4.X.g h P.hX4.< j dXT B.pXC.6.q > @ H < 9 G H 4XxXa.Y.4XNX_.u.qX1XXX~.aX^.e ).~.9.1.0.~.$Xe.3X5. XA.I.9X5.- l qXB.q `.5.t.6 V < q $ / b b ` b r.5.vX*.  vX) % M.m.n.3Xn l b ^ 5 z l { W B.b.6 sX&Xw u a 2.> i 1 - $ Q h ^ c W @.^ o.b b U.n A 9 *.e.T :.D C <.B b n f b l / n.6 W.@.b o.F.#.` o.z e.N.I.u ).2Xu.[.V.[.t.9 % & h = % 5 $ 9 7 $.S O.S 5 h g.*.u ) [ l U A.N.5.5.$ q < h E.7X! rXr.BXO.n.O.{ lXlX+.u.Q ",
"V.C.pX4.4.8X= O ' OX_ 5.n.e.C.y.= MX& O c Q 7XA B Y _ u.F.m.@.qX8XV.i.#.$ M P 9 = N ] N L.B i V.L.s.h.GXA ,._ NX<Xi.h w.aXe # s.(.% *.jX}.=XI.1 G 9 v S z w.L.K.e.Y.0X5Xu.qXpXg..X9.9.a.9.<.~..X X3XK.o.r.p./.3.C.1Xz S x 9 dXv |.|.OXC.) V A c + - J.` ` W w.6XkX, | ) O b 8 8 X.c l f b I 9 < q Y [ /.D.|.mX=.a (.^./.OX/.9 ` 7 ` Z O ' c H.eXW K >XP H 1 % 1 5 5 + <.p q V I S ) S ^ Q _ v F.@.` ` { ) r.b ) ' [.B t.L.[.3X' 1Xh S * o 5 9 5 q $ & 7 X.,XQ z M $ l `.5.! V.D.&XS.w I b.`.Z # * 6XH ! R.} { m.O.` w.P.w.U.' n.",
"t.:._ !.p._ N V < O V.A.|.m.C.Z l / o.f # l o.a.j ) Z i.>X#.W.U.l n.W { V._ 8 o.Y.I T e.3.T D T Y >.1.1.1.^.' X.[.8XC.t..X6 8.( *XE ; <X'.#X(.v 1 5 a.& ) < 7 a.u.]._.C.L.fXXX%X^.h.g.9.pX.X~.B.P m.u.L.t.pXOX!.3Xp.'.A.R.OXB.$ | OXOXB.5.I P c n - b ^ O.m.r.b.Z.ZX2.sX@ v $ v G g ` b +.) 8 P r.Z.| N OXI Z.w 5 S.5.M.Z.{.m.<X` E.H.b ^ P X ; : $ ; $ w 6 G.$ 9 v % # # <.p q ) ' ) i.I A q n i.Q Q +.+.} / I A 7 % fXI.C.[.pXA 3.B.!.8.N < 8 I X.& J.% O 0 3.w 5 < | r.rXr.) r Y U S.< & nXb.& 7X= l 5 8 9 O.^ | r.5.+.m.G.Q ",
") V.pXz A.S.~.8.m.$ v I.NXb.b.`.t & - g H.- j D N { #.u.H.J.W $.m.^ G k.G W p.,.eXN u >.Y C e.4.2X9.*.*.w.fX).BXA `.hX3.4.9.> 9.i ZX8.'.l.7.'.2.mX>.[.'.% ,.t.O.r.V.].w.a.L.$Xh.=.=.aX*X0.*X9.j Q < 7 `.}.tXOX).].K.^ m..XN.V.! CXgXD.z.I Q 6Xn v h W W.v r.{ r.b.SXnXB.dXz 5.v X.k - = n r.P 9 ! r.R.{ ) b.A 1.r l M.b.r.H.! b ` o.; = $ k q V s.] e & & = 5 & 5 9 *.2X1 < 1.s.w w z N Y N 5 q A ,Xq ' 3.W o.~.#Xc.@X,.I.C.).CXnXS./.R dXC * J.r v 9 ^ t $ + V.9XN.} 6 `.|.A.A.N.`.[ !.N.6 & [ O |.oXq z v d.< ! ` U.} r.m.n.5X",
"Z t.R..X4.) >.B.3.r ~ { } 0XgX| P.' j f Q 9 % X f 5 iXK.} #.{ ..>X^ ~ ..b @.i.3XY N B _.A F p.T w T s.T I ( m O.% *.e.mXD 7., E OX*X/.6.s.hX6 sX] s.6 w < j d.i.' } a.t.a.<.-Xq.%Xs.pXaXhXc.XXN ~ A o.I.r.hXsXhXQ 5 > ^ c I $ iX$ $ 5 M.>XG eX| W Z / >Xc ! P +.5.8XsXmX_ I 5 c v 7 $ < + b ^ o.W b.n.b 9 I :.R oX) n.m.{ l Q.4  .qX+.{ v $ ~ % V j 6 % = 6 1 o.h , # 1 Y % j & 8.*.s.a.4.7.F e.I v u.|.| R.+.P ( 4.!.u.e.3X4.H {.fXOX+XnXT (.# v i U 5 ~ & X l Z N W S < ) Z.OX6.I [ Z.Z.l.w /.< OXgXOX<X| P.W f P.3.t.K.{ G.i.",
"3.' } ' 4.7.w % p.8.@.) I R.rX} P [ ( % u.).6 ; 7 c #.` y.@.~ >XU.@.,X@.c / @.#.B :.B ,.,.B 4.s.p.e <.T :.K.qXOXB.S.9X8.~.Y 1 8 H :.hX9X_ (.T kXaXT 1 N % H v O.T.O.j H s.=.q.h.^. XpXCXB.N ^.(.~.m.N 7 $ 5 % I r w l * * 6 6 U +X> r 6 x 4 ^ n.f Z Q m.b G ! 5.N.| gXoXdX*.q 5.Q 7 8 h O O + 7 r.W ) M.OX`.R 6 n.R.bXbXn.8 n.m.+ +.M.+.b.z.5 O B q w % & % > 6 % % * * * u > & 8 s.9.:.*.9.4._ ] ! +.<Xn.` ( 4.p.XX~.'.$X).a._.^.K.5 A.~.@ -X8.r + < c uX% - * q 9 Z 9 9 X = 9 B.5.Y b.A.N.b.[ O t.V.|.| 5.1 b f I ].+.7X' ` eX",
"` W t.u.' 8.1 q % N 6 8 r.{.+.5.b.t.I - ( eXu 6 f 7 $.9 ; b +.f J./ ..@.k G J.m I Y < 6 XX8.>.4X_ s.).( :.= e.N.'..Xx.&Xx.1 e 1 C _ ( sX].>.F ~.C.N.S.8 % i.< I.z ' J ' j.^.=.9.8XhXV.A l Z q N q q A } 1 5.I  XOX~.l.p r w > 2.2.[ [ Z P Z 4 U.n ! U.t.,Xb ) | r.b.sXOXsX&X9.C v 9 b 6.z # ; X   #.^ Z.Z._ T 8 { o.^ +.U.E.M.{.% < <X}.gXN & # Y w 2 % y s * q 1 , , % , e S 1 ~ v 8.T :.s.( Y P.MXb.r.) 8.e.e.<X].w.A.1XfX.X$X9.*Xq.6.c.' (.x.l.!.8X5.q h 5 < X ' e e 6 l w W 9 1 X % W b.OXC.V.OXP.D.[ W b 3.( l P.I.e.E.i.I ",
"{ W ' m./.7.i % Y 9 % $ V Z.rX3.{ L P b.E u u r Y ` % 7 m.W ) @.n n c K ~ X.K ,Xo.( y ~ G ] = 5 N = B ' 1 <.N.5.6.(.*X&Xv.y -.% > - /.!.mX!.Q _ 8.&XaXi ,.h # $ L.Z <.<.s.a 9.pX`.9 % 5 N V.A 3.C C 6 ) % b.O U OX=X7./.=Xx.(.&Xl.&Xr v j S ` { M 9 Q k W m.r.| +.+.M.tXZX&Xx..X6.h Z w.6 l q O X   o.k.+.A N A M.+.^ #.{ ! E.gX{.+ O 0XR.l.X S.8.D 1 &.*.&.) 6 i.1 2 F e e 6 6 e > % w e j < V.) { ! E.rXQ I.I.K.} e.e.p.e.u.fX$X*X*X&XkX9.!.vXAXfXAXsXN.U e 4.1 l v 6 > 1 $ z v I 8 < & = < % < 9 ( l |.r._ } 2X^ Y } t.} Q Z ",
"Q H W | C.2.N.r } q 7 & < ( } { | @.W eXp >.5 | t.m.I l { J.^ W o.i.b k n W #.>XO.B.1.'.A F *.y.XXPX9 z ) nXN.sXdX&X=X-X#X*.> ;.@ ~ > 1 pX'.B.6.(.OX(.s.Y gX3Xg BXQ 4.>.*.<.# % A e.q C z $ 9 $ q ~.*.z x r 2.[ > r l.y X 5 > r E l./.A.P 8 M >XH m W n @.b ) x ) | b.E.dX2.sXsX5.~ y.' 5 N X V Z + + W O.u e V b o. .Q m.o.H.m.6Xt.1 : bX(.1 R ~.*.a s &.=.:.j p * , @ D u 6 ] y e ( 1.w.> f # :.e.I G.e.u.Q ' u.,.K.p.[.gX3XeXgXhXZX%X-XnXAXOXAX8X3.!.2.Y _ r ` 7.1 [ 7.N C.) I 5.D.8.9 = 1 & < P ~ d.l q 5 l w ; X Q } n.K.( ",
"P <X` ).p.' Q 6 5.3.+ G 5 v u.y.^ { W B.a.=.C 9 I.c V.7Xy.` >Xf n K / W ,XZ ,X/ A u.] 7.C.N 0.] r.,.N g 1 +.( m.OXdXdXnX-X-X*.=.Y 1 6 q Y  XdX6.q s.pXu.( u.E.G H ) t.=.e & ' X # & Y r N + 3.wX X7.p 1 ~.I 6.2.U > p , * * l.R l.B.q | H.P.).h l v ( n X.A Q } b.Z.R.`.AXtX5.bXC.+.H.} ) Y w q q l m A.:.D *.T z ` +.R.P.{ m.{.t.| V O 7 /.,X~.=.=.a a &.a *.u D 2 * * * a a * , 2 A 8.0.u.A q = qXC.}.9Xt.V.V.u.( ).e.fX3XpX[.t.6XsX9.%XHXZX|.`.gXz.~ tXN._ N r.X.N.f % & 5 N 9 & `.~.N.1 A h [ m.t.n.H 4.1 v 7 b.t.N.5.U.K.q ",
"~ P ) ` R.( h _ z v $ < % J.3.Q - <Xr V.J T U.) M.z X.o.X.r.` b G eXk k k.@.W d.Y A A E.<X` _ ) I.p.Y ; q ^ o.) P.R.5.OXdX#X*.9.p i % * 7 w &XdXN C C.4.j l 0XE.~ Q { p j.T .XdX&XT &XkX&Xl.m.!.V V e.9.8.7.H /.p E p *.u o * * U 2.z c b G.+.E.7.z 8 o.7 Q P ! { | m.<XW.6Xr.8X}.A.` Q ) o.` C 5 l c ( N B D B !.! +.n.o.+.+.Z.R.`.6.Q e -.O x.0.;.a a SXeX, p s *.&., @ 1 * % * > 6 & mX&XA v h Q }.zXP.u.).].t.V.).A.0XY.e.pXu.8XNX*Xe VX|.|.!.|.OX6.O 6X| lXU oXe q H |.}.Y ` + z ) A !.) = q 9 v G 7 Z c S 1 5 z ` { r.` c ",
"/ 2Xo.S 3Xm.t.) 6XA.Z.R.} >X^ ! N :.C G.r.W ~ @.W W b ,X^ W J./ m ` / $.b Q b H r.w b <XQ Q.wXm e.wXw.w % m ~ r.{ 6X{.`.+Xx.=Xl.X 8.> 6.9X/.dXmX.Xl I ) p.Q gX` Z 4X' *.u pX XCXaX&X&XB.!.pX6.3.N._ 1 + ^.-.7.@ 6 % *.p p p y * @ C } l W.H.@.@.A q h / m ~ W m.{ m.b.R.R.R.M.R.| ' f b b P n ) ) u 9 N B D D Y ` #.r./ ! o.| +.P.oX!.N.v.9.O F =.c.*.-.&.a *.y a &.&.2 c.u =.*.@ w * % $ qX|.@ uX1 $ qXqXAXr.I.I.C._.C.3Xm.+.].9XaXSX*Xe bXgX{ tXm.|.[ ) 7 b K.I C 6XZ.X Y A.3XN.R.[ < & @ w W U.z 5.Q x Z V.' N 6 < >XwX) W y.",
"W } ' | r.eX}.B._ z Z +.V.r.O 5 ( 4.] @.c 5XZ uXK ^ ,XwX>XF.#.G.n.<X@.wXc n.Y.,.D T #.wX .o.^ f } u.L.w.N q { ^ P  .Z.|.z.&Xl.#Xx.e R _ S.pX6.ZXV < 1 z ' X.+.u.J.HXm.8.B V.pXsXA.ZXOX2.8Xb.gXC.pX6Xt.% !.c.a *.&.s y :Xy , o > * N tXM.O.@.^ K 9.4.q W W ~ 9 ! | | r.R.r.8XR.P.I V.#.v l v b b ! :.p D N B V Q { W @.+.W M.! Q oXR.Z.(.=.F F *.*.-.=.x.a &.s 8.B a &.O &.=.o l.-.> & @ q N._ 6.Y V.= & eXjXS a.Y.).) `.1XV.I.qXqXqXCXkX, 6XE.P.m.E.tXN.I.D.v O 5.0XV [ & b.l.` C ).:.P.l v J.( z e.Y ! 9 } ' | O _ 1 5 b P b Z ",
"l +.P | | {.vX6XR.].Q ~ n.P F.W z $ & ' v S w.! k W $.J.H.n.y.v o...K #.^ ) C.F >.F F.J.$...^ / ~ ` u.I ] % ! ~ ` r.Z.Z.B./.=Xx.(.& 6 8 |.3.'.hXaX_ < 1 ' S ` ` eXt.A :.( r.K.qX XvXZX'.3.( C.'.N.N.< $ tXdX(.c.q.@Xs a #X*.i * * % % +.y.~ P.w.}.] C.t.8 ~ Q 0 ! +.r.}.n.{.Z.m.b.! l v l c b b b Y u i C p A } @.{ +.` ` R.r.| I 3.~.1.1.T #X0.B.-.;.x.x.7.i y a *.&.o , v.-.d v.e l @ N & < 7.N.V.}.X.0X1X' V.3XC.b.].gXV.}.}.}.gXNXnX*.NXR.1Xn.I W Q AX+.Q y.yXm.[.oX# qXOX.XsX_ 6.z U H & 5 v b._ I = < M z $ '.r % < #.#.b ",
"S W { | t.+.oX`.tXgXNX} Z {.= lXv Q @.( j ^ O.~ c  .n.#.F.o.@.' r.m.+.F.@.O.' 2 >.% W o.k.^ K n f.F.) / M w ! n ^ +.R.P.| N.S.9.C 6.% q w.% E.SXhXkXN j S 9 h eX<X[.<.' P.O.t. XI.[.1XE.` ) l S Z.) + X {.D.=X;Xc.=.@Xs > +Xp p e & $ $ y./ n.Z ` W n ' 8 l ^ ' N W r.r.| R.r.E.| lXP W l b b b S C *.*.i A I  .W { n.@.| m.! 7.#X1.B *.s.:.>.^.T & E .X*.V.i w a a a . * +Xe (.E v.Y h /. XI /.:._ y.N 7 a.) ].7XK.r.t.Z.R.Z.oXoXtXgX.X0.qXgXR.o.o.n I.t. .| ) 9X` /.gX% % OXOX.X8.V.9 x.< e A w 5 % z z ! h I.< Y Q A ,XwXo.A ",
") 2X^ Q 5 m.{.6XR.tXvX{ I.P Z l = z I & $ h l f b W W.J.+.wX<Xy.h o.{ Q.../ Z.F O + y.^ F.,X` / m k.f f K ` 7 W m / +.|.5.|./.7.c.q r b Z I _ hXhX X&X[.9 8 1 K.Y.3X:.e.} } w.qX).4XA.r.V.w.A I.z 8Xv $ Q ! ! |.;Xc.=.c.e   7.Y N.@ & + n./ O.c y.c wXn b b W r.I v Z ! V.Z.Z.P.Z.{ P f P ` Z x T A ' 4.I q Q r.! o.m.+.W ~ :.*.T Y F D C N 0.x.1.*.-.R *.C a &.a y s a o +Xp (.a =X-.@ > N.q q $Xz q l j wX5 I.L.BXR.A ( |.sX{.8XqXNX*X#X| tXn.) ` k +.n.>Xy.) I rXR }.N $ fXdXmX-X=Xx.8.E -.r v j & 1 I ) w.Q [.n.N +.v i./ ) ",
"r.4.Q {.x t gX5.R.vXtXsX0XW 9XW ^ u.| = x ' ' b W W  .@.m.gXU.I t.! $ & m U.'.u 2 & W #.^ Q.O.c M c F.b n G k ` c ^ ! M.A.pX/./.&X=.oXI $ v j 7 S AXpXsXaX].< = q :.3XI.e.( I.].I.9X|.| r.n.e.I.} ! Z b _ ( |.tX&X-X-X;X;.u   0 R.sXw f P.E.@.W n n F.G H b Q W ` N ! r.| l R.m.b.<Xb b { P ) ( Z P Q Q 3.Y ) +.+.{ n.H.N.).I r T _ C T :.9.(.kX8.2.U S.N.[ 4.=.a s s * y v.y +X-.+Xl.R q OX} S s.O 1 O.A @ ' S H A.m.[.I.V.{.].pXAXZX#X^.e {.M.U.o.b 7XF.Q l X.0XA.N.}.A % .XSXSXSX=X*X^.l.aX~.~.B.3XX.Q ].y.) `.' N Q 8 d.A f ",
"r.e.{.gXI.V <X<X{ 8X@.n.`.) 5.W Z ) P Q w.) n n.n / } K >Xf / / m U.A.b.; 7 e., O O tX. ; c 9 ^ v >Xl H.c W v ` Q ! { Z./.5.OXS.t.A qXgXt.v 9 |.w A.OX| |.gXqX&X$ 7 + ! C.a.w.}.I.|.8Xv 5X2XV.( ) I Q I v c ! n.tX|.nX-Xx.#Xj.2   { l E.P.E.,X` ^ ..y.<Xn ) W b b p.e.3.b.F E.Z.m.U.{ ..k b Q b W Z { I Z Q { F.gX6X9 ^ Z.n._ ( ~.<.D :.e.Y B./.i 4.5.) [ [ ( -.q.&., p p E O 6 (.2.7.Y 6 hXR dXdX9.# O.9 O & ] eXH ' r.u.`.pXCX.Xs.aX#XaXw P.eXJ.c y.W f o.f l { I 0XOXSX> = I.ZXSXsXFX/./.E +X&X(.2.I 3.& & Q P.|.A m ( v O.v ",
"| | G.].Z.}.A.` Z.P.6X+.rXK.` H.^ ~ NXl W i.l k b P o.W o.`.f f 9 ..W.8 5 O 7 ^.< 9 U.+.< 9 - f ..+ ..f M c @.#.Q b P m.m.A.8XpXR Y E.8X6.{.V }.@ z V.b.E.r.].$X*.N $ + # ' t.`.sX X`.V.I.3.| ( G.) o.P Q Z W b.{ V.`.b.U % nXkX-.>.* v W c n c ^ b W u.b c W ! Q W y.+.r.}.p.b }.F.n.{ Q f v Z Q ) ) z ! r.| | +.E.P n $ R.} 5.8.~.Y !.` Y ' !.~._ [ A 5.2.V _ v.q.s . v., i < + S.w 4.Y r ' nXmX$X9XhXpXS C.A.9XA.t.V.K.pXC.XX$XaX0.*X*Xw 6XZ Y.b ].N X.o.f 7 3.lXH.OXqX) V.|.[.CXhXZX&XdX(.w 3.&X&XV.` / 6 X./ I.N A yXA Q b ",
"+.P.3.R.m.Z.tX(.7 H.<X! c wXc b o.K.u.Z E.h n K c / ` W W H.gX{ n.= 9 tXC.m.>.9 ; W.E.I $ % k m k = g 5 ..W b W W Z b +.M.P r.qX6Xz +.<X+.}.{.) 6 7 ].{ b.`..X~.9 C.z $ = % 6 V v [.`.` 4X4.].m.o.) { ! { ! Q | | nXvXDXN.z c 6XgXXX9.F 5.z ` W c b { k k f - 9 : ! { { m.R.W.OXr.{ +.v c n Z P W ` ! I Q | { r.n.P.E.Z.I.$ ~ ,._ Y n.' Z.V.Q Z t.r.R.) [ e.e 6.l.c.a . y ;.;.-., , e nXl 5.5.w 8XnXsXA '.O < S w.I.L.V.[. XpX$XXX^.%X%X*XT N.4.H Y L.% < 8 S c Y.k.n.I.R.tXm.gX8XSXhXnXOX+XdXgX9 hXZXN.I V v N } V.~._ a.5 ) Z ",
"W r.w.I.`.+.E.rX*X*.T 3.! U.b yXi.n.Z 7 Q b W y.b { k ! ^ 7XM.` l ) G ^ M.8Xp.. % + n.A.&X% c b < g 7 = 9 n n n Q A x ! { Q r.t.V.6Xl 7XO.X.D.qXe.% n.b.I.b.A N 1 I t.r 8 6 y.b.P.A.5. XI.r.z ~ Q ` ) r.+.) { {.& b 5.tXvXI.v | 7X` sX9.:._ 9 k K 7 g - S < 9 5 = ^ { o.m.Z.o.W.tX6 | n n b A Z S ) N V Z Q ! n.+.M.b gXb.$ r j = $ ! ` m.z e.) m.m.R.) | r.) I KXc.@X3 =X-.*.;.-.a O 6.pXv e.S.I >XS 3XV.[.v ` t.4.V.).I.C.'.kX@X^.#X@X(.>.R :.( z 1.1.8 0 H % H } | I.<XZ.+.].8XqXDXDX(.6.P ZXl.!.Y aX_ C.C.y.sXB.A 8.pXS ^ <X",
"w.).Z.m.I.oXoXR.{.$XXXl b O.PX^ v W 7 Z 0 x Z ^ ^ ` m.r./ >X6XgXP.Z U O $ gXZXw Q { n.|.&XE D.N.` 5 = - 9 9 c b W @.W r.y.` G.+.r.o.@.{ ` r.b.m.| vX) 5 = b.9.x.6.) C.C 5.'.Y ` I.A.C.qXV.1XI ' u.' '.3.V.| 5 V I Z.V ) I x W.m.r.$.sXpXfXs.z q o.l b h < | P 5 f t.#.{ +.@.R.6X].3.` ` b A } Q I Q I N Z | ' b.! t.t.M.qX(.T 9.C | g ! { b l o.n.{ E.S I.R.Z 5.x +Xv.q.y =Xx.(.e * C !.(.sX& e.hXG.j P A t.m.,.C.C.L.C.9XqXpXaX%X%X#X^.0.^.1.1.O.V F 9.~.Q & < & # v ' O 5 {.|.8 O 9 OXdX/.OXe.OXdX/. X~.T h - 0XnX_.T *.z U.e.",
"e.[.L.I.|.|.P.eXH.&X^.A h b b W Q { Z 5Xl b K.t ` c t.@.F.#.#.rXsX|.z 5.5.I ZX@ = wX8XpX+X~.V z 5.[ 5 9 c g 1 = ; = ^ o.Q { m.n.n.M.U.Z G P z Q Q o.{.{.{ b A ( 3.' <Xb.A p.p.5.V.8X[.9X).V.Y.Q Y.u.V.t.e.].bX[ % V 5.I x {.1XM.P.R.NXA.dX:.4.Y w Q 5 9 & M.Q 9 O % < n.o.@.+.H.J.].w.O.9 j 9 I _ Y I ' Z { 5.) ' } H.| } 4.:.!.|.` b @.) v b W P Q <XG.b.[ b Z [ /.nX=., vX+X&X(.E o % !.ZX' % O.tXV.) A y.{ S ] e.4XC.SX+  X$X@X@X%Xc.9.9.x.3XC.p.w t.e.rX5 } O 9 < $ % h w.b.DXV D./.sXsXA.1XsXHX|.(.>.F h V p.8.pXfXD H X.y.",
"t._.).V.].9X9XM.R.{.fXC p.A ` b ^ W o.b / O.Z D ) F.+.n.>XW.o. .rXsXR.OXS.Z 9   7 9 7 8 S.+X!.P.= 5.C 1 S 5 O m v O ; +.Q n.t.n.+.Z.r.! c >Xu.G ! | ].|.r.x.( W ) K.| C.j _ p.B.C.1XV.[.'.} w.X.r.4.I.a.e.`.Y OXdXE [ # 9 Z.Z.{.P.@.r.8XNXg.I 9.1.q Z < + b Z oX! X & P.+.P.6X+.W.r.I.8.A A +.} ' 5.x ) | 8XZ.7.' | I._ B.1.Y | y.b.n.l AX~ H ^ l +.S b +.U.O.V P [ l.c.q.y sXmXdX8.6.% O hXnX< O t.` } w.N.V.HXL.,.[. X4Xp.% w *Xh.*.1 < e T N 1 gX3.Y m.P.9 1 Z Z hX8Xl D.dX/.DXX @ 9 B.8X' 0XqXCXjXaX.X0.T g.0.F >.*.,.J @.Y.",
"4.L.m.b.`.6X8XlXZ.6._ N 7.I 9 7 $ j o.= v i.! 5 Q r.M.+.o.Z.K c m Q.R.r.7 gXsXN +.` 5 Z._ 3.N.].) O Z ` = 9 / $ ; 9 9 ; {  .n.o.H.#.F.O.b { | ^ P r.} P.C Y b ! w.{ Z A.A s.B.V.}.w.u.).V.4XW ].gX,._ t.[.gXsX|.3.FX, X 3.R.m.[ R.H.5.{.<XB.,./.F D A 5 z = < W oX) = +.r.n.H.n.n.}.x 4.A Q Q Q W ` x P e.b.`.~.Q P.N._ >.*.s.P +.b.Z.Z.>XW v ! ~ { z ` Q 9 x 3.5.| !.nX#X, AXSXdXmX(. X# AXt.NX7Xf ].wXY.' V.C.<XA O 6 J  X@ $X$X;X;Xp % & 8 D p.@.6 m.2XO.W }.6 O $ 5 I 5.tXdXmXh.p Y A R.X.v E.I.*.~.$XB g.1.^.0.9.0.[.N 0X~ ",
"L.L.V.C.].5.`.eX`.} S = 5.l P 7 ~ $ W { r.9 l q O b o.W.n.Q.>Xl n V./ { qXZ ^ X gXR.7.N 5.8.p.o.O I 8 - | 3.q v x c ~ 5 + W.r.n.W.F.^ ^ 9 W n.F.` +.Q ` N ) W W M.I.` ( 4.C r.R.V.V.`.}.3XV.' ' ( I.e.w.A $ N A C Y , X e |.9Xr.r.o.M.Z.b.r.p.&XHXF Y > q z r.m.6X) + + + | {.Z.r.6X3.B.I y.b W I Z P Q N.[ Z.pX_ y.u.Y *.:.N.`  .r.r.+.F.^ ` o.S Q V +.x Y z y.Q P V.U.ZXs w sXnXZXmXZX2.< p.U.y.< V.I.A w ).u.4XA 8 C O @ B # #X;X-X#X;X=.< G h Z 8 c H.W.) ' |.6.r O + 6 Z.dXJXFX%Xq _ gXC.` O.sXV.t.g.9.XX~.h.h.cX>.1.,.q ,X",
"' N Q } Y C.`.Z.Z.gX2.b t.! +.} + = = m c l & 9 b.Y S P.{ n.S ..W ` K K 9 +.tXw #.pX'.x |.N.S.) l I {.) I A q $ Z.1 7 { 7 < - { E.H.K ..N 5 o.^ W @.) _ T r.` A y.} +.m.`.A } | 1Xu.).CXV.a.w.a.H V a.fX X!.[ 2.w > , 1 . R.6XZ.M.M.R.M.m.S Z.~.pX$ w q & x z q ) b. X{ X O W.Z.n.>XQ {.l F.W P ) +.I ) b.b.P.oXOX8.9.*.T 3.Y { r.r.r.wX= v l l Q A ) W.W b n.Q ) } } +.m.aXj.1.).nXhXnXdX8X_ V.` / < V.u 3.[.K.pXjXaX1 y S * p B q.@XmX%X*.W z h 8 % f X Q z x t OX&XS.r |.| ) V mX%X: j ].gXz 4XfXC.e.~.~.XXXX$X~.XX9.:.).u.e.",
"*.9.s.>.4.8.N V z ' >.I E.H.W {.l F./ Q I x & # n.e.!.6 +.w.` o...y.M ` } ` t.Y z z 9 OXz.C.0XU.W _ [ U.W 9 7 + o.+.9 H.<Xm.9 | #.I.) e.N F z q v t.N e.o.5 ! n.L Q P P.e.3.t.y.' ).4X( [.a.w.).V.fXS 8 6 l dXdX&XC y 1   {.].<Xn.R.@.I.gX} R.4.R.!.h 8 < C a C u r Z n.bXX $ H.+.E._ | @.l ] Q I m.` { } b.m.R.gX$X:.1.T (.r.{ ) r.t.P.Q G v Z A Y F.Q Q S F.) 3.e.w.} ( ] D 1.u ( nX`.t.SX9XvXQ z 6 V.8.] V.K.AXCX.Xl.D @ w 2 < #X7.B.(.aX].qXr.A V n < m z q . + C.z.S.sXZXOXl.w kXp < 3.SXI.i.3XGX' 4X] 9.XX1.~.9.s.4.4.XXF ",
"1.0.0.1.>.9.0.0.'.C Y ! | ! O.I w.$ n.` e.r.l   n.7 9 t.8.:. .n.P.F.m } o.k.L.T 1 NXw.q V A.W | Y = N.Z.p.#.1Xl qXW o.n.^ o.{ m.y.H. XB.t.~.:.( ` ' T _ q Y b ` F.! ` | 5.e.! e.} V.p.).s.h w.d.].j z A q * Y Y C DX-XB o R.M.r.H.E.{.Z.o.) 9X).x 5.A :.* e *.F *.*.1.Y oXvX8 + E.|.| o.b b c O.P P ` } ) |.r.m.R.~.x.*.>.A W ,XO ^ ) I W b h h S Z ^ ` 9 v ^ Q ' e.t.I.5.qX<.1.%X$Xe.sXqXHXfXfX<X< z b.p.Y 2XY.u.'.w aX@Xg.> e j B.}.OXU.% y.5XE.) S 5 f l 5 [ ) < ) q z Z OXdX2.q Y D , ( qXpXM Y.i.3XcX~.9.^.1.s.s.4.>.*.j.9.",
"1.1.%X$XXX$X;X%X>.<.4.u.eX! { Z A < X.9 b A q X 5 5 O q 4.S.t.` ^ t.r.+./ n.D 8.5 o.G.) $ ) r.Q | K.F.Z.) Q h f : $ + Q.@.} 5.n.F.{ +.K.( ( u.Q K.4.p.B w #.+.! +.Q O.! ! Q r.) I.'. X~.pXJ v = q h 8 N ,.w N T C @ ~.!.~.V M.W.n.0Xo.t 9 ,.pXB.].Y q 6.x.N D D *.9.9.} U.! bXt $ >XQ } l A { Q I P { ' ` r.Z.I.N.*.1.1.[.'.r.7Xj S Z m.#.c z H A P n.{ _ 8 H ( } e.3.pX4XhXmX@X@X#X*.H j '.9XT.A.O.- 9 p.T ,.( C.;XkX-Xs ;Xz A c l W Q P.! ~ h Q t.I.C H r % % %   [ N I & Y mXdXj 3.Y w X f.u.K.H X.] g.h.g.0.g.1.e.~.9.>.1.$X",
"T _ e.hXqXpXsXdX4.N.T > eX3.7 $ +.! 4 5 | Q   X O $ 6 % r.m.!._ ' ) +.n.+.t.,.[.D yX= m.R.n.5 5 - +.c eXV.B.x < v / k c t.( O.+.+.o.W ^ ^ ! } P.E.n.m.6.i b +.+.k.x e.| r. .^ ! 4.fX4XpX' j l $ j C.4.T Y l.8.e i w }.qX}..Xw W M.V.V.+.e.[ Z.r.5.l O b V.5.8.i R ) ! P.P.P.) P + F.r.y.7 H W b { x ! ! { ^ r.`.(.9.9.p.].8X8X} W S ) +.wX@.h j Z Z +.f W } Q ( V ( e.[.jX4XAXaXh.mX;X^.~.XXp.>XZ l S < 4.D 1.s.~.^.aX;X@X< (.% # ' bXNXy.W S Q & @.7 Q r e * # % # ( z _ 6.N .XZX&XT fXw *X; z H ~.HX^.*XXXXXaX$X0.4.XXg.XX0.0.",
",.V.pX4X9XqX9XP.m.e.pXa.8 b b P x r.H 5 q b I [ N 6 % b 5 R.M.sX' W U.+.o.K.F t.( F.VX{.t.NXQ B.}.V q Q ) H.0Xn.} q N F A #.^ y.Q.P.6Xc W b +.+.o.r.m.r.y.z o.O.{ ' I.| m.o.E.P.[.L._.] Q = 8 < % T 8.2.R i p *.* % 1XR.I.hXB.N.Z.b.R.O.b H.` t.m.) 5 G O W 5._ I +.Z.n.n.<XsXr.O $ 1 j = Q G W ! P ! +.b.n.H.`.^.>._ H.P.].0XP j S ^ Q K W W v c b n.l l F.) e.t.~.F t.[.3XjXHXmX%X-X-X1.^.(.XXS T C 1.w e < J e.0.kX%X^.O @ * < BXlXm.d.A < A V.Q N 7 z p 6 > o X S.5.i Y r Y pXSX.XZX3X.XkX9XeXa.9X4XfX2Xa.4X[.^.' a.)._.4.1.",
"V.u.fX[.3X].qXK.+.n.4X4.9 t ) 7 8 ) <XO c | `.) ! T + Z.c n n.A.I +.m.R.+.6.`.B z +.{ {.r.Q Z ].M.6Xb.A 9 W W K / 4.p.C v $.^ ! R.M.MX,X` 5XM.7XZ.V. .o.{ ` G.) #.A ' r.gX| ].} w.L.( H Z r ~ # * * # O < c.s j.Y A I.[.'.|.A.].1XM.n.P | { r.} Z.Z 9 b P W W `.) V.+.pX+.P.oXvXR.{.I.{ ! Q Q Q Q Z W ! | b.8X8.(.p R.Z.t.t.7Xy.h ( Q Q IXS b H v I G.` = ( S Q ' 8XaX4.T.pXCXnXkX;X-X-X*.XXXX4.s.4.N 9.=.e F ~ < w pX.XdXN < o.3.ZX8XpXS.l.Q x ( # X.W q w 1 * o 1 S./.U /.2./.!.dXhXSXSXdXpXAXY.wXwXG.K.2X2X).3X.X).f.u.a.p.,.",
"L.u.[.4XpXpXgXK.E.W o.Y | Z f 7 z 5 c ) 8 < ) P D ) . W.{ +.7 W b.) x Z 5 % 5 :.9 +.>X) P.O.<XW u.l t.A _ z ~ K ' B :.z K k.` ) H.W.1XrXe.8 G.= P.} | W / X.O.r.y.' K.u.L.u.u.t.w a.' 4.w S #.5 , & & o & % *.e )  X1X[.|.I.A.m.t.M.m.W ` ) ! Q b = $ + ; { f x 3.| r.Z.< 5 Z.tXE.Z.H.l m l ` I 3.Z I ) | | M.^.9.R.R.b.+.Z.J.+.G z j 9 F.< v / v ` Z 3.Q ) 9 ] a.a.3X$Xg.H fXzXZXkX;XkX#X>.).fXe.XXjX2X<.u > Z 5 v z 3.R -.* % S P.CXqX!.9XT.r T + ` Q O 8.w e > @ > 2.b.l.2.}.N.w < 4XzXCXGX9XHX5X2Xd.u.u.K.].).~.F ` u.I.4.Y ",
"L.).I.pXpXpX9XW 2X{ ^ V.n.+.[ Z } xXq q x 8 +.} Z W b m.o.D.8 { 7 t.l z ` Q ; % 9 = ! wX` 7XQ ) b P Q Q z e.6 q u >.V.Q ` `.r.Q m.F.n.b.NXl h ..V.Y.L.o.P X.` O.' w.w.e.u.K.pXp.w 4.8 p.N.l.6 8 > * > @ @ % @ T H [.[.3X`.N.Z.t.I.r.^ } r.} r.z P w z f I X.G.3.| b.r.M.Z.b.m.t.m.Z.U.5.W b A ) ` Q ! | r.P..X.XT Z.gX`.| H.b Z Q Q Q I o.Z 1 S Z S ` } ) N.9X% a.a._.4X_.kX<.<.*X;X%XaX%X~.L.J ` 3.s.N w # A % $ 9 6 l.-.@ 9 %  X3X].hX].9X7.< _ & ) q 6 E w 6 @ X > X B.|.3._ ~.$X9X[.].fX2X4XwX5XT.xX2X2X2XT.Y.XX^.S Y.C.:.a.",
"V.). X4XjXNXgXw.m.U.} ^ n.m.r.| I | z H 7 9 + h 7 ; ` ! +.{.) E.l Z.r.>XZ A = 5 w & = [ Z W u.e.Z l f Q P I B D 2 W { +.N Q I._ Z.M.Z.}.ZX X; z a.m.y.I.W P X.e.u.] ( u.e.Y.L.p.% :.8 } :.T ' 6 a , z , % # 5 w A [.[.`.}.V.).C.b.r.! t.{ G o.9 N.) % # O 5 P Q 5.b.t.qX5.Z.M.m.].+.P.NX{ W ) Q | ! | 5.r.8XC.pX1XI.8X1XP.r.~ c n.Z Z  .^ @.c v Z z W I I I !.B.8 C.I._.3XjX;X%Xc.;X%X$XcXh.p.J p.8.e.I :.> C.6 5XS ~ B.(.o q % jX3XeX[.r.! ) A p.O z A O -.E y * % 1 % * }.OX&X, s.1 hXa.zXjX_.4X@.2Xd.O.a.] ] e.e.>.4.9 e.<.w.",
"3.[.[.fXjXsXNXL.r.t.lXP.` m.r.m.| +.` P S x $ D r.= b r.o.t.' z m.z r.` ] g b l q Z $ S ,XJ.z b v b eXQ b w p D , b ^ Q A V [ Y W.R.Z.Z.vXZXeXK @.J.G.Q b P Q x ' o.O.V.d.1 S e.1 Y I 9 3.R } r p w 1 X e * @ H .X( [.4X XR.t.8X].b.M.b.{ Y.m.t.) ) V = X 7 $ 7 < R.l h b.b.H.M.r.| r.Z.P.Q ! ` Q { { | t.B.Z..X'.I.`.|.eXy.>Xz ^ O.+.m X.b v G Z l A Q I ( ' ,.4.p.L.).4XCX;X%X%X;X;X*X%X9.>.)._ ~.(.&Xe 2.OX# @ h q &X*X# 9 H 9XI.u.qX].I.C -.d > 5 e h , 7.p w 1 * % * N.2.}.>.q S 3X3X_.eXqX3Xw.2X_.J.2X( e.e.] 9.^.*.N D ] ",
"t.a. X XfXnX9Xu.2XeXr.P.( ) Z H.H.( { | A w ] # { 9 l r.b Z D.S P.& ) b.] h + 5X9 X.< Q g ` S ' ~ f y.k l w C p C Q ) ' C ( 3.I Z.r.qXR.{.1XSX` w.rXF.` v b A P u.u.u.K.fXC.Y.A 1 7.7.Y A p I.w i r X 8 X # # Y.[.F V.3X4X`.I.].r.{.K.b { {.| <Xt.C e.b.B O $ g 5 5.S 7 b.R.5.m.R.E.| P.N x ( ! e.) w.r.V.Z.m.' {.].E.|.`.F.IXW ^ Q >XJ.f f ^ j 9 v l P Q Q _ e.a.a.2XY.4XCX@X%X;X%X;X;X;X^.h.e.HX~.A C i 2.F dX:.gXl.+X#XN 1 CXfX).w.3Xw.].6.T 9Xo.C 9.Y o 6 8.E N 7.& 9 1 5.9X.X>.z 3XL.V.fX4X4Xd.2Xu.H V.S u.I.B 8.'.1.s.D ( ",
"1X9X3X4XjX$XpXK.9XI.L.e.` Y.} W m.r.c {.R.= 1.1.$ % $ b.R.I I 7 e.Z = ) Z 5.A 9 b f Z 9 % wXb b W l c ` B e u q P } ) ` _ A Y ) R.n.Z.R.8X|. XI.,X>Xu.Z } j Q ` ' V.L.i.o.v $ 2 A S 8.x.R.C r p p E - X u # 1 u.[.Y _.I.t.e.' ).V.3.>XP ` t.3.' Z e.` b 6.4.+ 9 l t z 6 m.} ) b.M.| P.{.( u.` w.N.r.u.Z.) A 1.Q P 5 < h ..+.n.~ h K @.$.g H n = Z # $ ] { Q ' t.e.e.).T.2X*Xq.@X;X%X%X;XkX@X0.F e ,..X6.w T 9.*X*X&XR A ( ] u.zX3X8XBXY.2XI.Y p NXE p d ;.*.y i C i < Y N & & % dX>.p.`.).L.hX_.e.BXw.f...' i.S C 5.' I.~.F 1.A ",
"I.L.3XpXhXhXzXI.[.[.t.L.( } r.` t.rXS G | H T ' 8 b & S z [ t.8 h t.z $ Q I ' 9 7 - m < 7 W W ` P ` w.w ,._ I z ( b z I ) I _ Y P.m.V.].pXgX{.qX6XP.Y.Q l 9 b I K.U.A r.).0.8.0.A N .XS.l.R R u & 1 7.X N ; = V.4.D p.C.b.e.Q +.].} Y.W ! m.e.6.E.{ l W { 6.w O h O V I z |.Z.! t.0XV.e.1 7 Q ] e.u.t.[.aX^.%XZ.I Z | 9 = U.o.^ ` ! m & 7 G < ` z v 1 Q I Z ' ' 3.a.f.a.XXkX;X-X%Xh.h.%X%X1.1.2 7 AXgXB.l.(.7.l.T dX.X~ S % zXfXJX[.A.m.,XC.p T U r *.E E y Y 6 6 N A G e & & & _ B..X|.L.3X).I.[.u.Z u.2Xm.] a.:.( ( K.[.0.1.# ",
"h I.).pXnXhX'.'.2XT.P.4X3.5.m.,X| Z.t.b 6Xq |.I [ P Q < | 6.m.; q B.+.j + l I.% S n f 1 8 F.~ W 9 C N S l ' w.i.h ` w.) P Q I Y m.w.e.A.R.8XP.gX0XP.U.+.,Xv 5 ' J.A O.Z e.8.v ^.j.e * !.v.E 6 s.a D r % r V = W I.3.u.}.A.b.3.5.p.P.U.` ) y.o.) ) H.q Q Z r.N.m.z [ ! > V 5.) q }.].) >.~.p.Y w.e.w.a.t.hX=.0.Y 5.5.< ` 5 G $.v r.I.+.| 7 9 z 5 h & @ $ w ) Q ' e.' ).[.XXjX$X#X%X0.^.aXS p.j s.v & qX9X~.B.9.p N /.C N C v fXqXe.5Xu.) 5XqXV.z V HXt R R -.x.p =XC = 6.N U 8 8 }.C ]. X[.C.gX( [.0Xw.2Xi.K.Y.N 7 H Q 4.].[.~.9.",
"4.] I.3XfXhXfX3X).NXV.V.' t.I.I.<Xl 3X`.A = 6XoXZ ^ {.[ Z Z.2.V h _ D.I I w p.6 7 q S - 7 ` G V B A ( d.Q Q b S w.S A P ) [ Y ( I } t.m.Z.{.|.qX}.lX5.>XG.c i.f ,.N T 9.^.%X^.$X9.%X0.D i ~.E 9.p q @ j 8 V 7 e.} :.e.t.t.5.} t.m.} Q.b I G.) ) ) <XW n.} ) ( S t.) r.[ h I z Q ` ,.$X9.4.C.' e.T.a.Y..XZX@XDX/.C OX6.q @.@.b.c u.3.lX= W ! < 5 Q 9 < 1 O Y.Q V 4.p.a.a.).9X.XXX$X$XN '.] p.4.w 1 # % &X(.dX8.l.(./.i.Y ` < qXpXjX!.<.0.CX^.pXi & u.r Y S.l.~.l.7.~.I 6.5.V h N sX0.$ 3X3XfX[.[.2XI.a.2X' n.' H 5X' ( t.w.[.,.C.",
"V.p.( ).pX XI.3X[.[.3X,.` m.e.` o.} t.E.C.} | ` o.+.P.{.V b t.7XQ :.A ' X.5 Z C z l ( = - 4.C N p.l Q U.H W ] e.A A Q I W ! } N Y z ) C.A.) +.6X0X0XlX+.].$ ( C ~.*.p.qX4.!./.T F :.c.s < .XB.:.p w > v W 7 $ v A [.Q ' 3.P.Y.3.V.rXr.h r.<XJ.+.J.} ) Q | O.` Q ' Y Y b.Y ) Y N.$X^.$X.XC K.( V.a.u.L.1XpXB.'.4.nXD [ } e 7 ^ Z h 9 ,Xv - 7 - h % $ < # ( t.C 3.' u.L.].t.4XXX$X.XkXF ].XX~.LXGX2 O X >.*XT i /.mX~.:.[.O f  X^.0.9.$XNXHX!.MX:.C._.2.% &XOX( U Y dXY C.OXP l 1 ` Z.oX8X1X[.L.zX] 3X<Xu.' ..( h o.H Y.A ] m.G.Q ",
"t.A.B.3.3X3X].Z h ].B.K.u.{ { u.Q ^ A O.n.p.OX.X5..XR j 6 h l Y N.e ~.I D _ N C Y.V A V 8 z V _ xXW f.A Z i.W S v W z Q A X.) R 3.N } | A.E.}.SX3.N $ t.1XwXu ' 5XW Y.0X}.'.kX*Xx.|.9Xc.C ~ 5 7.6 ( 6 ).X.S X Z h X.w.} C.u.' m.G.I rX9 H.W W ,X~ Z Q J.` v f & ! 5.B.t.`.v N.6.p.8.*.9.L.w.a.e.a.p.e.[.4X$XHXFXmXmX%X  NXMX| r.~ } i.c 9 5 o.8 9 7 $ ; = A e.Q 3.e.w.[.V.4X.X3XkXaX*X^.a.D =.D A % # X dX(.DXkX&Xs.#X:.' HXfXjX*X~.[.pX].fX6.-.` I x @ N./.~.R I N .XI 4.'.6.^ K.pX6XI.3XqX4X9Xi.).u.7XI.l w.O.Z v r.O.u.u.t.2X",
"m.).'.:.`.9X9XAXI.m.`.K.I.{ K.} t.eX! m.3.' U.E.E.t.sX*X^.Y :.Y N 4.5.e.B.~.g.' i A v C T N S v m 9 b A c Q gX` @.Z ( Q A ] 3.T I ( I 3.e.) r.' % H m 6 0XeXb W K.` K.lXfXpX/.aX(..XA.8.OXN.% o o.N Q ] ; u.W b < y.} Q e.+.} 5XQ ^ eXd.@.wXQ.o.F.W Q v 9 A 8 r.{ P t.6.* V.p._ p. X^.e.) u.] p.e.e.I.V.e.N SXtXP.bX`.*XC $ h W.U.t.5.` ].Z l 5 h Z % % $ O ' ' I } 3.e.V.a. X9X4XmX~.9.s.B B q.pX, S 1 h 5..X'.&XpXS K.5XL.I.L.4XzXzXSX3XN.SXV.T GX4.r X /./.~.l.5.' 5.e.t.}.}.V 8XqX1X0X9X4XpX].[.Y.eX( rXu.X.+.S u.t.Q O.` O.",
"1XA.V.'.M.9X).0XI.I.C.` <X) K.b P l l t.b.{ R.P.{.oXqXtXsX).S.9.0.qXR !.zX3.9.N z i.] ~.s.Q u.H ) v v <XH v v H o.) A v A ) T N | Z Y B.Z 8 l V rX! <Xq ..xXQ Q lXu.0XK.gX[..XB.A.(.w R Y.Y N ..7 N ' C.Q O.' V.v U.) W W Y.y.P r.>XJ.#.Q 5X@.Z F.z ! y.9 o.q Z Q { V.I Q C.*.N 3. Xg.V w.' i.w.' w.u.9XdX X5 V.gXsXqXW.6XU.- m U.C.V.M.e.C f ) ; I Y N < l l | P V.w.V.9XI.3X[.hXjXkX9.s.NXj *.hX_ % / 8 & 4.pX_ [.] L.2Xa.BX]._.).L.[.zX4XpX!.L.J.9 7.o - &X/.A.l.!.B.I.i.' SX4XX.fX0XfXqXpX).0X8XV.2X4.3X} w.w.Q K.) m.} m.' ",
"| t.:.B.gX3X].[.C.V.8.' } t.>X' ^ P S G.b.M.|.{.| sXsXdX5.gXt.5.2.x.8.8.V.pXl.9.B ,.] _.< S Q m 9 ' @.} ( 8 Z O.v X.Q J [.A C p.' ) Y Y {.qXOX].- m z >Xh ~ e.u.0Xe.u.O.aXpXl.dXnX|.-.Z.8.5.w ~ d.8 hXv 3.r.] 9 W J.U.1XQ P.) >X( ` ' { +.b F.O.W #.,X' V W { r.) ) q A kX1.9.D z i.p.A u.O.X.i.O.z S w.4.`.OX`.{.b.CXW.f u.z = 9 Z.} ' 4.8.pX6 C 9 V A A ' % ` ` r.V.V.z C.[.9XhXkXmX%X$X9XF S :.*.*.F -.N > e.9Xa.3XCXqXfXlXeX).e.' j 2X].gX4XT A [ S. XI - pXA.`.| pXw.] A t.'.e.V fXfXhXfX!.u.eX).F 3Xt.V.u.W f.) ] e.4.3.].",
"6.~.XXdX.XhXV.3XI.pX!.e.' } Q ( _ 2.' C.t.Z.P.`.Z.`.dX|.sXP.I I h HX~.5 '.pX X:.).A O.f Z BXX.v yXv $ 2X5.j ~ ^ 5X' A ; l I t._ Y t B.2..XfXx V.b.5X6 o.@ J.- [.p.4X).L. XpX'.sXdX!.+X/.6.8.| q h < eXA e.m.u.~ ].N 9 2X{ e.n.J.eX,X>X} } o.W Q ` O.J.{ & 7 W 9 h = % 5 A.[.g.9.~._ pXO.A O.) w.:.4.:.p.3.A.I.qXZ.b.CX8XoXg m._ X 2Xy.} ( p.:.N I $ 9 p.>X9 }.) $ z X A 9 }.pX9XSXaX@XkXXXa.F j & :.~.u x.N 8 ( qX[._.1XfX[.4XhX3XL.5Xw.Q Y.m.).Y e E R p @ % P oXm.N.3.pXN < V.t.J Z fXfX3X4XNXg.B <.s.E.2Xa.u.w.eXI O.r.P.V.V.",
"~.B.Z.qX XpXA.).[.A.).9X5.W ` m.A { t.b.r.R.Z.|.vX|.Z.9XHXb.| }.I.A.OX~ I. X9X1Xa.V.O.' ( $.xXv ( w j q e.( ` < <X' ` v t.= < u.6 Z $ 8 P.m.[ 6 rXwX) I./.6 Q ,.' <X,.w.S hX9X&XnX-.8./.B.S.H Z Q x ` j 0Xz m M eXu.X.W W G.b b } @.} W W.+.H.Q #.Q r.#.< n H % p.N $ = 5.a.e.p.' V._ ( Y F.` ` ' ` I.} 5.N.C.V.R.R.5.nXOX) 1 eX_ - R.r.) A Y 9 ) + $ 5.Y 5 ) t.V.|.5.V 1 N 3X3XZXkXmXmXaX Xa.D _ 6 9.e 6 ( 8 % qX9XB.3X[.4X3XpXB.2XK.O.] m.uX7XB =.8.x.*._ 6 $ ) r.C.dXZXhXI.9 e.9 6 7 u.fXzXzXaX%X9.] G.].1XK.Y.J.) r.! V o.,.",
"p.R.9X]. X`.m.}.3XI.2Xw.1XI | } Q V.m.| | N.Z.`.8XCXsXgXgX|.D.sX5.| N.) 7 h s.[.' T.Y.fXi.' o.w.H z h ; ] P.a.S 8 Z 5XV.' $ ( ,.x 9 f #.= Z.Q x r.) 4.3.z S p.e.1XBX0XA V ' ,.i 3.[.-.C $ sXr.[.+ c h - v l = ..a.O.e.' ) Z o.d.5XJ.Q >X7XeXn.Q ` v Q ! 9 ; N 1 I r.$ c 5 Y Y n.} J.e.m.1X` G.O.} O.{ Q } [.q Q ) tXt.gX{.m.b.; | O.v W t.B.C.o.5 v q + A.1 $ & V.[ t.N.OXgX XpXkXmXaXkXmXF K.>.Y I 5 1 # 1 q 8 _._.a.).).pXpX4X1XY.eX2X_ S.Y.m 6 2 >.^.A ] < $ < AX2.t.V.OX.Xe.S ,.e % h v XX.X^.#Xh.4.E.7Xm.O.G.G.I r.( u.:.T ",
"3.Z.).I.`.pX].[.9X3Xw.r.^ P ` n.y.! | r.m.W b.Z.7XR.gXgXZ.OXZ.8X' qXpX|.z - < I.Q ,.' 9Xt.L.A r.H ( Q H T.L.` b b L.u.Z #.v 7 h b.} q l $ @.Q ! 3.) ' qXq e.fX].3X3.3XO.I ..P.U .XN < = , O ).pXF ~.9.S ( 8.' b 1Xm.K.t.' 1X) zXwXeXi.@.>XJ.U.r.O.Q H.v ( 6.A ( [ OX6.= l 5 I E.} w.) W W ` l N v ) ) ) r.t.I.l m.f I eX].' P.8 ..C.Q & q }.[ x X.$ % = 7 t.@ $ ` 1 A.w }.].}.jXnXSXhXSXCXa.3.B.T C q 6.h ] * @ f.u.Q ] _.L.).gXK.P.u.qXqX+.2.w > w & %Xc.u *.u @ 6.|.CXvXZXhX!.C '.% pX8 S @X$X*X$Xg.<.} P.3Xt.G.@.! I.A >.F Q ",
"t.`.`.qXOXgX`.[.A.t.rX! m.{ t.W W O.$ 7 l r.r.}.`.oX{.tXoXb.A /.[ }.I sX X9 v z I.Q e.4XL.C.S u.' 6 #.2Xi.K.( ] ' K.lXt.N.= $ ' v _ < w e = + : | P [.Z.P.I.e.8X].fXlX| 3.i.`.R *.Y p R n.8 $XjX=.*XaX4.e = ~ + wX5XeX+.3.w.MXP BXo.P b b @.+.z G.r.H Q ) A.U.! S Z.z.R.$ 9 c | U.2XP.A H ~ { F.q l ) ) e.t.|._ I }.y.b 7X' 5.Q - O.( > ' 7 ( o.n % $ % < < 6 < % t.Z $ |.1XfX9X3XHXCXpXZX3XqXp.C.'./.8.N 3.T _.a.' 4Xw.2Xe.) } Q a.a.K.P.( S.s.B u < i c.*.S 4., v q t.CXB.nXZX4XZX).&X^._ $XkX;Xc.^.C ' 5Xr.t.n.K.{ *.>.:.3.t.",
"N.) I.m.V.{.tXfXm.qXo.O.{ @.^ b y.{ 6Xb r.L A.R.qX8XR.bXgX|.9XB.B.x OX|.sX1 = - u.a.w.[.).[.' ~ V.M g X.H e.L.) & a.}.9 v N.Z A % x x O + = ; 8 ,X) x u.a.' b.].Q >X` A.Z.[.(..Xi D E } }.& r.XXXXC.pXs.C.~ z Q T.2X' 8.3.n.E.o.{ y.E.{ K.W m.2Xo.y.{ j | I.6XI l < V.K.3.n.E.l +.W ^ W H @.W ` ^ x ` } r.W Z $ ) Z ( ! E.P.u.I.^ #.p.r p.< b ` w < @ 9 < O w # > 7 9 % . X pXpX3XpX.XHXzXL.I.C.B.H A.r 5X@ a.a.' % ( ,.0X( r.C._ B.q ' eXt.N.hXu >.1 O kX#X(.p.q # O 6 pXkXfXSX&Xe.pXpX.X X8XjXXX^.0.0.j h K.t.{ u.C *.D ) e.N.",
"Z.|.}.OX|.OX}.|.Z.t.r.) { l n.3.d.) r.1X{.V b.m.| oX{.8XqXnXA.2.dXA.mXsXhXq a.v h [.'.pX'.).V.2XL.] g >X_.qX].] v ] 0X'.).:.N q _ v 4.8.:.i w ' 9 7 % ,.5.{ m.].1X8X) D.6.V.&XdX(.ZXx.-.c F.P.) ( S.N ` Y ~ J.O.).GX4.~.g., >X<XK.9 >X<XI.|.I J.~ ' 0X) V ) Y E.{ 9 $ 8 I ) 0X<X>XxX{ W X.l x V ` @.( ` A.w % e.I - E.8 y.m.` P.{.O % ^.4Xq U.j N w i h 1 $ 7 _ # 5.V Y < % + pXpXfXCXpXC.fXfXw. X}.s.kXe C.v ZXSXAXL.p.w.G.u.p.6.( u.I.gX5.aXaX*., F j w C./.pXOXOXaX:.q B.kXnXSX4.ZXg.'.A.pXkX#X0.0.1.XX^.2 h } >.>.0.A C.5.e.",
").I.|.`.|.`.E.N.m.U.^ P m.].t.e.u.y.b { | Z.R.R.{.W.P.P.P.DXvX5.OXmXvXnX&Xj e.i.5 T.) t.fX} ` z ) ] 6 T.u.T.Y.f a.O.K.V.'.e.8.I.q `.y.1 T qXY = S I = e.h - $ Z ) ) Y 6 I | E nX;.dXv.x.V.W @.1X& 3Xe V R o.....eXI.'.aXXX[.T w.d.! W M Q y.|  X~ q Z E.2.OX) z b.b > {.+ r.>XP.r.{ ~ k { n.Q y.} o.@.8 +.) t.q h h w b h 7Xq r.[ 2.$ S hX_ F B 6 i R -.% . # * 5 X I ~.~.(.X $ 4XpXp.SX2Xr.fX] hXpXsXJ e H H e.1X3XgX1X<X~ w.w.eXv ) A ] qXnXHX;.s A i !.Z./.OXA. XnXdX5.SX.XpXN ] gXB '.`.hXhX^.^.0.1.s.^.0.=.:.s.:.1.:.u.3.e.",
"I.`.`.A.R.|.W.U.>X+.eX` +.o.n.H.+.) ! W m.r.M.) Z.qXb.V.8XHXvXnX~.vXsXnXZXnX` % l w.h ' 3X3.( W ( ~.*.~ ).G.u.G K.).Q V.}.C.V.|.S.I.~.u N 1 ..- n G.K.V l ) 8 b 5.6.Z.D.dXP.&XaXS.dX#XmXA.C ' fX6.(.:.B.OXK.= T.eXlXrXfXV.eXqXe._ w.pXA f G r.qXx v X.^ z m.2.V x D.V.q v #.y.l b c W n.O.) | J.P Z l q & z I z v % ~ v 6 & m.O.v m.4.h ` V.u _ i _ R 7.a 7 $ * 9 Y > !.:.~.B.jXfX4X[.fX5X5X2XL.C.hXhX.Xp._ 7 ).1X1X3XI.3XwXu.2X5XH v ' 9 z 8X=.$Xw B.6 5 V.I.m.|.N.' dXA % .X9X( V.].T 4X).gXhX#X^.9.9.F C.D 3X>.N ] ( L.m.,.5.",
"u.I.A.`.Z.P.m.E.m.| H.M.m.r.y.m.r.G.W L { r.F.@ F.H.t.P.) r.5.A V.}  X7 V.hXpX X3.I.` e.e.] } v % J T G.f.>XX.i.<X>XK.) R.R.b.!.A.7.aXD pX9 eXl P tX<X( 1Xe.| E.gXZ./.&Xa &X/.(.8.dX&X-.R ' ) G }.AXCXN vX`.i.H m.0XY.gXlX} +.#.m.~.s.!..Xw S ! 2.~ b G.V zXI.b.5 Q {.} 1 v ^ ` d.) c H.y.m.n.Q ~ h v l 6 P K.A 3.5 q I Z 9 H ( } { 8.D l * I.B D D >.D 0.y U 6 l @ > + ).'.jXpXCXhX[.4XxX2XT.3X4X).hXhX3Xa.L.< a.hX7XI.5X5X' 5X5XgXH d.b.q tXi =.*.2.6.| {.9Xm.r.$ B.N !.z @ # A V.3XC.9X).3XhX.X^.~.0.4.C.,.I.8.4.3XH t.Y.y.t.",
"A.C.!.I.m.P.r.m.M.o.u.I.K.A ] r.H.{ / o.{ / :.8.N % 6 z 6 3.A.b.- 1 l A &  XnX X/.OX9XS Q S ) N w.S ] H eX0Xd.Y.w.3.' w.P.V.{.gXY ^.E U.qXV.l | A e.JX`.5.q { E.gX5.OXOXS.q R (.n > /.Y 8X1 B.i.$ C.NX( [.:.eXi.lXBXe.].lXeX2XwXwXGX3XT nX0.$X( 8.X.o.^ & I.q |.9XY b.t.P 5 y.^ #.0 9 >XQ Z l b ~ H.O.) O.z Z 4.V V 1 r A A h ' I A 9 .X'.,X% E *.7.T *.9.w *.C i C Y S N # _.4XC.4X_.zXeXX.Y.1X8 AX_.pXAX[.9 $ j h 8X].<Xd.m.rXBX` 1X' V.gXe.F B (.e m.) n.t.NXpXOX2..X( N T B.V 7 % j NX).1X[..X~.^.XX!.T a.0Xs.<.T N K.i.Q t.",
"V.A.A.8XA.}.V.! M.{ P.U.e.[.).I.W m W +.+.:.*.5.V.5.!.| qX8X5.D.S.p.B.V q h I.nXhX[.).3X] r 6 ,.J < u.fXG.fXeXa.].K.f.( m.<X{.OX%XN C } #.c ; 7 9 M.BXsX/.[ R.7XrXrXAX8X+X+X6./.v.9.Y ].9XB.< 3.O.j qXgX5.a.d.T.5Xu.lX2X<XMX>X>Xr.I.<X7XC.OXnXmXq K.n m 8 v 9 l ) qXR.sX<Xw.7 Z h j h 7Xn.Y.+.U.8 o.| H.| A w ( C t.q 9 I 6Xh = 8 P.Y.> &Xl.w @.4.8.u a s N w c.s.e p.5.N 4XpX4X4X4XfXxX>X' xX1Xu Y._.V.SXSXC.@ dX# 6XpXC.C.N.NXF.f P P } ^ 1XN _ ,.*.w } t.W n.R.}.dXmXdX(.B.OXT C.] ] Y.[.t.3X$Xg.~..Xs.a.4.e.C.*.,.H ' ' m.m.",
"A.t.V.).`.[.t.Z.r.Z.2Xt.` W.r.lX^ +.O.Q P *.X ) | ) V ! MXM.) OX&X6 r !.% = ].qXhX9Xh 3.qXT ~.Y V v 4XfX4XzXgXGX2XxXeXQ r.o.4._.^.0.< y.N.E.) Z.= f ! A.}.R.8XtXAXvXCX}./.(.(.(./.N T w =.).:.^ 5.v ! y.7Xt.>X].fXNX2XlX4XA eXf.A V rXi.! ) bXnXmXw ,.wXc G.y.r.A A Z P.A.qX5.q h ..c P.m.F.{ G eXyX` c y.3.Y 8._ tXw.j i.5.0X) > w _ 1 r.8Xp.} T ~.F s C T :.X.N.w B.' p.hXzXhX_.hX4XAXe.S BXy.h.T.zX_._.CXa.a.hXb tX5.N.3.m.1Xu.r.' E.2X9 v N Y C D u N A J I n.O.NXtXhX4.S.4. XhXaX].t.0X2X1X[.g.0.4X[.,.4.eXV.9.4.e t.3.} p.",
"p.).t.C.[.].} Z.I.eXH.( V.E.{ W n./ #.`.*.*.8.:.e.} r.+ eXR.sXbX=X&X(.w 1 + A.4.C.X.Q s.T < _ ' A S fX4X4XfXfXhX_.V.].t.lXW Y ^.1.sXR.P O eX{ ` Q V % # l gXsX6X8XtXMXMXpX~.l.#X'.@ w < =.8.}.|.#.q b V.y.V.W W v X.~ AXAXu.A H ^ E.+.P.n P.) !.nXC.F ) q O z W U.W.b b O.lXI Z U.b ..q M.#.Q F.l J.{ {.p.P.P F 7.8.R.{ } r I S.7.+.` r.I G 3.q q a F s y B.T N qXX 9X3X( 9XjXhX9X4X4X[.GX( Y.C.~.).a.a.p.K.3X_.hXtXrXG.m.t.G.V.K.u.` t.a.! < ( S 4.B 8.9.p D A w Y !.pXHXXX.XV.( [.T 0Xs.3XeX[.XXh.~.9Xe.<X,.Y.I.<.4.V ' w.} e.",
"p.V.[.p.C.# 9 V.V.i.+.5 | >Xr.H.~ n.qX`.F B m.( 6 S   ! qXOXN.tX&X&X=Xl.Z 8 pX4X<X3XY 7.B._ 6 v ~ xXzXxX3XqXh T.` P.r.m.U.p.4.p } P.CX5.b t ].oXhX`.pX6 # $ sX6XMXO - $ U./.l.9 ~.6 6 5 4.)..X/.) 1 r.Z O 0XE.<XV.g % } BXeXO.lXZ } y.U.Q G.t.}.sX.X_ lXA ) wXj U.+.o.b G.P m.R.P.` ../ { W ` W ! >X` J.NX`.:.:.`.*.3.5.U.2.2.C R.y { w M 5.6 C 7 g p T V ) 5.( r I e.V.[.jXpXpXpXpXqX_.gXw.' ' s.3X4XL.K.eXw.p.`.|.{.I gX+.>X| r.Q +.I ) ' q z ] D ,.D B.4.F F T A V.!.C.[.jXZX^.1 w V.T.t.[.[..X~.a.Y.K.u.H.K._.~.T j u.' P.V.",
") ).4.u.a.CXB.< w.z 5 7 P.m.W W E.n.@.) T *.sX&X3.3.b.{.6XsXI {.OXpX(./.2.5.w '.8X X<.9X|.) C 9 z a.1XI.[.fX.Xe.hX}.1X5X3.a.e.w ( E.0X`.r.j < b.hXSXmX X XhXgXsXHXDXvX! ^ z I 6 *.Y f B H C p.C.I m m.t.J.gX8XI.pXSXy.' u.2X2X` >XrXr.7Xn.R.e.Z.|.<XY.H A rX` O.7XW.W ~ n.F.) S VX].z c H.{ b >XW >Xm rXeX| ' ` 7.I gX) 3./.pXE R rX' S.I 6 T N ' 9 1 % Q 3.0 | ' z } t.|.[.'.9XpXhXCXgXlXX.wXH u.).p.fX` X.& = C.).8XY 0X) wX5X1X+.) <XV w.0XZ e.T F 1.a j.F 4Xs.C Q ].].1X1XI.hX^.1 t.a.' _.zXD ).xX' e.' ( ' e.p.:.>.N e.l = ",
"% ].8XV A yX9XV.K.6.5.Z.X ! n.! y.o.#.*.T ( n.gX&X> ^ y.rXW 6XrX/.R.dXsX} I % 9Xt.p.s.pXhXhX( 7 4X.Xe.S hXSX~.9X].<XY.'.9.B ] 2X` O.Y.hXhXE.( [.m.1XXXXXOXhXhXqX{.NXrXOX[ &X6 w l.*.r u.r ].V.6.`.$ = pXe.sXA.'.I.NXS rX] K.GXl Q wXi.( +.e.` lXMXBX_ ,XU.+.S ' 1Xm.+.>X#.J.].e.v }.y.o.>XeXb c >XQ +.wX0X8Xt.! gXy.x S.R.[ D.[ /.8.U 5.Y r e.} m.S 1 = < + $ S H N A ' ). X[.4X4XgXpXAX0XeXH z i.3XC.[.] gXA + $ A.9XA | e.U.) W Z v z ' C _ :.F *.8.9.s.9.*.*.).2.e.<X].t.[.I._.1.* t.L.e.[.9.e.p.w.X.' e.' u.t.C.8.0.8 z } # ",
"$ 1 ].5.^ 9 9 Q A ) W NX< A U.! +.k.}.T 6 >X$.^ >X^ b I.^ ^ q 5 +.R.gXr.`.b = k.w.4.~.9XpXB.e.' 4XfXHX^.<.X >.pXpX4X.X*.4X4.Q O.) u.C.a.'.V.( ).hX>.XX!.qXpXNXqX8X{.sXN.gXr.9XpX9 *.1 < [ y.+.8 D.Z ..P.wXn.7X` eXgX` } n.' P E.w.Z 7X} GX) E.} w.m.| <X5.Z y.n.P.H.! { G.9 rXr pX] m l 4 ' #.yXU.F.^ J.@.7XrX].1XV.) ]..X8XoX2.vXq 7.( oXE R Y } H 9 z e.5 O Q o.Q 5.:.Y C.9XpX3X9X9XfX<.5X0XQ a.).C.t.H A u.A & Y p.C.m.w.1X) o.W I 1XA ] gXB >.*.a a._ p.}.' ' ! [.K.0XK.4X9X$X0.<.u.N X.F u w.2XO.Y.X.( Q K.3.4.A _ , S I.# ",
"8 $ V !.hX1 l ,.I z ; 6 r.m.E.! W W. X9.o n.$.^ ^ ^ $ f @.NXr.e.W  .>XP.) ^ @.! H A.C.jX4Xe.v ( 1 1 w.j 1.A <.pX9XaX.X9.T ].( A u.[.qX).' H 8 < z %X.XpX3X9XgXm.`.!.nX` !.) % *.e w e.9 ) X.oXw 7 } VX= 9 6 wX7XMXO.' ].) VXo.eX) ,.A A X.Z H.' } U.y.wX( P.b ^ } +.7X{ ] eX' u 3.p.M.9 n.c +.o.W >XU.>Xy.>Xr.#.`.N.8.r.N.Z.q OXl.tXR.I.( 2.>X5.] y ! 5 +.W 9 z q Q | B.~.w ).4X XpX9X[.p.w.H G S 1 O # / < g $ < < O.| MXK.{ >X( Y } lX5 S ,.D *.<.F _ V.P.t.t.i.' [.) 3X_ pX.X$X&Xs.~.0.:.4X_.S K.eXa.d.G.X.T.I.,.s.aX( w t.q ",
"% z O z t.'.V Q W = 1 X ) r.b.5.` 6X$X>., @.o.^ ..>X7Xo.6XJ.F.$.O.u./ {.gX& } o.O.' ' CX[._ $ b % S & Z e #X0.& hXpXpX9XV t.0X) ] ].u.).[.I._ * < O .X9XgXqXhXaXC./.dX}.hXB.p.* q p 1 f b.q 5 _ J.O pX) S P.P.m.rX} E.P.yXf ` E.P S K.Q eXm.A z VXO.P.wX].+.^ H.W.Q G E.eXu.0XN ] P m.qXy.t uXwX#.n.rXyXn.o.{ wX| U.`.) gXN.U Z OXbXR R.Z U.Q z C q / 9 v b n z Q A ( e.B.&X1.V pX3X[.[.2Xw.' u.T ] < A v O 5 & % < 1 9 6 < u.3.! y.( 3.( v ' F *.a ).| U.) ` Q J ) I.].qXqX).).pX*Xe .Xs.zX0.pXw.f.rX3.a.d.` T.e.L.u._ aXh ( e.",
"q & ~.B.pXt.).q e._ t X % z R.H.P.qX`.>.e.o. .o.o.o.{ J.` >XH.H.V.v ! E.vX5.- 8 ( b A % ].z N Q Y 9 I.p.~.T aX*Xw I.p.<Xv y.e.H C.).'.V.gXW F T p.O sX8X[.I.`.8XC 6 O tXvXoX.Xu 6 y P.v I 1X- Q V.w.O | t.E.rXE.) .X>XH.O.I +.P AX7X<XI lX].Q } } v 5XX.W.) J.P.u.VXlXU.R.:.b >XA >XW.6XMX| o.J.~ 4 ~ x o.! { ~ wX+.D.t.` `.) O }.Z.B.!.6.} n 9 ( P A ( c 0 b l l Q W ) 3.I..XkXF ' I.].` m.5XQ e.sXT N 9 V q w.1 < = {.m.1 t.O.,.Z ,.z Q G._ p a 2 ` P.) ' G.' 5.e.3.e.p.).[.I._.^.T ).e.[.B 4.,.2Xa.( y.o.( w.7 H ,.p.XXB 8 v ",
"% & V [.A.v AXQ ' p./.O > X + X   Z oXs Q.^ / +.n.` F.n.n.#.n.H.P.^ { M.bX{.CX6 S e.h A u.!.~.3.!.p.5.kX$X.X}.I.NX.X}.} Q Q G.] 2XI.t.`.u.kXXX8.e.C ,.qX}.Q < T i N = 6X6XZ.sXB p % N.i...(.r.< 5 H.Z r.Q P.n.m.R.T.Q W yX| 3X{ ! w.].<XMXy.yXrXlXP.VXr.rXI.z r.5 b W >Xr ).a.8 >Xn.W.+.| ! lXA k ,XrXp.H.! +.S { ) ) 5.V.z 6X_ O D.rX8XA.2.V = z O.9 h l ) ! 8 b } Q ' m.V.C.`.pX~.s.A Q z c 3.V 1 < & w Q.8 5 5 < $ z 6XQ r.V Q ` y.>XO.yXq C 0.@ ].} @.m.} w.r.w.].e.a.L.L.hXs.s.p.a.].~.<.u.2XO.] Y.( i.e. X).1.' X.T F C = ",
"3.% 8 N NX8 lXZ % w }.9 N 5 X X & X 9 y Q...+.n.n.+.F.+.E.<X{.6XH.m.m.0X<X6XeXA m ).A.e.`.|.B.5.N  Xh '.hXpXtXP.8XoX4.O.c V.P.C.V.1XI.I..XpX3.q T !.% w 4.8.=.% 1.7.> e.{.E.AXNXx.0.U /.x V C.tXo.Z 9 5 r.m.| 0XpX).<X3.0X` U.>X! yXP.Q U.<X7X>X6X7XI H.b.{.<Xn.>X! yX) ' T w z I I y.n.R.r.W.W.n.{ P A o.VX{ c @.P.y.6X`.) b qX5 9 tX' 6.6.].% R m ~ { v y.wXS V ) ) e.' C.A.[.].AX.Xu.} h S L.b.B.9.e z 5XV z 9 7 < $ P.Z.} z +.} b ) O.eXq ( B.[.O.e.3.' ' ' ,.P.a.m.3Xu.L.[..Xg.p.[.[.fXa.f.' t.>X,.f.>Xu._ _ 1.g.D C ^.D e ",
"pX1 # ' B.N e.t.[ z N.i I X 6 r % + 0 . >Xm.{ F.y.@.#.n.{.H.W.W.P.P.{.8X6XsX|.8Xl f 1XV.3X{.' 3.b.N.0X}.qX| |.R.Z.8Xu.I.N V.y.I.V.m.}.].} aXT } & w > _ '.*X*.u u >.T w.I 5 u.1X/.V.:.5.A.) NXb `.rXJ.| 1XY.8XZ.6X.X'.B.0XA.MXc +.5.n.<X_ ` ) { 7X>Xt.E.5.m.I {.r.^ V.yXT v E.7XJ.b.7XN.P.0Xr.@.P +.rXZ 7Xo.>XF.r.{.P <XZ.B.z V ^ < 6 I./.9.5 N 3.{.Z } l Q v b V Q Q ( t.S e.}._ # X.` V I 7 $ A.8.1.a H.9 * h 9 < 9 7 - ) t.Q ` l y.S ' ] z b ) ' ^ W t.r.( eXv U.Q ' a.a.a.C.XX:._.g.p.,.2XfXt.Q 2X' 3.j V N >.D F 0.D 0.s 8.",
"w !.X $ Z i.} l 5.Z.6.2.!.r & @ * % # p H.R.M.m.+.m.M.M.P.P.{.P.rXP.Q 6X].) ,XfXt.G.v 7 u.| n.3.t.I.t.].gX*.{.I.6Xt.} X.gXw E.O.w.t.qX XY 4.C B.< * % & S.*X@X9.D D q :./.C.S z l yXnX| H.R.{ ` gXe.' | {.pX0X{.}.m.s.m.^ >Xt.P 7Xn.2XU.r.I.rXU.6X0XpXr.rX) 6Xb ` <Xu.) >Xy.J.W 7 r.= 7 z P gX( F.H.@.w W.b.| <X` w.| ) R.w. X,.:._ $ 1 5.~.l ' ` M.S l } ` Q W z A ` ! Z.@ b.w.8 ) u.I.gX+.A 7 7 -.1.* tX>Xj & 1 $ k 9 9 & m.x H Q o.' w.V Q b W W | 8 r.O.w.m.Z V.i.` t.[.hXA @ 7 ; $ w.S ' gXqXW ] V.3X>.t.,.%X0.0.0.=.0.-X, ",
"2 9.$X; N H rXY.W 5.b.A.5.R o X * $ O *.{ @.{ <Xn.Z.n.3.8X>XH.Z.|.pX(.C.m.9XQ ..u.V.' H $ ( b b ! R.r.3XCX'.b.Z.].0Xd.) P.fXt.3.Y N pXe.4.t.e 6 i * % < # *XkXOXn.gXsXb.3.z.9 U.v $ H ) P +.rX) ) o.rX].m.| `. XhX>XH.G.wXQ y.` <Xn.} +.E.| | b.W.7XP.eX` J.7X:.r.W Z.z <X` >Xb >X#.7X7X0X7XQ H.| wX0Xe.H.MX` { / m.` Q 5.| t.8.9..X_ #.Y *.Y { } r.` F.O.S q q ( ( l 5 N F P r.5.I e.gXA.R ,.8 8 Y e p -.'.z h < H % A O.# f ! ' y.9 Z u.v 9 Q Q Q W N Z ) Q W Z I.O.' u.K.XX9.jX).5.d.v O ,XV w.` % V.' 1XX.a.p.<.=.>.D 9.^.j.",
"@ C.(.D ' H & g Q o.} 5.5.7.X > X X % % q Z.Z.+.{ r.M.Z.l ! Z.Z.` O W tX6 5 P.n X.+.3.b ' } o.W } { M.H.b.R.R.}.m.N.o.} A.t.C.s.'.N.`.C 5.8.p.@ R * > 6 5 r DXdX5.I R.2.| l 2.- b.5.Z R.} ( z VX9 t.b.1XA.b.b.F.>X@.k.>X) I Z.<X|.^ ` 3.b.0Xn.{ ! r.'.t.N.P.8XB.Z.H.I.b.nX> | J.+.g Z $ o.3.F.+.t.Z.qX^.6 H.r.MXb n.E.P.( *.>.*.'.8.U.3.) < ( ! y.! e.t.I ^ Q ` ( ! V.'.a =.D | | i.V & N.P.C 7.r gX;.2.E ~.r C e < % 5 % = & Z lX,XZ A Q VXZ Z v ) G ].1X< P.9 S ( ' A e.!.$X_ e.9 Q 1XlXQ X.5 6 X.j $ v g h 8 ' #Xq.p *.*.*X@X",
"6 v :.6.).Q ,XG $ 5 v / 6.l.R Y o O < %   H.M.b.Z.{ E.rXgX_ {.bXR.S t Z.+.w z ) qXH ! W U.r.! Z | +.R.C.Z.b. Xt.b.BXZ e.E.) w.}.I.9X[.dXdX9.+X*.&X@ % & * % OXpX9X5.gXP.z j j q l q r.b.) w 7X) | '.>.m.5.n.H.@.M.n.P.7XE.` I.+./ ! ` H.E.H.rXn.E.r.rXrXqXE.Z b./ 7Xn.! +.:.~.Q 7 Z l h g #.M.W.b.W.R.9.1 >X0XZ.r.{ ) I T B <.}.| ) l Z o.^ ! W ! Q ` b v W W W Z W { :.*.2.dXB.N.} | r.b 2.6Xq e G v r 2.p._ r E T O ) U.= F.` Z | Z l ( f Q b } Q - W 5.~ 8 ) ' p.C :.u.A S i.u.h 8 l ( w.gX8 v 1 ( 1 8 h H X.p..X#X0.F F *X^.",
"T q v e.}.` = z 1 6 * q C 6.l.2.w % > 2 e . X m.M.P.l X i `.b.Z.qX' W 8 eXR.U.Z ) I F.r.) w.Q { ! { tXR M.D.gXt.t.Q y.b n.Q w.) V.C.jXkX&X(./.N x.@ * , % % A 5.9X}.<X|.b.Z.V.0 1 ! _ Z R p ` t.( m.| 1X{ k.H.H.n.o.@.Z ; W 7 { n.Q 7XZ.U.+.P.Z | F.n.P.{.| Z.H.#.O.Z $ k ` {.w 7 9 v 6 f F.l Q W 5 X.!.w 8 { lX} I N e F 8 ! O.GX[ ` @.l @./ / W Z Q t.W { Z v b P ` q P P o.{ D.}.) A.I C.S.9.=.e e i -.D.3.A.E e a =.,X> 5 Z A I W Z y.>XP Q A {.N.+ ' p.c % ( 4.t.} ).A.fXV.) S ( X.v t..XpXB.S X.6 ].] ` A ' ,.9.T j.2 ~.=.",
"p I.N z ' ].r A u F u e N r.[ U e N 1 D p % # 4.6.7.=.0.y P D.Z.AXsX|.e.i.Q ~ G.9 i.O. .~ ` | ) +.r.{ Z.| b.| m.[.V | ! Q t.I 4.4.K.A.&XOX=XZ (.p -.y * * % % z f !.Z.) Q Q +.6.z + l T *.*.B v ].r.J.U.o.+.F.H.t.gX9 7 9 0 v 5 ^ >Xr.n.t.{ Z { O W.{.W.{ vX_ e O l 9 6 0 ! Z.vX7.w } T & - < = N 9 q l m T ) } w N._ XX4.7XJ.c 0 ^ iXo.`  .+.n.W @.Z { x v / J.v l b { I ! D.D.3.D.l 9X[ I 8.x.c.a 8.-.8.gX) 7.-.e i i U.% - 9 Q W k O.o.Z P.| ' e.9XA h V.e.& ; V.e.' t.@ o.T.i.S V.wXl K.3.Y Y.'.3Xh ( Y.~ ..a.B.9.F =.D T q.",
"1.e.4.] I._ <XA ).:.9.F 6 +.`.N.  & > @ * e % & S.S.=.0./.!.R.B.{.n.{.m.` Z r.I.A c = q q ) ) ! | b 5.Z.C.r.5.b.I.S ) W t.t.p.+.9XN dXOXl.2.C l.-.=Xu o i 1 q & $ t.D.Q V.A W.5.| _ q _.a T T 9 9 n.Q.m.n.W 1X6XeXF.= I Z x 7 l / @.o.@.E.#.0 8 m.= W o.q NX.X6 A.tX[ 3.K W 7 Z Y.l O.< A 6 l 8 < z C h 8 F.z 3.Q lXu D Z.k.@.} 6 { VXc l +.k.v n ^ ^ o.+.! W W l 5 l b ` Q Z.t.OX|.t.Y | A.|.l.(.2./.R r vXT *.-.> e $ l.q 9 + { b v Q A A Q >Xv } +.Y fXA ' p.8 w.w.w.t.w T.h 9 ( <X- w pX:.w _ A. X4.F 1Xb g l S A B D ,.w u ",
"a K.' A ^ r.Y.b o.` W `.C | {.|.q > U e 9 & & 5 7 ~.!.R.U.Z.}.`.R.+.P.V ' ` n.K.V K.4.i A # W x ~.5.+.r.m.r.r.) w.f V.t.) ) u.( } ( }.&X6.R y d d d d * i & 5 6 = W 9 l {.| !.e.) ` w J i D :.p % c { k.$.o.U.<Xn.E.P | K.l b x l 4 $ + 9 Z R.7 $ 5 5 q q 9 bX/.A.r.I 5.) q > Z E.A z 6 8 Q C p N 1 w 9 o.Q G.z ) ).z A U.o.n.eXo.{ } f m <X@.W k #.<XZ / l ! 0 V h c ^ Q Q ) x I.6Xa.eX| a.6.5.q OXi 9.E 2.C *.-.R U % * x Z + $ O.Q Z b W Q ! Z { 5.6.8.| V.:.O ] yXw.S Q t.p.W y.K.O.p.' '.V.6 6 ).CX5.BX:.j l z C Y _ 1.J a ",
"*.( v % v 7 k P c K ^ Z { 6.I b.Y Y % e ; # @ & % O {.b.M.M.P.!.5.M.) yX+.5 Q D C _ T s.*.w } | +.| { b.P.A.P.| U.| ' w.t.A r.I !.N > /.&X=X(.#X-.u a -.6 5 j t q 9 6 = $ 1XS.' n.} 6.,.C :.w D 9.>.1 7 H.qX<XqXi.m.|.I v |.V n = ~ $ + A w.Z b.Q e V 9 A c ^ r.R.P.W v V [ 6 A.I [ C $ z & S % 5 q H 5 9 5 q O.4.:.( q ^ {  .v h { M k wXM k c A o.o.K ^ ) Q c m b q W W K.! r.Z E.} R.+.V.b._ '.{ +Xl.E CXR E -.o i 6 #.5 >X< v - ( H c ) ` ` ( m.tX:.4.q _ 5.V 3.t.] 8 v ' V.] ,.zX} u.[.a.A 3.).p.4XSX,.E.( b `.} r s.1.D D ",
"0.C A u.A $ W Q b Q f ^ y.'.x.6.2.sX-.x.l.> & % & 1 < $ M.| E.b.b.t.Z.>X| m._ A A a.S <Xe.u.].+.m.A.t.m.R.`.) | 5X( A O.) } ' ' A.8.X (.mXx.(.#Xv.-., y '.Q e O > > 5 O 5 b 3.r.{.) A rX4.T T 9.*..X~.w v I.>XE. .BXV.b G l b.' 9 % 9 O Z.v <XZ.N.t + 9 ) | r.x { |.F.Q V.i.* A.7.6.'.) U x.*.p.a q 9 & ~ e 5 9 r.V.Q F.^ ^ J.m c Q M l ,XwXf n W ..W ^ ` o.` f Z X.G Q b ` } } Z +.} S { n.A./.+Xv.=Xv.-.E -.-.-.;.@ & , h 7 Q o.7 Q v ` b n W I Q +.qX} ).] AXp.eXV.2Xw j uXA 5XJ.<X' ).].4XL.L.3X[. XqXp.[.( f Q Y 4.9.F a e ",
"J e./ 6 % U.G J.~ P ^ o.y.' 3.SX~.S./.+X~.7.8 % < V 6 = O { `.| b.I.<XM.m P N 5Xh Q ' G.! { +.} E.r.Z.I.A.R.Z.t.h >XA Q w.q ` 5 t.&X1   l.$X(.x.;.=Xa d *.9.E e , 1 > = 7 d.% ` n.t.' b W F ~.s.r.XXpXgXC + n c b m | b q % ( n.y.V t V R.r.% P {.} ) @ n.R.m.I F.N 9 h 6 ) [ | < V OXI A q p.c.0.=.^.i T E 6 9 v e.P 9 / W ` J.m #.W F...$.,X0 7 W W / X.} ^ @.W c o.y.Z ! I I K.K.Q Q P r.m.{ 5.(.#X-.-.v.(.l.-.~.y #.R Y ,X~ g 0 Q Q v ~ l ` Q Q ' u.v #.] ,.e.,.H A ,X1 u.' K.K.i.' >XGXfX).[.a.X.H G.].a.e...Z z F >.*.=.y ",
"a.) e.v - +.h ..) { +.! 3.w.) gX|.OXOXB.|.(.z.Y 9 H * & = 5 b.5.I.t.+.@.Q K.b @.@.Q U.! m.K.J.eX<XZ.R.A. Xt.m.t.Q O.>XA h - z $ 8.8.~.i % *X#Xv.x.-Xx.;.;.7.-.E * 8 = < & 5 < $ O $ lXwX{ t.A 8 8Xn.U.6Xt.5.e.S 5.V.w / I 5 l / Y 5 7 O R.| b.sXE _ b.x 5 Z.t U B.P.b.6.&Xq q Z.R.r  Xl.N T p nXT 4.U u.S Y b R V b +.n.7 M b b K U.~ ..b $ = @.n 9 W / K $.^ k Q v / ! P H K.' +.I d.z ` r.{.V..XD.+Xv.v.;.v.-.-.x.6 0 b r 5 6 - o.b b ) W b ! | ' { w.gX( ,.Q I V.GX_ #.z ' ,.u.u.z ( J u.u.qX1XC.3X( S S 0XP.w.T z j u F F <.",
"3.} 0X0 = l +.G ^ } Q <X[ [ `.A.Z.sXbX8XgXgXOXsXOX7 6 & = + +.fXn P t.x {.o.yX` G.Q o.V.} 2X{ I.Y ' C.I.6X8Xt.( H d.2XQ W H % N 3.B.(.e e O ~.v.;.v.x.-.x.-.-.E e.J.> & 6 & < 5 8 ; { ,XX.{ } A +.{.K.H.>Xn.m.3.( w ' 6 G 1.y O x Z & X [ Z.% x.*.|./.[ b bXY |.dXA..X}.|.+XN.r 4 7 x (.(.< r % w |.v v 5 h v 8 z W P.o.c #./ c n ..^ J.U.w P +.9 v v ^ n { P c @.b ~ Q y.W ' I ( ~ Z ^  .W n.Z.Z.D.OX/.=X8.x.v.-.~.-.# l.].b 9 = W W N ^ Q b ) o.>XE.].I.H H W ].w.C.} X.z eXd.eXX.e.u.e.,.e.2X).Y.AX9X3.H w.m.] a.( :.4X*.w S ",
"H.m.H.c Q M m ! ! @.P n.' | R.pXA.gX5.|.tXBXqXsX+X(.; < * > O c n.) m k +.Z ' o.r.y.>Xt.V.} y..XC.'.fXY.m.V W gX` H G.5Xt.I.= 8.4.!.(.x.7.> w -Xv.#Xv.x.-.w -.6 E T 6 * d.= 7 $ ! r.7 ^ ^ / >X$ ..{.P.H.J.F.W 4 B.XXT F 8 D >.r $ t O l b.N.t bX~.D P 5.t A K.= Z.D.b.A.b.bXZ.| NXn.v [ p p 7 R R _ U # M # & 8 ,.S l ^ O.,XF.c g g ; g V 9 4 9 o.^ b m ` h / O.o.y.Q c ; O.G y.3.h W P.r.! Q +.P.Z./.l.N.7.x.;.C T /.O 9 Z } v - ' v h 8 / Z / | ` wX} Z ~ H V.I e.H N.( ` ` f.' Z W [.,.).a.p.e.3X[.C.t.V.3.t.8.:.C >.s.*.e.T ",
"o.eXb H t.Z - S c { ! 6XC Z.R.I.0XI.).Z.+.}.vXOXsX(.+XV * l h 7 9 F.z Z ! | >XQ 2X) ! ].+.{ n.3.I.4X`.K.[.aX<.Y.j BX` _.r :.Y @ e.'.x.-.C 7.r u *.x.#X-.*.7.;.r + l.*.e w & < - O 9 = Q F./ o.^ o.#.` #.k.  o.5.6 N.!.&XW E :.] 6 X % Q gX7 X W =X7.:.9.w /._ R.y.b z Z.I z _ 0X3.Q A & , i 2.7 R l.~.2.7.A.b.V.H ~.W b / d.G l 7 ~ l { W ' q 9 9 W Q ^ ! n K n n c ; { 9 Q W h b #.O.P.` { t.W ! H.R.S.2.l.8.(.9.n l.gXn 5 +.W ; ^ ) ' + W h % $ = P.| Q ' Z a.Q e.I.< ` Q +.w.W @.O.I.F zXwX].K.K.].1Xt.3XrXA 3.3XA :.:.C.u i ",
"A 5Xb n c { X.H b K m.V m.) V.].eXP.I.R.R.P.pXsXnX~.&XsX6 6 & n.( J.v W y.P H.~ J.n.{ b.3.u.E.1X[.qX`.1Xa.qXL.a.AX~ H <XN 4.= 1 > 6 C &Xx.*.U y e E sXl.;.7.d E 3.e = p p = $ = y.V W K P !  . .@.+.n.].Q.>XE.<Xb 6./.&Xu D dX^.q.& X N 6 > * & y 0.w 9.D 1 , A sX8XP.S.A.V U > r.p ^ > & I r 5.r ].l.| n.( r.} T p ` v ~ v L.( c Q c  .v f o.^ / v & & f - F.7 m c 9 l - ^ o.+.z l W { % +.{ o.m.! R.b.l.N.V 8.x.E 6 2.Z.9 h l 8 ` ' N z l ` n.Q A n.P.+.( Z V.w.[.A.9 Q S w.S r.a.u.I.A Q K.L.I.P.} t.n.K.`.e.2.4.V N 9.>.1.> ",
"h U.K ~ b wX9 ` c c +.2 C.p.!.I.tXt.`.`.I.I.3XnXsX&X|.DXOXN.1 < 6 K.G >Xo.m.o.) t.M.) + b.Z.4.`.4X).[.3XqX2XL.a.] Y.t._.8.5.R e e e 2.7.#X=Xv.x.l.*.-.(.;.-.w M N.~.a u < l & q P v ! ~ { ! ! E.Z #.o.@.m P.Z {.5.6 U e (., C (.*X, , > 6 T p *.p $ 1.c.1.N * I I Z.| 5.5.+.l.p & d +.e i C p p I x P.[ b <Xb m.:.t.Y S H h u.@.A h y.W n ` <Xb / c <X^ - 5 #.Q ^ 7 I Q Q.` >Xv K e.m.7.9 ! +.` +.) 6XZ.5.!.~.:.l.E & h ) I = 7 c m l N T 9 v o.A v { P.wXl + { I r.gXo.+.wXv S i.h } _ t.` ( V.].+.V.t.i.} a.a.s.>.T Y D ( F Y ",
"9 wXW b W d.l G W ! =.t.A.|.R.I.[.`.).3XI.).[.hXpXpX9XpX.X/.b 8 ....` H.W O.$.F.+.+.C X ].C.Y V._.fX~.[.3XqX).fXK.<XI.qX_ w ~.-.C 6 /.(.l.(.~.$Xw ;.1 F E 7.-.* e V z *.6 $ 5 9 ~ W o.b ! r.{ U.[ n.o.+.` v J.gXR./.) O P.*.  + w 5 * 1 > 1 w % % 6 & 0.c.=.e > $ ( |.R.8X< l.R l.(.s *.E E U P U V 5 9 & - Q.y.t.>.B ] V f ~ w S _ ..F.7X4 y.9 { W W t.5 ` h l q ! e.^ m.Z.1X` Z W r.Z 0.) r.r.+.! ^ m.r.D.z.l.l.x.N 5 v b 9 = b Q.r.z N q ~ b ! q 7 t.BXm.8 l n Q n.y.o.y.Z A E.! H m.Z.' j H w.m.V.` ' P ].4.>.p.B N 3.^.B ].",
"5 2X' h @.% f Z I ( p 8XN.m.`.V.`.).I.3X3X'.V.ZXpXV.].tXb.z.[ 1 c X +.` | ` ^ o.l qX~.6 p.T p.[.[.[.4X[.pX_.L.9X' a.#._.pX8.B.aX&XR Y S.8.R r * p l.e 7 (.(.(.p 6 0.*.*.A l k v A P <X| o.) b.| M.r.m.Q >XJ.M / ) I E @ 6 p N u e 7.;.9.a > e , y e 8 1 p.a c.7.% 8 N V.qX.X/.[ ;.~.E -.;.x.B.7.U 3.5 7 D.9 Q.<X].] Y < q N a.q j A ~ 7 / G +.W j V.G.) 2.z ) I n l 9 t.n.t.n.t.! W U.m.5.P.| { @.b W o.r.5.Z./.6.~.e 5.5 l c H Z ` ! ( ] ; ! c G { g l ` } w qXZ ~ v Q.` U.H +.{ Z P ` e.<.~.T A w ) K.>.' C.fXF T ( N [.C D :.",
"_ h x W V G.f l >.*.y {.].[.}.A.`.V.A.[.[.[.gXI.m.e.N.|.t.o.*.g % & r.r.+.| r.n.0 } C.!.*.F 0XA.C.fX9X9XfX[.<XZ A < [.9X.XpX8.'..X/.Y *Xa &XdXx.x.+Xa OXu 7.E 8.6 l Y F 1 f O f w.c P E.m.A.t.m.n.m.E.y.^ l y.qX..x 8.Y p R v.e *.-Xq.=.=.q.q.=.% # B O 9.0.V V 7 O O [ l.S.6.2.8.d @ v.Y x.+XR = N./.z ^ c U.<XV.Y z B 5Xw.,.9 I V X.7 ..c K G./ = { 3.3.h m.N.9 7 f 7 E.F.m.@.! / +._ b.U.} r.J.r.b r.l {.{.V.5.D.5.! +.Q b - b G o.' H l M v yXo.Z ^ Z.v - q 8X) v 7 P.! y.w.J.Q P.E.e.F :.s.9.*.:.a.e.<.' A J 8 N N 3XB C N ",
"l Y.v S N N } 3.*.*.u t.I.`.`.I.I.t.C.9XfX8X[.[.}.qXaX<Xe.I OXX z - h % 6 9 Q h + = 1 , D A.C.I.eX3XfXL.qX3XpX}.u.i.].Y.z 1X'.t.pX/.&X~.Y 5.OX(.+X=Xv.x.-.4.> (.6.9 N N ` ) l O x } '.Z V.V.M.8X].Z.8X+.#.J.c b N C U `.e E ~.(.p -Xc.@X;X@X-Xq.0.&Xc.;.x.x.i 9.-.% m U /.OXSX[ 7.;.E l.w z mX(.X OXq % 8 f J.7Xn.g.XXT H u B T c ~ N o.m ! m E.Z.C.o.!.u.c c y.= 7 W n b n.P.+.I.! ` ! ^ n.#.{ Z ) Q _ Z ! P.y.| p.B.A } Z f b $.G ^ r 8 k X.! W r.gXJ.r.V 5 7 9 % z P.r.n.+.M.! Z >X4.B.' t.| [ [ 2.e.2.Y <.N J w N V e.i F z ",
"V P.w D :.Y C F <.*.p N I.}.].[.[.I.I.pX5.[.].pX`.`.OXNX>X` qX* t.l % O w z )   O I > 2 & w.`.I.qXpXzX3X).] lXBX( Y.v K.'._ ) [.CXpXe.!.K.sX(.(.sXV 1 2.;.i # 4.:.n V ' b q ! E.5 ` I.o.Q } b.8XM.+.n.o.{ / /  .)  Xl.R 2 6.r.U *.R 9.p 9..X^.&X(.l.7.c.9.;.x.R *.i e 5 + N D.vXz./.x.e i r O mX: ZX7.[ b.H.J.Z.&X*._ _ ( y.I.e.V Q w c l < lX..b 7X5 +.` U.r.{ 7 v +.U.W +.n.Z.n.G.F.Q ` | +.t.^ Q ` P ! ^ y.F.+.2Xr.r.b.o.= W o.^ ) ` z & $ 9 f { V.Q.|.<X3.5 Q X + ! n.#.0 n.8 l 5.:.p.t.' A.A C.0X5._ I.] V W A A C :.A B H ",
"Y z e 8.T _ :.D 9.*.=.B ' I. X[.zX3XP.A.1XP.E.9XNX].m.n.+.vX5.6.( 5.H Z z Y *.*.:.T w % % X 1XI.[.3X3X4X.X_.9XK.T.Y.S ( L.4.[.Z 1XvX*., j.A N 2.7.9.a e y 2 S i ( i N M 9 +.b.^ b Z t.I.b V.m.{ R._ >XO.n.o.m t.S.) A.C 7.i V C l.`.OXl.C 5.U | N.7.V *.C p dX7.) V $ > ` f ) .XN.(./.E Y R C (.O FXl.q x NX@.` X.!.C ] ` r.u.$.Q J.J.A S :.} A 5 % - % y.= k I 8 b = l # J.b k.E.hXb ) n.>Xo.K #.} } Q ^ ^ ! ! ! W E. .! l b / @.4 m lXN 3.S Z N ) I ^ 6XP._ _ ^.D J 4.V.].|.6.t.:.s.p.4.w.I.r.| V.e.' I.( 3.' A A a.N V.].C a.",
"I.,.T :.i B B D 9.*.9.<._.).).1XhXK.2XV.I.R.I.f & R.+.Y.V.8X.XOX1 ) 8 ' _ 6 6 i *.B e >.w 6 j A eXhXhXzXjX).I.u.a.i.fXzX3X1 ] N (.h.@X0.1 8 ^.%Xc.#X%X@XF *.q 3.A O.q 7 ` | t.+.} ` l t.+.b.m.Q ).G E.k. .Q./ S I 3.2.[ !.3.V ! | 2.N.N.U Y [ V t N z.7.i *.7.9.p :.e p p 6 M 5.A.=X+X2.7.(.2.S X &XOXZ tXr.H.p.9._ T f ^ ^ ~ ,Xl f G.] 1 9 7 Z OXdX7.= Q $ c $ f t f 9 7 v {.E.6XE.>Xv <X! H.^ H.} W ^ ^ ` @.W W ^ W W m.W #.S ].b P z ] t.q 1 H b c #.J.H.Z I `.I B.h n.E.| n.J.} ~.' C.A Q K.Q +.{ l r.( O.+.} l K.A Y ,.F B ",
"p.T p B F D <.D a F i 4.[.[.I.C.).m.[.].|..XaX@Xc.7.W +.{.{.E.OX Xt.H w r I & 1 9 ,.8 h u >.*.~.$XXX4X9X)._.[.a.f._.I.3XCXjXp.ZXp.ZXkX$X*.w N &Xp./.^.x.%XY e e S i.l X.` I { Q r.W.3.Q 1X .r.I.+.| +.U.o.H Q ` ^ [ {.) ! 6.t.V qXS.6.& V ) 6.) w 6 6.p e ~.B.-.u D e e z / $ & X l.&Xl.R 6 x.w 2.OXV.V.v rXt.l p.Y.m.k...y.Q f m W ^ ].O.3.V P.6X8XsX2.{.l.I.r W 9 P c 5 $ + b W x 7X+.` r.r.) H.^ +.U.m.n ~ $.P Z K W c n o.G g n z = ) F.iX7 ^ ^ r.b !  .P } P b m.r.H.m.Z <XJ.) N.+.! MXQ b | 3.P.) b W X.MXQ Q 3.8.N >.*.D ",
"qXC 9.B Y B T =.*.*.a B z Y ,.K.V.e.r.).I.].CXpXZ.|.V.t.w.+.{ 6X[ 1XQ @.` `.I & V 6.*.y ; 9.0.>.s. X[.AX3XL.xX)._.V.'.fX[.[.3X_.CXhX|.(.4.# % I.].t.*.4.(.F C e _ ( +.T.l G w.+.r.{ m.o.^ m.o.b.:.I.V.>XV.0X) ^ K Q W n.X.Z./.> `.P q U 6 U 6.R C 7.S.-.[ q e :.Y p 6 9 j 5 n q b e x.|.E , e * z |.I.sXQ SX{.C.e.b.) Y.@.i.M n k k M >X .+.8.| b.oXoX/.} eXN } { V.D.z.OXz & = Q R.{ 7Xn.k.J.! { J.+.P.O.W ' P ,Xb c n.{ ! K.{ b O.} 9 b F.K l ~ Q ~ +.{ m b qX9 H.) M.{.I.R.{ 1Xb +.+.W.rXZ I ' O.O.( v ^ W ! { l Y B.:.T 8.4.",
"XX*.>.D F D e I _ 6.B.6.'.'.I.( r.t.qX].Q B.A pXb.b.v +.k n.Z.R.2.|.}.e I 5.C 6.> :.2 F 6 0.0.=.T ).3X3X).V.u.i.L.'.).[._.[.).N pXe.pXI.5.T 8 = H C.C.I.lXJ y.P.u.' V y.Z ) $ ! ) | { | { n.W.r.}.I.E.y.o.W W O./ W l $.^  .A.> b.C N.d Y l.7.7.r Y 8.'.-.(.'.C.A < u e q i 5 6 i Y 8.|.(.w r Y I !.b.n.{ N.I `.E.` $...$.{ / 9 O b K - W ) R.b.6XZ {.r.|.8X:.A z z 5 Z R.qXqXR.6XbX= P.<XE.n.Z b.{ ` m.Z.N.) W @.A b W +.S W b _ z o.5 +.& ^ 9 W ! r.r.b Z ^ | E.+.W r.P.| +.Q +.P +.W eXb Q } ` yX` o.m y.c W E.S A s.8.*..X<.",
"9.p <.F J Y ( A } ) ! ' t.I.} m.} } V.3.) 5.!.C.e.{ ( ' b ) M.R.) `.`.) I ) ` N.C y i 4X2..X%XkX%XT ].1X].H ~ K.[.3XpX[.'.[.] j '.N I mX&Xu.I 5 Z < h A ,.l O.! Q T E.Z t.G.l 5.r.} ` +.t.Z.Z.k.o.+.| Z } F.k / E.l m / r.A.[ b.2.[ (.R e q 7.E q 2.p 7.E e V _.u B a *.i $ % @ * 6 R 8.+X2.6 2.nXsX|.e sXb.P.U.@.m n m.U.@.n.{ ; O.b c b @.P.}.N.z | ) eX<XN.Z.r I Z.[ oXtXqXR.E.bXW.oXrXn.P.$.J.n.Q J.m.{ ! U.w.A } e.o.F.b r.< ` l | v 9 v 7 b W ! 3.' H.G ! { +.Q w.P.E.m.U.U.b +.} y.W Z } ` +.W W W Q ` +.` t.A I 8.F ~.<.",
"~.D F Y I Y ( ) } Q } ) m.3.Y 3.A V.{.].` b.[ ) Z.{ ] l ` U.3.5.) qXS.Z 5.N.) V  X9 @ N ` p.AXpXsXkXjX_.L.` H u.3XqXqXpXfX[.4.( C.C.& 6.~.3.$ j 9 v e.,.t.<XX.+.b.e.,.+ | & < H.r.7 Z.9 R.6X{.Z pXZ.+.{ 5XwXZ M $.W 7 o.b.P O 5.Z./.6 l.R -.i R N -.R V ` l. X' p i 2 w > r e i w r C l./.7.% # pXA ) V P.1X^ 7X/ m V.r.^ J.F.E.8Xy.! ~ { H.k K m.>.Y z >XZ.`.V.OXq A.P NX .+.6X6XE.oXOXz qX7Xn E.@.W U.m.n.^ w.V.U.3.I l B.B.>Xl W S 7 Q ; W n.; } r.W | P ! { { K.| +.| U.^ n.^ M.m.7X<Xn } +.{ o.{ l b P x } M.m.Z Y _ 1.~.j.",
"*.,._ 2X,.n.x ! r.P P ) ) } } ) J.I t.} +.0XE.+.t.+.uXl o.1 ! 0 <Xt.t.Q G.Z r.l ' 0.u ' | V.`.). XV.L.fXpXs.*.4.].4XfX,.N ' pXY Y kX8.w .XS.j l 1 X.K.'.] O.` b ` lXI - h g & 7 | } W v {.5 NX` fX1X+.) >X9 b ^ Q P e F.H.r.- /.l.l.6.|.G.Z.[ sXR OX7./.4.`.-.' e y e 9.U *.p -.i q % O 9 N w e 6 Y oX5.m.W.H.F.n.W O.` t.@.o.o.@.7Xl v G +.{  .E.Y 4.@.F.W R.) Z.5.x } 9XsXt.[ | R.dX(.p b.n.o.eX+.+.W P.n W | +.! ` B._ V.*.9 ' 1XKXb E.- b <Xk O.W n.r.f ~ W ` J.( Z.R.r.+.H.+.m.M.+.wXi.b @.{ +.y.l ! ^ b ! W I 3.:.0.y pX*.",
"4Xu u _ B ) ` ` | [ ( ! ) Q P S ' t.P.0XG.I.r.V.u.r.J.y.W 5 Z q P 8 ^ Z Q ! b o.Y.C N O.| m.[.I.0Xp.C.[.w.2X).p.p.e.fX] 4.aXs.S A !.nXY './.3XA S M >XL.' ! I r.9 ' ).P V.5 8 & } R.) < Z.< {.` m.`.Z.o.{ { ` ` m.N 6 A r.6XeXI 6.q l.R.9 l.2.2.U V 2.A.B.N @ ] e e i y A & e i E [ y * % * * * 6 6 Q ) W.+.7X#.y.n.]./ Q Z K m.o.>X6Xc uXK { n.yXT Y ` b G P O = b.& ) Z.bXdX*XY :.$X@X*X~.>.Z 7Xo.k iXn.J.W #.{ M.^ h A V.!.O.= {.{.) U.$ G ^ I ) ` y.` ! W ^ ! @.Q R.y.^ 0Xy.+.A.W <X>X' ~ U.+.P Q ' W +.n n.) A ,._ >.1.pXF ",
"*.A 4.Y ' ] t.` { o.! Z ` ` r.` ) ) r.) | P } W ` ) b W m.W.N @.W ) { ] W Q W G q F 2 { ! N.|.I.9X).a.e.p.S e.' !.p.4.g.u XX*.^.V. XZXhXe._.C.q G < ].K.t.z A ` T r.}.A NX].Q l l Q I O D.6 O ! Z.F.+.e./ b ` ` @.>.A r.M.Z.m.N.bXl./.R R U e m.7X5 Y 6.|.a u T a e y C Z O > y Y * , o * * * * @ N V R.U.m./ o.@./ W M $.b ) #.J.^ gXo.H.{ { J.rX_ 1XI +.9 5 ^ z Z ! }.P.Z.b.oXmX;X;X@X%X#X#Xi eXF.J.^ U.) $.J.n.) [ 8 f l H I 7 0XS 9 o.t...,X) } W m b ` q Q m.n.r.].M.U.o.+.+.oXp.qXQ h ! +.@.MX` b @.W W ^ S Y N *.*.1.(.fX",
"*.B J Y hXN u.r.3.r.t.! P b Z P V.n.} H.P.) I o.) X.h ^ ,XH.o.~ ^ y.S { U.) ` n.u >.6 ` e.Z.A.V.V.I.V.3Xa.3.L.).$XXXXX$Xs.$XXXaXXX[.pXCXSX[.[.N z 1 V.m.X.X.T.W I.P ) t.tX6.Z.b.{ M.5.X SXI.$ % c { <X{ W n { ^ Q n.w ! }.E.OXZ..X~./.l.N !.Z e.) G./ R *..X0.u i 1.5.5.V.w e e V > & , @ * > * * < q E.eXQ t./ H J.o.K J.J.l b K c @.J.F.m.t.+.E.] ) G.Z Q ` + Z +.| n.H.8XR.sX^.%X%X%X;X^.0.(.t.K @.>X>XM.H.>X9 A h 6 Z = A v 9 c Z.W.9 <X_ G Q ! ! b m n ` { m.+.n.Z.H.].E.Q r.}.Y R.! z } { | W l P +.{ n V C ( F T T *.1.8.",
"9.>.T F 1.9 u.Y.y.r.w.i.Q e.Q V.| ! ` ` P e.] { @.o.W ` n.v W v W A Q Q r.o.( d.D , 5.e.V.C.t.' v 3X3.t.,.t.e.I.a.jXhXXXJ p.S [.nX).&X[.S.).} ,.& z r.w.' H Q I.V.:.v t.5.|.I.{.9 | N.@ _ sXq I b <XQ ` W b ` ~ b t.5 ) } bX{.OX3.R.N.SX-.#X2.r.2.G.J.V T -.;.8.8.a C w p r w 7.-.d e *.*., y > % w 5 R.{.A.3.lXe <X^ +.^ #.wXK / W.>X@.o./ o.m F.` uX@.{ { I $ V.{ P.].`.{.P.sX(.0.*X%X%X*X^.r.-.W ^ >Xo.{ W gXt.q V Q W V q ` l w q qXc { } l m.P.W.J.@./ ` W {.b.m.t.E.n.+.+.W.Z.( { { o.! ^ k ! v A ` W z ( i C T T T =.9.D ",
"9.1..X9.g.C ` t.} 3.+.W Z m.w.) W m.t.) 3.N ! v ~ F.~ ^ >X) U.c r.v } T.Q ' i i F A R.{ r.5.N.8X( 3.).t.T.w.4.C.I.1X.XhX[.).4.,.kX~.aXHXhX!.C B.$ i.] 2X' ` W ' } |.B.R ~.Z.Z.rX{ I Z.6 3.3.| G U.` rXX.r...{ I +.( A ( V.qXgXZ.7.7.7.dX~.pXC Z.3.N.c 6 7 t.0.e 9.C e p t.l.E -.(.v.d d -.E E l.Z l tXOXA.3.) ..z m.P.{ +.c MX7 n.F.r.W } r.| m.+.A $.k ~ ! 5 9 ! b.M.r.b.R.vX.XXX^.~.^.*X(.(.'.4.5 MXHX! n.m.BX8.9.-.E R 9 l l b e.) b l n - - H.! IXwX5 ` t.m.P.+.P.n.m.n.Z.{ m.A.'.| I.{ o...` r.H ) +.B.} ,.F 8.w <.:.~.9..X",
"9.D D 9..Xz G w.V.} 8Xp.e.W Z ! m.` 1X! Z ( ` Q o.W $.^ $.b b l n b b S P Z ,.:.B y r.m.tX5.b.C.C.' T.P.a.' w.] - $ j 4X[.V.pXA s.~.[.ZXSX`.N.C.u.a.W 3.<Xn.) r.' r..XT $X* }.N.OX XZ.N.5 Z.Z v b M.+.} W P o.P W A.! o.U.t.| pX|./.SXOXD.gXR Y q S.[ V W 5 ;.D 1 =.e p ;.E p 7.-.*.v.9.x.x.2.l < Z {.R.A.'.} 9.].^ $.c K 7 W Q o.wX..y.+.{ k.+.#.n W UX! t.9 ^ V.r.M.+.b.M.Z.0.#X#X*X#X&X.XdX(.D I wXm.Z.^ Z 8XaXsX|.&X=X!.0 l 5 1 o.Z q I h b ` ! P rX` ` M.{ t.P.b.@.| K n.+.+.' P.+.^ U.j Z | n.W Q t.{ { A Y T *.>.*.9.9.9.",
"j.T 8.] Y.| } m.r.u.} l ! r.b Q W b | W ` G.[.P.! M G o.m Z c F.Q f y.z x K.) u.XX, +.|.}.|.r.V.a.u.w.eXe.t.q p.9Xj 9 Z qXpXfX[.9.s.[.).pXhX!.9 ].' K.Q Q O.e.` ` } `.$X#X=. XDX2.N.B.sXe o.6Xo.n.eX| b >X9 c +.` ! { 5.`.].}.OX/.&XN.N.r 6.7.R.6.Y P.q & % nX!.u E y E -.7.l.7.7.;.x.*.@ B.l.w b = oXR.oXt.CX>./ n.O.>Xf ,XW n >XP.k.~ +.Q W M.wX>XwX..7 + O ! m.5.+.Z.Z.tX~./..X&XkX$X*X(.oX~.D } I +.o.6XgXr.U.bXOXOX|.|.5.w BX$ hX5.b ~ A ~ c E.) { +.+.M.H.P ; f I H.+.{ n.Z.H.V.#.<Xd.m W Q ` b W y.! +.' Y T _ F 9X<.9.0.",
"w T 4.t.u.` ` r.Q u.U.w.| ! G.` W b W ) z S K / <X) w.m / ` G Z P W Q Q W 2XO.0X~.o E.m.5.V.m.1XZ.2Xu.d.3.w.3.( '.9X< 1 ] f.5X~.9.!.9X[.L.eX'.w.w.( G X.f.a.' Q e.e.8X&XmX-Xy HX(.DX|.D.{ ` 9 #.n.r.<X1Xy.A l A { U.P } |.8XdX[ gX&XsXS./._ OXY 2.n.R E > * 9 X.e s y -.7.-.!.E -./.*.9.w + _ I ' ; w oX5.{ yX{ F.o.y.@.~ 7 n i.E.W.^ ) { o.$ k.Q.M / wXm.0 c l ^   = }.+.8.OXR.qX XdXkX.XpXpX>.R I.).gXI.A.NXGXo.CXvXbX|.N.N.6 V 9 - 5 sXN n.q b P.r.) r.I.) ` m.l |.& P.@.' ) { +.W / >X! W +.+.H.b W 7Xn { ` _ <.:.Y T *.p I.",
").' V K.Q } m.P.) t.y.u.= c G.G.o.^ o./ I { g O.W } o.r.W b P y.b / b / $.H.P r.p.<.) P.t.| |.M.V.V.V.$ S 7 4.A w '.u.h X._.5X~.<.a.e.L.).a.3XL.w.' t.Q ] ,.T.e.) w.).`.JX;X&.CXT '.q b.B.:.*.1 n ` ) _ e.t.:.5.| y.` 5 8XW vXdXOXOXoX&XvX2.sXl.2.D.w r * p e w * o , 8.7.x./.(.;.&Xl.*.i q & < t.I t.rX5.{.* n.U.+.J.k $.$ - b F.>XW 4 #.lX@.F.m MXf o.n t.0 ) tXM.P r.7.Y |.P.P.gX8XpXkXdXaX^.7.`.6.SX| M.E.{.+.NXvXOXsXt.|.}.@.Z 7 q G % b.o.` +.b.I.5.5.XX8.OXD.q H.m.Z._ | o.n.F.W  .b 7 n.` F.b { n.v +.` V A ` ) T *.x.C ",
"V._ Q K.{ } t.t.o.| ` Q eXQ m ~ Z W W n z y.c n./ H o.y...` { W w.v ; W wX= ; V.4.7., +.3.Z.{ I.! { ,Xb ]._ $ !.& _ 3Xh v u.).4X<.p.4.L.e.1X2X] d.] >X` 3.e.' w.I.t.V.V.pXkXmX2 SXw D.q kX1.~.s.fX} Q R v a.) ! Q | c 3.8XZ.Z bXvXCXnXZXDXR I.B.b.gXp I.i &._.B 2 2 X Y R !.l.(.(.-.x.e.(.i X # V 3.V E.F {.b.W.M.UX@.t b 8 + b n. .Q m ` @.y.G f >X$.Z n x v P P t.b.9.a Z.8XW.r.R.tX|.pXsXpX$X>.].( wXu.I.8X}.Z.8XZXCXsXD.v 6X`.V Q Z h 9 5 7 9 Q | Z.N.B.4.CXI.R.9 W.Z.|.} n.@.$.n.@.E.$.7 o.{ P l O.n.W +.+.` T ) T 9.9.7.D ",
":.T ( Q { w.BX^ b MXJ.W +.wX^ $ 2XU.2XBXo.r.$.W v +.M 9 ( +.d.+.v b z 7 ` } O % p.0.* Z.o.+.R.b.7 q U < ] Y e j l A u.S v w.u.~.*.!.p.a.[.L.t.L.y.) ' V.w.O.( t.e.B.p..X[.aX-X@X.XD.q 6 *X1.kXs. XQ q w p Q BX^ Q } b.% oX6XP 7XtXSXOXdX(.nX9X7.N 6.7.pXa p , a s s 1 > e R 7.C e > X o o w C % % % z sXa :.H.}.b eX$ Q e - 7 7XU.Z b W K wX$.Z ,X( c k l b W K } t.Y 1.C OX`.{.R.|.R.oX8X8XgXaX:.gXE.eXm.gXsX6X8XoXgX8XqXS.U S t.I b.z O 5 1 h = $ r.5.b.b.!.hXqXgX% R.m.E.+.M.H.+.o.m.~  .b l ~ o.Q ` MXQ f W G N Y T *.*.>.*.",
"F I x c } ` ` { m.Z.7X5.Z.{ BXI + ^ @.@.% ~ #.E.c F.J.W b 7 6 7 $ v 1 f b O.Q j O B.F ! ].o.r.n ! [ O.} b.2.B.$ ,.V A ( z v z ).<.L.a.1Xe.w.1Xt.rXL.` w.( X.' w.p.).p.V. XZXFX%X^.aX> *.$X^.0.&XB.7.9XC ( #.rXr.v m.A.|.{.ZX+.gX| sXsXhX+X8X2.S. X5 E a 8.*.L.D j a y _ i B.&X-.E p , o * @ i _ I h $ NX0.9 U.9 f Z l ) h x ^ { ) #.n.G.k./ M 7 @.yXl 0 m c W ! ^ 3.=.1.M.m.|.R.A.Z.R.{.E.I.{.[.V.i.MX].u.}.qXpXgX8XP _.` l |.X.@.V r = # 5 0 W - + : N.A. XC.|.C {.|.{.}.rXF.P.P.o.n.U.^ W c O.n.{ K b +.Z ^ f ' N 4.D T <.*.9.",
"F ` 7 = v ( c 0XP.+.) P.n.n.oXqXW.x c P.Z.t.) 8 ( 5 O { ` K w.@.0 v 9 5 5 W O.CX< q aX% y.8X) t.v 2._ 8.O OX.XH 3.w.e.S gXh % ( a.L.e.w.w.e.2Xw.G.e.Q Z G ` a.' t.a.[.V.V.JXDX-X-X;Xq.^.~.0.CXhX9.*.$X].h ^ n.! | 8X|.tXP.J.tXE.hX|.gXZX9X8Xl.A.!.*.r r fX* !.*.s a q 6 e e 2.9.R -.a e e 6 w r @ & v S.9.1 r.Z.{ = r.sXz h m.l P.c $.n W J.m 0 b ..F.7 W k ! N t.*.*.:.| Z.+.Z.Z.E.|.oXV.<Xp.w.( n.1XI.[.qX8X8XqXtXdXy w 5 C (.(.b N Z c 7 % 7 5 # $ y.+.| R.OXp.m.P.b.{.n.W.F.H.@.#.n #.b m Q.n.@.F.+.].n.rXc ] S :.4.*.>.*.9.",
"4.4.p.c 5 g K | qXgXm.R.n.MXn.0XbX`.NXDXnX5.W.n.H.P.b.+ I `.E.+.% yX/ f P W b ! `.e.`.B ` oXC.N.H Y 6 4.8 dXpXS I.[.' t.a.4.w < ,.m.L.w.K.e.qXu.] ` q H O.a.' a.e.a.C.a.4XqXHX-XkX#X0.;X%X%X$X;.9.T /.~.( j b.^ I.b.I.}.Z.E.W.M.| |.NXCXvX/.(.;.XXU -.B N ` e w $ F s X l.~.x.8.x.v.;.a w C ~.sX8.V sXT ;X- ! # g Q l ) 0X^ ; W k <X| / ../ c k >X4 K ..9 b W N D a 8.2.N 8XZ.t.oXR.P.E.R.}.g.XXgX` 5X0X1X[.8XpXDXCX#Xx.=XR y h q _ , 9 q 5 v > q & ; P ! Z.t.}.3.8XR.{.P.W.H.n.^ #.K o.n.` #.o.n.R.y.+.+.~ o.z w C T T >.>.1.3.",
"N z m M & 8 q 7 b P.r.R.{.Z.@.H.H.iXgXMXJXZ.H.Q }.8XZ.I # c b } ` ( ' = >Xl k y.l z t.9.e.Z Y .XI Y = O N |.|.Z ] 3X[.a.L.fXT S Y z V.I.I.V.u.a.2XwXj S H f.w.f.] L.)._.).3XjXh.%XD @X0.%X#XkXpXL.9 Q pX) w.c r.b.}.8XI.M.tXZ.SXBXsXqXpX7.6.|.8.9.p u a [.,.F =.u a a =.w r 2.;.(.=X*.l.R # l A ' '.kX*.F 6 Z /.P _ / +.gX+.m.+.Z b +.wXm G ~ @.c g c n 9 o.C B F D w :.T tX{.E.D.{.P.oX!.qX.X:.` h e.I.Y.I. XhXsXDXa mX/.-.mXv.R {.Y qXZ r P N w & 8 % o.b.{ A.+.P.tXP.gX'.E.H.J.7XF.H.iXn.+.o.) ].H.r.{ ' W - j e.( T >.A 7.J ",
"^.N :.a N $ + 9 V ~.[ V.$   0 = = 9 - y.K jX$.6XV.A.' Q z 7 ~ b ` f K $ Q ( A ,.'.g.9 6.B N !.V h Z w & 1 I I e.' e.e.1Xf.,.] ~.F e B G y.K.V.u.i.] >XJ.Q ( i.u._.N a.1XL.X.9.%Xh.F =.D (.$X$XqXd.A 3.v ` 7XP.h O O = : 7 = b.dXgXZ.P oX|.S.D.sXE *.:.u [.p *.s &.2 N c.;X@X, . @ l.i nX~.5 N v ' :.-X%XY # r K.7 4 < m n.k G W f / m b c n $.^ W n c G w e j B T *.*.p #   8 x R.R.R.qXN.~.4._.p.q w n ' V.}.vXvXFX+XFXmX(.-X/.S.r ) & q c = r ~.Y $ + +.o.r.I.) r.8XgX0XR.m.H.F.n.W.wXo.@.n.{ E.^ h N.Y.@.d.` j h h w < B 9 N "
};
