/* XPM */
static char *adf394b1c07d4a8cdab06c09ab27c5cbBtZpi4dvKNGyleyB[] = {
/* columns rows colors chars-per-pixel */
"256 256 245 2 ",
"   c #585955",
".  c #696B66",
"X  c #77766B",
"o  c #7B7C74",
"O  c #767B77",
"+  c #6D726E",
"@  c #5E6565",
"#  c #343C3F",
"$  c #817E6F",
"%  c #7D827C",
"&  c #83857B",
"*  c #8C8A7C",
"=  c #878476",
"-  c #928D7C",
";  c #97927E",
":  c #87826E",
">  c #707C82",
",  c #7C8586",
"<  c #7B8C95",
"1  c #848983",
"2  c #8B8D83",
"3  c #868B88",
"4  c #918E82",
"5  c #8D918B",
"6  c #8D9086",
"7  c #949384",
"8  c #9A9684",
"9  c #93958B",
"0  c #99968A",
"q  c #96998D",
"w  c #9C9B8C",
"e  c #9D9986",
"r  c #8B9696",
"t  c #959A93",
"y  c #9B9D93",
"u  c #949D9B",
"i  c #9A9E99",
"p  c #939691",
"a  c #838F93",
"s  c #A29E8C",
"d  c #A29B85",
"f  c #A19F92",
"g  c #A09F98",
"h  c #9EA195",
"j  c #9DA29B",
"k  c #95A09D",
"l  c #9FA08F",
"z  c #A5A18D",
"x  c #AAA48E",
"c  c #ACA78D",
"v  c #A4A394",
"b  c #AAA593",
"n  c #ADA995",
"m  c #A4A59B",
"M  c #A9A79A",
"N  c #A6A99D",
"B  c #ACAB9C",
"V  c #A7A896",
"C  c #B2AC95",
"Z  c #B2AD9C",
"A  c #B6AC97",
"S  c #B5B19D",
"D  c #BAB49D",
"F  c #BBB59A",
"G  c #B0AD97",
"H  c #8F9DA2",
"J  c #9CA5A3",
"K  c #9AA7A8",
"L  c #96AAB3",
"P  c #A2A6A1",
"I  c #A5AAA3",
"U  c #ABADA3",
"Y  c #A4ADAA",
"T  c #AAAEA9",
"R  c #A7A7A2",
"E  c #B1AEA1",
"W  c #AEB1A5",
"Q  c #ADB2AB",
"!  c #A5B1AD",
"~  c #B4B3A4",
"^  c #BAB6A3",
"/  c #BDB9A5",
"(  c #B3B5AB",
")  c #B9B7AA",
"_  c #B5B9AD",
"`  c #BCBBAC",
"'  c #B6B8A6",
"]  c #A2AEB1",
"[  c #A5B2B4",
"{  c #ACB5B2",
"}  c #ADBABB",
"|  c #ABB7B7",
" . c #B3B6B2",
".. c #B4BAB3",
"X. c #BBBDB3",
"o. c #B4BDBA",
"O. c #BABEBA",
"+. c #B4B7B5",
"@. c #C2B99E",
"#. c #C2BCA5",
"$. c #C2BEAB",
"%. c #C5BBA5",
"&. c #C1BEB2",
"*. c #C0BFBB",
"=. c #BEC0AE",
"-. c #BDC1B5",
";. c #B6C1BC",
":. c #BDC3BB",
">. c #BEC8BD",
",. c #C6C1A6",
"<. c #C9C2A6",
"1. c #C5C1AD",
"2. c #CAC4AD",
"3. c #CEC9AE",
"4. c #D1CAAE",
"5. c #D3CAAE",
"6. c #C4C3B4",
"7. c #CAC6B3",
"8. c #C6C8B6",
"9. c #CDC9B5",
"0. c #C3C5BB",
"q. c #C9C7BA",
"w. c #C5C9BC",
"e. c #CCCBBC",
"r. c #D2CCB4",
"t. c #D2CEBB",
"y. c #D1C8B5",
"u. c #CED0BE",
"i. c #D5D1B6",
"p. c #DAD3B5",
"a. c #D4D2BD",
"s. c #DAD5BC",
"d. c #DDD9BD",
"f. c #DED8B7",
"g. c #E2DBBD",
"h. c #E0D7BC",
"j. c #D3CBAA",
"k. c #AABCC3",
"l. c #B2BEC1",
"z. c #9DB7C4",
"x. c #B4C3C3",
"c. c #BBC5C2",
"v. c #BDC9C4",
"b. c #BDCBCB",
"n. c #B7C6CA",
"m. c #BACDD2",
"M. c #BACED2",
"N. c #BDDBE7",
"B. c #C2C6C1",
"V. c #C5CBC3",
"C. c #CBCDC3",
"Z. c #C4CDCA",
"A. c #CACEC9",
"S. c #C8C7C1",
"D. c #D1CEC2",
"F. c #D0CFC8",
"G. c #CDD1C5",
"H. c #C5D1CC",
"J. c #CCD3CB",
"K. c #CED9CE",
"L. c #C6D0C6",
"P. c #D4D3C4",
"I. c #D9D6C3",
"U. c #D6D8C5",
"Y. c #DCDAC5",
"T. c #D3D5CB",
"R. c #D9D6CA",
"E. c #D5D9CC",
"W. c #DBDBCC",
"Q. c #C4D3D3",
"!. c #CBD5D2",
"~. c #CDD9D4",
"^. c #CDDCDB",
"/. c #C6D6DA",
"(. c #D2D6D1",
"). c #D4DBD3",
"_. c #DBDDD3",
"`. c #D4DDDA",
"'. c #DADED9",
"]. c #C3CED1",
"[. c #E1DDC4",
"{. c #E1DECB",
"}. c #E1DED2",
"|. c #E0DFD9",
" X c #DEE1CD",
".X c #DFE0C7",
"XX c #DDE1D4",
"oX c #D5E1DC",
"OX c #DCE3DB",
"+X c #DEE9DD",
"@X c #D6E1D5",
"#X c #CEE0DE",
"$X c #E4E1C5",
"%X c #E3E2CD",
"&X c #E9E5CD",
"*X c #EAE7CA",
"=X c #E3E3D4",
"-X c #E9E6D3",
";X c #E6E9D5",
":X c #EBEAD4",
">X c #E3E5DB",
",X c #E9E6DB",
"<X c #E5EADC",
"1X c #EBEBDC",
"2X c #F1EEDC",
"3X c #F1EDD4",
"4X c #EDF1DD",
"5X c #EEF1D7",
"6X c #F2F2DD",
"7X c #F2F2D7",
"8X c #CADDE2",
"9X c #D3DEE1",
"0X c #D5E3E3",
"qX c #DCE5E2",
"wX c #DDE9E4",
"eX c #DCEBEA",
"rX c #D6E8E9",
"tX c #D5EAEE",
"yX c #E2E6E1",
"uX c #E4EBE3",
"iX c #EBEDE3",
"pX c #E4EDEA",
"aX c #EAEEE9",
"sX c #E8E7E0",
"dX c #F0EEE2",
"fX c #E6F0E5",
"gX c #ECF2E4",
"hX c #E5F2EC",
"jX c #ECF3EB",
"kX c #EDF9ED",
"lX c #EBF8EB",
"zX c #F2F4E4",
"xX c #F2F5EB",
"cX c #F4FAEC",
"vX c #FAFCEC",
"bX c #F6F9E5",
"nX c #EBF5F2",
"mX c #EDFAF3",
"MX c #EDFDFB",
"NX c #E5F6F4",
"BX c #F2F6F1",
"VX c #F4FBF3",
"CX c #FAFEF4",
"ZX c #F4FEFC",
"AX c #FCFFFD",
/* pixels */
"t.#.t.R.F }.W.R.#._.B ~ ~ Z v S.<XAXK.1XxX).gXzX<XMXE.zX4X1X1X1XzXG.W.q.T.w.,X,XC.W._.S.,XR.P.Y.=X-._.,XW.w.P.G.G.G.P.=X;X=X%X=X{.8.W.W.W.I._.W.<XXX(.OX`.uX_.XXXX=X,X=XT.>X,XC._.E.).T._._.T.X.6.( ~ W 8.=.' X.` X.M C.W.C.0.X.6.q.~ ^ B 6./ $./ / T.F.~ ^ v 1.Y.3.%.z b : 0 2.1./ 1.~ / $.6.~ =Xe.P.G.!.E.T.E._.OXOX(.yXhXT.=X=XC.P.T.P.&.R.W.P.P.P.W.P.P 8.W.{.P.t.t.2.` t.B P.>X6.,X1X9.1.P.e.t.9.6.U.a.6.9.6.9.1.7.#.R.D 2.t.W./ $.q./ W.e.P.W.R.( ).OXV.Q 0.u.iX%Xu.-Xa.a.6.e.6.9.a.e.` ( r.1./ a.9.9.#.Z 3.1.a.S i.y z @.",
"t.%.1.e.D.2.I._.&.W.r.2.$.s M 6._.C.4XgXU.).).aXvXXX^.4XbX<X<X).gXC.X.C.P.8.C.=XX.S.w.w.C.{.%XU.gXe.>X;XP.U.P.OXY _.a.G.U.a.U.%X,X-X;X;X=X{.=X=XiX(.OX).J.).OXXX>X,X,X=X,X<X_._._.!.OX+XXXT.e.q.-.` C.` _ ` ( P.T.` ) ..0.-.6._ 6.S ~ / ` 7.1.Z 6.P.e./ P.n D Z 1.6.y.3.Z a.Z 2.$.1./ ' ^ / ( y u.0.R._.G.T.).OX_.).OXT.jXT.XX=XG._.T.W.F.F.T.8.8.q.q.8.R.W.6._ a.r.{.{.Y.6./ 9.7.9.I.P.1.P.U.R.R.` e.q.>Xq.a.t.6.=XY.a.9.^ 9.1.9.$.7.^ W.,X9.I._.I.P.uXT ( T I C.0.:. .:.6.8.e.` ` r.9.6.9.d.a.r.1.7.r.1.3.2.2.#.x r.n 8 9 z ,X",
"W.n t.e./ t.q.}.W.Z W.t.{.@./ $XR.{.-.w.uX;X+XaX<X<XZX;XbXL.).1XzXXXX.C.U.w.X.}.:.X...0.T.<XT.T.e.P._.U.u._ X.=XK.U.e.e._.w.:.W.=XP.W.=XW.=XU.T.;XOX).T._.T.OXOX_.>X<X>X,X=X>X_.'.).P.E.T.W.E.C.w.X.w.X.W ` ( 6.P.1.T.` _ _ W.X.U v / P.e./ 6.$.Z D / ^ / I.W.#.B ) s 6.2.P.$.7./ $.1.#.^ $.6.v U.U.0.W._.T._.`.).).+X).=X=X>XX.P.T.D.P.P.8._ W.-X&X:XP.6.D.e.e.1.P.t.a.a.7.t.1.S ` t.I.{.-X` W.XXXXW.I.e.W.6.P.t.W.r.I.1.r.Z 9.1.P.2.t.P.D.&.&.W.t.W.V. .Q A.(.).T..._.T.w.9.1.' 1.a.a.8.Y.7.r.a.r.s.2.9.9.r.s.b n $XS b ) $ a.",
"Y.}.e.}.#.R.R.{.,X2.2.{.2.t.7.S zXv -XT._ _ jXvXOX>.!.uXgXL.E.,XiXXX:.q.C.C.S.C.C.X.zXxX:.:.w.e.Y.` a.U.a.7.~ _ $.8.=XE.U.<X).=X,X,X=X,X=XW.W.=X,XOXXXXXOX_.G.OX>X>XXX=X>XXX)._.J._.G.T.C.W.G.6.6.C._ ) ` ) 1.1.1.}._._.P.8.6.C.T.~ a.e.1.q.#./ $.$.6.7.P.b R.^ #.s 9.1.1.$./ / ^ $.1./ 9.y y v _ C.T.U.>X=X).XX_.E.jXuX<X>X=X=Xw.q.C...6.i ) %X%X$X{.&X-XP.e.m b P.r.~ 9.e.#.E.A ^ z $.1.E.q.W.=XV.W.W.U.U.X.e.I.t.9.s./ / 2.%.1.#.#.U.t.$.D.^ P.t.t.P I Q V.C.-.G.).'.aX'.W.t.9.r.9.U P.1.` 1.1.1.,.y.r.d.i.i.z n / d.n E.: a.",
"s.r.r.=X7.a.W.=XI.2.r.P.#.,.^ C.zXB 6.0.bXw.( 1X~.`.!.VXE.J.OX4XT.:.:._ w.X.w.W...=XgXT.X.w.P.6._ _ ( ` 6.6.V P.P.P.P.R.>X>X_.<XiXuX=X;XsXXX=X1XXX>XOX=X1X_.).OX+XOX>X>X>X>XOXOX>X>XE.G.C.P.C.0.w.0._ 6.` q.-.W.1.P.9.8.P.X.C.( ( C.F./ 6.$./ ^ D.Z ^ / D.t.q.w 9.^ 1.$.^ ~ #.^ ^ / ^ / ~ v U t ( V.w.<X_.R.C.XX_._.K.9X<X1X<X;X1XW.C.X.6.( U ) -X[.$XY.[.-Xe.^ ~ W.$.r.2.R.t.#.#.W.q.P.t.I.T.XXP.>X0.q.B %X8.,.a.s.:X%Xs.2.1.2.t.2.2.1.I.8.$.W.e.,X=XuXY -.w.G.T.G.E.W.S.,XW.P._.<XU./ #.%.A D Z 1.C S 2.r.Y.1.~ 1.9.s.C D...1.",
"{.#.t.W.a.W.1X{.a.}.=Xa.{.W.U.T.9.%X8._ q.,XA.vX=XOXAXK.:.J.).gXW.W.W.T.E.` G.=XiX1Xq.6.q.a.U.W.9.e.9.R.U.6.9.U./ e.Y.W.Y.XX_.XXE.,XjXyX).iXgXgXjXiXOXsX1XXXsX_.>X>XuX,XpX).).OXOXG.C.T.T.6.w.w.w.0._ X.-.0.` V t.P.P.8.8.e.8.8._ C.X.P.e.&.W.7.}.P._.q.T.W.t.e.9.S / #./ ^ / ^ ^ / ^ B g m v N Q %XG.E.OX_.P._.;XXXE.).uX,X,X>X>X=X_.P ) ( X.~ %X:X{.s.[.[.2.p.s.[.1.e.9.$.9.7.e.t.Y.$Xd.t.Y.=X>XP.G.6X1X1X' R.G. X9.-XU.1.I.1.9.2.@.2./ C 6.0.I.P.G.CXOXuX).>Xe.{.=X=XP._.iXa.9.e.` }.P.P.x S F / C x D 2.&X9.D D $.I.S $.W.a.",
"r.s.t.y.-XZ 1X=X9.7.4.<.W.I.9.W.G.6.q.8.U Y.,XG.U.CX!.qX+XK.iX1XgX=X=XW.=X0.iXiXXX=XT.( X.8.e.R.Y.9.I.P.e.e.9./ / 6.1.U.{. XE.<X=XuXW.>XzX<X+X>X<XW.,X<X_.<XXXT.K.uXOX>X_._.>X_.E.E.T.P.X.V._.XX0.0...6.` ` ` ` e.$.P.q.P.P.P.T.8.w...T.0.6.V ~ e.9.Z R.P./ q.Z ^ #.6.1.#.^ ) $./ ~ V M U U v p u.XXJ.XXOXW._.XXXXT.J.w.jX,XXX'.OXiXT.&._ ~ y U $X[.:X[.Y.{.r.I.{.t.t.1.I.r.1.$.e.$.~ _.D.C.=XW.G.-XW..X<X1X1X4XC.I.s.a.:Xa.}.7.^ 2.2.%.D #./ D {.a.C.X.J.8.P.P.W.=X%XzX-XU.a.t.e.6.a.e.R.,X9.1.2./ #.S ^ ^ 9.1.^ $.9.s.t.7.8.t.",
"t.a.s.9.{.7.7.9./ E e.e.t.=XP.6.1._.T.8.B 7 U.T.=XiXOXAXoXV.OX<X>X+X<X1X=X_.J._.-.X.G.W.8.{.%X{.I.t.I.P.I.t.6.1.7.r.P.U.a.%XP.R.W.=XOXiX_.1XuXaX=XU.,X<X=X=XiX<XOXOXuXXXuX_.OX(.T.E.w.E.A.T.E...C.w._ C.) 6.q.q.9.P.P.D.9.q.e.8.0.( 0._ T.^ Z B B e.9.6.9.P.e./ C $./ $./ 9.' / ~ q B Z 1.^ ) j G.XXuX`.OXR.U.XXXX_.XXE.0X<X=XXXXX<X<XX.( X.y y &X*XP.{.a.%Xa.[.r.t.t.P.I.Y.2.6.$./ ~ W.Y.Y.T.:.0X-XXXjX@XpXJ.:X>XE.1.r.q.,Xr.t.Z 2.1.#.#.$.b 1.X.U.T.X.X.q.P.U.{.W.Y.` C.P.a.7.e.a.=XP.t.2.9.^ #.#.,.9.9.1.2.2.1.7.7.r.%Xe.R.C.",
"-X%X{.b ^ M 9.6.$.q.t.1.W.v _._.a.7.8.e.Z M 6.e.iXU.gXZX} `.E.=XuX<XOXgXXXZ.W.W.w.E.w.U.W.C.W.{.{.9.9.e.6.D.t.7.a.C ` P.P.W.U.R.W.=X;XU.<X).OXT.iXW._.W.W.XXsX<X_.pX+XaXOXXX).C.C.).T.T.0._.(.0.w.w.w...w.T.C.6.^ ' &.9.P.P.t.D.w.) U U &.&.q.8.&.$.7.S ^ R.e.D.^ Z 7.7.$.~ 0 w E ` ) B y ( ` M _ 8.4X).E.+XE.OXT.0.>XE.`.Z.;XiXE.K.sX_.( U ) N / &X{.[.r.a.t.{.t.9.#.I.P.I.r.^ $.%.~ 9.6.%XP.%XG.U.U.J.XX4Xe.W.8.q.-XB 9.P.I.2.F F 1./ %.S #.e.-XW.q.-.6.G.:X%XY.=X%Xq.8.I.a.r.e.7.I.9.6.6.^ v #./ 1./ a.s.9.9.1.s.Y.Y.P.T.9.2X",
"b e 1.7.S P.I.9.P.t.a.W.W.U.R.Y.P.t.P.S b S ;XU.uX<XOXAX`.x.H.OX+XE.<X).wX1XXX=X<XgXP.w.q.T.P.:X=XI.t.I.q.6./ E t.7.~ q.~ e.R.U.W.P.%XW.=X<X<X>X,X=X_.R.W.=X>X<X).!.yXoXgX_.).G._.C.T.C.C.T.C.w.w.S.C.8.q.C.( 8.$.t.e.9.7.t.6.` ~ 0.0.U y ) ..U ) 6._.D.W.T.9.X.e.t.#.2.&.Z v ' 6.g V M 7 v 0 9 W.` C.zXU.v.+XC.U.XXXX_.>XqX=X,X).oX>XzX) v ~ y ~ q.&X{.{.I.a.a.Y.9.r.%Xe.t.%.2.%.^ s.9.t.8.W.G.!.>X%X_.W.G.' W 1.6X:XP.' / {.9.2.2.^ %.F / D P.%X:XW.0.*X&X:X&X&X%X:X%X6.P.Y.s.9.7.~ 1.t.#.v $.t.9.1.s.Y.e.I.[.{.Y.r.;XY.a.^ / ",
"^ %.2.z e.P.{.%XY.I.Y.P.P.t.{.W.I.e.^ b a.` e.0.>XOX+XMXH.c.jX!.XXXXK.~.`.1X,X,X>X1XC._ q.C.C.W.{.I.t.P.9.P./ ~ / t.2.r.6.6.a.6.U.U.R.W.T.R.P.R.u.R.W.T.W.<X<XE.OX(.+X).T.E.T.w.C.C.V.B.0...C.C.w.0.w.( P.9.7.1./ 7.9.a.a.r.t.9.U p -.I c.I m ..A.'.R.e.=XI.C._./ / 2.,.~ q m g Z M 9 2 V q U y t 6.8.w.P.;XE.E.XXXXXXU.L.OXqX_ 1X).).bXX.C.U y U X.{.p.Y.{.9.Y.{.{.I.e.t.#.$.#.%.A I.Y.1.1.s.Y.W.J.E.-Xe.6X1X4X%XP.Y.%Xt.$.1.~ 2.7.1.%.t.t.P.y M $Xa.T.:X%XP.%X%X%X$X=X6.}.Y.9.=X9.7.{.a.9.1.t./ 1.9.P.e.%XP.P.I.W.-X{.W.W.D S ",
"D $.#.r.f M ~ e.{.{.&XI.e.I.P.Y.Y.` 9.W.U.` gXL.OX).!.@XqX).!.OXuXG.).Z.G.;X<XiX,X_.C.w.C.C.P.I.e.P.W.e.&.t./ ` ~ 9.9.1.a.6.$.e.q.}.W.a.I.iXP.R.e.=X_.W.OXW.iXE.+X_._.T._.C.T.C.T.T.C.C.C.w.S.X.0.6.F.P.W.R.W.{.[.%X$.{.{.{.Y.2 ( ) r ).O.p ( j i P q.Y._.W.W.t.7.2.^ b ` V w q f ` ' ^ / ` y 9 ( % I ` 0.P.jX+X<X XE.W._.:.nXxXW.G.(.=Xw.P.U 0.( X.&.=X{.{.Y.t.q.D.Z 7.P.$.2.%.#./ b e.1.r.M B 9.a.:.$X-X=X1X1X6.%XY.[.Y.2.^ $.S 2./ S P.9.2.9.s s.U.{ &XU.U.P.%XY.9./ I.e.` 9.W.t.t.1.1.r.9.2.$.7.t.I.t.P.8.` W.=X}.,X2.r.$.S ",
"^ ~ S ~ ~ y t.Y.$X[.$X6.e.e.a.r._ I.%X6.w.;XaXW.;XwX@XhXVXK.OX'.xX).K.V.V.=XOXiX,X,XW.8.P.=XW.W.W.I.W.W.q.9.Y.q.~ #.7.%.t.9.P.P.e.9.I.e.C.{.a.}.e.R.R.T.G.E.gX+X).OX<XE.C.C.T.C.S.E.C.w.C.q.0.F.C.R.C.8.e.$.a.I.Y.d.a._ U.R.$.$.7.P.6., i ..i y t N U ,Xq.;X,X{.Y.9.~ 9 S ^ m v 1 v 9.S / 7.$./ 2 1 m 0.X.q.T.E.E.E.U.J.E.:.lXw.=Xc.J.C.;X,XP.C.q.P.C.D.-X{.[.t.I.6.$.$.t.W.7.C $.1.$.$.Z B 7.$.1.s.P.1Xe.7.s.a.U.a.P.r.s.i.#.~ s.s.%XP.^ S F #.e.9.%XK 9.e.a.a.e.i.[./ 1.P.s.I.a.{.6.1.a.r.1.9.7.P.D.6.e.t.e.=XW.I.=XI.t.a.$._.",
"I.$.7.W.t.{.&X&X&X6.X.a.P.a.9.U.=Xe.bXgXjXsX8.gXjXE.).V.).).jX).K.fX).>X).J.iX<X1X,X=XP.R.e.}.W.W.P.I.{.t.I.1.7.a.I.t.2.9.9._.U.P.W.9.t.,XP.6.{.q.G.%Xq.E.XXgXoXoXsX'.C.:.E.T.X.E.T.0.0.q.8.C.P.R.C.C.W.{.a.I.a.s.$Xp.d.9.V I.Y.s.s.m e.N ) M B 8.P.q e.D.P.9.%Xe.2 q r.r.t.~ ~ X.2 #.1.$.1.9.$.8.e.C.p I X.P.G.C.U.E.C.-.:.J.(.%X0._.1X;X_.C.D.P.6.W.e.{.$.` 9.9.$.9.$.$.9.D.R.%X9.9.7.6.1.B / 1./ $X3XY.9.6.9.:X%X[.7.&X2.s.1.W.1.3.#.1.9.C #.E.zX<XE.P.e.a.s.a.$Xi.^ S n r.t.7.a.P.Y.1.1.$.:Xt.t.6.e.I.W.=XI.D.t.2.7.P.9.9.2.",
"9.s.Y.[.{.%Xe.` 8.P.=X=X=XC.X...jXwXhXxX<X_.BXU.W.1X<XK.OX).>X`.VX~.aXuXV._.>X1X<X,X,X_.T.T.W.I.R.W.W.W.I.a.I.r.t.Y.I.3.,.2.}.Z P.R.e.9.T.T./ 9.a.T.6.<XW.,X>XZ.yX`.<XC.S.:._ w.0.O.w.8.8.W.P.W.W.}.P.Y.Y.Y.a.s.t.[.s.&X{.$X6.8.{.I.I.s.B / e.b 8.q.0...e.6.T.I.Z i ..~ r.y.$.B / + / r.r.$.r.t.8.~ 6.7.t R.` U.U.T.).OXw.J.OXoXE.iX'.0.,XiXiX,X;X;X,X0.D...6./ 8.9.9.e.e.$.9.e.a.s.a.r.$.1.b 7 ` r.B Y.q.u.:Xa.zX:Xa.s.$XP.;X1.p.g.i.2.3.2.r.3.s.,X'.U.a.U.>X%X$Xd.r./ ^ / W.p.I.I.t.W.;XY.q.a.P.P.9.P.a.=X_.R.$.e.e.R.P.s.2.r.",
"e.7.t.P._.P.W.P.;XR.iXgXvXoXm.`.jX>.1XXXlXU.XXzXT.iX<XOXOX).OXoX!.ZXqXqXOX).<X<X=X,X,X,X=XP._.}._.R.{.=XY.a.Y.a.a.U.a.9.t.I.P.^ ^ ) {._.W.W.^ I.P.P.C.iX<XuXuXjXuXqXXXS.-.A._ 0.P.C.6.R.}.W.W.W.W.{.P.C.Y.a.s.[.[.[.[.Y.$X[.[.6.Y.{.a.{.I.~ X.1.C.E.` ..P.=X,XR.0.M m 8.r.9.s.b B S S 1.r.t.Y.p.2.~ / Z y U q.=XP.J.OXH.>.oXZXwX_.iXuXOXJ._.T.G._._._.8.q.X.D.X.$.6.&.6./ / b ;XP.e.` 7./ I.Z Y.Z b t.Y.Y.Y.{.e.cX' e.&XX.1.` 3.,.i.g.2.[.s.S 2 :XU.| e.P.u.e.W.,XY.a.:X~ w 2.W.a.) $XY.%XP.t.a.W.I.t.D.R.W.R.` 1.t.^ 6.t.,.r.r.",
"e.}.R.{.,X%X=X..S.jXoX>XCXvXT.;XE.cXjXG.-XzX).S.T.w.C.vXhXjX@XJ.!.L.G. X<X(.).1X=XOX).>X,X=X}.W.W.R.P.W.%XI.I.Y.-XW.7.p.a.6.P.I.q.9.7.>XT.q.8.Y.w.` E.gX>X+XiXuXxX:.C.X.V.8.-.U.1.R.a.W.I.P.}.{.Y.}.r.=X{.r.3.%Xg.[.g.t.[.[.%X[.a.Y.Y.Y.t.` ) y 1X-.P.E._.C.C.C.:.V 1 &.$.s.z q s / ~ v p.r.p.s.t.8.e.~ C._ _ %XT.J.pXJ.wXZXlXoXyXA.OXqXOXuXuX_._._._.T.W.R.W.e.6.&.` 6.Z W.;X1X;X-X6.P.' t.r.a.a.I.7.a.t.P.$XP.,XP.:X,Xg.d.d.[.V g.[.p.i.r.S U.1XT. XC.U.C.0.G.Y.$Xs.i./ Z e =XW.I.P.( U.` 9.e.t.P.R.P.T.9.X.6.e.1.7.9.1.e.C.8.",
"R.e.G.C.w.C.iX>X].cXiXJ.XXG.pX0.jX=Xe.t.R.-X1X-XW.<XxXuXZXjXpXOX). XP.6.C.zX_.B.1X,XB.T.=X_.;X=X=X=X=X{.a.e.s.-XY.3.I.s.W.9.I.,XW.R.6.q._.9.6.%XP.w._.Q.pX+XjXiXT.OX>XT.C.0.w.a.a.9.}.{.=XR.W.a.7.=XI.P.a.a.2.p.[.g.s.s.[.{.$XY.Y.{.{.s.t.I.1.U Y.U M X.>X_.C.sX8.P.` X.i.r.q 2.2.1./ e.D p.a.s.6.~ $.~ ~ B y 6.E.w.+XuXMXqXwXwXpXNX).).>XH.<X>X>X>X_.0.6.W.-X6.W.e.=X<X;X1XgX<X=XY.Y.e.t.e.` ` q.P.,X=XW.W.` &XbX%X[.p.g.d.i.[.` p.p.d.2.7.Z %XX.a u.6.X.` 6.%XY.d.Y.$X[.y $.6.Z 1.&XU.( q.6.9.e.6.P.P.U.a.e.6.e.P.9.R.1.W.W. X",
"_.G._.P.,XJ.Z.H._.iX<X0.0.0X{.R.W.U.R.=XW.,XXX<Xq.hXmXOXrXrXH.J.=XP.W.E.P.e.%X<XJ.>X1X_.E.=X_.,XW.=Xe.P.W.P.U.=X8.a.a.a.9.6.e.I.=XW.P.q.>X$.$.e.:.G.cX~.jX<XaXuX+X+X).:. .X.V.O.( _.q.a.a.P.{.Y.=XP.I.%Xr.r.t.s.p.r.%Xd.Y.{.{.{.U.{.=X{.9.s.9.#.D.4.8.sX'.P.( <XD.a.S e.i.6.q.p.i.3.y.p.^ ~ 8.) B ` / q.6.q.w.;XE.J.mXNXMXlXkXA.OXOXH.H.>XuX<X).iXgX>XXX<X<X,X1XvX_.XX+XT.J.yX+X>.w.=X=X;X4X;X;X<X1X6.a.Y.[.e.Y.P.d.6.a.Y.s.[.d.Y.[.*Xp.d.' $X%XU.w.8.8.( W t.s.a.a.U.d.%X%X_.Z a.r.Y.Y.8.6.6.e.6.e.q._.>Xt.a.a.e.P.e.W.a.W.=Xe.",
"U.U.W.XX:.c.o.=XgXT.C.-XW.R.P.P.U._.R.,XW.1X=X_.G.mXeXNX^.wXOXE.U.s.` 9.I.W.=X` =X,XXX_.W.=X;XW.,XW.,Xq.P.%XP.T.t.Y.W.t.t.6.P.Y.W.W.C.W._.P.( w.L.fX/.kXkXqXgX>XO.O.T.V.Q C.( :.T.D.e.P.Z 9.6.Y.I.7.9.s.s.h.{.Y.Y.r.t.-X3X&XY.%X{.{.%X{.a.a.#.1.9.:X` >XR.}.=X>X,X7.B $.6.C.9.4.r.i.2.r.[.` ~ 6.6.I.e.e.e.8.m =X).hXZXmXeXhXZ.G.K.uXyX!.).iXOXZ.aXxXsXiXgX=XCXuX@X1X,X,X-X1X>XV.XX;X<XbX XXX,X-XP.Y.P.{.Y.Y.Y.a.w.-XP.&X,.#.d.[.i.[.[.[.` ;XW.-. .xXu.sX9.e.s.a.W.%X$X[.&X%X%X:X$X$X[.w.8.U.P.8.e.$.P.T.E.U.C.q.e.R._.<XP._.P.X.",
"_.=X_.T.V.c.OXE.xX=XP.P.P.P.R.R.W.R.T.W.=XW.>XjXnXuXpXwX0XZX1XP.9.W.P._.,X_._.=X0.W.iX{.,X=XW._.,X=X<XXXzX_.P.%X` 7.:XP.:Xe.;XW.-XW.=XT.e.cX;X-.OXoXVXCX[ gX .c.>.C.J.:.{ U :.S. .I 6./ I.p.p.R.P.I.q.=Xs.[.[.[.a.&X&X$X%X[.s.Y.e.=X%X[.Y.a.y.S P.{./ X._._.P.}.}.R.8.=X6.I.n 1.2.{.I./ a.r.` r.[.I.t.P.9.e.R.V.OXAXZXoXpXK.:.).G.uX).OXwXyX<X).xXxXgXvX1XiXyXOX<X1X1XW.bX1X;X%X;X=X-XG.u.%XP.~ W.P.P.W.%XW.=XI.W.P.-Xp.2.i.s.1.r.i.[.Y.` $X8.=.Z.w.P.,X~ 7.I.Y.Y.Y.%X;XY.s.s.%X2X%XY.U.w.e.a.9.9.6.8.P._.U.e.E.8.XXT.0.P.U.-.P.",
"P.C.=X_.aXV._.).1XC.e.e.P.P.P.P.P.U.e.P._.=XyXjXNXZXZXxXVXiXzX8.6.q.W.P.#.-XW.=X=XI.{.a.,X,XW.-X:X,XR.1X-X1XzXxX1XXX6.0.w.;X,X1X<X;X%XR.;XiX_.(.VXn.AXk.AX-.:.:...O.O.! I (. .:.Q  .` C.P.W.Y.7.W.9.9.a.Y.s.[.[.Y.I.R.%X[.{.[.Y.t.-X%X[.{.t.r.a.G.>X1.W.(.,XW.T.T.P.P.X.}.q.e 2.<.s.a.%./ p.r./ [.[.a.P.8.( P.U.ZXZXAXAXwX)._.).0.>XXXuX+XeX~.<XbX).!.pXqXpXxXXX;X;X,X,XP.P.e.;X4XW.%X<X%XP.9.^ e.R.Y.:XP.P.W.W.}._.T.U.[.a.=X%.#.i.:X3.9.I._ a.:.U.aXe.6.<X8.=XU.P.P.e.=XW.I.Y.Y.Y.$Xw.e.w.q.P.8.C.P.G.q.G.E.e.T._.T.G.X.6.U.w.",
"G...=XT.:.>XZ.P.q.q.C.6.` 8.e.Y.%Xe.T.C.P.P.BX_.uXW.T.1.S.xX1XP.e.R.W.1.,X9.7.P.{.^ 9.$.S W.W.1X6.W.U.8.9.Y.6.a.%X;XW.<XXX=XC.XXgX=X=X%XP.W.T.OXcX^.AXhX:.J.V.Q -.:.`  .A.+.I Q a.t.W.P.e.I.9.2.a.a.[.{.s.{.[.[.[.[.r.s.&X[.s.[.[.$X$X[.Y.I.d.4.,X$.P.-.1X_.iX<XP.sX6._.{.6.^ 2.2.#.i.a.#.r.4.9.a.a.Y.6.6.8.J J.uXNXAXZXOXc.XXB._.T.>X<X<XOXpXaXbX^.~.OXgXgXgXgX<X4X,XU.G.X.8.e.6. XU.R.6.P.8.u.U.` P.6.C.C.e.I._.U.1X9.=Xt.a.r.p.s.&X/ s.e.E.R.| a.` C.9.a.P.P.%XU.U. Xe.%X=X%Xs.$X,.V.U.=XE.W.P.U.e.T.e.P.T.E.T.W.G._.T.E.0.G.",
"G.XXU.T.V.B.,X=XW.6.8._ q.P.W.I.P.6.q.P.C.C.E.-.C.C.8.E.q.t. Xq.=XR.P.T.8.9.^ #.$.R.}.1.t.^ P._.1X=Xe.) I.;Xw.U.R.T.=X,XW.:.W.U.T.gX1X1X,X%X=XOX`.M.AXfXO.! OX-.V.{ W._._.+.O.,XP.I.P.Y.I.R.a.t.a.{.I.t.[.&X%X&X[.[.a.{.Y.Y.[.{.{.{.[.{.s.s.s.d.OXa.R.P.1XW.=X,Xt.` _.) ~ #.6.1.= Z / 9.#.3.2.s.r.[.{./ ` C.U.NXV.+XfX).)._.>X_.:.0._.E.<XiX`.!.nXmX+XyX<Xc.<XuXzXW._ ( C.( e.U e.R.h -.) 8.( ` 6.=X1X%XW.R.P.=XXXiXxXiX1X6.I.P.t.g.r.^ :Xq.q.E.I P.P.P.P.e.P.U.XXC.6.q.;XR.R.P.%X%Xe.G.w.W...<XXXC.T.T.E.w._.W.T.E.U.T.E.OXOXw.",
"U.C.w.W.O.:.T.W.6.U M _ 9.6.e.P.9.q.P.P.w.>XC.w.G.C.T.C.6.1.I._.=XC.U q.6.7.$.#.9.6./ 7.^ $.9.gXzXgX:XP.q.' N G.W.;X;X;X=XW.S.V.).W.;X<X%XY.U.K.0XpXhXAXL.:.C.P >.o.cXzX=X-X .i.=XR.e.a.P.a.P.1XI.}.=X{.I.[.[.{.p.P.$.{.-X$X-X[.{.[.W.Y.p.p.W.s.=X~ P.=Xq.-X{.1X{.9.P.a.P.7./ t.* z d #.y.r.~ {.Y.s.[.6.X.O <XnXAX+.Q v.V.C.T.S.>X_._.iXiX1XgXvXzX1X1XbXvXH.uXOX=XXXe.X.P.e.6.-.w. XU.` 6 e.a.a.e.U.1X;X,XW.W.P.1XG._.=X:XW.e.>Xe.8.W.s.%X-.G.P.C.6.q.q.R.8.e.B C.8.w.X.` u.W.W.;X=...XX=XG.>XuX+XjXG.E.T.T.XX).).J.).=Xw.yXS.e.",
"G.W.T.W.T.8.6.( 8.0.6.$.1.` 6.e.e.D.W.8.q.C.0.:.w.m 9.Y.9.,./ $.P.e.9.6.q.2.S 1.1.1.^ ,Xq.W.~ W gXB ;X=X=XU.U.t W.W.W.;XvXT.U.G.G.e._ w.U.W...+XAXCXhX<X).E._. .:.S.,Xa._.U._._.W.c.C.R.iXP.=X1XdX1X,X[.a.y.{.W.p.s.p.[.&XY.{.Y.[.[.%XY.[.i.J r.OXe.a.<XD.=XW.;X{.a.t.R.P.$.e.8 - C A y.1.p.s.s.7.t.s.v e.=XhX .Q C.OXE.-.=X;X).'.<X>XC.W.C._._._.a.C.G.I G.W G.zX0.1XgXW.6.`  X=X-.W.U.P.w.9.P.q.4X6X;XU.V.<XW.T.OX_.U.,XW.U.P.,XR.=Xt.P.w.e.=Xw.e.q.P.R.P.P.6.e. X( Q C.X.T.U 6.U...XX;X4XXX+X).T.E.J.G.T._.V.Q Z.T.w.T.OXC.).",
"e.6.P.8.w.) ` ~ ~ X.6.t.U.8.' 8.P.X.6.q.T.8.6.X.C.P.~ ` ,.2.7.^ P.t.P.1.$.6.1.#.2.e.a.n z M q./ {._ U ;X5XC.[.{.,Xq a.P.-X;X-XU.E.E.T.G.G.-. .kXrXCXAX).OXW. .X.+.a.U.%X>X;XW.iX_.B.J {.<X=XW.=X,X=X1X4.I.I.I.[.I.r.g.[.9.[.[.I.[.[.[.{.Y.[.w.Y.K.T.;X,XT.F.W.{.%XY.r.e./ R.$.c / y.2.#.6.b B 1.I.Y.[._ e.Q.A.ZX>.G.=XU.V.L.T.OXiXXX=X=X_.XXT.(._.6.T.e.W.U.a.q.-.G.gX;X<X;X1XiX,X6.y 8.U.vX1X X7X;XW.1X XU.G.XXJ.V.=XE.G.G.W._.>X,XC.w.6.6.P.W.G.C.R.P.P.P.W.=XW.W.W._.C.C.` XXR...5 ;XE.1X<XXX).).V.C.S.XXE.).).OXjX).fXuXV.W.",
"w.e.U.q.6.` 8.6.P.8.U t.e.e.7.e.9._ ) w.0._ ( _ W X.-.~ 9.a.7.$.D 1.1.~ 2.' %.<.z - ; : ; d v S 6.[. X,X<Xq.t.{.Y.{.6.Q e.P.R.W.C.e.q.0.S.E.E.nXwX<XAXH.V.1XXX0.T.,XP.R.,X,XP.1XA.J.iXiXdX,X{.W.}.=X1X7.r.{.[.I.s.[.f.Y.9.[.[.s.Y.{.p.[.[.$X .e...%XQ E.=X8.e.{.{.a.a.9.` / t.9.,.,.3.~ ~ P.~ / Y.I.Y.U nX .:.1XW.=Xw.w.W.XX_.XXC._.X.C.C.C.Q =X_.E._.~ a.6.9.W.e.P.-.e.w.=X1X<X;XW.P.P.=X=X:X=X;X1X<X,XXXC._.).+X-.0.T.T.G.'.T.0.U.XX=X_.P.P.P. .P.C.w.-.u.R.;X,X;X=XW._.e.X.X.-XX.m XXyX<X+X_.).uX).T.:.>X>X_.V.J.).OX+XjX:.E.",
"P.8.q.` ~ 6.6.` e.6.W.W ;Xs.t.I.8.C.` T.w. .w.6.T.w.B ~ Y.3.r.t.$.9./ %.1.V M r.- 1.D - 7 F B Z / P.I.' e.1X` ` I.{.t.M 6.W.6.t.R.C.G.C.w.).<XAXeXVXV.).).0.B.c.Z.U.P.P.a.2XiX=X;X,XV.X.OXsX}.}.,X-X=XY.=Xr.t.a.r.a.{.s.[.9.[.[.p.s.d.[.s.d.| C.X.:.Q C.W.I.~ q.W.{.=Xa.7.1.a.P./ ,.1.1.9.a.9.1.s.` Y.jXS.>.-.X._ ;X( ( U.XXC.~ T.0.) ( U =XX.T.G.C.T.7 o ' U q.N 8.6.a.=XP.=XW.;XP.U.XXfX<XT.E.OX+X<X!.).c.<XH XXw.L._.<XT.OXOXL.).T.G.G.C.T.T.S.C.P.W.G.G._.W.XX=X=XXXW.=XW.U.e.L.T zXcX+X).E._.J.OX<X).XX>X_.).V.).OX<X<XJ.,X",
"` q.8.e.e.9.9.9.P.T.U.B X.d.` q.W.E.X.).I U.C._ q.6.w w m 9.~ ,.S 1.t.$.D 9.1.7.1.: * x : ; X 8 1.7.,.B ~ 9.q.P.r.,Xe.q.W.e.U b P.9.t.e.E.+X<XjX>.'. .w.>XE.H.`.U.e.e.P.e.s.=XU.1X..8.E.J...1X,X,X=X{.{.Y.{.I.a.Y.r.d.a.d.[.t.d.y.[.Y.Y.s.[.L.S.S.C.+.U.%X:X1.P.I.Y.I.I.9.6.9.9.D #.9.1.7 $X6.0 1.P.<XE.XX0.1 9 t ( ` U ) G.0.q.C...6.X.( X.( A.0.w.&.U * V t ` 6.B ' ` ` 9.( _ ' 8.%XU.<XJ.V.E.W.W.E.G.L.qX~.[ XXV._.).uXyXo.| x.T.).J...C.C.C.).W.W.=XT.G.O.:.0._.=XW.W.;X=XW.P.<XX.4XfXOX)._.OXOX+XK.).OXG.T.OXL.J.S.uX<XP._.",
"e.e.t.9.6.9.8.B 6.W.I.7.:X1.6.8.R.C.P.S.0.w.C.W T.~ b ` 2.1.,.3.9.t.7.S #.B $./ 2.D : B 0 - - s ` t.=X8.r.t.U m =Xr.Y.8.m =XW.a.P.t.6.6.P.).OX@X>Xj K.1X_.c.| uXI.1.I.=Xa.R.Y.%X9.-.yX[.uXP.{.,X{.W.iX,X{.[.I.%Xs.W.a.p.{.y.s.s.d.p.r.s.s.[.J V.W.XXJ.Y ,X;XY.:XW._.$.=X=X/ t.1.^ S w W.1.Y.6.q.P.N G.8.U.S ` e.t.a.B U _ C._.0.j B._...e.X.m T.-.v _ C.O.: 2 ` ' ` S ' ~ ` q.6.U.%XzX;X).XXW. XE.E.w.V.~.wXwXQ.o.r v.[ `.iX<XXX=X).=XXXU.T._.T.W.E.R.U.E.>XL.<X0.0.T.T.U._.W.R.U.<XE.<XuX+XuX).E.).).>XXX+XL._.uX<X>XOXXXU.q.C.",
"q.D.P.q.M 9.7.s.s.T.e.&.6.~ P.U.` e.R.J Q Q V.V.U q z v 9.#.r.r.7.D %.1.1.B 1.s 1.s = 8 $ : e s w Z $./ t.9.t.U e.1.r.6.( 1XM ~ ~ Z 1.~ a.0.uX).>.).T.V.o.OXV.iX9.e.Y.1Xs.p.=X7.-Xs.U.$X;.L.%XI.{.=X,X=Xs.[.[.t.U.I.I.9.p.[.r.%X2.4.Y.a.{.P.C.G.T.J.C.0.%X,XW.1XsX=XW.%X-Xa.Y.1.t.S 9.%X%X6.%XX.B wX~  X9.P.9.1.P.Y.8.-.U  .E.OXC...&.U ` q.U 0.X.6.E.X.7 5 . q V / 1.` ~ B ~ q ( -.e.P.XX<X6.e._ w.:.XXK.E.^.x.K { J XXC.T.XXG.U C.W.=X!.C._.;XE.E.T.R.G._.).iXJ.J.:.0.XX..U.X. .+XOX).<X>XOXE.).OXXX).T._.).XXjXuXK.jXC.e.Q C.",
"e.e.P.R.e.t.1.P.s.I.a.8.^ 8.I.8.8.` 6.0.G.XXq.U ) a.M N 1.,.w W.r.6.a.^ D / 1.7 7 o b : - ; = ; * v t.1.~ s.t.' U.2.9.q.E.W.D._.6.q.V ) P._.+XjXK.u uXjX:.!.;X' 8.a.9.[.` a.6.Y.%Xs.r Y.Q Q P.%X,X=XI.=XI.s.W.[.I.W.I.U.a.$XI.$Xg.[.Y.Y.[.Y.P 0.R.U.( U. XV.W.T.;XzXT.).xX=XbXW.i.` Y.8.6.$X_ I Q.U =X6 a.9.1.R.U.e.a.8.W.X.>X_.U P C.T.w.6.t. .T.C.9.t ` X.w..._ y ' v M ` B t ~ w.U.U.6.XXU. Xw.w.L.:.w.w.V.<X;.K E.( e.q.e.6.E.e.P.}.P.W.=XW.8.T.T.).>X<X!.!.jXE.).(.:.G.C.C.>XjXjXjXcXOXOX>X).T.XXC.E.T.uXJ.uX>XC.iXU.G.0.q.",
"P.t.a.u.q.Y.9.a.9.Y.$./ 9.$.Y.P.( $.t.e.XXxX( 8.$.7.v 0 1.r.` 6.{.Y.r.Z / S / D 8 $ = e * $ e B S e.P./ b I.$.#.C.V S y S q._.T.E.e.E.1.q.uX+Xo.).+._.A.+X,X8.6.e.a.P.6.s.r.M [.&XY._. X0.w...%X$X-X%X%X;XY.t.Y.Y.Y.a.%Xr.a.a.a.d.[.[.[.t.-XL.C.W.0.G.X.0.,XW.C.1XW._.,Xd._.q.T.P.a.1.8.Y.` -.0Xh ..s.6.q.Y.a.W.Y.t.9.( e.e.Q V.U 0.1.R./ R.6.I O.8.$.) B q = m ( 6.` M _ B ) v h u.P.P.P.<XU.U.U.V.J._ 0.G.w.G.0.J.-.P.` X._ %Xe.e.W.e.q.q.=X=X=X_.,X1XW.qXT.jXVX<XcX>XJ.J.C.J.XXnXVXjXjXuX+X<XOX).OXA.OXK.).J.T.uXS.>X>X-._.e.",
"T.8.W.a.P.P.$.P.t./ s.a.7.$.t.a.P._ 1.6.E.4XiXG.W e.1.` b r.6.U ~ a.a.S 2.' 1.r.S / v 2.` z C S _.T.I.n z s.$.B N U w 2 @ h P.8.q.8.E.E.U.0.V.aXZ.XX;XzXgX1./ a.-X2.9.p.p.2.7 r.a.Z :X_.P.| ).XX:.,X{.1X,XI.Y.a.Y.P.a.-XY.[.a.r.[.[.a.~ %XsXH.P :.! r T w.>XsXG.w.:X&X6X6.:XP.=XW.=Xm q.N hXrX( ( W 9.9.6.9.9.t.P.a.e.` P.e.( (. ._ e.R.C.1.T.B.C.e.t.e.6.q 9 v v e.$.b v ~ 7 t U q.e.6.e._ =X=X-.V.=X>XU.U.W.P.C...-.P.` P.:.XXW...,XP.R.P.E.W._.=X1X,XiXgXJ.jXOXjXjXBX<XG.xXV.jXnXjXfXjX<X+X@XaXOXuXZ.).).oXuXaXS.1XOXC.W._._.",
"W.=X=XY.W.I.` a.t.9.s.s.9.r.P.e.a.R.' e.<X=XXX=XW 8.C.D.X.v 6.P.a.) B e.6.e.9.F b Z * - b #.8 c / 1.t.D.C.I.s.^ C.X.A.X._ ).Q ) ..C._.q.<X1XW.!.OX-XiX;X,X9.5X` 1X9.n a.d.a.a.a.d.; 1.zXc.k J 1Xr.=X=XR.9.9.a.I.a.=X{.%X;X$X1Xt.7.a.e.Y.Y.a.hX ., T.6.j ).XXe.U.R.P.R.a.e.&X9.xXC.I ( 1XE.rXe.B m R.8.Y.Y.a.1.P.W.a.I.U.q.~ I B.C.C.R.9.e.R.` V.m e.R.8.X.6.) 9 E E 1.v 0 M 9 2 U e.e.=XuX XiXR.V.w.G.G.P.U 6.=XR.XXX.u.=Xu.W.=Xa.P.C.R.W.6.P.W.}._.1X1X,X1X1XG.VXuXaX>XiXjXgXE.aXfXjXfX<XOX).OXkX@XuXoX).yXuXG.G.T._.C.W.1XI.,X",
"T.X.-.C.W.{.Y.U.a./ i.r.a.r.t.W.9.R.,Xq.W.q XX;XR.M e.T.W 6.$.I.E S 9.) e.T.9./ b E w - 8 e C F $.$.s.t.2.W.Y._.' X.U 9 e.>XT.i 8.U q.~ 1XU.U.XX>XzXXX_.zX<XOXU 1.P.Y.1.s.,.n D s.b 1XW.6Xv.1X9.%X1XW.I.r.9.t.a.a.Y.{.W.U.xXzX1XP.s.a.Y.Y.:.yX(.G.J.).O.j 6.w.T.P.G.P.U.8.a.e.U...C._.jXlXw.h uXa.e.P.Y.W.{.2.t.a.e.8._ X.C.O...( ) }.C.m 6.t.X.9 m X.e.C._ Z f q v ) M U t U U U.9.m e.U.U.>Xw.Q u._ ` G.;X6.` 6.E.w.6.,XU.XX;Xa.y q.R.X.R.X.R._.,X,X;X1XW.1X1X).>XfXjXgX`.xXgXjXuXBXuX).OXOX+X+XlX`.~.uX).'.,XiXC.e.G.W.=XiX;X",
"_.,X_._.=X' 9.s.t.t.r.$.$.y.,XW.w._.P.` ' P.=X=X=X_ w._ ) $.^ e.e.9.a.P.` q.~ W.^ v v 0 - * ; Z / / r.S _.I.r.P.S ..A.:.iXP & ( _ * b XX' 9.w.6X{ gX X<X;X>X=X%X1XW./ 6.Y.d.Y.w - f.R.W.XXJ Y..XgX;XW.=XY.t.t.t.9.a.U.{.%X%XzX1X{.[.Y.s.e.~._.(.-.{ L.w. .j  .( e.w.P.P.-X%X%X_ 6.U.`.>XU.pXv q.6._ ` [.[.s.^ ^ t.a.6.6._ X.C.B.6.( q.~ ~ a.9.7.q.) m _.P.~ _.T.C.M q.( t  .t ~ m q.q.aXW.XXw.G.K.e.G.w.6.q.6.8.w.8.W.-X1X;X6XP.P.e.P.e.P.q.W.8.( 1X,X1XzX1X_.=X,X_.iXVXxXBXoXuXoX+XfXjXyXjXfXhXjXn.~.@XOXL.w.E.).-.q.P.=X=X_._.",
"=XW.e.W.R.Y.e.P.}.I.r.2.9.6._.T.Y.e.,X1.E.8.j u.W.) 8.` ` 7.R.P.P.I.P.R.P.U.C.` / m z b C e F / C r.P.I.6.,.S W.e.6...O.T.( B.7 9 = m ` ` E 9.( E.U.E.,X8.U.XXU.U.W E ( B s.9.' s.d./ U...G.Y.6XzX,X1X;XR.P.I.r.t.t.R.%Xe.W.W.Y.s.W.W.$.E.wXL.a { P Q G.G.:.S.( q.P.8.e.P.q.` xXuXL.pX>XpX:.j P j W ` %X[.I.1.W.I.R.}.,Xh U xXOXj Q ..M B 8./ 9._ ) U ` ~ P.^ ` _.m _ M m 7 U _.e.P.W.OXG.E.w.)._.G.Y.u.U.e.e.0.R.,X-XW.e.P.6.XXU.W.q._ P.q.8.P.P.=X=Xw.zXzX1X,X=X_.0.OXV.)./.`.OXOXyXuXOXhXuXhXM.] /.).>.C.=X-.>XG.Q U.,XC.C.P.",
"=Xe.a._ r.s.e.` 9.9./ 6.t.:X,X_.W.C.e.P.) 8.q X._ T 6 ` 6.6.P.P.q.6.X.q.e.P.9.e._ t.^ ^ 6.c 1.1.y.{.=X/ 9.z 2.=Xa.D.6.t =X Xo * 2 * 1.B v 7 9 6.<XW.W.U.=.-.XX_ ~ w.B 1.' $X~ 9 9.U.v 1.XX.X=X,XiX=X;XW.9.t.9.9.t.9.W.W.W.W.I.Y.P.W.P.q.:.jX+X<Xo.O.Q -.XXXXG. .( 0.X. .X.( t gX>XnXuXuXfXQ j e._ m p ` Y.9.W.Y.I.P.q.P.7.( ,X_ N w.m ..U M M 1.6._ y ^ v &.~ C.w _ _ V.w m sX;X=XiXP._.=XW.=XL.,Xu.a.e.e.U.,XU 6.;X=XP.1.a.9.P.P.W.P.q.C.P.C.P.C.W.C.P.P.;X1X,X_._.E.iXuXuX>XOXuXL.yXjXyX@XOXH./.CX@XT.G.(.<XX.w.-.E.,XU.Y.=XC.",
"d.=.9.i.W.E.G.' a.Y.I.9.~ / =Xe.;XE.Y.W.7.` U ( =X<XM ( ( C. .C.....R.W.R.m 8.8.) U ` ` 2.#.2.r.{.a./ %.#.b r.C.e q.q.% 6.R.. o . B ` 9 ` 9 ~ _ .Xa.6._.=.M ~ ) 8.E q.9.y 6._ _ P.b B B 0 =X%X=X,X>X X,XT.1.P.9.9.t.e.a.P.Y.{.e.q.e.C.0.+X).@XgXV.O.Q +. .:.E.w.C.w.w.q.) X.XX).`.G.0.ZXI ..>XY.Y.%Xa.u.3Xd.I.Y.{.W.t.I.9.8.w.U ~ ` M U ( ~ B / V w.M q.S.^ ) M m q.y 0.U X.U P.iX;XW.,XU.XXo._.U.s.e.Y.P.6.-XR.2 XXa.) R.P.U 6.R.R.C.U M e.( P.6.D.W.q.q.W.=X;X;X;X>X<XXXZ.T.=X<X+XfXfX).hXM.@XlXuXH.J.).).T._.w.w._.U.1Xu.=XP.",
"6.U.U...;X%X~ 9.a.s.W.#.r.a.~ T.G.I U q.I.` ` C.` iXW.w.O.X.X.w.X...P.P.I.~ B $.$.9.9./ r.S 2.Y.}.a.R.<.$./ W.p.s T.B * 1 1 . o * 4 o X 9 ` U v G.XX>X8._ j G. XN ( =X;XP.cX%XU S S 9.' B -.W.w.iX=X_.W.e.6.t.9.9.t.e.e.Y.%XX.R.e.w.8.8.xX+X+XgXV...).w.{ ..Q B.:.B.C.-.-._ J.uXuX0.VXP =XP.W.1X1.I.P.T.6.s.W.T.I.Y.e.e.t.=XU U U ) W t ( W S.` m ( ~ 6.~ $.q.m y ( m ~ ..0.S.~ ;X:XaX;XXXJ.XX,XY.Y.P.a.=X,X9.zX_.1.=XC.8.0 m C.q.P.8.I.t.D.D.D.e.P.6.P._.T.W.=X=X=XW.XXE.W.>X_.<XE.+X+XjXwXjX`.lXw.E.I gXOXG.(.-.=XT.P.1XiXW.1.",
"Y.I.P.I.p.d.g.d.-X$.t.1.~ ' ~ q.P.e.q.U ..1.U Q iX6.X.C.0.B...0.q.0.P.P.6.9.U r.9.e.$.1.$.9.W.2.Y.}.t.W.R.T.t.-Xd.&.8 w o = 9 2 0 s s 0 o & N E.C.<XU.u.B 8.y 1XB U ` U y M ' / ` S w 1.` ;XX.8._.>X<X_.P.S 1.9.$.7.e.e.6.G.q.G.U.:.w.E.).OX!.fX;.V.J.K.K.:.o.O. . .:.X.C.C.fX_.G.>X..%XU.W.q.a.;X2X{.{.9.a.=XW.=X;X&Xs.E.T.( ) j Q U 9 E.y W N 6.m * e./ q.v ) M V ` _ 0.B.( ` xX-XG.U.J.=X%XP.9.W._.P.9.$.a.6.U.;XI.W.X ..V ~ q.q.6.W.{.{.P.W.D.6.t.q.P.6.q.R.}.=XR.q.R.W.C.E.<XXXXXuXCXwXjX<Xj XX:.V.J.vX).w.w.%XzX0.,Xe.P.a.",
"1.9.S 2.1.B p.d.p.4.7.a.a.9.#.,.6.P.U.e.m C.( =X<X( C.1Xw.X.0.0.C.q.t.P.^ W.X.I.2.7.7.e.9.x 9.2.{.7.t.1.R.=X-X=X}.V e M w 7 8 e e d s e 0 B v ~ ) >X6.U _ M ( M h $.~ I B v 7.~ S w v i.B zX_.` X.X.X.C.=X$.` / ` P...%X6._.E.'._.0.G.+XOX+X+XjXo.J.<XOX).V.).OXO.:.:.T.XXC.uXC.uXm P._.R.9.9.Y.W.%XW.U.%Xd.Y.9.:XP.D.Y.y I h 6._ U S.U q i T.X.I 0.9 6.P.f X.` y ~ E B ` X.m P.:XT. XE.1XW.P.a.=X=XW.I.I.e.I.s.{.;X,X-Xe.v B 0.N P.q.e.;X%XP.I.{.R.t.e.#.P.D.W.W.I.}.W.W.t.P.T.OX<X+XuXb.xX<XQ w.=XW.W.J.:.OXXX6.T._.0.U.P.R.7.",
"W.s.^ Z 9.^ B s.f.s.d.2.y.1.r.r.a.t.Z e.t._ $.w.T.W.<X<X=X,X>Xq.0.9.t.W.X.a.P.3.a.a.9.6.Z / 9.t.}.t.}.W.I.a.=Xa.=X#.X 7 8 ; d 7 d b b v f b 7 ` M e.e.` _ _ W B m q.9 9.` ` B ` 1./ ,./ S 0.U.X.` ) _ ).=X_.` / P.P.0.U.w.:.).0.0.Q G.OX+X+XuXfX .+XgXxXuX<XfXcXgX>X=X<XH.+X+XXXZXX.R.E.U.W.t.U.Y.-X[.{.:X=X,X,XW.{.%X{. .X.6.6.Y.e.h X...O.~ -.v U ~ 9./ y ) ( 6._ V ` ~ w 1.,X X:.XX<X;X1XY.I.W.R.R.=X{.I.a.{.%X-X;X=X1XP.M ( P.U &.P.I.-X:X{.W.%X9.^ ^ / 9.t./ 9.a.7.e.e.8.G.W.).XX+XOXyXW.U.u.8.W.U.=X).OX:.V.-.C.'.P.a.U.a.",
"e.s.{.r.3./ 2.h.d.r.9./ ,.3.2.2.2.7.^ {.8.U U q.Q <XW.>XsXC.C. .P P.R.e.X.9.7.q Z e.$.^ n D $.7.a.t.I.7.9.a.Y.{.:XF b 8 8 s s 8 v x C v b b 0 C.' $.q.8._ 0.~ ^ 9.) M 7.* ' ` ` S 2.1.c ` -.U.` X.` ` T.R.T.B U q.U.Q Q J.).L.V.:.C.V.).OX>XfX).xXcX<XgX<XjXfXCXaXfXfX`.mX).VX+X( ..m X.C.Y.I.Y.6.W.` W.s.W.U.-.P.Y.X.J U ` 9.e.1.Y.q.8.C.6.v t q.t q ` ` 0.M U.C.X.C._ q.Y.%XCXV. X;X;XP.6._.I.=XI.=XW.q.W.&X%X{.{.&X,XzX;X%X2 a.q.$.( ~ e.&X[.Y.=XI.7.P.e.#.#.^ =X9.9.9.e.t.e.P.T.L.uX_.-.e.P.P.` ` W.<Xw.oXjX_.w.T._.( -.7.G.",
"e.,._.r.2.3.#.i.f.5.%X/ 9.1.7.9.y.7.t.9.t.s.W.T j W.<X=XC.w.U j 0...P.P.( t.8.B ) ~ 6.z S D ^ 2.y./ $.6.E C.^ &./ / b 8 b x e b A D s s n 0 2 ` 6.q.q.8.q.` ` ~ 9.e.6.` ^ Z / 2.M 1.1.a.~ -.U.( T.1.y iX=Xq.` -Xw.P.X.P j L.{ :.V.:.OXZ.K.+X+XOXfXOXuXjXfXuXgXgXxX`.!.hX!.wXK.W.m U _  .9.W 9.a.e.P.P.U.U.a.P.0.2 U ( i ` _.a.P.a.Y.[.2.I.6.m 9 X.9 _ ~ P.B m w.X.( ~ ~ ..-Xa.E.>X_.<X6.e.W.=XsXI.P.W.W.P.C.T. . .v X.C.1X;X;X2X1 &X' B [.0 / [.s.t.r.W.2.1.#.^ ^ t.t.^ 6.$.e.t.P.I.C.W.R.e.P.P.u.P.8.<X=X_ jX..L.V.:._._ W.9.R.",
"9.7.e.6.,.r.Z d.g.,.a.%X1.^ 7.2.r.9.9.1.P.t.P.` y T.C.W.w.T X.X.:. .I.W.R.2.r.t.2.$.D ; W.#.#.{.=X1.P.P.P.6.$.P.^ S ^ v 8 b s C s b Z b ~ * X.6.` q.U.` ` E ) 6.m E M v v S / #.2.n e.B ^ -.=Xj Q 6.P.zXG.w._ X.` C.r I T.>.Y >.+.J.OXZ.oXwXuXuXfX+XjXfXcX<XxXuX+XwXpXuXOXG.OXU ..( t _ ~ U W _ 8.Y.%XP.S.W C.8.U _.U _ _ _ t.R.[.&X7.9.R.9.U v ' 0 U v B f 6.q.8.0.0.8.1X1X:.J.A.XX1X6X-XW.sXW.W.R.P.P.W.v ..C.M 0.N M y U P.zX;X&X` Y.$.a.m %XY.y.9.r.y.2.#.^ / 9.9.6.6.9.6.e.t.R.W.e.G.P.P.a.P._.P..X_.=XO.=X>X).X.:.( P.R.=X",
"9.t.7.2.3.6./ 5.r.9.Y.Y.9.1.7.1.S S e.9.9.t.C.v m C.C.<XT.:.>XX.T.t.=X}.9.D.I.I.a.t.I.2.6.` E 9.9./ 6.P.) R.R./ / B ~ s B b s * 8 s v n B ( P U q.t P.6.X.` $.) 6.9.y M Z B v B 1.2.~ B ,.` R.q.=.E.XXG.U.P.U )  X` V.:.w.:.>.{ ! ;.OXoXnXOXjXkXuXfXgXfXkXjXbXCX`.nXpXfXE.`.E.I X.j j I N ( ` ` 6._ _ -.q.G.G.P._._ B C.` P.9.a.a.a.Z 1.I./ E B 6.M ( ~ V X.P.W.=XW.=X,X1X(.>.>.V.;X;X=X;XsX,XW.q.e.q.9.9.9 U X.e.e.( q ) t 9 P.6X{.= / I.a.r.X.{.2.7.2.2.7.#.$.^ 1.t./ 9./ $.P.a.P.R.8.T.a.C.q.B ` P.m ~ U.Y _.U.a.<X,X%Xa.P.w.",
"6.7.9.2.9.d.3.i.S b 7.W.a.` a.9.$.a.9.I.y U .._.0.C.C.E.xX_._.C.w.W -.;X%X;Xt.e.9.P.9.#.' 2.7.X.Z D.{.C.M E e./ / / / Z b z * & & f 8 7 V U B.9 ..i T.8.e.~ _ ) ) e.N B E Z v e.B z $.w 9 9.8.6.w.XXXX=Xe.u.-.-.a.W.E.-.J.J.J.{ ;.o.!.uXNXwXBXhXfXyXcXfXjXfXxXCXnXnXhX).>XH.w.X...X.N U ..-.( X.8.6._ W 0.P.G.E.X.W N 6.m U ' {.U.1.r.B $.r.9.6.t.B B E U _.0.P.W.R.1X>XXXH.).V.K.5X<XgX0.P.G.q.M ~ U _ E N & ~ ` T.w.` ' 9 &.e.R.:Xw ^ y.a.r.t./ r.7.y.y.1.$.%.$.1.r.$.t.a.a.s.I.P.W.e.P.9.` 6.P.q.6.{.r.e.9 K.W.XXR.>Xe.U..XU.",
"s.7.2.#.2.r.p.^ a.-Xu.9.r.a.9.,.t.U.[.T.1X,X_.T.iX>XiXgXfXjX_.<X>XT.R.X.N G.d.W.-XD.s 6.1.P.9.D.$.I.}.q.C.6.B.6.1.6.W.9.D / Z * * e = 8 ` B m w.p 6.1XP.q._ ) M U ) 6.w ~ Z B 9.v v 9.9.v 6.( 6.e.zXX.-.U.q.%XP.W.u.>XOX).K.r c.| K c.BXpXVXVX~.jXuXfXBXVXcXVXjXVXwXfXuXuX).T.S... .:.0.X.( W -.X. .( w.0.>XC.X.V.6.q.6.` W.e.` a.2.2.4 1.t.) U.a.e.v m 0.) 6.U U X.C.XXjXOX;.iX>X=XU.` t.B 0.b Z ~ b M ~ _ _ m E X.&.C.6.C.& B P.W.P.w y.t.t.a.Z S t.2.2.%.2.%.#.r.a.) t.t.a.t.s.8.P.P.t.e.e.e.P.e.=X[.{.[.g.U.=X>XT.C.e.W.>X.X",
",.1./ ^ ^ 4./ 9.$.%X%X9.1.1.a.7.$.I.G.1 ( 0.w.<XgXxX:.).<XVXaXiX<XJ._ :.=.8.&XX.6.' t.1.r.8.X._.m G.T.=X;XW.T.( :.9  .B 6./ $.^ ~ / / ^ ~ ~ ..( i C.( -.e.P.U ~ ~ m ) ` g 0 M Z 1.9.W.w & e.8.U.XX1XE.T.P.W.=X XU.e.W.K.K.!.K ;.'.[ b.VXmXeXmX`.+XBXBXjXVXVXwXnXZXhXwXlX).+XiXG.:.-.Q X.0.-.Q q.0.~ E.J.C.uX( -.6.6.8.w.X.8.e.1.[.$.1.S B [.q.U.t.e.$.8.&._ _ v T.=X=XG.)._.=XzX1XG.P.e.` ~ ' V b M ~ B B E M U ( ) ` 6.B C.v f f v e.1.~ 9.9.t.a.C ^ 7.%.t.y.Z $.r.P.` ` a.t.a.a.9.U.8.7.8.q.8.6.e.U.1.9.i.$X' V.).T.E.7 <X6.6.",
"1.^ 3.7.9.i.C 1.2..X%Xa.7.` 1.:XOXu ` 3 O.O.0.<XCX>.T.E.OX@XfX<XX.>X).>.( X.P.8.Y.a.$.$.9.a.7.C.w.1X0.U 6.8.M ` _ q.1.9.6.$.^ $.$.6./ S / ` P M t  .9 _ 8.8.&.E N ( U e.` m B ` ^ M y 2 %X+.+Xw.W.=XT.P.,X=X=XP.6._ w.K.@X+X`.} H.!.K `.BXZXQ.Z.!.aXuXVXCXBXlXpXpXoXeXuXuX+XC.L.V.V.C.O.C.( 0.W.q.X.J._.OXOXO._._ ) ~ q.6.e.a.6.[.I.9.7.* e.Y.W.P.P._ B $.0.0.8.X.1X>X+X<X1XzXzXG.W.P.8.1.T.z 0.U b 0 v B Z m f t + 2 N M C.E B b 9 B -X0 #.2.^ 2.2.S F %.%.^ 7.7.7.a.` ~ a.a.r.9.8.P.q.8.e.P.P.~ 6.a.M t.[.$X:.e.OX_.B 6.0.V 8.",
"w.Y.#.2.2.2.4.p.p.%XW.1.a.9.t.U.r Q > w.t Y 0.:.C.).gXVX>XE.OXjXgX_.` ..0.B e.&X%X2.t.#.a.t./ r.T.P.8.a.W.X./ e.e.v e / $.` 1.q U v V b ~ ~ ) t ( X.X.w.) q.q.&.) U _ U P.9.9.$.6.m C.W.6.<X=XW.e.E.W.q.-.T._ G.>X` J @Xx.eX;.] Z.Q.x.jXZXrXMXAXpXVXBXBXjXVXnXZXeXeXVXAXOXV.c.( >.+XOXyX( (  .0.C.).).OXK.C.P._.P.U _.q.q.' U ~ -X:XI.r./ Z [.6.q.;XR.&.6.D.0.` W.iXyXOXgX X1X;X_ %Xa.a.;X}.1.m s s s s b ^ A S D Z 9.b 7.7.D.0.X.( & _ B / 1.#.y.2.r.Z D 2.#.y.7.e.a.a._ ~ s.t.s.t.e.e.P.P.t.9.P./ t.W.U.{.2.~ y bXaXM 9.P.T.R.",
"` f.3.1.#.1.5.p.e.=X:XU.t.-Xa %X%X:X:X:XN T  .t V._.<XV.V.J.T.G.gXG.w.Y.e.W.e.a.U.r.t.t.e.9.a.$.9.,X{.%XW.6.q._ ) e.X.B y ` 7 v + o v S b 9.q v ..9 P.` a.e.e.6.6.X.P  .U 8.e.q.1 =X_.0.uXW.q.P.G.w.W.U.0.>Xw.-.X.U.j K [ wXVXfXH.Q.VXmXpX0XCX!.aXxXaXVXVX9XNXZXmXnXAX).Y Q r Y I r +XhX .OX_.L.<XW.J.J.OXC.U q.q.~ ` q.6.e.t.I.a.-X&X{.7.Z 9.9.T.e.XXE.=XP.U W.6.jXK.<XzXbX=X-.G.G.8.;X,XW.o w b v b s z A ^ ~ / ~ 6.^ ^ $.&.&.) &.C.b s.v ` #.Z r.y.r.#.Z $./ 7.t.^ q.` 6.I.s.e./ 6.=X}.6.D.e.P.C.6.Y.Y.i.[.[.w.-.iXzXC.` =.C.",
"S 9.2.r.2.r.p.s.G.r t G. .=Xs.%X7.9.e.6.%XE.w.j L.+X_.E.0.G.T.T.K.w.0.0.U.-.9.1.r.t.2.}.a.{.t.9.2.9.}.a.C.a.t.I.I.e.P.$.^ ^ 0 m ~ 0 w v 7 1.2 1 y A.$.~ ` X.W.( X.U 6.m O Q N ( ( ;XV.OXW.P.6.e.w.C.e.X.w.>Xw.-.e._ (.L.c.^.wXjXwXfXpXqXwXpXoXOXjXuXaXuXMXeXcXMXZXAX:.O. .XXU.Q 6.-.u  .K.).C.wXaX>XyX+XL.6.q.6.X.X.' 9./ / t.P.{.[.:X:X$./ r.a.1.8.e.8.C.,XT.iXzXqXzX1XzXU.` P.U.P.;XR.q.b ^ v - 8 z Z s n ~ S A C &.^ / T.C.F.B &.^ ^ B I.( y 0 r.7 b n / 6./ r.a.1.' X.` 9.I.^ 9.=XT.W.e.e.P.e.R.C.e.[.1.2.#.a.8.e.xX,Xt.6.P.",
") 2.d.D 9.r.2.@ u V.=XX.7.1.9.a.:XS 7.t.1XW.8.E.C.zXG.` q.8.S.:.).VXO.L...6.P.9.%X6.=X2.Y.Y.a.1.r./ ,XW.W.t.P.P.P.e.e.t.$.^ B E B Z m 7 M V f B m 0 $.) 6.8.W.6.) q.j X.6.U.=X%XR.C.w.U.T.e.6.C.G.C.T.` q.` _.6.w.P...T.V.!.wXjXVX| 0XM.NXZX0XVX~.jXVXNXNXjXeXZXjX{ Y V. .K c.I V.C.0.t ).wXwXZXjXuXjXuX_.6._.B ~ ) B t.6.6.q.e.Y.I.a.&Xa.r.r.&.r.9.I.6.e.q.=X1XwXvXfX1XzXG.e.u.q.C.X.i _ 1 . y * * & 7 - z b A ^ C 9.$.b F.` ) &.$.6.b v U.,XI.1.v ,X{.s.[.d.7.t.` / 8.$.` 9.6.W.a.W.{.P.e.P.q.8.P.e.( -X[.Y.i./ zX_ C.cXm U ` ",
"_.S 9.r.^ M :.G.%X7.~ 9.t.t.9./ a.8.B w :X_.%X:.6.iXP.=Xe.w.;XT.:.<XE.OXXXP.P.' _.^ P.I./ [.p.a.i.t.2.,X_.P.W.Y.6.9.e.=X6./ _ $.t.1.D ^ #.B w B 2 O.e.8.P.e.=XW.y e.( v _ ;X=XT.C.w.C.P.e.W.e.e.P.C.e.C.q.X.C.6.-.q.A.).'.H.!.@XwXnXwX^.wXZXnXmXwXjXNX8XhXNXVXjXO.B.( W.I X.P J +.J C...sXZ.wXT.w.aXyX).aX,XC.0.C.~ 1.t.e.1.9.9.[.I.7.Y.a.a.t.t.I.9.,.I.P.0.8.xXOXbX1XzXP.6.sXq.I 6 t _ 7 : : o = X o + * w 8 / / / f ` $.R.&.^ 7.&.Z t.P.t.{.P.1Xi.;X6.~ $.a.Y.t.8.6.W.W.` _.R.I.P.{.Y.&.1.P.P.I.P.=XC.I.I.a.a.t.r.G.XXzX` ~ q.",
"P.2.9.' Z E.:XP.6.1.1.1.Z ' ~ 7.~ 6.7.2.{.( iXT.u.E.q._ G.P.=XU.U.S.T OX0.>XP.P._.1.a.9._ 7.p.W./ }./ }.}.I.I.t.a.t.W.e.R.$.e.D / S #.1.2.$.~ V M v R.e.U %X1Xe.W q.m e.U.W._.T.q.e.P.P.sXe.q.R.w.T.G._.e.sXC.e.uXS._.V.V.H.).Z.oXoXNXeXk.nXjXpXpXrX/.hXnXZX).{ ( E.O.X.R.E.Q 6.X.S.).O.T.+.:. .OXuX>XOX>XC.~ P.T.P.}.9.` 9./ ` a.9.I.[.[.[.&Xt.Y.%.t.I.[.P.` gXgX4X,XG.;XM T.XXP._ ~ ( X 8 = * X s 4 = 4 ^ D 9.0.^ R.M q.q.6.$.&.7.~ 7.e.t.s.Y.U.iXiXP.;XU.` {.q.U.P.9.e.q.{.,XiX{.r.,Xq.q.P.W.R.W.W.8.q.a.Y.r.s d.)._.1X6 U q.",
"1XU.a.L.;X;Xa.1.a.2./ 1.$.7.#.1.m e.D.1.t.:.C.W.P._.-.U.U.%X;X.X XfXQ { e.>.X.s.1X7X` 6.9.s.Y.{.1.W.r.P.9.%XR.P.q.C.F.7.6.I.7.q.Z ^ ^ / $.1.6.Z y 0 9.e.` =X XW._ _ 1.%X=XW.T.W.P.q.P.P.T.e.U.W.C.P.w._.C.OXS.U Q ..>XV.V.V.Z.Z.b.jXZ.eX^.0XVX`.AX8X8XVXrXCX ..._.U.U T.U P X.G.S.J.0.A.iXQ _ _.C.T.>XU.) T.U.` e.S E 6.X.) s.r.t.a.a.a.Y.7.9.[.2.Y.$.I.Y.q X.vXVX1X=XC.R...=XP W.P.6.w 0 0 b b X o . z ^ M 9 B ^ 6.T.` q.$.^ 6.^ b $.9.q.I.a.e.,Xq.1X%XU.a.-X%X6XW w.P.W.1X,X1X,X=X1XY.{.6.W.XX8.q.8.6.~ I.[.{.r.[.zX).J.%X4X%X",
"iX:.U.y V / b V S 1.3.7.2.^ $.s.4.t.9.` 1XE.;X%X%X;XW.XXR.:X.XW.G.E.Q ..Y 9.j -.1XP.&XY.&X~ r.s.[.9.#.,X7.R.P.e.=X}.7.a.` B _.9.^ S ^ ^ $.1.6.Z ` s 1X9.X.S.W.W.C.1X X=X%X=XU.W.P.q.T.q.<Xq.1XG.o.S.Q 0.(  .B.:.OXG.Q.Z.c.~.V.oXH.oXx.Q.oXeX/.~.M.8XjXk.AXu r >.o.o.L.G.T.0.O.( C.w.G...0. .O.S.uX>XP.C.P._.T.0.` ) $.6.6.9.t.1.9.9.r.I.I.7.&Xa.F a.3.3.9.~ ` <XiX1XC.=X1X<X<X=Xw.q.8.* 7 b z z = 7 m v v v q B ` W.q.}.E.B E $.) A #.7.$.t.9.t.,XY.U.W.%X-XP.U 0.X...w.S.R._ ,Xe.-X{.s.{.Y.,X Xe.q._ _ U ) ) Y.6.U.T.(.J =X%XR.",
"8.b b p.f.i.3.S V S / 9.1.1./ a.i.w 6.;X;X=X%X9.U.=._.1X;X;X;X%Xw.Q J.W >X_.C.3 J U t.s.:X$XR.7.d.s.3.W.F W.=XI.6.}.I.t.e.I.W.$.S / 1.$.1.7.$.B / ( s.S W V.1X;X%X;XU.W. XW.-.W.G.q.C.U.jX<Xc.a 0XZ.!.).i V.J.| :.{ yXrX;.~.Z.:.c.wXOX~.9Xk.wXhXv.pXM.hX{ j o.K.K.>.Y Y +._.E.B.>XT.w.V.R.).( v >XW.T.8.W.uXOXP.t.$.r.q.&.` 7.) #.y.7.#.7./ 9.y.#.p.s.a.~ P.xXX.W.W.1XW.6.X.) 1X=X1Xy S b c e 7 = X e - X = v 9.6.B ` Z I.9.W.Z 6.D.7.P.t.1.7.a.a.iX6.P.-XT.m 6XX.V.X.bX;Xq.6XdX_.:X,XiX{.I.W.P.e.R.6.7.9.I.M S ' B W.W.) w.U.vX",
"9.B f.d.3.i.9.d.d.$X^ S / 2.2.6.e.a.a.e.s.9.2.2.i.P.;XU.;X,X_.%XU.C.E.W.C.1Xw._.&X8.X.7.Z $Xs.s.$.t.s.r.t.2.I.:X}.I.{.9.9.I.9.q./ / 1.6.9./ M ~ ~ X.[.O X.XXG.W.U.C.1X1X:XXX+XU.X.E.XX).Z.o.;.c.n.0XpX).{ >.H.`.o.>.o.{ OX~.H.OX).).OXyXuXQ.~.8X0XMXoXjXj MX8XnXjXuXH.{ ..V.OXT.C.).w.T.K.sX2X( E.XX>XT.=XX.E.C.t.a.9.a.9.&.9.t.7.t.r.7.7.r.B s.[.[.9.9.U.XXW.W.=XP.gX8.q._.1.M ` e.` e.n s v * : e s e * . 4 ~ 7./ ` / _ &.q.t.t.9.^ / t.7.a.{.X.Y.e.a.8.B.( P  .( >X+. ._ T.W.;X=X,Xa.{.$XE -X=X=XC.6.B 6.a.7.6.` ' P.P.E.V 7 ",
"7 I.M y.[.d.2.r.Z r.Y.' ~ 1.` V 9.` B ^ 0 ) 9.D r.r.%XT.=X1X1X>X=X6.e.(._.6X6XvX%XY.W.( %X$X$X[.q.~ d.1.9.W.=X9.W.I.{.$./ I.e.9.e.$.1.1.v M $.6.F.C.i.P.W  XG.G.L.OXQ V.XXXXE.-.G.gX<Xo.H.jXG.0.K.K wXH.H.Z.yXqX:.| Q.n.'.c.Z.`.v.{ jX^.).+XfXBXVX/.kXjXeXY Y o.J ! :.:.V.:.G.0._.J.{ O.I '.C.w.E.T.'.<XXXE.U.G.q.t.7.I.6.6.e.) 7.^ t.r.t.r.B r.r.[.7.q._.e.%Xe.7.` >Xq.=XW.e.a.7.1.B C b s s e = * b z 4 1 7 ~ t.$.~ $.U 6.Z / t.7.^ #.) $.9.0.6.B h 8.q._ B T _._.G.,X<XT.V._.iXV.-XI.Y.[.v -X_.=X}.' ' ` I.a.8.m U 8._.6.q V ",
"d.-X~ 9.d.d.f.g.2.V w V M M ` V v 7.1.9./ %XV r.s.9.S W.iXP.P.=XdXT.aX-.T.zX1X:X7.t.6.%X:Xa.p.1X7X=.d.I.2.y.W.=Xe.e.t.W.7.t.D.7.R.$.9.1.~ E e.` ~ e.w 8.U iX<XW.G.e.6.P.( X._ E.J.>.OXc.pXaXsXT._.V.OXA.{ _.8.>X' m Q V.J.`.b.Z.`.l.V.A. .{ :._.:.V.{ AXM.kX:.a ..C.V.G.+.:.(.S.C._._.1X0.G.W.T.E.E.yXW._.T.P.P.P.&.9.e.` 6.$.6.6.$.t.$.$.$.~ ~ f &.t.=Xa.6.a.W.a.` e.g e.1.7 V b 1.` n 8 z s s b z e e 8 = ` ^ U v ) q.X.6.^ / e.#.#.#./ ` O.E.gX>XJ T _ :.w._.>XU.<X( <XxXC._.T.O.%X%XY.$Xy XX=X%X%X) ~ $.I.9.` m M ` ) &.C.M ",
"s.{.d.{.r.d.d.[./ S _ e v V a./ S B 9.r.1.1.b 4.2.~ B b _.6.zXP.1X).+.-.XXT.E.P.a.^ B / P.7X1.$X[.t.9.r.7.a.,X1.W.,X1.t.7.9.r.I.}.P.e.q.E q.) D.{.R.h m %X6.X.~ ~ 6.` O I e.8._ e.e.W.<XOXOXXXsXXXsXaX:.zXzX=X_.6.R.C. .V.J.A.oXZ.v.O.G.L.O.X.Q Q =XT C.o.VXNXhXv.w.....J.O.S._.T._.T.).XX<XXXG.0.=X'.-X_.P.8.q.q.~ ^ $.^ ^ 1.#.I.t.t.7.2.A &.a.Y.9.t.,Xe.a.a.7.9.=XP.6.P.7.6.n x S ^ v A z b n ~ B v 7 U U 2 P U X.q ^ ~ 6.S ~ C $.#.$.1.r.Y.e.P.e.:.E.V.uX)._.U X.N Q E.6.X.vXW.O._.W.{.%Xe.=X_.W.6.~ E ~ U ) E a.%X8.X.6.Z 9.",
"s.W.9.P.R.9.D T.s * y w U ` -Xr.S 8.6.y.1.S 2.r.9.2.U./ iXT.e.iX_.c._.1XC.C.P.0.m {.1.U.P.B d.a.$Xs.a.s.I.b -XW.2.}.t.t.q.7.&.{.I.t.9.D.t.t._.{.D.9.U.<Xe.$.#.7.6.$.` a.m 1.M & % 6.~ / 1X-X<X=X<X-XxX;X<XP.W.=XP.6.U.U S.T.(.qXqX:. .I J o.C.iX%X%X1X:.J.o.wXoXVX'.c. .>.e.G.C._.G.E.).E.V.E.).)._._.W.XXP.&.e.P.$.9.$.9.a.7.a.r.$.t.$.$.e.t.Y./ a.6.9.U.9.Y.U.P.gXP.P.6.2.P.#.x b ^ / / b / A v v E 2 E V v m m ( X.m b B 6.9.^ D / D $.e.Y.W.=XC.C.L.:.0.e._ ( t ( W.P._ 6.P.<XiXC.,XP.e.P.=X=X6.P._ ` ` ` Y.t.{.9.9.t.w e.M ",
"T.$./ T.T.E ~ E.U = ` C.1.$XW.$XB S ' 2.W.9.$.t./ $./ 7.dXG.;X,XbX!.| (.).1X-X1.t.e.9.a.a.d.i./ P.a.s.s.s.^ y.,X=X#.I.r.y.I.6.t.t.T.P.P.t.^ =XP./ ( iXiX&.^ e.1.` M f 1 v ~ + y & U U 9 %X0.B.1 U X.=Xe.e.}.=X6.R.R.P.>X6.h I v.oXS.G.C.( _.e.%XW.R.iXw.X.E.Y BXH fX! L.:.G.G.=X=XQ ~.1XR.w.XXiXOXXXA.>XW.W.9.9.e.e.9.8.e.9.r.$.r.1.7.$./ 9.7.s.1.e.=Xb 9.a._ 2XW.I.#.7.6.e._.,.C S #.e.b S $.~ Z / ~ B m B ~ y 9 v 2 e.~ ` q.6.C C Z / 7.7.a.<XT V.j j ' 8.$.%XC.( 6.C._.,XP.C.'.W...<X8.` %X%XR.P.W.e.~ U.P.a.W.9.P.9.t.6.X.T.",
"m ~ m h j * y X./ $.P.9.:X=XP.-X/ S M ~ 7 b I.1./ P.2.{.:.J.zXcX(.o.o.>XzXxX-XP.U.s.e./ I.d.$X&X;Xt.9.s.2./ 2.i.I.}.I.I.7.$.Y.&.t.W.Y.W.D.I./ 8.8.>XC.W.t.9.7./ B w.2.a.r.I.O 1.a.9.` / X.( P.E.C._.( W.P.R.t.` |.0 a.6.a.Y.U.8.H.0.G.X.e.1X_ ).e.m :X,XP.( I c.AXtX@XH.O.V.uXV.O.V.K.T.E.C.W.W.E.>XOX>XXXI.P.e.P.Z ~ t.a.r.a.7.7.9.7.#.P.#.9.7.a.R.I.~ P.-X9.` jX9.P.$.7.9.( C z 7.$./ S 9.^ 6.$.) ^ Z M U M ( _ ' X.~ }.) B S Z D Z b 9.r.I.%XW.J.X._ 8.P.P.6.C._ _ C.9.;Xr.U.>XR.P.` zX=XG.s.W.W.R.P.e.I.W.U.6.e.6.` ` ..w.9 ",
"-.dX;X-X1XW.6XcX%Xa.R.P.W.%XP.W.' ` S ` %X%X[.&X$X$X%XP.G.G.w.cXR.:.;XzXW.W.9.q.9.Y.` R.3XV $X&XY.d.&XY.r.r.%.2.,.{.t.7.$.W.{.}.}.I.P.9.t.t.e.9.' <X .}.I.Z A 6.^ C ~ 2.4.r.6.^ 9.` / U ` e.~ 9.8.R.t.U.P.D.q.) ~ S W.1.w M v ' R.( W r.$.` W._.G.:. .zX( t.E.T.J uXfX} Z.w.).O.:.!.;XT.8.=X=XuXXX).>X,X<XW.P.P.$.q.t.B {.Y.a.9.7.6.7.#.1.D t.{.a.W.a.1.N e.a.P.;XP.U.t.e.7.z D 9.7.1.6.$.$.7.^ ^ #.) $.U 6.X.w.8.X.2 O g {.^ A S Z Z Z 1.a.%X=XQ G.u.7.a.Y.a.P.C._ u.e.Y.%X6.,.P.R.q.6.U.=XE.W.W.R.R.W.Y.R.=XI.W.W.9.I.P.P.` ` ",
",XzX;XbX6XW.R.,X=X;XW.:XP.%Xe.a.%XP.-X,X_ 8.zXbX=X>X<XU.G.>X(.>., O.,XzX,X1.e.` I.Y.a.e.2 p.2.Y.d.a.[.$Xr.2.7.r./ Y.}.I.}.I.Y.a.=X}.-XY.q.D. .,X(.R.iXW.` $.n #.#.B / 2.2.r.a.y 9.Y.S Y.3.e.6.1.e.C.e.8.e.` ) 8.$./ R.9 6 9 b   7 W.%X<Xt.6.a.,X_.W.T.G.Y.X.X.XX_.Z.8Xc.!.:.J.w.>._.C.8.E.C.P.P.T.<X<X_.,XR.W.P.t.e.P.` E B t.t.9.t.t.P.7.1.$.e.U.=Xs.R.R.s.e.=XW.1XY.7.r.$.2.9.7.a.^ 9.7./ q.~ 6.&./ 9.$.&.q.R.X.X.' X.w e.W.S / $.#.S 9.%Xq.0.-.e.I.U._.%X{.Y.w.P.W.t.Y.e.a.}.a.%XW.W.=X>.V.=Xw.G.w.U.T.XXW.P.R.T.P.e.iX%XW.:X",
"T.:.w.XXXX>XE.G.G.C.C.E.P.P.:X;X%X_ X.8.Q vX1XC.1X;XxX! V.J K { CXT.1X1XiXP.t.I.I.9.i.[.#./ r.3.i.*X9.Y.s.r.1.9.$.2XdX[.I.I.-X=XI.-X2XI.,XR.{.>XT.XX<X1XE E.) }.^ b s $.2.Z 9.e.S i.7 r.1.$.9.6.t.9.7.e.6.&.6.^ $.B / 7 B ^ V Z b 6.6.W._ W.Z a.e.X.C.W.=X=XU.V.:.J.OXhXV.0.E.K.S.1XC.W.;XP.T.W.C.G.'.W.R.R.W.P.I.9.q.P.t.9.e.t.9.t.9.t.9.$.7.$.XX1.W.W. XY.1XuX&X{.s.^ 6.#.e.7.1.7.` a.1.1.I.$.$.#.t.$.9.6.6.&.&.M C.&.Z f Y.2.1.#.D $.I.` U.:._ 8.%XU.Y.U.Y.P.U.s.{.Y.t.9.I.,XP._.W.P.XXOXL.=X8.0.6.w.U.U.G.%XP.e.U.R.U.Y.-XbX",
"L.J XXaX<XvX4XgXE.C.w.-.=XvX0.P.1Xw.zXbXbXzXzX6X%XW.S.Y Q Q.V.aXT.( =X,X,XW.w.=XY.$X[.Y.e.Y.C ,.r.a.2.s.Y.y.1.7.I.%X%X:X{.{.&.I.e.-X6XY.%XX.=X=X{.U.iXiX) 6.q.W.9.#.Z B 1.7.%.r.~ a.` %.n B 9.y m P.9.1.9.E $./ e.~ b S * b e.9.1.2 I R.8.8./ ~ t.` G.%XW.{.P.=XT.+.O.`.>.X.G.J.w.T.q.U P.U.P.<X>XuXW.W.P.e.9.t.t.P.P.P.e.t.t.e.t.t.P.P.P.^ ) t.W.t.W.W.W.4X<X X6.P.%Xt.I.W.^ / ` 9.a.Y.U.t.t.t.D.$./ / e.E Z ` =X=XI.P.^ n $.t.r.$.7.a.W.y G.Z.P.e.%Xa.=Xa.a.a.{.T.%X;Xt.I.-XR.U.{.R.e.1X:.XXw.w.6.0.0.-.w.W.U.P.9.W.T.M e.X.G.",
"< x.v.-.! H +XgXCXvXvXvXbXbXzXbXvXzXL.uXE.1XgX1X=XU.X.Q :.Y >X_.U ,X:.P :.O.=XY.Y.Y.p.$X[.^ 1.1.p.a.9.[.p.2.I.2.r.{.I.T.:X%XdXW.T.;X1XzX1XG.iX%X%X,X<XW.T.,XI.e.}.D %.t.&.t.9.7.Z 7.t.B / B 1.$.f ` <X$.P.9.1./ $.1.6.q f ^ z ^ D v (.^ t.8.v &.v q.6.{.U.W.W.W._.T.o.).T.S.J.C.T.R.C.e.6.U.C.sXT.iX=XW.e.e.a.P.t.a.P.a.I.a.t.a.a.9.P.P.P.9.' ;XP. XW.U.<XgX0X%XP.{.%Xe.D 1.#.r.^ 1.a.Y.7.e.9.9.e.$.9.1./ s q.P.6.I.W.=X^ e.a.t.9.7.9.W.I j G.:.U.q.%X1X%XY.Y.Y.%Xe.%XW.P.a.;X9.=XW.P.P.,X<Xw.U.w.0.C.-.:.( P.w._ _ 6.~ ~ U Z.K ",
"| !.J._.H.o.uXfXZ.>XuXiX4XgX<XW.6XgXE.).V.:.gXgX;XW.T.U ).A.W.OX..w.:.Q  .<X&X:Xe.[.Y.p.$X3.9.9.a.p.[.d.d.9.7.2.s.a.dX-X{.W.:XC.P.-X-XdXa._.w.` t 1X<XT.=X{.I.=X}.I.$.7.6.1.B $.a.Z 1.1.n w f 9.9.` 1.B ` a.2.9./ 0 / 9.8.B 2 8 ^ M 6.9 q.e.v B 9.q.' W.W.C.R.E.0.G.V.iXOXS.G.G.C.U.W.R.e.q.=XC.sX<X,Xe.P.t.T.P.e.t.P.e.P.P.t.I.a.t.8.6.e.a.a.<XW.P.=XR.1XxXAXP.a.a.e.$.^ #.^ 2.a./ 9.U.s.t.P.,X;X{.9./ $.9.9.9.-X%XI.Y.t.=X) 6.` ' 6.( T.+XK.w.G.G.U._ 2X%X%XY.=X1X_.=X=XP.{.W.1XP.U.W.,XV.G.E.T.E.T.0.w. ...w.W U _ C.X.I A.> ",
"XXC.:.J.:.L._.S.).K.} OXU. X=X1X;XOXXXw.(.).K.1X<X0.J.T.sXXXW.C.-.S.).1X,X8.U W :X%Xs.r.2.,.$.d.r.d.W.a.{.[.W.9.Y.1X-Xr.:X=Xt.}.-X%X:X=X_.<XP.,X=XT.P.I.:X{.s.3.r.Y.2.y.%.t.a.s 9.b #.Z e.~ z V B e.#.7.~ W.B B z 7.e.^ ^ ( E f / / X.s q.6.6.v 1.}.e.P.I.R.R.T.C.V.E.).`.G.G.T.P.P.T.W.W.R._.J.iXiX_.G.P.a.P.e.P.e.q.9.W.9.P.) ` 9.e.a.` e.<XiXa.e.W.( xXVXuXR.7.9.U.9.~ 7.t./ B r.1.P.$.W a.7 s.=XR.9.t.P.P.{.=XP.I.P.I.P.e.t.P.I.8.-.E.:.W.%X-X;X1X:X&X=XY.-X%X=X_.%X=X=XR.{.=X=Xa.W.;XG.%XJ.iXR.P.X.P.e.U.W.-.I Q ). . .3 _.",
"w.e.G.P.T.1XvX| ,XC.Z.G.OX=XG.OXJ.>X)._.V.:.).).1X).).>XXXaXXXX.0.0.R.iXF.;X;X_  .&X%X9.r.2.[.s.p.Y.I.9.a.s.I.I.%X1X[.:XiX1XI.2X,Xq.R.=XR.R.=X=X$X1X&X9.%X:XI.i.s.s.$.$.7.y.$.~ 9.~ M Z ~ {.e s v A e.6.U.e.9.S ( B v 7.Z B s f ^ 0 6.~ e.e.1.1.W._.a.W.D.q.T.W.C.T.C.G.)._.G.E.T.T.XXe.G.P.G.8.<XXX(.<XsXR.P.P.a.P.P.e.t.e.e.9.R.8.6.X.R.T.jXW.xX%XiX%X1XjX X:X%XU.%X%Xt.I.$.9.Y.[.Y.s.s.Y.9.a.^ ^ 7.I.e.t.I.P.t.a.I.U.W.a.9.9.t.a.w.P.).G.%X1X7X6X%X%XW.%X:X7X=XW.;X}.=X-X,X;XdXe.bX,X-XXX=XP.-XW.W.U.e.W.U.8.` -X8. .o._ C.e.",
"C.q.8.e._.w.zXvXG.{ cXE.E.L.yXOX(.T.).OXC.T.OXC.'.).yXiXuXfXXXw.). .iX=XU.G.W.zX%X-XV [.y.1.2.Y.r.t.-X$X&X[.[.s.I.=X;X1X,XbX:X,X_.{.}.t.W.}.:X1Xs.:X$X&X[.W.{.[.[.a.s.$.D #.<.#./ t.w z 8 9.B 9.6.~ Z 1.$.6.6.e.1 F 9 B ' $ 0 ' / &.e.1.1.6.M B e.W.q.t.P.P.q.R.C.W.C.G.A.OX)._._._.;X<XC.w.G.e.K.w._._.W.e.R.T.W.P.W.W.8.6.e.6.;XX.,X=X,X1XiX1.=XW.gXzX1XcXU.%XY.s.W.I.R.1.S t.e.V 7 $.9.e.9.Y.0 M t.7.9.a.t.t.t.t.a.I.Y.I.a.a.r.W.R.U.w.P.R.1X-X-X-X.X$XI.Y.a.{.-X;X=X:XiX-X=XY.:.G.,XzX=X-X{.T.=XW.e.e.8._ ~ 8.~ ` 6.e.q.<X8.",
"' 6.=X X,XC.X.=XzX<X~.>.zX!.VXBX^.H.K.aXJ.S.V.J.Q J.G.jXBX+XaXuXX.e.=XxX=X;XgXW.1X-XI.a.9.{.9.s.1.Y.%X-X[.[.t.t.Y.A.=X1X;X,XzXsX;X,X:XP.{.-X,XY.&X&X1X[.$XY.[.s.[.[.i.s.$.n 2.4.2.2.b r.t.=XB $.F.^ 2 1.& v a.W.& 9.~ S n S B / 9.6.B ' ' ^ Z 6.W.8.8.t.P.D.8.0.C.C.G.:.G.yX_.G.G.E.G.C.G.G.C.G.<X,XU.sX>X<XR.W.<XiX_.R.I.U -.=X;XgX1X1X<XVXxX;X-X1XiXiXgX_.;X%X%XW.' / 1.7.a.$.d.w ' 2 1.9.$X$.w Z 9.a.{.r.t.9.t.t.a.r.a.a.a.I.I.W.Y.w.a.W.U.:X%XY.s.a.-X{.s.&X%X%X-X:X1X-X{ =X:.XX=X;XiXgX>XP.P.P.P.P.q.6.e._ ~ E / 6.t.$.6.e.",
"6.9.W.P.zX( P. .<X6..XzX<XmXgXT.V.yXpX).G.T.w.G.Q C.L.E.aXE.aXG.T._.E.:.>.! Y 1X8.q.zXzX9.Y.Y.9.Y.6.:X9.[.9.-Xe.=X=XiXW.=X=XgX=XW.}.P.{.-X-X=XY.&X&X:X-X:X&X9.r.S [.[.s./ C 8 2.$.7.s./ $.s.C.U v ^ v s P.M X D.7 t.v Z C / $.E 9.C.8.6.9.^ $.q.q.8.` 6.e.P.e.C.P.S.C.S.E.'.OXpXOXP.C.0.( .._.<XgXW.>XaXuX=XW.G.G.iX=X_.=X=XW.uX<X<X<XCX<XVXxX1XP.P.,XcX>XgX<XW.W.=X;XP.w.1.1.,.S ~ V t.e.a.6.Y.e Y.9./ 7.6.t.r.t.9.2.7.a.a.s.Y.{.Y.Y.9.s.s.9.s.Y.:X;X%X:X2XY.[.&X%XU.W.,X1XzX;XT.1XR.zXH.cXW._.R.q.q.D.T.q.D.t.7.1.e.` 1.8.1.e.",
"6.P.Y.P.=XXX:.-.I 1X,XzX;X6X1XA.hXG.J.).).J.V. .OXK.V.aXaX+XuX_. .T.C._.V.T.T.C.1X,XP._.e.U.` _.W.` s.&XR.=XW.W.;X,X<XiXzXuX=X,X=X_.R.{.{.1Xs.s.1X%X2X{.$XY.s.^ #.$.&XZ Z ^ $.2.d.y.{.i.<.7./ v 6.p.1.P.6.E 8.e y ~ v t.$.Z $.Z a.9.9.9.6.6.9.=X7 ` U P.a.e.C.q.C.W.T.S.C.OXZXqX_.w.0.X.0.j >XiX).<X,XiXaXE.<X>XE.jXW._.;X<XAXuXjX>X>XfXjXxXxXbXG.1XxXCXbXW.bXY._ %X;X1X%X-.t.a.6.e.6.Y.m ` 7X` s.6.R.[.e.t.r.7.$.1.7.t.[.9.s.Y.Y.I.I.e.t.s.Y.I.%X=XW.%XY.{.=X:Xs.%XzX%X%X;X=XiXG.P.X.+XAXZ.E._.,XW.I.I.T.I.P.e.7.9.t.6.9.~ ` 6.",
"R..._ w.q.<X .E...-.G.vXU.1X1XbX1XV.@X).V.:.V.L.aXV.K.<XuXjX>X).A.E.E._._.).OXE.XXXX=XxXX.Y.,XY.[.%X1XW.1X;XW.W.P._.C.iX_._._.1X,X=X=XdX,X:X&X{.;XY.W.2X:X-Xs.^ #.Z 1.Z b ^ ^ 6.a.W.2./ S 1.` z 9.p.9.%XP.~ A O y v f e.$.~ $.t.I.e.I.e.9.9./ Z P.` ` v e.T.8.P.I.P.C.W.XXc.hXqXT.0.w.:.Q 1 +XjXE.Z.<XaXaX).iXOX_.=X>XaX).hXjXcXCX<XCXpX<XxXzXiXVX_.xXxXCX5X6.U I zX_ % bXG.h 1.B M Y.6.( y q.P.8.1XR.a.I.s.t.r.a.9.r.t.a.$Xs.Y.Y.Y.a.P.s.Y.a.s.a.{.a.[.I.Y.a.d.{.W.Y.[.-XU.;XbXT.W.XXvXOX_._._.,XW.{.D.I.P.t.t.t.1.9.6./ ` &./ ",
"6.P.q.X.( 0.Q :.;X:Xq.( zXU 1X=X;X1XV.J.ZXV.A.K.).>.).+XOXxXjXOXA.OX>X(.`.xXjXuXiXXX).8. .W.W.P.w.XXV.kXOX).W.C.e.1X,XA.1XsXC.S.1X1XdXcX1X,X1XzXt.=XP.1X2X:Xt.^ s $X1./ ^ s e b 2.#.4.d.2.;Xt.* {.C e ( 7./ z y ~ ` n t.9./ &.P.P.C.7.e.e.=X_.e.6.` q.' M C.P.P.U.R.w.w.Y c.lXJ.w.X.XXJ.V.U W.XXOXV.jXOXwX).OXOX'.>XBXuXuXfXCXVXjXAXjXBXiXgX<XcXbXxXVXxXxX5 <XXX).W.=X<XW.;X` 9.) 1.` ~ 8.,XW.W.E.;X=XT.9.t.2.a.a.a.Y.I.a.P.P.Y.Y.Y.a.r.9.Y.9.s.1.I.Y.{.s.I.W.I.{.Y.a.W.%XY.=XzXP.'.P cX(.T.>X,XdX=XI.P.W.P.t.t.I.a.P.~ 1.q.P.P.",
"T.X.t.P.` W.P Q X._ R.P.%X-.J. XT.zXiXJ.o.).cX>XV.pX).BX+XuXjX_.uX_.'.'.| ).H.Z.).<XT.,X1Xy q.=XV.L.0.J.{ G.P.P.I.iXsX1X,X1XzX:.iXdX,X1X1X1XW.I. X1XW.;X:X:Xg.&X&X:Xe.q.^ 8 1.w 5.D -X1.}.P.n e.P.1X9.[.n n 6.V =X$XZ t.7.7.t.P.9.>X6.6.e.~ }.6.$.e.D.$.8.e.R.P.R.;XQ :.G.| qXT.:.C.V.S.C._ w.E.OXjXOXuXZXBXaXjXjXyXjXjXjXjXjXjX`.fXBXCXXXjXVXCXgXxXgXO.XX6XB _ q.q.U.I.t.R.P.6.$.) 6.W.J.{ c.v.>.w.;X%XC #./ 1.r.a.a.Y.Y.Y.I.t.P.P.a.P.I.9.t.I.a.a.I.Y.a.y.a.t.s.s.I.r.a.%X1X,X>XP.iXCXw.<X_._.;X2X=XW.t.P.I.9.a.W.P.9.6.9.8.6.",
"D.q.P.C.C.E._.G.XX~ ` W.P.W.1X_ m 1X1XW.E.o.).oXOXV.V.<XjXuXuXuXV.J.0.A.).Z.`.{ ).1XZ.u A.xXOXvXOXW.XXY >.1XU W.a.iXsX<XU.<XzXgX0.zXzXzXiX=Xw.T. XU >XxX2X$X$X$XY.:X-X2./ X.2X9.%Xo r.r.1.P.W.e.P.1Xw.1XV B ` 2 {.:Xb 9.S Y.{.C.8.=Xa.C.~ ~ M t.e.q.6.6.e.P.P.C.P.P.t  .OX!.uX+XJ.T.O.:.W.U.G.1X<XaXfX>XpXmXaXZ.ZXZ.BXeXjXjXAXVXfXfXpXvXE.VXjX<XcX,X>X_.w.6.e.a.e.B 6.q.1.6.8.` ~ ~ e.=XoXjX!.R.%XW.e.` S $.#.1.2.t.7.$.9.a.a.9.t.t.r.r.t.t.r.a.a.a.I.I.s.r.t.a.I.I.[.=X{.%X=X=X_.T.bXvX>X=X=X1X:X:X{.=Xa.=XI.t.t.P.e.t.W.9.C.e.",
"C.X.6.T.,XzXI I :.W.;XB U.Q I G.G.A. XXX:.o.K.K.ZXnXBXCXOXaXOXfXV.OX_.! >.K.pXjXOXv.+XK.<X).T u zXcX=X1X;X%X8.W.R.{.sX=X,X>XxXcXvXE.zXuXxXyXiXU ,XXX_.=Xi.A.W.$Xp.&X$Xd.:X:X:X-X&XI.R.` I.I.W.a.1.1XzX-X$X^ ` e.9.:Xn ' q.%X;X-Xw.%XW.X.` y 9.Y.a.1.7.7.O.w.e.w.P.U.5 G.jXuX0Xx.J.-.>.C.+XL.>.CXaXaX1XOXjXmXoXfXjXjXZXnXqXuXZXfXeXhXuXuXgXBX<XvXXXw.C.6.G.X.8.U 6.e.q.t.t.t.9.&.6.P.%XW.=XU.E.=X=X~ 7.1.$.7.1.$.$.^ 2.7.1.6.9.9.1.t.a.I.I.I.a.r.a.s.Y.a.i.r.9.I.%X[.Y.Y.=X{.-X;XC.E.XX_.T.iXgX=X=X2X{.W.{.W.P.a.y.=Xa.a.=Xe.W.P.",
"T.8.T.C.=XX.G.C.T.1XvX4X0.6XU.-.cXcXX.T.E._.(.`.jXpXBXjXpXpXjXjXjXV.).C.).o.uXuX@X@XV.>XV.V.Q E.1XW.W.%X%X{.=XW.t.T._.W.W.<XXXaXiX..1XVX<X<XV.Y.,X=X_.r.%X0.,X3.zX1X&XdX&X2X;X:XY.I.S 0.-XY.{.9.U.=XW.1.U 1.6.M X.:X^ ` y 1X-.U 1XR.W.q.y a.6.r.Y.2.#.U ` ( ( 8.e.e.r XXx.uXeXoX{  .E._.OX).1XBXjXaXaX).qXNXeXjXCXfXVXBXuXnX@XxXgXCXZXAXxXCXCXxXgXiXiXT.W.W.q.C.B s B $.9.9.n 9.$.6.8.e.eX<XC.I.7.a.r.a.2.%.3.y.2.2.9.9.9.7.7.t.t.t.9.P.I.t.a.t.s.r.a.t.r.r.s.s.p.Y.t.r.=XW.W.W.=XP.gXxXT.xXgXP.{.{.=XW.Y.{.{.W.a.W.I.t.9.W.E.W.",
"R.P.T._.=XT T.<XQ bXvXxXOXvXzXvX;X;X1XXXzXE.j > Z.BXqXVXjXeXqXVXmXnXaX0.:.>X).lXE.} kXOXxX+.;XW._.%X-X&X%X{.[.W.=Xq.<X_.U.O.).>XiX1X,XiXaXxX>XxX<X1XR.W.e.-XzX,XI.%X:XdX1X:X-X2XP.X.X =X,X-XY.2.R.,X,X6.X.9.t.` ` -Xe.E 1X{ 5 8.U _.P.P.Y.S 8.v #.9.t.{ 6.T.6.( -.6.T <XJ.uX@X`.wXJ._.>.uXVXjXcXaX<X>XXXwXuXpXAXpXjX^.0XZXhXjXgXbXCXAXlXZX;XzXgXzXW.W X...q.8.6.` 6.7 6.t.$./ #.6.e.P.e.6.8.P.6.7.t.9.I.9.r.9.r.7.$.r.7.t.a.r.t.t.$.7.t.a.P.t.Y.a.[.I.I.r.i.a.s.t.a.Y.4.Y.{.%XW.W.W.iXiXgX_.V.E.W.=X-X{.{.{.{.Y.Y.{.7.2.=XR._.R.",
"P.P._.}.T.<XjXzXjXgXOXZ.b.H.XXuXXX=XXX;.=XXX| wXZXnXVXVXmXZXlXBXoXjXjX+XjXZ.).A.mXfXfXG.;X4XW.;XU.%X%X%X&X-X,XP.W.W.=X,XC.A.XX<XW.,X=XsXxX;X1XxX,XiX>XaXxXiX=X,X;X-X1X{.{.&X&X8.p.U.W.( i.[.a.7.1XR.%XC.D.a.s.9.1.-XI.6.;XP A.P >XG.W.%X2.q.P 9./ ` =X6.( :.Q m 6.8.Q +XV.OXOX~.BX).OX).CXjXkXxXXXE.<XXXgX{ OXkX0XpXnXuXAXwXxXiXfXgXeXiX<XvXgX1XQ T.w.U X.` 0 9 B z E M 1.7.) ) 7.e.6.~ e.P.C.P.t.9.2.7.r.y.9.1.1.9.7.7.7.9.r.7.7.2.1.7.7.t.I.{.a.a.t.p.s.t.t.I.Y.Y.p.r.Y.[.{.{.P.P.J.XXC.w.=X=XW.{.-X-X{.{.&X$.I.Y.W.y.a.a._.P.",
"R.W.T.W._.<XgX>X=XuXOXH.@XeXnX^.K.J.:.E.uX< r VXjXCXZXVX`.uXwX@X+XCXjXpXjXjXVXoXyX!.V.E.<X-.%X=X%X;X-X%X&X%X{.Y.=X,X,XdX>X>XaXiXiX=XuXsXW.U.>XiX_.iX_.C.G.gXxXiXXXgXXXP.-XP.%XW.{.. %XP.&XY.I.%X,X,XU.B D a.Y.7.t.-Xa.t.W._.OX=XK.%X{.Y.9.=X1.Y.7.` q.6 Y.9.a.1 X.E U G.:.X.I <X!.n.>XjXfXAXBX XXX<X1XXX<XuXZ.+XeXfXjX!.@X@XvXfXjXVXZXlX<XfXiX-.e.6.T _ B U t.P.` ^ t.~ 9.S Z b 1.e.q.U T.` e.$.' $.^ / 1.9.9.$.$.1.7.#.9.7.a.y.r.9.1.t.9.7.9.-X%X%Xt.{.Y.Y.$XY.r.r.s.Y.{.a.=XW.W.C.iXP.=X=XW.W.W.}.W.{.{.=X:X7.W.1X-Xi.I.{.W.R.",
"_.-X) <X1X,XU.G._ 1X1XW.!.).!.V.^.~.@XW.o.K AXuXVXwXAXqXpXZ.(.o.).yXAXBXpXmXpXjXuX;.:.;X( %XY..XY.Y.%X%X1X1X[.iX%X=XW.sXsXiXiXiXsXU.<X;X1XOXiX=XiXxXT gXiXG.<X_.zXOX1XW._ P.I.O q.N P.W.9.U.P.E iXa.,X_.e.r.Y.I.7.6.B ;XW.G.A.<X0.Y.6X9.p.Y.;XT.1.R.R.Y.a.D.:X5 7 t :.J.C.XXO.fX`.AXqX`.AXCX<X1XXX:.Q :.aX+Xo.<X<X<XqXaXuXZ.fXjXBXVXCXcXgX1XT w.X.X._ ) -.,.$.` e.e.w P.9.B 9.~ ~ 9.8.8.~ X.U.' Z S ~ / 1.$.#.$.2.2.9.7.$.y.2.r.7.r.1.1.9.$.#.9.Y.d.t.r.Y.[.Y.[.[.=XY.s.W.I.Y.{.P.W.P.W.E.;X{.{.-X{.Y.-X:X-X{.Y.e.{.:X{.a.{.P.}.",
"X.t.R.P.1XP._.zX0.bX4X-XiX'.L.G. .).V.J.!.`.).:.Z.!.;.x.| uX^.H.qX).uXAXnXZXuX@XpXOXgXe.:XY.P.=X%X-X1X2X:X$XzX%X{.iXR.1X<XsXxX>XjXxXaXaXyX;XaXuXaXXX;XE.<X_.=X>X<XgXVX>X;X-XP.1X%XiX-X;X9.:X8.e.s.W.C.-XS t.[.P.6.q.~ ,XP.).yX..%X%XI % a.,Xp.-Xa.-XA $Xu  .W.# . m G.C.E.0.{ yXfXqXlXMXqXjX<X<X4XJ.<X<XzXj T.<XuXbX<XuXfXK.gXgXvXgXvXcXOX1X=XC.j W q.e._ M 8.` $.1.r.7.X.^ Y.B ~ ~ q.$.( q.$.s 7.~ $.6.7.6.#.#.$.$./ 7.$.$.1.9.7.1./ $.9.e a.P.P.s.%Xa.Y.%XY.[.Y.[.s.Y.s.9.I.%XP.iXq.W.E.W.=X=X=XI.P.=XI.{.W.%XY.9.&X&X{.&XW.W.",
"t.a.9.G.T.X.P.t.R.a.e.,XP.}.{.C.V.-.>.).).H.uXV.o.r L H K J n.wXnXOXlXAXAXpXqX).gXzXCXxX=Xe._.=XU.=X=X6X-XdXiXI.W.=X1X1X<XxXxXgX>X<XaXaXqXVXuX,XgX<X4XC.;X<X0.1XbXiX>XxXCX!.>XsXP.1X_.zX-X%XW.6.P -.6Xr.P.#.` 7.W._ M 1XQ uXZ.0.$X0.( a.s.p.;Xf.9.W.A =X6 i.[.  3XY OX! J.,XV.jX/.ZXoX).oXH.+XXXXXjX@XaXgXzXiX_.4XC.w.CX<X).jXjXCXgXVXjXgXgX<Xy ( ( m m _ ` 5 ~ 6.` s.9 6.9.e.2.S ) ` ~ X.8.^ ' $.8.B 1.1./ 1./ / $.#.^ / / / #.$.D $.t.7.n #.I.a.-X=X{.a.i.Y.Y.$X;X1X-XY.%X%X=X;XY.9.` C.6.Y.=X-Xt.W.P.W._.9.a.7.a.a.&X{.%X_._.",
"_ t.9.P.T.{.{.I.P.P.t._.R./ 1.1.C.P.O.W.U.Q { Z.H | `.K K c.ZXhXqXoXpXpXlXwXK.+XgX>XOXiXsX( B.0.X.,X,XY.%XW.P.%XiXXX,XxXjXgXjXaXOXBX<XuXuX>X;XU.=X-X=X;X%XgXgX4X=XvXCXvXkXc.~.).1XT.-.T.J.T.=X-X+ . W I.iX$./ t.P.e.I.%XT.<XJ.q.{.( O.-Xf.,XY.a.Y.r.,.zX;.O [.(. .).J.O.w.'.aXK.wXpXH.pX`.K.OXOXE.jX<XiX;X=XQ j ( W.Y xX;X=XcX1XuXlX;XgXgXW.e.C.1.P.e.6.v * ) 9.` 9.$.$.S 9.x / e.U M _ X.6.B t.y 7.e./ / ^ #.1.1.1.1.1.$.#.$.Z $.1.7.B Z $.s.e.q.Y.%XP.U.=XW.=X%XY.%X%XY.-XY.6.=X` 8.Y.I.t.a.I.s.%Xs.=X2.,XW.[.1.7.e.&XY.%X8.q.",
"Y.=XI.a.=X_.s.g.Y.[.Y.W.P.^ 9.9.%X XU.U.G.P I hXMXwXr u u Q.nXb.oXeXAXAXhXqX`.uX<X!.>XH T.gXgXxXxXiX_.X.:.1XiX=X1X,X1XOXaXJ.aXOXuXL.uXOX4X<X=XW.-XU & 1.Y.T.;X-X<XgXuXv.vXCXvXCX`.nXuXuXQ 1X,X=X_ m .XP.=X;Xq a.1.M :X:XU J Q -X:.A.).1X:X2.%XY.d.r.[.p.j 9.* 1 I ~.V.:.c.>X).T.uXpXb.qX`.).).).gXE.XX0.=X).XXV.I Z.vXxXxXjXj VXcXvXu.<X<X-.j 8.~ G.` -.` v ` a.s.s./ * I.a.%.z 6.v e.6.' $.7.S / B ~ #.Z ^ / F ^ #.$.1.7./ $.B e ~ ~ M S s.iXe.C.W.%XR.W.R.{.,X:XR.U.Y.=XW.w.;XR.9.Y.s.I.a.r.a.r.I.t.=Xa.a.9.$Xa.s.e.6.$.9.P.T.",
"Y.Y.&X[.:Xt.` 9.D #.W.W.}.7.$.7.6.U U.-.( I ).VXZXuXfXOX).K r b.qXmXZXMXAX`.uXiX`.AXnXuXiXjXOXjXOXgX<Xw.P.<X1X;X,XiXuXxXcXaX1XaXU.E._.X.1X1XX.R.P.Y.P.s.r.R.s.;XG.gXE.vX6.bX+X).Z.Q.~.;.o.-.B.a.9.w.P.%X,X_.=X{.~ =XR.Y.O O m &XO O.T -X:Xp.Y.zX;Xg.X.7.c.3X, X. .w.V.pXBX<XV.(.fXOXCX>XgXH.T.oX#X).1XX.iXXX1XxX<XH.fXfXxXaXC.VXgXvX<XU.T.` ` =.e.6._ W P.y U a./ e.1.a.b r.$.~ 1 _ W t.B ^ ^ 7.Y.t.s / / $.D / $.1.#.#.1.1.$.b z 1.6.q.s.e.1X0.>XiXT.W.>XR.R.,XG._ w.=Xq.e.E.=Xt.s.a.P.t.a.r.t.Y.9.s.{.Y.=Xe.r.P.W.8./ T.e.,XI.",
"$X[.s.Y.%X2XI.[.r.P.W.I.I.1.$./ / $.` W.X.u J.AXMXMXM.z.n.n.ZXAXAXMXMXeXZXoX`.).<XK.fX+XuXxXXXOX>XyX>XU.<X1XxXjXjX>XfXxXxX>XE.uXXX).E.T.;X1X XU.%XW.R.6.s.P.t.~ e.Q j gX>.jXZXMX~.o.OX;.V.o.).J P.OXU.6X:XU.W.U.-XY.a.1X% 1 I p Y Y O.W.%XW.=XP.* B.6X` X._ Q _ U V.!.~.uX+.(.T.J.B.uX0.XX>X>X<XZ.~.xXXX;X>XgXmXjXH.kXCXxX<X;XgX0.AXgX_.W.8.` W W ~ 6.,.6.M t.B / S 1.M 7 X v t ~ ;XU w.B y Z n v I.B t.$.f / S #.$.#.#.$.F ~ Z A 6.) s t.I.}._.uX>X8.'.>XP.e.U.6.gX,X1X=XW.1XU.q.6.t.P.r.Y.a.t.a.9.s.r.%X1XY.e.P.C.9.9.I.%Xq.e.",
"a.s.$X*X[.{.a.$X{.T.#.[.I.2.2.$.~ $.$.W.m O.c.V.wXhXoXeXAX~.).).>.<XV.G.w.T.E.oX;.@X{ W.<XaXOX>XiXaX<XaX<Xa fXCXfXxXOXxXVXxXaXL.E.).T.E.G.E.XX:X1XY.%X~ t.Y.Y.t.a.;X6X5XU.`.:.uXfXW.1X:.V.4XOX( Y.).q.u.t.%X;X-X%X' $Xt.W.t t Y O.j 6 1 =XW.-X=X9.[ s.V.+ >.U K.G.nXpX@X+XJ.!.V.).G.T.-.P E._.E.<XH.aX_.XX<XuXVX~.K.<XAXvXOX0.-.V.0.Q iXgXW.e.=X0.%XU.$.B 9.` r.i.` / n b 4.7 -.0.%X=Xa.U / B #.8 r.a.^ S / %./ ^ D ^ $.#.D C ~ ^ 1.~ v I.,X=X:.T.>XC._.P.P.P.q.U.1XzX>XcXgXw.9.t.q.e.t.a.Y.s.Y.a.i.p.W.9.8.W.C.6 ..X.r.2.t.6.r.",
"a.&X$Xd.[.t.R.-XW.Z s.Y.a.2.2.7.$.1.^ ' P.U.{ >.K /.!.Q.@Xa X.W.XX;X%X:X-X_.-.>XyX<X5 8.u.P.=X_.<XgX1XaXuXjXjXOXaXjXjXjXaXuXxX<XJ.J.J.XXG.C.R.%X=XY.{.t.^ %X%X[.d.-X;X;X1XW.J.e.G.-.J.:.C.{ _._.L.U.J.a.{.-X-X%XY.A.Y.e.%X3 5 I  ., Q P.U.;Xd.2XzX, O.y ).V.:.L.a l.cXx.jXw. ._.P T.Q ( _ 8.XXXX_.XX@XoX)._.vXwX).K.CX0._._.C.:...O.-.q.>Xm U y Q P _.6.U 9.y 9.N ' * 4.D <.9 2 5 bX=XT.2 ~ ' d B * 1.* D ~ $.1.$.D 7.e.%.,.,.t.~ $.R.1Xe.P.q.T._.w.gX<Xq.P.P.C.1XW.=X<XzX>XP.%XP.U.W.P.9.Y.d.Y.9.Y.7.D.e.P.(.V.r._ _ 9.Y.6.~ ;X",
"[.$X[.r.{.*X{.=X%X[.Y.%X7.%.2.9.S 1.9.' ` -X:.V.w.K E.-X.X;XW.~ B ' 8.( C.~ ` 9.P.P.=XW.W.{.I.iX,XxXiXcXyX{ `.uXOXBX>XiXxXxXsXU.<X_.J.=XU.w.W.%XI.{.Y.~ $.s.Y.-Xr.a.' :X6X;XJ S.;X-X{.OXO.:.,X;X).&Xj G.{.Y.iX=XI.$XY._.6X, p j :.A.t U %X-X%X[.O ( (.( ..:.J.E.pX[ OXZ.jXT.uX_.Q X.0.-.X.8.X._.>X1X,XE.`.J.Z.VXH.4XgXVX).B.E.>X=XE.I I ..0.Q y m 5 ..9.y B X.v q U ~ 5.C D  .4XbXH W.1XI Z z B n d 1.; 8 1.C ^ C c D t.1.t.#.2.x P.&.C.W.e.C.E.).W.0._.G.P.=XiX1XW.<X=XXX-.0.G.=XT.0.R.7.I.I.I.$.$.~ _.e.j c.0.e.W -.I.1.P.B P.",
"Y.r.4.X.C.9.#.=X$Xa.d.$.2.r.2.3.9.$.7.m U W.U.r _.C.k 6X;X;XU.^ ~ S r.#.1.9.q.9 ` P.6.6.a.P.W.{.Y.M P.>XOXK.x.).).iXjXaXaXjXXXXXG.+XJ.XXR.e.-Xa.a.Y.Y.I.a.s.{.%Xs.t.a.Y..X1XOX1XW.W...D.J.W.Q 1X:X0.3 r _ :X%X;X%X=XP.1XI.i 8.t  .'.I _ %X%X1X%X!. .(.0. ._.G.pXrX} yX`.L.V.S.W X. .0.X.8.6._ 0.w.E.=X=X).M.jXqXcX<XI T.{ J -.:.A.<Xq.C._ ) e.Q 6.8.r Q U.Y.S 9.9 2.9.s.2.0 9 zX4XOXbXiX;X-.M b C #.z - - b b F $.c 9.q.t.9._.}.$.&.R.$.C._.P.T._._.e.<XW.=X=X1X-XzX XP.W...U.Q e.e.0.{.6.8.s.$.6.9.T.I.%XG.O.V.( I M ~ $.1.=X[.",
"*Xg.p.W.I.=X9.;X1.s.$Xg.Y.%.3.2.1.1.1.m 1.P.0.U >.%Xw.T.a.9.' ~ B S r.i.9.9.p.Y.Y.V V $.6.Y.P.e.e.9.G.W.E.jXpXZ.yX).gX=X>X).XX=X=X_.OX=XU.R.%XP.U.W.%X%XV s.d.{.p.d.~ Y.P.U.E.Y.! :X;Xs.2XG.! C.r 1 s.-X3 =XU.Y.P.;XW.;X+ o.Y 3 C.0.=XQ %XW.e.Y...V.L.E.J.E.;.n.wX`.aX+X>.Z.G.( 0.( U ..0.( U _.e.;X0.>X=XjXlX+XuXB.uXuX'.J.Q j Z.C.T.T.q.X.m m s.7 7.0._ 6.V W * q 7 U n ` _ j XXvX;X6X4XzX, ~ S & ^ / z z Z D Z A Z 7.$.P.2.6.$.~ 1.v 9.q.uX>X=X_.R.W.=X=XW._.1X<X;Xq.T.=XP.w.W.-.X.T.P.P.e.8.q.W.W.%X..C.:.e.U.m Q 3.W.e.s.d.",
"2XY.i._.-XW.P.#.[.i.Y.d.S 9.s.r.r.9.$.m 9.U.P OXI W.=XW.U 0 9 w b b 1.2.a.9.9.i.a.w M ' v Y.e.q.9.-XU =X=XVX~.!.uXjXuX<XiX>XT.E._.>XxX>XXXX.U.%Xe.W.q q / d.[.p.p.d.a.m r.t.Y.I Q uXP.q.=X=XzX6Xu.:XW.-X-.O :XU.%X, Q 1 J U X.X.W.T T.Q y  .N 9 G.J.c.{ ;.J.o.pX>.oXuXuX_.J.-.w.w.q.w.X.X.q._ 6.8.q.P.E.+X<XpXjXvXV.fXAXVXBXcXjXC.X.C.=X=X=XC.T.q 7X' =.1.q.~ B V t 6 6.( 6.` I XXzXG.+ O I ( B y Z ^ ~ B 8 ^ F ^ D.D C D #.I.s.$.E v 0.}.E.>X<X_.W._.XX1X;XW.=X1X=Xq.-X;XR.zX;XT.%X%X=Xe.6.W.a.a.W.q. .q.P.R.P.P.6.X.a.P.8.{.=X",
"=Xd._.` s.;Xa.s.s.<.t.d F ,.r.p.7.1.X.6.Y.U.w.} E.U.-X:Xy 2 B B ^ B ^ 2.1.$.7.&.~ 7.1.m U 9.a.R.q.j I ;XiXuXwXuXuX>XXX<XOX<X_.,X<X_.>XhXnXXX0.,XU.U.a.U ' $.s.p.p.g.$X6.d.Y.Y.6X6XU.a.B sX=XiXC.C.0.%XzXzX-XY , | r  ., i P.-X%XU.a...w._ V.J.w.o.O.<X>Xw.V.;.yXJ.!.uXOXV.6.W N M W X.C.T.8.) q.G.q.W.I.uXgX~.wXQ.AXB.xXjXjXlXxXJ.>XXXE._.=X8.0.X.7 ,XR.0.I.R.e._ U 0 e ~ X.y M 5 vXt 9 a._.y N V ^ 6./ z F.#.n $.#.Z #.D 4.<.t.6.~ ` ` P.C.>X<X_.W.XXW.,XW.W.1X1X1XXX_.G.B.J 1X,XP.W.W.%XC.-X8.P.~ D.P.=Xs.[.e.P.P.=X~ / e.9.{.",
"[.=X9.a.s.r.*Xs.4.$X2.4.$Xr.a.3./ ` 6.e.%X<X<XL.;XY.P.` ` ^ V ~ B V b n B ~ 1.1.$.9.r.1.6.a.U.T.G._ , 6X<XT.E.uX>X>X)._.=X=X1X1X<XzX=XOXiXgXgX;XR.U. X( ~ a.s.d.d.f./ r.a.d.Y.a.6.1X6.P.=X=XW.,X,X_.W.:X,X,X_.W.S.0.V.P.:X%X=Xe.W.I.1 X.:.Q w. .o.:.T >.>.V.c. .OXuXV.XXT.X.G.U.e.w.N i w.e._ ..D.) 8.W.xXgXVXfXzXOXCXC.iXCXaX).).'.O.xXU.1XX._ A.X.X.=XW.{.m P.( 6.&.- 0 ~ -X^ P.iX' ~ ~ 8.B h e.6.S 6.$.q.Z Z #.#.A b $./ 2.z B B M y R.X.G._._.R.=X=X=X_.,X,X1X,XT.1XiXC.XXzXzX;X-X..;Xq.` ( w.6.9.D.1Xa.2XI.Y.Y.6.=X=XP.a.%X",
"=XI.W.W.5.r.f.d.h.#.$Xf.r.d.r.^ M Z m ` =X<XK o.;XW.e./ 6.V / ^ b ~ Z / ^ / / r.a.7.Y.1.Y.U.8._ 0.U =X%XG.T.T.nX+XXXOX>XC.,X=XW.1X<XzXgXnXVX=XzX,Xa.-XU.6 M 1.d.g.f.g.7.[.d.[.U.G.C.=Xs.9.W.-Xq.1X;XT.X.T.1XXX_.Q , + 6.,XU.W.P.t.t.I.a.i.C.8.U.-.V.V.8.:.0.O.OX'.'._.C.w.0.q.e.q.P.C.m U y e.G.e.q.q.>Xt vXO.VXCXxXgXwXsXG.G.uXCXxXZ.<XuX=X,XF.C._.( ` -X,X=Xd.7 U I.6.h E.e.W.` 9.^ e.B 9.1.2.S q D.n b $./ ^ A I.^ b ^ / n 7 7 = s q R.0.6.C.W.U.sXXX=X<X}._.zX1X_._.C.>X=XT.1X,X1X0.-.8.` t.q.P.s.=Xs.t.I.%XI.3.-X=XW._.{.%X",
"2.y.2.2.[.I.<.4.@.*XD $Xi.9.i.Z ' ~ 8.;XzX).] o.;X` ' / / 6.~ / ~ Z S ^ / $.9.7.a./ s.C.U.Q Q 1XW.w.G.R.T._.OX`.).yX<XL.iX=X;XU.P 1XgX<XeXuXXX:.zXe.:X' 9 ~ =.g.g.p.[.g.d.d.s.6.W.I.{.-X^ {.W.` W.%X:X:.w.C.W.,XP.` C.P._.Y.I.P.I.a.U.r.t.P.9.w.e.e.6.0.X.C.w.>.S.+XyX0.0.XXP.T.U.P.P.6 N ( _ 6.P.P.q.i 3 aXV.B.:.VX).jXjXVXA.'.xXxX).uXV.sX>X,XR.>X,X1X=XW.e.e.U.iX<Xr.S V W.P.w.X.1.gXW.1.s.$.#.$.` T.$.^ ^ D.b b 1.Z n S w S 2 y 9 w q.P.C.8.E.E.W._.XX,X1X=X;X,X=XP.G.C. .{ ..T.0.C.w.8.9.{.[.r./ d.%X&X&X1XW.2.D.W.P.U.i.:X",
"<.2.2.9.i.i.f.f.$Xf.2.9.3.D $.V ` Z a.iX~.E.U.U.v 6 & 9 / V ^ z z v 6.^ / / ` e.6.~ w.q._ U.;X=XP.%XU.P.T.>XJ.).K.hXuXXX1X1X=XU.U.5 1X;XuXhX<X1XzX;X-XP.O % / r.p.i.i.d.p.i.9.x Y.9.I.=XI.a.%XR.7.-Xa Y V.P.P.q.W.j P.R.e.a.s.s.a.9.t.I.a.t.9.` 6.6.w.-.:.w.V.K.OXJ.T.0.W.U.U.C.q.W.W.C.9 P.q.e.q...P.P.q.P.o.Z.VXaXaXxXuX>XgXjX..BXBXBX1X<X|.,XiX=X1X6.T.C.w.X.W.9.W.W.=X[.9.R.` X./ G.=XI 9.%XB D Z ~ ^ S z }.B Z s 2.s Z B B 1./ b 7 e.q.9.P.R._.W.,XP. X<X;X1X,X=X=X8.E.G.:.0._ _ 0.T.W.s.Y.Y.s.s.t.p.{.a.-X%X:X7.Y.t.%XI.p.",
"r.<.2.2.#.3.4.2.2.i.2.9.9.2.S ~ ~ W.<XK =Xt.` v 0 U w S ^ / z z d 7 = v B Z 6.8.6.1./ 9.y  .( =XR.U.W.E.W.E.OXpXeXNX<XzXgXgX4XXXI i ;X;XXXrXOX,X;X;XY.7X6.+ &   2 3.2.r.r.r.` I._ U.W.~ [.[.6.W.6.t zX5 V.V.B. .E.P.W.W.P.a.I.I.t.r.2.I.9.1.a.7.U P.>XC.V.V.J.:.J.K.G.-.w.C.( w.0.-.0.P.q.) 6 ` 8.2 U O m W.,XB.W.aXvXuXyX_.aXjXMXI T.<XA.<XiX}.,X;X|...0.C.,X6.q.&.9.}.P.=XW.^ a.1XV.v 0.a.6.$XS Z Z ^ ^ b s A 4 ~ e 2.n S / ~ b 7 $ V 6.e.t.P.C._.XX=X%X-X=X=X1X,X=XW.T._.G.C._.A.{ G.=X$Xs.Y.Y.[.%X[.[.9.I.zXs.g.{.=X8.=.U.d.",
"3.<.2.r.f.*X3.i.h.f.4.r.i.2.r.6.XXCXXXe.8.1.$.1.$.$.^ #.^ D D C Z b s s s &.^ S #.6.n 6.~ P.8.P.U.P._.<X>X).^.eXQ.`.hXo.zXzX4XX.j N p ;XzXhXeX>X=X=XW.W.%X_ O o r.2.y.2.9.7.~ r.1.s.W.=XY.%XY.s.Y. .-XP.Y =XxXw._.6.r.Y.r.a.Y.y.2.2.r.r.a.7.7.e.` O.8.:.0.:.x.Z.).).0.C.C.0.0.T.C.0.G.P.>X` M m M E ^ P.O ( V._.).gXaXaXCXfXAXvXaXVX=X=XsXR.,X1X=XW.sX8.T.0.E.R.}.R.P.P.W.W.B X.~ I.e.$.6.W.Y.1.S Z b d Z S v n B 1.e B w ` X S C ` P.U.>XW.6.P.P.<XC.R.=X1X=X=X1X,XW.P.C.T.XXG.:.w.:.G.;XW.U.Y.[.2.1.7.Y.1Xd.s.t.r.S W 1.7.6.y.",
"4.<.<.<.1.<.<.g.p.*Xg.4.i.D ) =XcXuX5X` ` 2.I.1.#.2.7./ $.$.1.A #.#./ b b S ^ ~ Z / e.~ ~ ( P.R._.E._.yX!.^.rXmXtXcXJ.gX<XgXQ I I U N 5 bX;.8XZX;X).=X:XY.-X~ q S y.1.1.#.W.1.a.p.r.X.f.s.{.2.r.%XY.0.-XW.,XR._.=X1Xa.s.y.r.7.^ t.7.7.y.t.9.2.9.a._ B e.XX( ^.:.:.L.:.w._ q.P.8.X.w.w.W.U ~ t I.9.~ m t ,XV.N _.;XC.G.).E.| J.jXCXCXVXzXCX_.w.:XP.q._.I._.E.P._.I.P.}.I.t.7.9.~ e.D.^ I./ P.:Xe.t.7.$.s s 1.$.#.6.7 ` o ` 1.,.3.z 6._.e.W.P.T.T.P.P.R.;X<X<X=XW.1X1X XW.U.E.T.X. .:.%X0.).q.q.Y.Y.9.s.r.1.Y.#.r.I.W.U._ q.` 7.r.",
"4.2.2.#.2.5.<.p.3.<.#.r.7.( <XOX;XW.U U 6.e.R.-X2.1.t.1.<.y.#.@.#.^ z Z b Z / $.6.$.q.U ( N G.W.T.+XOXfX`.^.eXwXOXOXXXgXgX6XU t m t N O U.4XmXOX=X..K.:.U.%XY.' 0 q f v V M i t ` q.2 %X4.d.<.2.{.{.P.1Xq.{.%X;X-X[.}.7.a.$.^ 7 A b b Z 7.t.9.r.a.,X) w.w.:.c.V.:.V.E.T.X.C.X.q.w.P...E.C.0.I N Y.t.7._.X.X.y G.1XT.T.1X,XT.q.e.e.CXhX>XbXw._.-XR.I.>X1XF.}.P._.}.{.9.I.,XT.t.P.R.e.#.I.a.( vX1.B ^ a.^ s / m 2.Z ~ Y.9.7.v m ~ ,X=XU.W.P.P.P.R.<XsXXXE.U.XX=X<XiX<XW.U.=XG.-._ +.T.R.R.I.I.P.P.t.a.d.3.1.7.[.1.a.[.F -.9.6.$.s.",
"y.y.F p.5.4.g.F 5.<.d.s.6.<XW.P.G.8.W 1.` _ =X^ a.t.#.t.a.C <.t.#.z S ~ ` Z s q.D.6.C.X.( P ..XXH.hX0XrX/.tXK.uXuXzXsX1XgX4X4X0.I r O y O 6XJ.MXXXW ;.O.t w.U.B 9 m m 7 %X$.P.U.vXI.p 2X[.s.~ r.$.( e.dXP.-XzX:X-X-XW.2.t.^ %.D b A b ^ 7.r.2.}.7.R.) e.-.J B.0.J.V.C.P.X.C.T.C.0.P.6.8.XXw.w.I &.Y.%XP.0.& O >X<X.X_.,XgX;XbX..q.o %X6.:.u... .XX,Xe.' _.R.{.P.,XD.>X{.7.#.t.$.D./ 1.z U.=XW.6.~ 1.V Z S 9.) 6.W U M w._ G._.K L.>X:.E.<XW.W.T.sXR._._.W.<X=XW.;X,X-XU.T.:.0.{ ! T.I.}.{.I.P.R.I.2.{.s.r.i.2.=XI.:X$.S.OX8.1.9.",
"d.r.2.y.p.<.r.t.r.9.d./ ).<XW.W.<X=.~ m ' b }.n 1.2.%.9.#.S d #.s ; / / ( U ) X.&.P.U._ -. .t 3 K.!.MXZXM.VXNX).bXzXzXbX4X1X=X;Xt t 1 p + N 6XC.N.<X .Q J.W.W.%X[.{.Y.%Xy 7.Y.& q./ Y.t.dXn I.2.s.9 Z {.-X{.-X1X,X=X{.y.2.,X$.%.x A D A $.t.2.W.a.P.O _.` _.T.B._.8.C.8.C.C.C.q.P.P.q.C.` C.T.U P.t.Y.[.-X ._ 1 gX<X;X>X6.8.6.9.P.w.W.iX1XS.E.T. X_.=XP.e._.,XP.R.T.,XW.I.9.D.6.T.9./ 7.9.U.t.P.+ M ~ / q.&Xq.X.0.6.U N m ,X XY..X%X;XU.L.>X_.T.>X_.U.P.W.XXR.W.W.=XW.XXXXw. .V.>X,XI.{.9.7.I.Y.9.D i.d.r.$.d.1Xs.[./ '.8.W a.7.",
"p.r.i.i.p.s.a.r.y.2.1.$XqX=X<XU.P.) B ` 9.B r.#.2.F %.$.F F %.Z / ^ / 9.6.V ) m R.B =Xw.q.W 1 Q +Xc.tX^.8XM.@XuXiXgXE.I ( X.,XU.y t p v O 1 5X:X_ M.XXj  .Q > j e.U. Xw.N 9 p.s.' W U 7 ,Xp.p.<.Y.w X I.dXR.{.}.t.{.D.r.y.2.@.A Z x D.b %.A 3.I.{.r.V q.X._ C.T._.e.6.P.C.C.C.q.P.q.C.q.q.C.8.:.U W.=X{.zXP.O._.G.W.C.T.U v N ) 1 e.;XR.U.:.6X;X=X_.W.P.a.` 9.8.9.8.6.W.P.}.6.~ e.&./ t.Y.a.Y.U.` 8.e.7XR.%X%XR.P.9.` {.Q 1XP.%X6.1 ;XY.W.e.` T.W.P.U.<XR.=XP.W._.W.W.XXT.0.Q XX;XW.W.P.Y.Z 9.2.{.S $.1.3.x $X-X{.p.f._ Y.:.U.,X",
"d.p.r.r.s.a.a.t.t.r.I.[.jXXXP.1XXXv B ) B U P.1.2.t.9.2.#.<.r.r.#.^ t.t.$.t.9 q.' ) =XU.w.t 3 O.cX} M.VX^.fXH.vXgX1X,XW v N W e.T.U U ~ h * -.:X5X..x.gX..J K.+Xj R.U U.O M p.3.Y./ bXT.9.Y.d.p.b g v {.=X-X7.7.I.,XA }.y.t.r.2.y.P.Z 7.{.@.[.-X( ` e._.8.8.T.W.T.q._ F.C.C.T.P.C.q.C.T.T.E.,X( ( t.t.&X-Xt.9.6.=X6.q.-.6.8.+ I . 1 bXw.CXR.W.( 8.R.W.,XW.=X6.a.6.E R.R.$.e.P.a.Y.iXa.a.a.$Xt.,X2X;X9.U U ^ B Y.Y.W.e.7.6.2.U ~ 1.m 9.m ` P.U.R.I.a.e.T.W.P.T.W.R.R.=X=XC.0.C.C.P.I.a.U.W.I.^ I.7 2.C 3.A 1X,X[.1X:Xs.Y.N V.Q g.",
"d.g.$Xi.a.s.a.t.r.a.7.1.OX=X+X@X=Xh h w ) / Y.2.$.2.a.2.2.2.a.t.t.y.6.t.~ P.v X.6.~ W.U.%XI { G.jXL L wXNXzX1X,XzX=XI _ ( w.W _ y ..1 ' / v . y bXJ. .v.zXO +X-.-.%X5XbX9 % r.r.[.[.o CX7XB 0 & v v #.6.{.1X&.q.t.I.9.7.Z #.A D b ^ #.-Xa.{.t.,Xm 0.` P.P./ R.C.X.&.P.P.C.T.w.C.P.C.C.&...-.,X<X~ I.P.{.P.t.e.U U.C.C...C.C.q.O 8.e.1XcXW.` =XX.` X.` _ 9.R.P.1XW.W.7.R./ 6.6.R.&.` I.t.{.P.=X{.~ }.6.6.$.w $.1.t.8.e.6.6.q s.1.9 [.W ~ 6.s.U.%XP.=Xe.t.W.W.W.P.=X=X,XT.G.:.P.e.P.T.}.P.I.W.$.~ ) i.$.D [.-Xd.-X-X{.P.=XP.a. .r.",
"g.[.[.g.1.t.I.t.a.9.r.t.G.wXU.XX Xa.` h w ~ 3.g.[.r.s.3.Y.2.7.a.R.Y.W.( $.7.q.U C.` e.` ` I p I fX[ L M.cX,X1X1XXX-.( ( 8.M P Q 1 1 O I ` 0 w 1 a.bX1X( wXfXJ.t U.U.7X7XvX# i.9.&X$X/ %Xa.2 d.t.{.2.a.-X{.[.{.Y.t.) #.n %.t.D x %.#.D : y.a.a.[.F.T.C.P.9.6.C.P.X.X.C.C.q.R.T.C.q.C... .:.( ( ,XU o {.I.9.6.t.v yXXX%XP.` 0.6.X.C.C.,XcXT.-X=XP.8.R.~ 8._ 6.P.C.8.9.9.t.sX}.8.Z Z v Z S 6.U.&X{.I.P.q.I.v M ~ a.9.7.q.a.~ / e.P.9.) U m 6.w W.a.P.=XW.I.I.W.t._.W.=X=XuXT.P.G.X.I.X.W.a.P.t.$.~ ~ p.n ~ s.s.Y.d.%X,X,X[._ r.C.,.",
"g.d.d.s.d.s.9.a.a.s.s.$X6.CXW.w _ e.+ W.U & r.2.r.2.Y.#.2.#.e.[.I.P.P.6.6.9.q.B y U N ) 0.w.j W gXQ./.uX] <X4XgXX.W U 9.e.6.M ~ ` t 9 j q V V y % ) 6XT.w.pXvXY r C.U.-Xh o p.p.r.b #.&X2X-.X + {.=X6.&XI.X.a.y.E D.n }.%.a.y.D 7.A D Z s.1.i.a.9.6.q.C.9.) B C.8.X.X...( W.W.C.8. ...( U ) ( ..=XN C.( 1X8.F. .zXO.=X=X%Xw.X.) 6._.jXW.a.zX1X1X_ )  X~ ^ 8.M 8.^ e.e.$.,X9.D.}.) q.^ E v M ( &.P.%Xq.%Xv ` F.) ~ t.a.9.Y.I.X.9.R.6.P.P.y ) 1.=XW.a.R.P.P.I.I.R.T.w.<X<XaXL.C.C.U.e.R.P.W.a.n Z ^ v *X&XS Z 2.<.P.W.X.g.a.%XY._.",
"p.d.d.2.s.i.r.9.6.$.e.I =XfX<XB U.U.R.8.1.B e.2.a.a.I.#.2.2.Y.P.W.P.I.6.9.$.e.9.q.M q.T.w.P.m m P <X^.<X!.=X=XC.U 9 y v a.I.I.t.9.i.M w ` 9 j * 2 N ` U.bX:.0X<Xa { O.6XY.o m s.{.1.w 2X_ S &.N a.%Xv $.{.E Z n F.t.7.t.%.%.@.2.2.@.D s y.s 7.r.~ 9.e.e./ ( m E 6.P.e.X.( 8.X.O.X...U ( ` ( ( T w.9 R.U ` v X.}.E._.,X=XC._.6.X._.R.>X%X,X=XE.R.X.~ ~ $.4 ^ ) q ~ ` $.e.6.~ e.C.e.&.6.~ E M M ~ m g I.Y.Y.6.U.{.` t.Y.{.8.U X.U.W.=Xq.9.q a.Y.W.U / e.6.D.W.R.R.R.C. .).<XC.0.C.R.e.e.R.P.W.U.Z 4.r.~ g.p.D S a.%X<Xr.$Xs.U.p.I ",
"a.[.i.r.a.t.I.p.a.1.b 8.W.VXU.7.u.P.q.U M 7.3.r.[.I.%.2.2.I.e.P.}.P.=Xq.9.&.e.6.q.q.y P.w.P.t.` ~ 1Xc.yX`.=XW._ q.% _ v a.Y.a.s.a.2.r.w 9 ~ W.P.6.& h 6.q.-XO.AXAXC.-.Q vXvX:XP.R.w. .M W.o p.e 9.` v 0 y m ~ #.a.( y.Y.@.%.%.%.2.r.R.b 7.6.%.r.q.I.q.) f I.^ ~ 7.e.e.e.( 0.U ..X.( ) 0.U U R.( P v P.I.P._ ) W.=XW.q.q.W._ 6.~ C.=X:.6.~ ) ~ 6._   ` P.) * w 7 * 9 $.e.6.8.e.q.C.T.E 0.B 6.w 9 ` E ~ y ) P.U.I.Y.C.e.-.U.R.<X,X1XU.C.s.a.y B B B y.9.U.R.X.) P._.<X0.T.jXG.C.}.}.X.e.U.a.Y.{.X.#.r.V p.g.9.v i.Q p.iXs.d.s.s.9.",
"e.5.r.a.9.t.I.9.7.6.a._ U.OXW.v G.W.e.` y t 1.s.1.t.r.7.t.}.{.W.iX6.q.q.R.P.R.q.e.X.q.C.C.X.e.a.` p | c.J.1XXXw.0.( U X.) s.s.1.b t.2.r.~ M M bX6XT.j 6 / ^ 6X .ZXa r AXAX, Q 1X:X1XT.& 2 = 2.r.&Xt.y * ( w / W.I.7.I.W.F r.%.t.@.%.%.6 =X%.#.I.m / / a.r.t.r.7.e.e.e.t.U C. .0.X.X.X.( N t ~ D.t.( M 6.E X.T.Q R.U.U._.R.W.W.W.E.uX=XX.( 6.q.) _ m q.& R.1 v B B M 9 w _ a.^ v f B &.` ` b 9.M t.U 0.m N M U.I.U.e.Y.i.e.{.T.<X;XU.W.%X1.Y.s.9.6.t.I.{.e.&.q.W.T.=X).c.jXK.).:.=XC.w.e.U.Y.{.U f x S ^ 2.p.C I._ ! 3.s.[.a.d.I.",
"Y.r.a.a.I.a.{.I.e.s.6.=X_.E.XXa.% * ` q w 1.d.2.2./ #.#.2.t.R.6.q.6.e.X.,XR.W.P.e.e.0. .0.( _.e.I.W iX~.[ ,X0.X.j O M q ~ a.9.t.$.B 9.7.1.$.v e.U.=X9.6.( 2 a.zX-.AX-.J o.jX+ u _.C.W.:XC.. r.o 7.6.v v M v 0 7.I.R.I.}.R.<.<.2.%.<.D #.a.2.r.8.) ).,X9.a.W.iXP.I.6.P.I.q.U XX0.0.6.X.( ( _ v e.X.R 9 N U 8.t.:.=XR.,XR.}.W.W.=XE.(.T.C.q.e.&.6.9.M 9 ~ ~ R.^ M X.v n ) &.B Z E v E - q.B v 6.1.e.) B 6.t.E P.=X=Xa.$XE 6.C.I.R.E.E.j j P.w.<X6.a.B 6.P.T.R.e._.W.>XZ.jXjXBX).S.P.T U >.q.P.Y.t.^ B 4 2.a.Z %X[.9.j B ;Xa.[.r.a.",
"%Xa.q.e.6.~ _ P.P.P.w.XXfXXXG.O P.` _ & O _ &X2.r.%.%.1.W.I.-X{.q.iX=XW.T.iXW._._.C.T._.q.C.6.P.t...gX_.m.C._ ( _ v W h 7 q.9.^ 7.D $./ $.7.^ ) R.;X-.w.8.B a.a.P.W.eXu (.;.J { 3 :.0.CX:X0.q 7 d.Y.t.1.e.E 6 ( q.6.Y.r.{.[.a.2.b e 2.^ d D a.9.) ' -Xt.9.t.r.9.{.r.9.y ) ( ,X..6.` ( ` _ X._ 6.( F.P.X.N P.P.:.=XP._.=XP.P.E.W.).O._._.W._.T.q.e.6.` ^ &.8.~ &.q.~ Z 8.C.7 y 7 w v e ` q.) ( _ 6.` R 8.3Xa.^ $Xa.t.I.~ 1.e.P.9.e.~ T.<Xe.9.` C.B U P.X.M O.T.q.>XOX_.J.yXnXyXE.O.I C.Q J.R.P.t.1.) F s.D <.d @ P ( P.=Xt.<XE.5 ",
"N _ ( e.) M N % % 1 ( w.mXJ P.w.C.Q e.w.w ` a.r.r.t.y.F t.=XT.;X-XT._.1X_.O.|.T.=XE.T.W.}.W.P.9.e.X.,X`.zX-._ ( X.V a.Y.a.W.a.#./ 6./ / ^ 9.7.B ~ 6.U.e.6.6.B U.=.w.;Xr uX> Y V. .T.:.j =X=XP.o P.I.M y g X.q.q.I.t.t.q.}.%X6.D m 1.9.Z d D [.r.9.:XI.r.W.Y.9.I.Y.Y.9.W 6.W.R.X._ 8.&.) ( B ) g X.q._.T.P.P.S.X.0. .w.T.=XT.A.>XiXR._.W.W.>XP.&.8.q.C.6.}.C.6.6.M f w o 9 ~ 0 #.n A b b 8.&.6.~ X.X.( %Xq.m }._.7.Y.t.-Xa.7.a.%X{.a._ ` Q U.G.6.` Y.-X=X) 0. ._._.C.,XG.VXjXG.0.yXZ... .G.W.P.W.6.&.Z f 9.$.a.AXW.+X<XAXi nX=XU.",
"9.6.8.u.9.a.e.m P.W.-.).^.Y :.0.Q I Q -.' v U.e.C y.2.9.=Xt.,XP.:X,X,XR.dXC.).,XR.T.F.w.6.W.W.t.W.-.W.pXzX~ 0._.-.v v t.r./ 1.9.9.^ / $.$.7.9.6.M / P.W.X.P.` ` ` ' ' bX-XmX .j sX0._.V.t iXt.9.t.6.9.` ( ( &.) 7.Y.{.-XP.I.) P.n b q.q.[.r.<.a.^ i.7.I.=X%Xa.[.&X0.OXbXG.W.U ( B X.&.8.X.) ( X.C._._.R.T.<XiXP.P.sX,Xq.C.>XiXsXjX,X1X=XF.T.T.R.=X}.6.X.8.&.W.e.~ M M s 9 ) 0 v B Z ` 6.D.q.8.E 0 X.6.P.$.$.=X,X[.$X7.t.1.~ w a.W.P.Y.P.i.` 9.R..._ w.E.iXgX,X<XP.W.G.S.oXZX+X .(.B.C.0.0.:.( 8.` W.9.a.Y.U.jX8.e.M G.oXe.2.a.r.",
"9.e.s.Y.[.a.1.q.' 6.J kXhX-.o.( U.P._ 6.6.^ 6.a.#.7.r.W.{.%.,XiX,XW.,XsX_.}._.sXT._.R._.T.W.P._.T.R.T.x.rX( 0.E.G.t q * r.^ Z ` / 2.1.6.$.$.9.) ^ ~ ~ ` ` 6.6.C.6...O.9 a.9.e.BX(.}.C.jXa w.P.P.e.>XR.` = m E X.R.) ) X.{.Y.Y.%Xb t.~ B.P.Z y.r.R.t.{.r.:X-Xa.y O :.U zX4X,XU.P.P.P.&.8.8.8.q.T.W._.W.W.C._.e.P.P.1X>X0.E.V.jXiX1XE.}.sXW.R.T.E.F.e.1.) ~ 6.C._ t ` S V ) W.z 8 b B $.q./ 6.&.Z X.I.W.U ` =XT.I.Y.9.^ v 9.$./ / ~ $.9.Y.e.R.~ 9.9.6.C.W.=XC.6.w.T.C.E.U.V.ZXOX).:.e.e.W.W.P.8.0.6...P.( Y P.[.7.7.).0.Q P.1Xd.s.",
"2.t.6.a.[.a.t.m ` P.I vXhXW.U w.U.q.9.6.6.6.C.7.d.I.y.dXW.{.1X,X}.,X}.dXE.)._.}.(.).}.>XP.D.P.W.R.P.Q 8XvXU .._.<Xh t / a.S ' S Z e./ a.a.7.7.$.#./ E B C.P.R.6.C.T.0.V A.U m 6.` X.D.m :.N q.C.P.D.C.q.( ~ ( I.9.R.F./ r.9.V v t C.:X-XY.}.$.r.;X9.t.2.a.I.<.6.. U XXgX<X=XW.P.E.w.E.0.P.P.R._.W.T._.G.iX_.P.R.W.P.R.P.T.E.jXuXjX=X_.iX<X,X=X=XiX>X=XR.=XU ) q & U _ &.E ) P.1.^ 6.9./ / 2.P.9.R.I.e.t.I.I.%XU.{.$X2.v q 9.B #.Z $.#.2 1.t.a.-Xa.$XE._.` q.C.C.C.C.T ..T.VXH.OXC.W.C._.q.6.W.q.e.m Q uX` OXAX{.Z 9.2.r.%Xs.2.r.",
"2.9.a.1.a.a.[.s.1.u.fXcXZXQ ( W.P.8.9.1.1.W._.b 9.i./ D.}.a.dXiX,X>X1X,XsXF.1XV.A.,X}._._.).P.P.}.W.R.AXCXE.m G.T.( 2 1.9.e.Z e./ B D P.s.a.r.9.t.7.#.v M P.e.q.e.U.F.0 ` 7 _ ) Z $.( t.C.( w.X.e._.C.R._.^ e.&.X.q.P.P.=XA.=XP.o.dXR.t.{.I.7.a.r.t.{.r.-XY.P.2 2 , P !.XXE.T.G.C.W.C.w.E.T.W.W.W._.T.iXX.E.R.W.R.D.,X=X_._.uX'.CXzXiXW.,X,X<XXXuXuXiXT.1X1X&.` m 8.9.2 9 B _ ~ 7.S $.$./ I.,Xa.W.{.{.%Xt.Y.{.T.P.e.p.n s t.^ Z V Z 7.^ / / 2.a.[.7.P.P.T.=X<XG.0.P.C.C.P.0.wXA.P.C.O...O.Y U.X.P.C.8.i.6.P.6.s.W.T.i.R.e.7.s.y.",
"I.p.9.i.Y./ 6.p.S P.w.fXMX).X.G.X.6.M ` 6.$.$.Z ~ y.r.P.q.9.iX,XiX}.=X,X>XS._.(.(._.P.F.R.e.q.R.C.W.P CX=X).N 0.T.:.j M r.P.9.$.^ r.1.S / U.Y.a.a.9.t.6.&.6.` / A.w._.X.B ) ~ &.) $./ :.T -. .( q.R._._.R.9.T.e.e.q._.$.e.C.:.j ` 1.{.{.P.{.t.=X^ t.I.s.#.dXB @ 6 Q vXc.uXOXE.G.0.C.C.q.A.0.E._.G._.iXW.C._.R.R.R.e._.I.=X>X'.sXT._._.T.iXW.>XuX>XV.VXXX_.yXC.E X.U f B ~ q M ) ) $.^ S t.r.1X` }.{.W.e.e.` W.P.9.I.7.^ ; 6.E v B / 1.1.#.q.1.^ t.t.=X[.8.C.C.>XC.0.T.X._.U.O.0.0.o.B...X.T o. .P.C.a.9.7.9.I.8.8.a.6.I.{.e.y.i.",
"r.d.~ $./ d.7.7./ C.J OXuXVX6.e.P.P.6.~ Z ^ P.1.1.$.r.$.I.t.,X=XiX1XiX<XT.W.A.<XxX<XC.R.R.C.X.D.X.e.0.CXCXgX_.T.>XT.V.m B t.a.Z 9.9.7.$.#.2.9.r.I.9.%.=XF.6.E.C.A.q.q.8.9 &.E.B ` B w C.P. .0.0...0.E.C.q.q.R.T.q.q.C.$.B.T q ~ B X.6 y {.[.:X*XC P.I.{.r.[.t O X.O.<XZ.+X| V.J.T._.E.T.G.uX>X>X>X_.).e.R.P.P.P.R.e.6.I.,X_.|.>X=X=X_._.w.(.jXxXE.=X_.S.G.XXgXW.X.q.9.) q.) 7 m $.` ^ n / C.-Xs.U.=X;XI.9.I.b [.Y.t.t.b 8 b i.w C B b D p.$.S 2.9.a.I.8.X.T.>X>X>X_.T.;XC.U.W.V.C.).V.OXI T U q.q.w.a.s.r.9.e.D.B B q.` 9.p.n 2.",
"3.p./ / 7.r.a.y.1.P.+X@X@XlXQ a.6.q.6.^ S ~ _.1.7.7.9.y.R.9.{.}.}.,X,X,X_._.|.iXiX<XF.F.C.q.q.C._ W.w.xXcX_.B. .O.X.0.a.9.2.t.t.$.7./ t./ 2.1.` / r.a.Z Z C.C.C.T.0.X.-.V ) 6._.B e.B ` ZXC...).X. .V.V.T.>X}./ &.) R W W.X.m ( y P.7./ W.-XU.3X[.-X[.r.s.1 y Q T <XH.c.nXV.S.OXH.XX).0.:._._.>XOX0.XXW.R.R.R.R.q.e.&.I.I.E._.,X,XiX_._.;XT.O.xX)._.VXaX1X,X;X=XT -Xq.X.` U U v B ~ ^ 1.P.=X` a.W.=X7.-X1.7.~ $.I.s.2.C * 1.,.D S 2.1.7 Z Y.B s r.7.P.t.,XC.C.X.W.XX_.6.X.e.G.>.nX .oXA.| :.w.C.q.G.e.e.s.t.q.6.,.( 1.Y.6.=XY.^ ",
"p.s.r.7.` 7.t.^ ' P...L.+XfXw.P.8.` 6.n ^ #.$.1.7.1.7.I.r.1.=X{.}.=X=X}.C._.}.iXsX,X_.0.T.e.M C.6.P.X.qX,X_.( 0.V._.U P.0 ^ 7.9.#.e.n r.r.6.9.2.` 7 _ _ _.C.y B q.C.T._.0.m ~ <Xt.I.B : ' ZXiX .OXG.(.:.(.U A.X.6.C.X.V.T.C.( M 6.9.1.E.q.C._ Y.t.9.s.[.) 8.U  .gX!.oX~.`.OXT.C.T.>.OXO.).S.B.A.Q XX=X;X=XW.R.I.R.6.6.W.W.T.W.;X=X,X=X;X,XA.G._.>XG.C.nX+X'.G.1X%XR.N ( N ) B * / e.^ e.=X2.W.1XW.,X~ a.t.#.6.P.F 9.s.2./ 9.7.3.6.P.z s ^ ^ ^ a.r.7.~ / %XI.e.8.P.q.w.T.P.q.C.u wX(.u +.J  .U ( W m -.e.a.9.7.7.t.e.C./ ,X` {.9.",
"1.` 1.8.~ ^ 6.S v P.k <XkXk G.e.q.Z 1.6.$.D %.1.2.1.7.t.r.1.R.}.}.{.}.}._.B. .0.=X,X_.V.F.D.X.X.8.R.6._.R.P...VXCXCX:...S 9.P.P.t.7.t.^ Z 9.Y.9.z 8 7 0.-.q t Z ` C.0.N U y }.7._.q.q.U 7 M AXC.).H.yX'.).O. .U U S.U ( V.U v _ q.Z 9.D., >XC.W.Y.-XY.N -.T.( vXV.fXjXuX`.>.OXOXJ.:.Z._.<X=XiXiXsX=XXX4X-X1X=Xe.q.) P.R.;XC.W.,X=X,X_.1X,X1XzXgX<X+XB.)._.BX_.,X=XW.$.6.' ~ &.` 9.V 6.W.-XC.-X=XI.6./ 9.6.R.e.q.$.r.1.a.r.a.a.y.$Xd.p.r.b F e.9.9.e.P.^ a.{.Y.s.( ~ t e.P.8.W.Q ).Z.u  .>.!  .( W Q I e.9.1.e.9.I.9.T.m T.9.q.' ",
"%XY.7.` r.1.6.1.N ' V.o.VXV.6.w ` e.w $.2.W.^ 2.2.7.2.1.1.y.t.7.t.t.I.T.A.R.W.C.( <X>X0.P.*.T.6.&.R.0.<X_.&.C._ <XgX,XX.e.^ 6.1.1.{.~ ~ 0.V 9 = f 9.~ M 7 S / v z M M e.0.6.C.I.$./ q.&.( E j ).V.).!.c.qX(.G.T.(.T.T. .C.0.Q T.% U U P Q 0.C.m 5 ( w + X.( ).qXAX| nXc.@XoX_.B.J.{ <X_.1X1X<XzXvXbXuXJ V.=XW.W.W.0.W.%XT.>X}.=X=X_.).iX>X=XW.zX1XzXAX>XXXxXaX_.,XW.W.{.` ~ B ' q.8.W.U.Y.Z :X{.U.I.1.t./ $.1.s $.#.3.a.2.y.2.9.d.Y.a.g.4.t.9.7.a.Y.I.{.r.W.s.Y.` ) U ` T.q.U.Q '.O.nXT V.T.V...i X.X.e.` e.P.9.P.s.-X( h W ( ~ ",
"i.i.p.r.9./ _ M W.P.>.J.| ( e.y V 6.` / 2.7./ 1.2.r.%.2.y.r.a.a.I.t.q.R.T.F.W.R.C.P.T.0.S.w.C.e.w.W.w.OXR.T.C.( sX(.>XX.^ q.a.e._.C.w.~ R.w.q V w 7 E M 9 ` h Z b b 1.6.( 6.( ,XP.D.q.&.~ X.S.O.B.j sXH.Q.`.c.A._.V.0.OXT.( ( U X.U y U ..U -.W I ` =X_ U XXH.rXpXAX~.!.).L.J.E.O.O.XX>XXX_._.CXgX<XbX<XJ uXT.:._.W._.P.XX_.XX1XW.G._.).,X=X=X=X,X=X,XAX>XgX<XE.1X,X,X;X}.q.e M E ' X.X.P.a.W.-Xa.Y.{.P.t.#.B / S %.^ a.y.{.r.4.i.e.t ( 1.#.$.$.9.{.t.W.T.e.a.2.e.8.v y _ >X0. . .Y oXX.Q T.T.T.>.I ..U M 3.W.1.1.U T.G.M ( G.e.",
"2.i.p.r.1.1.' y 6.W.j L.! =X7 q m ` m w 9.2.$.$.r.#.#.#.y.1.R.I.R.W.t.P.I.P.R.P.F.&.C.P.R.0.w.D.0.W.C._.T._.T.(.G.A.C.C.8.v U m m P.~ ~ M $.9 b M M V ~ 0 + B ' w P.9.8.) 9.t.9.7.D.9.6.q...) + ;.T T +.yXZ.uXOX:.:.B.T.O.I  .O.S. .0. . .Q <X_.X.% 0.E.(.^.Q.x.[ wX~.`.!.).OXT.T.>.V...-.V. .u a pXH < VXoXQ.c.VXaX>X<X)._.1X_._.uXC.R.,X1X=X;X_.,XXXjXCX>X>XAXVXvXw.P.=XY.v v U e.U.;X=XW.-XW.W.I.Y./ 9.$.` ` Z %.r.@.#.y.9.t.p.s.9.P.a.B B M S M ` 6.a.P.t.q.9.` U ' _ ~ T.I C.C.Q C.Q C.).T.w._ ( y h W 9.6.m ` U X.w.B C.6.",
"=XW.W.R.` C.C.=XU.V.J K ! e.q _ 6.( M w 9.,.1.1.2.2.^ #.3.r.9.I.I.I.D.I.R.W.R.R.D.F.W.C.X.E.C.F.*.P.B.OX_.>X6.X.B.( ( _ w.$.U y.y q 9.a.^ ) = 4 y ~ V y M * V V V V _.>Xw.7 t.I.e.9.R.) 6.D.&.9 ( ZX(.yXO.Z.J.K._.>X+XB.V.(.:. .0.J.A.Y o. .T Q I Q G._.xXMXc.pXH.c.;.).`.@XOX).=XXX).U.W.C.S.S.T.Y ).W.C.+XW.0.W.,XC.<XOXT.C._.OX(.;X}._.gXzX=X;X=X1XVXAXAXjX>XT.).XX>XJ.=XW.6.s Y.-XX.%X$X,X%XP.{.I.S 9./ ^ 6.B 2.t.t.2.2.r.r.r.I.3Xa.q.8.1.) ~ X...T.y 1.1.$.1.m C.-.m X.0...S.Q X.( Z.P J.).G.L.-.Q U 8.,.^ / q.` M 0.W v ( ",
"I.Y.{.;X` ) E.S.o.Q { { >.M M 0.C.` C.~ U.2.2.9.2.#.$.#.7.R.{.t.D.I.t.R.R.W.R.I.P.D.( T.F.T.q.F.w.w.C._.W.-.U X.>Xy ....0.P.}.#.r.U 9.1.a.r.$.7.s y U U M & 2 m ~ ) q B q.a.t.t.t.W.P.q.q.D.C.6.i 0.wXqX~.`.).`.+X!.pXOXV.).S.(.(.V.K. .{ +.Q W C.Q  .uX| c.qXJ [ ^.} Q.wX).<X<X=X,X=X XW.E.S.G.=X-X=X;XE. .V.{.V.>.OX0.K.A.V.J.).T.iX1X=X,X,X=X>X,X,XOXVXAXjX>XJ.<XyXOXuXJ.,XY.q.Y.{.6.R.W.e.U.U.%X6.n 1./ $.~ ^ I.7.1.y.r.s.s.r.W.{.[.zXI.7.$.e.e.8.j ) w.-.0.( X.( 6.N t ) ..0.( _  .S.XXj +X+X+XW _ W U 9.6.e.6.e.0.A.` ( I ",
"C.t. .X.8.T.B.v.T.J U B.:.X.E.q.C.8.w ,.2.1.9.9.7.#.#.$.#.t.{.}.P.I.P.W.I.W.R.R.R.t.P.}.( X...C.0.R.w._.OX) B.J ) 0. .0.e.e.}./ ' ' M 1.2.2.#.2 0 M m m & B y o i O v ) Z t.t.I.I.Y.I.e.q.^ B 6.N i u Z.AXc.l.).K.oX).K.J.V.:.{ ).gXZ.+.).uXC.A._.E.iX).oX+X(.J.uXqXk.Q.yX| gXxX1X<X<XXXU.XXU.P.R.e.R.P.P.%X:XV.+Xc.O.V.CXC.(.H.fX>X,X>X,X<X<X_.W.W.=XXXjXjXVXAXw.uXaX).yXjX0.U.9.e.e.C.q.P.U.0.C.=X%XB 7.7.6.Z / a.P.P.s.{.%X$X1.I.s.a.Y.[.s.e.1.1.,.` ` _ y M -.9.( U U p M N ) _ ..U W jX:.E.jXE.` ` W M 7 / $.( 6.) ) V N 8.",
"C.M ( ( ( E.BXG.0.( O.v.Q ` ) G.C.( M a.2.y.2.1.9.#.%.^ #.7.}.9.R.R.W.R.P.R.P.W.P.F.q.0.S...F.X.T.w.V.T.C.( OX+.U 0.0.( _.A #.9.=X1.1.) ~ X.R.P.V I.E 9 t = / 6.w = 1.e.1.t.a.Y.W.I.r.D.&.6.n ~ X. .0.+.| AX`.!.`.`.!.J.'.`.c.cXcXuXfXJ.>.aX).).OX(.!.oXV.K.'.E.>.v.@X`.K +XcXgXiXE.>XXX_.=X=XW.e.C.P.P.P.G.W.R.L.:.S.V.gX>XAXV.+X).BX>XK.T.T.T.T.q.P.a.>XuXBXVXOXfXjXX.gXuX<XX.G.E.I T._.u.9.C.0.W.%Xt.9.t.A ) 9.$.e.a.I.{.Y.I.p.W.s.I.&X*Xr.2./ 9.R.e.8.6.8.8.q.( i m m U W X...w t U u G.MXt _ G.w.` _ j h U X.C.0.0.0.w.( O.",
"C.w.Q E.=XQ.K.E.S.0.O.yXC.C.X.( W W ..I.2.y.2.9.1.#.%.1.1.r.{.q.C.R.}.C.D.R.P.W.P.R.C.( W.0.&._ q.e...>XiXP AXgX( ) ..( R.#.e.7 C 9.=X1.9.9.P.9.#.r.6 M ` m C.Q 7 Z a.` a.I.a.[.{.{.R.P.&.q.' B B 9 0.C.uXb.AXnX`.`.!.H.V.jXjX+X!.fXOX!.'.OXOXV.K.qX).J.C.>X).V.).qX`.v.uXfXgXgXjXzXzX<X<XXXW.U.R.R.R.P.P.e.=X8.P.1X:.J XX:.V.pXlXVXyXCXCXAXwXJ.W. XR.R.:.jXo.uXjXoX-.:.E.+XyXyXkXXXXX).-.R._.o. .S.R.Y.` t./ ) t.$./ I.t.{.Y.=X_.r.{.W.$X2X%Xs.2.P.1./ 9.^ ` 9.9.6._ j X.6.M U h W _ 3 u -.XX~.U -.e.G.6.` 9 q U ( C.4 _ w.).V.",
"W.W.Z._.K.OX).T.G.V.{ qX_.y w.6.P.( v r.2.2.2.Y.,.7.F y.r.}.t.1.$.` 0.C.W.P.}.R.P.T.I.q.T.T.C.W.P.S.O.BXT.+.C.X.w.U _ X.e.P./ s S / F 7.2.1.1.#.2.0 y y S.r ~ v f _ 1./ I.s.I.Y.Y.a.a.P.) &.` E ) ` w._.K ).c.ZXAXZ.AX).K.fX!./.~.uXuXcXZ.).J.!.).'.yX>.0.E.V.).+Xc.~.>.c.H.uX<XiXiX<X<XO.XXE._.=X_.=XXX;X%XP.e.e.q.W.!.).:.W.R.` R.XX_.OXC.jXBXE. XW.;XuXV.yXOX).nXlXC.W.fX).XX_ ).T.).0.G._.V.OX{ T.I.~ q.7.$.9.$.t.e.I.t.t.[.W.s.-X1XOX;X2Xs.a.a.P.$./ 9.' 1.1.X.N ( ) 8.( ( ) y 1 q I _ E.hXe.N C.w.e.e.=.~ A.y X.( T.).0.U.",
"0.G._.+XAXc.'.).G.Y V.pXE.8.Q C.1.8.S r.%.3.2.r.r.4.9.7.2.I.2.9.q.&.) C...C.S.e.R.0.0.W.q.O.=X}.R.F.( CXxX{  .U  .P -.T.y ) {.8 s e 1.3.9.9.2.W.2.* %  .( ( m ) 9 B ~ ) e.q.t.P.Y.a.7.) ) e.~ v C.` 9 m u o.pX} AXmXZ.hX`.VXuXqX`.yXyXyXoXE.H.wXjX>.A.J.aXuX:.<XT.>XuX| gX+X<XuX!.>X+XV.>XXX,XU.R.q.G.q.8.` X.T.T.e.,XJ.>XW.U.=X-.1X<XT.W.AX_.AXC.G.G._.E.).VXZXuXmXAXOXT.E.xX<X:.P ).E.).J.:.T.w.).G.%X&.&.e./ 6.7.e.t.W.=X{.r.}.%X=Xa.T.a.1.6.Y.=XI.1.7.#.$.1.6.v j W U ( Q ~ U B w % % V.J.Z.XX_ u.C.C.-.8._ C.` -.T.E.=X6.P.",
"L.:.oXjX!.yXO.u I J Q c.I G.T.G.8.' V ^ / 3.2.2.4.i.4.y.a.2.$.I.Z ' 8.q.0.q.T.w._.C.C.B.P.V.0.P.F.C.+.AX{  .I O.....0.0.0.j ; - $.s D 7.2.1.2.2.e.w O v q q M ` & 2 B ~ &.~ e.t.$.) 9./ ( e.6.) 0.1.q B e.-.v.| o.mXNXZXmXqX).`.oXwX`.jX`.OXx.hXqX).'.uX_.OXOXaXXX>XgX4XuXOX1XiXXXXXXX>X).1XP.R.P.e.D..._ ~ e.C.C.;XG.6.c.G.P.=XT.U.=X1X=X-.uXC.yXU.w.T.uXuXZXZXBXuXZXAX<XOXBXW. .Q B.).<XJ.aX0.w.C.X.W.;Xq.7.e.9.7.6.$.e.D.{.s.I.{.R.q.q.1.1.6.P.~ I./ $.B l _ 6 2 & yXC...T.v 7 o v % U T.E.@X~.6.w.w.G.6.w.e._._.6.XXXXXX=X_.",
"_.S.OXQ :.I _  .Q k { k w.8.I C.` 6.B S C F 2.#.3.p.s.r./ 1.9.2.^ 8.F.` q.8.T.T.w.C.T.}.R.T.S.C._.F.:.AXAXQ V.0.O.B.P.t.P.U Z s S Z z a.a.,.#.2.9./ 5 ~ . 9 % ..6 U ` &._.M X.6.&.9.7.$.Z ~ &.v v M y ( Y.` u V.c.uXNXM.0X`.hXv.x.Q.H.^.`.oXrXQ.jXb.`.>XxXXX_.E.<XgXgXgXuX+X+XiX1X,X1X>X X1Xo.c.J.J.o.=X_.e.G.E ` M ) e.G.U.yXyXo.G.W.U.XXOXuXP.aXXXXXjXjXjXCXVXnXK.<XlXAXjXjXE.Q w.C.>.L.>XfXW.T.G.C.R.1Xm a.e.9.6./ $.9.I.{.a.9.9.q.U N m 6.P./ 6.^ 6./ z j y -.j -. . .( M M M X.2 2 X.E.E.<XqXG.G.J.E.E.J.6.).C.X.sX>XsX>XXX",
"_.K._ :._ 6.r j j k oX! I q.U.w.P.e.6./ C C D 2.r.r.a.2./ 1.7./ ) q.6.$.q.) q.D.R.F.T.T._.P._.O.0.0.:.AXAX0.C.V.O._.&.Q C.& / ~ $.1.3.7.M 2.1.2.7.1.X ( O U v A.U 2 E ` ` _ ~ P.$.) 7.$.^ E E f M U 6.~ 6.e.Q J.'.c.uXBXM.@X@XpXVXhXQ.} Q.Q.NXH.AXH.jX<XXXjXE.aXuXuX1XXX<XgXaXzX1X=X=X;X,XXXc.K.V.T.Y V.E.6._ a.~ N S 0.(.G.C.wX>. .[ V.AXnXnXCX_.jXgXuXjXCXVXZXoXjX).<XZXAXyX<XG.C.O.C.0.<XV...:.0.W.1X1XM 1.6.9.6./ 6.M t.I.t.^ ` 1.' 0.j 5 & q 0.9 _ P :.I Q y u j y Y w U B v &.y O m X.XXuXOXXXw.E.+XE.C.w.X.6.N xXsX>XOXW.",
"uX:.U -.0.-.w.u j { [ r ( w.6.8.6.6.t.B D Z 7./ #.2.a.#.S $.1.D &.q.D.P.e.q._.T.F._._.T.F.W._.0.V.B.).uX:.A.C.B.O.VX( <X:.9 t.x #.#.1.2.o 3.2.3.` U I &.( 6.O.E.m e ) 6.) ` M t.9.~ $.$.w t._ ~ ~ ~ R.8.~ I.X.T.G.uXV.uXuX!./.wXVXrXhXmX0Xk.Q./.Z.qXfX<XXX_._.<XgXgX1XgX<XiXE.1X=X>X,X1XP.q.6.M Z.6.P.S.C.P.I.E v Y.X P.;X=XT.<X:.6.eXjXjXnX+XC.T.>XcXuXjXVXAXBXjXpXOXfXpXZXnXuXXXS.C.G.C.).J._.E.T.E.T.iXw.$.6.9.$.#.$.^ 9.$.e./ b P.B q B I 5 2 5 :.>.p j j h j 1 U 9 S / / M M ( 9 X O C.G.XXmXXX X@XXXG.-.w.8.C._ fXOXiX!.B.",
";.Q m G.w.-.w.-.Q | O.w.6.-.w.6.6.9.e.6 B 9.n 1.1.2.1.9.Z #.S ^ X.` ) 6.q.` e.T.T.T.T.T.F.F.W.E.T.[ VXsXE._.T.:._.aX6.uX:.5 M ` e.#.1.y.0 s.t.a.M % S * ~ 9.~ 7 U = 7.^ ` ( Z 6.e.` ~ b $.~ E _ 6.e.` M t.e.` Q J.:.OXJ.@XOXyXk.Q.pX0X/.eX#Xm.n.v.`.gX>XuX>X+X X;XgX@XvXzXzXgXgX>XiX,X<XP.e.6.9.M 2.y 0.t.y Z.M a.o P.w.W.%XW.>.OXtXAXAXuXAXCXjXAXCXxXjXuXpXmXjXjXoXOXCXZXmXZX).<XG.B.! ..>X).V. .:.Q _.1Xq.~ $.#.S $.6.~ 9.1.^ ) / 9  .T :.U u p m j 9 j O 1 p 9 % V B S / 1.P.^ 9.~ b 6 5 G.XXK.MX<XE.E.w.E.E.XXOXW <X:.`.wXpX",
":.G.X.-.E.L.G.:.Y c.Y w.0.w.U w.6.6.e.9.` b b n 7.<.3.#.v z B ~ B S 6.F.q.8.D.` q.T.P.E.T.C._.o.c.c.AXnXE._.(.:.w.G.) :.m t 9 9 7.1.r.^ 2 ~ M q 6 / n S 1.7.v w.0.o B / ) ~ A / 7.Z B E ~ E m 8.W.P.8.6.-.8.e._ T.;.K.K.aX>XyXyX`.`.0X0X/.ZXNX^.`.`.gXXX>X XU.E.+XuXfX+XCXzXzX<X=XC.,XP.D.q.q.e.X.N q.s.[.' :.P.e.W.( 0.G.;Xw.x.OX0.6.AXC.E.).).C.C.xXAXaXVXAXnXVXOXoXZXAXMXZXuXE.T.<X0.! OXV.+X:.OXS.C._.=Xq.B ^ ) $./ 1.9./ e.z ` ( S.( P t ..m 1 Q j 1 3 t ' ` ` y $.S ^ S ^ e.P.e.C.B 9 _.V.OX| Q.XXXXL.E.E.yX>XaXE.jXoXlX:.",
"T -. .q.-.X.-. .{ { r u J  .G.6.e.1.T.P.v _ e / x ,.F s n ` ) ` 7 8.&.~ e.w.6.~ ) R.T.q.w.F.T.).jXxXCXT.G.'.'.>XjX .C.BX! m 5 M q r.$.i.U 7 t ( N M B 1.=Xe.' t.I.& ^ / $.) f b / #.~ ) M 6._ q.;XR.) 8.1.9.e.8.0.+.OX).`.@X).qXyXpX`.Q.hXnXn.^.AX<XVX<XiXXXE.<XE.iX=XgXvXCX1XC.T.W.}.w.X._ 8...P.` ) m q K.R.J.;X,XX._ -.OXA.<XwXJ.:.sXiXP.).C.0.P. .).iXVXAXAXjXjXH.ZXZXAXAX).>X(.A.P O.:.>.E.T >X).Q C.=X-Xt._ _ ^ Z / t.7.1.$.) ( m ..t U t 1 O.T a , % m ) ~ / ~ / ^ V V ' 9.6.e.9.X.I 9 :.XXuXhXv.jX<X).T.OX:.:.XXjXAX`.A.",
"S.( U U.e.` Q a Q t -.-.k 3 I G.( e.6.` = b e = ,.A n B ^ / 8./ q 1.6.' ` 6.q.q.6.6.C.F.P.R._.).AXCXCXjXT._._.).BXp h AXOX{  .y I I t M h = U v O.0 ,./ }.W./ 2.t.7 B Z / $.Z E #.^ ^ Z B X._.1XW.q.$.e.6.e.U.6.-.).T.J.qXpXOXOX+XyXOXpX^.hX0XqXgXgXjXuX>XuX).+X>XP.P._.XXG.XXE.:XW.W.W.;XW.,XP.6.` U $X0 OXoXH.)._.XXP.>Xv.lXw.oX-.e.OX_.>X_.G.w.w.G.C.:.>XAXAXZXCX`.MXMXAXAXL.:.B.Y _.OX! K.).K.0.-.E.I -.{.W.-XN $.6.9.e.1.W.F.A...q Q T p 5 , u , , O + O 9 B B 1.V 9./ ^ C.B 1._.D.8.X., U.>.+XfXOX^.+XG.XX>XXXJ.V.VXpX).V.",
"0.0.X.-.e.W :.Y K a w.8.w.O.j w.( t.V 7 0 8 6.~ B t.W.9 ) ~ 6.` q.) 6.q ' ` 1.q.8.` T.E.T.=XR.(.H.CXpXjXsXT...uXnXy ..AXZXNXw.w.I m v U I h N U t r.2.t.#.1.=X9.S 7 z 1.^ ^ ^ b E ) E E N t.1XD.W.6.9.q.P.6.W.R._ >.:.H.v.).qXpXuXpXyX!.pXlXwX<XvXuX+X<XjXuXXXC._.W.e._.:.U.T.:.=XW.P.;XW.U._ 6.U 8.v R.X.,X)._.A.=XG.w.`.o.).0XT.X.6.X.P.R.=Xa.q.P.P.W.'.+.yXjXAXqXlXZXNXZXMXL.G.G.+.+X).L.OX:.( ( O.O.X.P.) r.9.I.a.2.^ Z $.F W.M 9 _ ) X.h 6 j O , 1 % 9 9 % ` d.r.1.F %.1.1.S e.P.q.6.~ y S.0.OXuXmXfXOX).E.G.OX>.(.fXOX:.:.",
"U _ ( 8.X.-.J k I -.w.e.8.6.e.` q.6.a.q 0.g 9 ( ) q.) ' e.9.Z $.` ` ) ~ t ~ ` 6.&.) ~ P.P.T.V.'.vXZXjXgXV.B.cXVXNXi Q uXuXAXQ C.h B ) 1 h 2 -.X.7 s.a.a.9.@.9.2.Z ..O z b D &.Z #.^ ^ Z X.X.;X1XW.E ^ 6.q.e.e.R.6.O. .).OXb.oX`.uX+X).`.eXH.(.fX<X+XjXjX<X>XsXW.T.T.=XR.P.P.e.q.8.P.=XW.e.6.C.) ` C._ t.W.=X_.).K.o.o.).(.uXC.G.G.P.` e.Y.P.P./ e.R.{.P. XC.:.XXlXAXZXAXMXVXhXJ.B.O.V.B.yX).+.C.0.0.w.~ w.0.T.e.e.t.t.{.2.W.9.7.#.e.v w :.6.q 9 O 5 % v h h q m S / 9.9.r.t.7.e.R.8.P.1.6.U v y G.S.<XuXE.K.1XOX).C.).XX! Z.O.J.",
":.w.W -.-._ Q Y e.-.0.-.W e.W 6.G.w.T.W.R.P.P.E.&.W.P.' ~ ~ ~ q.6.~ ^ ` U j v ~ ~ _ ` T.T.:.V.vXCXAXaXiXC.<XBXVXwX).X.A.9 S.:.V.U w q v U 6.T.y N [.7.y.t.1.9.F #.2.f v w M d b Z Z b E P...R.P.` 6.` ` P.q.a.e._ J Q V.OX;.`.^.uX!.n.`.!.Z.).<XE.V.0XjXXXE.-X>XP.R.-Xq.8.` $.P.P.P.e.,XP.,XP.q.C.q._ 8.C.6.iX1X_.`.+X_.<X>X1X=Xw.0 a.9 U.' q.a.&.Y.' {.e.w.{ >.).!.AXAXAXZXhX).B.T.G.:.>X).:.w.w.0.( ( _ U ) ( 8.` e.9.Y.}.I.1.#.I.R.$.` m P U 2 _ U M o y ' v S ^ 9.3.9.I.t./ $.e.P._.) U y 1 =X_.0._.0X+XXXG.S.w.w.C.w.c._.XX",
"T.( U _ X.X.J w.6.I X._ B _ X._ w.E.G.C.X.6.8.8.t.5 m N ~ ~ q.8.6.q.&.v m U U N ' j I Q (.J.iXjXjXAXuXjX<XxXjXjXmXZXV.+.9 y e.).T.W ` iX&.8.w.T.0.6.I.t.t.#.$.#.#.1.^ f * b v b Z f Z E ) t.%X6.6.` ` ~ 6.C.U.8.0.w...(.J.;.qX^.uXQ.H.OX).Z.<X<X<X`.fX+X<X>X>X_.W.,Xa.P.W.W.P.R.e.P.P.P.D.w.-XT.8.6.p T.T.C.W.<XOX0.<XC.R.U.1XP.( 8.e.M M =X~ I.q./ ` 6 _ u.R.J.O.>XfXMXZXMXVXOXE.T.G.S.c.V.S.S.B.8.0.) ' ~ ~ 6.6.e.9.t.=XI.=X2.}.I.W.$.F.e./ X.2 U v y ~ B n / ^ #.3.4.Y.2.7.1.a.6.C.) ` N m y w.T.C.+XuX!.+XT.w.0.G.U.E.).>.w.",
"G.>Xw._ ( W t _ ` _ N W ( 0.X.P.-.w.C.C.=XW.D.P.P.M _ P.~ B 6.9.6.6.M m ( X.U U U I J ).AXAXjXBXVXMXBXaX<XuXjXfXpXZXZXuX..N OXBXXXU.`._.C.` X.R.:XY.t.r.{.3.2.2.F S F $.0 f Z b b M ^ $.e.P.=X;X9.E E ` ~ P.8.G.e.:.`.K.>X).b./.rXQ.qXH.Z.'.Z.>XxX~._.jXe.E.XXY.e.W.W.a.t.P.W.W.P.{.e.R.U.=XV._.w.( U N =XC.P.R.OX&.P.q.W.) t.P.P./ $.P.y S 6X{.W.W.U.{.{.8.U 0.w.C.C.AXAXeXZX)._.T.G. .:.Q X.P.P.F.8.9.9.) &.e.e.e.U._.,X}.R.I.t.t.W.D.e.P.C 6.` v 9 T v B w Z n %.2.s.7.I.1.1.W.q.q W y 5 9 O W.J.J.-.uX>X+X0._ yX0._.G.w.>.0.",
"-._.-.q.6.P ( _ 8.6.-.8.e.E.8.W.( P.R.T.T.=X=XW.I.U ' I.&.q.E e.6.8.' U 8.U  .-.w.<XiXcXCXCXxXBX+XAXZXCXVXjXjXfXcXMXMXAX:.q W.oX+.OXw.V <X(.C.P.Y.2.a.t.1.=X1.#.#.A t.2.S s B M s Z B E B 6.P.R.h ~ ` ` V e.` X.e.w.O.uX`.].0Xk.OX].oXK.`.!.yXxXjXo.OX>XXX>X=XW.;X;X;XP.W.W.R.W.=XP.q.P.1X<XjX>XW.U.6.N 0.C.q.1XW.}.X.C.9 9 v w.P./ 9.1.%X-XV = ` =X9.=X3.q.8.G.=.0. .<X8XAXZX).J.T.C.w. .:.C.C.C.:.C.q.8.e.&.9.P.s.1XP.a.s.9.I.I.=XW.#.9.9.S 7./ b B 4 w q ' ~ B 2.1.S e.1.$.,X1.U ~ B m q O 1 0.G.J...>.wXG.J.C.E.T.0.T.C.C...",
"V.X. .C. .-.` ~ -.6.8.w.T._.P.` e.R.C.T.C.T._.C.( D.P.N ~ 9.6.~ 6.X.N ( _.Q I G.Y T.gXcXAXAXuXjXuXMXZXxXuXCXlXjXkXhXAXoXT.-.v E.>.MXn q B.V.q.W.P.P.9.9.2.2.2.,.2.9.2.2.I.@.z M w f b 6.` 6.q.P.=Xy N ' v q.e.P.e.I (.>.jX/.8Xb.oXpXjX!.wXH.Z.'.'.`.G._.J.0.T.T.E.J.XXE.W.6.C.P.,XW.w.<XT.=XiXE.P.C.T &...W.D.aXT.6.8.q.P.6.N ~ P.~ 6.Y.~ ~ 6.V = _ W._.a.6.q._.C.T.( 0.yXZXZXZX_.T.Q  . ...I w.0.0.W.X.P.8.e.8.P.P.iX=X}.,Xe.{.7.t.=X2.t.2.#.9.6.~ v 7 v Z * y w B q v 6 4 O.0.A.q ` m y M m @ T.G.G.J. .OXhXw.:.O.Q w.V.w.A.+.",
"-.Z.B.:.-.Q 6.U q.-.N _.T.P.P.8.P.R.P.0.X.C.C.q...( &.M e.8.) ) e.X... .T.I _.X.XXV.gXgXAXAXjXjX0XMXmXVXcXCXwXCXVXnXlX@XuXE.@XZXuXC.~ _.xX:.q.6.a.}.r.=XR.s.7.#.,.#.#.,.#.A #.d A Z E A / }.&.W.P.6 N &.U.U.W.U.).V.o.qXqXM.x.H.8X`.wXqXZ.c.H.].>X>XsX>XOXU.E.OXXXjX1XT.<X,XXX=XW.U.;XP.gX,X,X1XP.T.T.P.q.C.,XX.gX( 7 6.P.X 9 P.a.8.8.` b . @ . e $.X._ d.i.0.w.q.-._ X.Z.+XZXpX)._.X.X.( Q t :.w.0.0.0.0.w.C.e.C.R.dXI.}.P.P.t.t.I.I.t.}.$.P.^ ~ 6.$./ ^ ^ S ^ x e.1.R.I.9.q.X._ O 5 T U N 9 O U.e.G.V.:.>.uX_ w.G.0.X.OXX.>.[ ",
":.O.V.'.Q _ 6.X.( W 8.P.` U q.a.C.W.C.W.q.C.R.q.C.P.m q.6.M 6.e.q.~ _ W.T.S.+XE.<XiXcXCXCXZXjXuXhXNXMXVX>X).MXnXAXfX!.pX+XQ uXc._.9 O ;XiXT.0.P.Y.7.2.<.y.t.E 2.t.F #.2.<.@.F Z b / v / E =Xy B 1XU.;XU.w.G.U.E._._.Z.~.).rXL aXrXb.H.jXZ.).`.G.T.>XXXOX>XR.e._.OXxXOX<Xw.0.;X-X;X;XW.e.sX1X<X1XXXW.P.P.C.P.,XW.=X_.v t.D v X.e.e./ 1.Y.^ w   b e B ` q.I.I.D.` U -.6._ j AXNXnXwX).OXX.Q Q  .T X.C.w.:.w...( _ C.{.iX=X,X}.7.Y.t.}.9.r.7.7.e.P.n >XS ` B ^ D D 6.Z $.9.9.` 6.S ` N U t I Q 1 _ 8.R.XX( >.C.+X-.T.'.G.w.<XX.>.o.",
"{ { (.C.(.OX6.0._ 6.u.W.6._ U U.T._...T._.q.w.P.F.R.D.9._ &.e.C.0.V.P.T.0.G.C._.+X<XjXCXmXVXjX+XjXn.NXZXiXcXnXZXAXCXZXuXAX, AX<X;Xq 6 y (.T...T.P.I.r.' d.U a.2.1.1.W.F #.2.@.S e %.S Z Z w 7.X.9 p & 6.( ;Xe.XXT.E.V.Z.Q./.m.yX`.qXyXpX^.`.aXT._.>XG.XX<X;X,X..E.+XK.XX1X;X;X X1X%X,XT.gX,XC.iX=XW._.T.bX>Xt.W.W.W.C.4.V P.w.P.t.s.t.a.b q 0 7 8 * ` D.6.{.s.( P.X.` I -.fXuXjXmX<X:.Q m ( P i Q C.X.( _ 0.U O.w._ P.Y.=X;Xt.Y.P.e.W.I.{.P.t./ P.$.$.q.Z Z ^ t.D ^ W.$.B T.~ q.P.P.v o m * y _ 6.W.U.e.V.V.OX| :.).C.X.w.0.w.v.",
"~.Z.Y '.>X( ( T.T.e.9.a.a.U P.W._.=X=XS.q.C.w.X.W.F.e.6.6.q.X.e.0.J.C.Q U ( 0.C.iXyXcXAXCXVXxXfXkXmXwXAXCXcXlXZXNXCXhXhXJ.(.o.-.w.2 h v C. .S.T.F.=X1.B ~ 9.7.1.<.t.F #.1./ C D D z / &.&.E ` f U ..w 0.6 a.w.0.w.T.OXaXL k./.`.qX9Xb.~.~.`.oX_.aX<X>X<XE.W.,XU.E.W.E.4X;XzXW.;X1X;XU.XXiXT.XX(.zX%X%X_.>XD.P.W.P._.6./ ' q.1.9.a.s.s._ $.7 9 6.* B ` f t.d.%X..) 6.W 6.w.V.V.).jXqXT. .m P P I Q P U T 0._ C.C.w.O._.W.,XY.xX-XI.1.6.e.R._.C.$.&./ / ) F.$.q.D.S $.C.$.R.D.` C.6.q.S / + j 9 . I _ 8.=XC.sXv.0XG.V.T.J.L.w.;.Q ",
";.c.| ).>X-.U C.8.6.Y.W.-XP.a.e.R.;Xe.8.&.&...T.D.e.P.F.6.q.q.U 0.X.G.C.w... .( u >XCXVXmXZXZXqXMXMXAXMXgX<XcXZXZXeXfXOX:.yX'.XX& ( -.v W.T.C.T.e.6.6.M U 9.<.3.%.R.#.#.r.c c D d ~ x #.6.q.e A U E U N = o s.E.P.C.G.'.^.nXn.`.0XQ.Q.^.n.pX`._.J._.uXW.<XaX>X=XXX;XE.=X>XgX;X,X1X1XbXX.OX..)._.iXvXXXsX_.P.P.P.P.&.%Xe.7 + P./ U.Y.9.Y.1.1.M / M V q.M Y.;X-X~ ).<XP ) P.Z.o.OX!.nX).G. .( :.( Q ( 0.B.C.( X.X.X._._._.1X,X,Xs.,X,XP.q.D.R._.$.P.$.D.^ q.P.P.6.e._.P.D.~ T.q.8.6.` C.P.2 + 2   1 8.P.;XT.OX`.oXV.J.T.A.V.{ :.K ",
"v.!.| OX>XE.C.0.6.) _ e.%XU.E.=XI.W.R.0.q.C.R.R.C.P.R.C.$.G.P. .J ( :._ X. .G.S.J.).fXAXqXZXeXAXhXMXz.NXAXZXZXAXNXCXAX).pXK.iXC.( 6 T :.q.W.T.$.1.T.' / ~ 1.r.a.%.7.F I.F 1.2.c q.s S S Z w s ~ y 9 6 7 X.7 4 e.w.T.V.oX0X0X`.rX`.b.Z.x.].~.OX+XA._.iXaX_.aX=X=X<X<XW.T.T.vXgX;XzXbX6XU.).J.w.w.OXaXK.6X;X-X,X=XD.C.U 6.A s v I.d.%X;XR.t.t.M M m / w ~ -XY.3Xw...8.X. .8. ...Z.).jXeX).Q r 0.I  .Q X.G.( B.C.8.C.X.E.P.}.;X,X,X{.=XW.T.C._.F.6.P.9.C.~ 6.6./ |.6.6.^ $.' T.B ` ^ 2 v ' & j ( N N W U.=X<XG.).fX:._.G.w.O.Q Y { ",
"wX).o.OXOXOXyX.._ -.X.9.W.{.0.;XY.;X}.W.0.&.}.0.T.T.W.q.N U _ Y T Q ( ( X.6.0.Y OXOXxXhXAXeXVXNX/.NXtXAX+XfX<XVXAXVX+X..H.OX_.w.' 1._.y T.W.P.6.` q.&.` Z W.t.F 1.2.R.F F D F D Z B B B Z v v 7 9 g & U y v ` w.8.q.V._.x.[ ).| Q.].n.eXrX/.jXaXT.<XOXiX>XiXq.1X<X=X=XC.;X_.<XU.T.'.4XX.+X>XXXE.J.jXiX1XsXzX1XP.1.( t.F.c 8 / 7X%X9.^ Y.&XP.r.C.Z v t.` U.sXq.W h $XX.Q U { J Y !.qXCXoXV.t i ..U j j T 6.T.X.D.X.8.B.}._.}.W.=X,X=XR.C.` w.6.T.9._.6.` ` R.C.9.$.^ 9.6.9.` $.~ ~ Z q f N U.( m 6 e.:XW.T.Q aXJ ;.OXw...O.! ! r ",
"!.r J V.H.c.T.C._ N N U.%XY.U.-XU.W.%XW.X.,XW.=XP.C.) ` u ( U Q  ...Q ( 0.X.w...o.uXcXAXAXAXeXZXMXwXAXOXoXc.XXjXuXuXgX;.nXiX1X0.iX_ q.}.T.E.1.$.q./ / 6.9.2.7.r.2.t.F F F #.A D D B 8 E ~ ~ 4 ^ f 2 * N   6.w.) q.T.0.0.0Xv.`.b.OXQ.k.9Xm./.BX>XG.jXiXuXiX<XXX,XgXW.1XU.gXcX<XvXyXXXXX_.).aXC.XXyXK.1XiX1X1X-Xe.e.$.v s n 8 i.s.%XY.$X%XP.e.9.zXe.9.q.s.:X7XcXe.` :XV.j ( K Y  .V.qXuXrXfX .:.O.O.r U O.C...V.w.&.C.C.6.P.T.,X,X,X1X,XV. .X.-XX.~ _.9.E >X}.) ` e.t.e.9.6.S S Z 9 8.` h W ;XW ( t X.6.;XU.:.V.Z.[ V.w.O. .{ { H.",
"O.a Y V.aX'.U U -.( -.W =.Y.U.a.;X1X=X1XW.Y.-X$XP.C._ ( U  .w.J  .( _ ..-.Q S.k Y >XxXAXAXZXmX^.lXVXVX!.o.XX,X;XuX<Xv._.e.Y ) <XW.A.P.w.e.1.P.D.}.P.I.q.1.#.W.@.%.1.F c C F D F x v b v 0 v v U M w 9 w v ;X .C.C.C.G.L.wX} n.).pX`.n.n.rX/.^.iXuX+X<XuXXX<X1X=X=X<XE.<XxXVXuXcXuX).jXJ.+X>XOX'.OX_.:X1X-X X2Xe.1./ ) S U V 9.P.[.i.1./ q.a.I.Y.I.=X,Xt.I.bX0.S.B %X1X0.X.:. .Y { OXuXuXhXqX>.X.u ( ( ( U.( U m 8.0.6.E.e.P.,X,XW.=XC.e.( C.X.W.sX_.~ e.<X9.9.~ #.6./ #./ / ` N t 9 V W y 2 t h ` X.u.6XE.OXw.{ wX>.0.o.;.+.+XOX",
"J `.OXG.w.Q C._ 6.U.W.:XP.P.q.s.6.[.Y.[.Y.` Y.a._ 6.6.U U O. .I  .0.0.( ( :.I ! V.>XxXCXCXhXuXVXjXVX+XH K.iX .( X.v.>X( U N W.XXW.P.G.8.( D.9.1./ $.W.t.#.}.$.A #.t.$.c c C $.x D S s s f M * 7 ` ) : X s.W.0.X.T.C.T.C.c.] 0X).Z.+XOXfXQ.BX0XAX<XfXxXXXxX,XaX_.=XgX,X+X<XgX<XOX).J.!.J.).G.@X<XE.W.%X-X{.-X:X9.1./ = 8 C z I.s.$X%X` 9.z * 1.^ {.w.1X1X[.zXI A.j %X:Xj A.>.Y o.{ '.).+XBXpXY  .T J W.W.sXE.U U U _.y C.t.e.R.=X=X{.q.F.C.C.M U...X.0.w.w.&.9.) P.}./ / $./ o y ~ 6.U I 6._ m m -.e.vXC.G.).:.o.uXZ.{ :.o.V.pXJ.",
"oX_.J.J.W.X.( XXR.%XP.%X$X:Xs.Y.8.~ t.s.( q.X.U AXG.6.Y V.:.( ( I ( X.m _ O.X.>.(.>XuXAXmXZXVXjXjXxXOXiXbX_.T.O.( uXI p zXU =Xq ) 6.1 W.=XX.6.P.7.$.^ ^ e.Z 1.^ #.%.#.D c D A b b ^ B b M B M 0 0.= B ) :Xe.T.E.E.:.).G.~.V.0XZ.'.OX`.hXrXoXjXxX>XaXuX>XiX<X>X_.=X1XW.zX>XgX>XJ.L.V.>.J.+XjXjXC.T.;X,X:X%XY.a.7.1.2.$.#.~ 2.Y.1.1.9.S V 7.. - q W.{.[.W.X.6XA.X.Q :X6XI.A.0.K Y Y OX:.OXOXuX). .r U U.P.R.P.C. .( U ~ v q.q.e._.,X8.e.q.X.( ,XiXT...T.8.C.8.q.I.$.q.v e.~ 6._.q.p m q 1._ m m t P.=X1XG.Q ).c.@XpXJ.{ +.+XuXK.H.",
"o._.T.E.U.G.U U s.I.1XY.p.1X:X&X-X;X_ 2 6 P.q.6.J t { ! +X:.Q V.0.( X.:.U -.X.V.OX).jXAXmXnXZXVXjXfXV.<XgXC.( C.( zXI ,X( N ( 6.C.e U.W.W._.~ $.e.1.#.#.^ #./ F F D A #.S #./ B s v Z b $.~ v v m 6 ` P.1X-.C.<X,XG.G.Z.).J.Z.).+X<XuXyX/.m.oXwXgXE.xXaXxX<X,XXXXXE.gX=XW.U.).T.C.).J.>.BXOX0.:.=X_.G.G.P.%XY.Y./ ,.9.$.z p.r.[.3.9.6.6.1.* . & w 6.iX,X>X$X_.P.C.zX;X[.W.u B.o.c.c.K V.A.A.CXY u 6.G.( w.R.R._.E.~ 0.A.6.&.C.P.6.D.( T.0.}.1Xt.iX0.w._.T.8.) 8.C.I.e.I.P.P.a.P.U y 9 v y ) C. X;X6X=X:.OXc.).VXuXqXo.!.nXqXV.kX",
"G.E._._.T.-.X.W T P.s.iXY.&X&X%X$X%X9 U ~ ~  .G.G.-.Q Y | j { @X:.:.:.Q Q 0.V._.jX+XAXrXmXhXkXpXgX>Xo.iXXX_.G.C._ T.( cX( M P.P.q.( q.R.W.1Xq.B U 1.$.I.}.#./ x %.F #.$.#.#.Z ^ ` ' ~ B ' ~ y v ~ ~ 9.e.G.1X_.XXuX).A.| qXT.H.OX>X_.).).qX/.wXwXiXjXpXjX+XgX1X=XXXW.<XP.U.w.U.XXK.J.J.).ZX_.-.G.6.G.P.P.e.P.:X%X%XI.s./ P.1.a.;Xi.9.D b 6.b ..  ../ S 1XU.,X6.Y.=Xq.P.:XQ , O.V.A.0.:.P +.a jXc.I C.Q 1 a 0.W.U.iX_.t ( X.R.8.P.6.U N ( N (  .C.=XF.0.E.q.T.P.e.T.=XY.~ M o 7 s.s.8.h y W e.-.Y.1X=XG.A.V.c.`.eXnXZ.`.mXpXV.nXH.",
"_.C.J.).T.w.U v y 6.U.%X%X&XY.Y.-X,XT.W.P.=X1.B _ e.).:.X.{ c.x. .X. .(.S.).U +XOXfXkXrXZXhXAXvXuXJ J.>XfX=XT.<Xw.0.X._.X.9 W.q.9.h W.W.P.,XW.%X` _.D.#.1.P./ e.C #./ #.Z ^ ~ ` $.~ m ~ E E v M U.8.q.e.e.S.J.<X).+XA.n.`.H.`.).+X).>X>X'.pX@XpXVXfXjXxXxX=XXX=XW.P.W.U.U.XXiX_.4X-.).uXuXC...6.Y.%X[.$X,XU.q.a.s.-X$XI.Y.-XU.a.9.) q.8.t.=Xo 4 o M $.=XW.&XT.=X-X:XW.W.=Xw.Y _.,X<X_.iX>X:.!.jXj  .P t O.i C.>X,XP.) y ..) T.C._.e.q.e.X.S.m P.iXI.' P.>X<XW.0.P.P./ 7 * 7 e.{.s.-.W j u.e.U. XzXC.O.>.V.oXlXrXhXK !.nXpXVX).:.",
"_.E.J.U.Q X.q.e.a.e.P.%Xa.;X$XY.%X8.9.-X%XP.Y.Y.W m :.'.(  .o.H.O.{ Q B.).OXB...V.uXAXk.NXZXuXVXOXXXiX_.:.iX<X<X,X0._.1X=X,X8.P.P.6.W.R.,X1X,XP.zX&.^ $.W./ W.t.^ / #.$.$.~ ` U y ` ) 6.6.P.e.Y.C.P.a._ C.<XE.gXOXV.Z.).qX~.'._.aX).<XjXpXaXnXjXuXaXjXXX_.U.=X;XW.=XW.W.U.XX>XU.L.gX+X).T.V.:.%X%X%X%XP.a.a.a.Y.$Xa.Y.[.9.a.e.U.[.n Z ~ 6.=X& = v = P.n :X-X;XM ;X1X:X-X1XR.G.E.,X=Xu iX,XXX:.+.Y C.P { ! +.i j q.=X=X<X..V.>Xq.6.q.e.q.( y ~ ( C.$.t.<X=X=Xw.=Xe.i.7.7.S ^ Y.s.P.e.h q.6.e.;X1XU.:.'.yXc.uXZX#XeXoXo.nXpX!.V.OX",
"_.:.Q G.U P.6.U.Y.}.=XY.Y.a.,X_.B 6.X.q.9.Y.' t.a.=.O.^.V.>.o.Z.).+.V.T.).OXV.B.c.Z.AX/.ZXAXV.xXJ.XX1Xu Y P zXT.O.1X<XC.S.P.R.R.P.6.6.( U.E. XU.G.U.' $.S B 6./ 7.$.1./ ' t ` ) W ~ M ~ 8.q.m e.e.q.P.w.G.iX>X+X+X'.!.Q.qXZ.G.sXOX).OXjXjXjXoXjXpXcXXX_.>X=X<XXX XW.W.W.XX>XOX).<XjXjX).C.U.%X%X%X$Xd.Y.-X$Xs.s.{.s.%X:X[.9.R.%X-XY.7 n B / y U   E.}.` zX-XzX2XO.iX1X-X-XU.iXxX1X,X+.W.W.XXW.T.+XJ o.J  .:.V.Y ( 0.,XzX6.I C.P.6.q._ 8.F.W.6.0.$.I.Y.=XD.W.U.1XU P.Y.Y.7.s.$X1.y .X%Xa.U. X;X1X_.+.J.J.Q.VXeX8X^.mX).nX~.pXo.OX",
"X.B.J ..E.U.e.a.a.s.Y.=XP.U.P.=X;X,X_.P.X.R.e.P.9.) 8.v.c.n.!.>.c.V.Z.A.V.qXK.B.V.pXkXAXnXCXu CX_.OXE.T.).C.X.X.=X;XE.w.T.P.R.8.e.t.9.8.h -.XXW.:XU.%XU W 2 + ~ ~ 9.8.` t i _ m 1 v U XXE.P.6./ q.q.q.-.=XuXK.`.qX!.Z.`.~.).J._._.>XOXxXuXOXpXxXcXxX>X=X;X<XXXXXW.XXW.W.iXiXfXT.L.J.xXL.E.>XW.%X%X$Xa.7.^ r.p.Y.:Xt.7.[.$X[.{.s.$X3XZ Z X b X.$ . _.W.6.D.,Xs.cX1XE.>X,X2XC.).c.XXzXA.,XXXXX,X,X{ T.Y ! j Z.I I I :._.=X%X` & 6 1 6 6 U v _ U ) y 9.a.P.R.P.u.P.8.U.M a.s.9.1.t  X%X%X%X%X X;X<X>.:.K.Z.VXmX0XwX/.hXBXpXnXc.T._.",
"C.G.B.T X.' q.a.t.9.U.U.W.e._ ,X=X=X,XW.1.9.6.e.6.F.e.( ;.c.c.>.J.!.>.c.o.OXc.B.qXo.kXMXAXQ.aXxXOXaXxXvXCXgX1XC.W.XX=X-.-.1XU.U..Xe.6.` W ;X_.).=XG.U.6.P.( 3 m y B 9 5 W ) j 9 t y m _ G.e.P.6.` q.-.W.OXOX+.!.oX!.qXOXc.OXZ._.<XE.uXOXuXoXn.pXjX<XfX=XXX=X<X XT._.iXOX<X<XgXT.G.J.>XT.U.-X%X:XY.a.I.S 9.7./ z $.%X/ %XY.d.$X-Xe.%X~ B 4 Z q z X m ^ ^ t.}.R.,XdX1XzXW.J B. .V.o.S.OX;X=X=X<X1X+.J BXI Q | Z.T O.C.;X_.,X=XP.P.-._ 0.6 q v X.X.~ q.a.6.6.` P.e.W.;X` Y.s.a.) %XW.6.1XY.;X6X=XV.V...c.fX).mXnX0XZXpXuXnXZ.H.E.).",
"J.0.Q T.w.u.P.e.a.9.t.P.e.8.8.q.,X{.W.,X{._.I.6.R.X.8.8.C.O.@X(.c., /.{ K ).Y v.c.} ZXb.AXr aXxXoXiXVXaXgX=X_.V.=XT._._.;X{ zX..( G._ W ( w.-._.U.>.V.T.W. X( q y N h U R.N ' 7 I m y ( w.C.6.w.G.:.=X=XE.Z.Z.v.Z.^.qXqXQ.o.).>XsXaX+XH.oXrXwX^.eXfXiX=XXXXX<XW.E.<X<X<XXX<XXXw.<XT.E.T.P.*Xq.:X%X&Xs.2.S 8.8._ 9./ W.r.$XY.Y.:X=X[.I.6.2 S * n 9 6 1.$./ _.C.:X1X+.0.T.Q X.O.X.u K E.1X1X=X,X1X:.t !.uXY > c.Y +._.=XXXU.U.XX;X%X8.q.6.v U U N ,X~ U P.Y.e.` %X1X4X1Xu.s.d.U W.P. XW.=X;X=XL...).BX`.c.qXeX#XmX0XAXeXZ.| OXOXOX",
"T.j P P.8.e.t.a.a.t.7.C. .0.6.8.6.I.P.W.I.=XW.W._ P.C.C.C. .! Z.C.G.| `.H Z.o.r K H.^.VXjX!.OX`.aXaXxXOXxXiXxXiXiXOX1X+.).XX>X>X<XU.4XU.<X>.E.E.>.:.).-. .O...6.` 6.6.` 6.m v _ _ 9 6.P.6.6.q.X.G._.W.E.c.J.v.Z.n.^./.~.b.).)._.J.'.).).oXhX).V.kXwX<XiXXXXXiXXX1X<XiX<XgX<X+XXXXX).V.E._.R.-XW.=X:X3X6.V 7.$.P.6.e.a.$X[.[.U.$X1Xq.,.~ / ` v ^ o E / *.D.sXT.,X1X ._.V.=X_.=XX.cXxXgX1X%X;XsX=XT.a Y `.o.r c.Y  . ._ W. XW.U.u.R.=XW.C.e.6.) ~ 8.a.6.P.a.Y.` ;X,XvX<X8.Y.1.e.Y.=XW.;X;X1X:...V.K.pX} qXOXmXwXVXrXoXc.[ )._.)._.",
"r u w.w.q.q.7.9.e.8.T.X.8.U t.D.P.=XI.W.}.=X,X-X` C.T.T.C.C.B.H.S.0.:.a c.0XK a Z.mXeXVXBXyXOXl.'.VXCXxXuXc.`.qXK.XXT.X.OX1XXX=XJ.4X6XE.V.K.-.T.XX:.>.:.E.T.C.6.6.8.e.6.8.8.j M O P.8.E.e.w.<XXXXXXXU.E.c.!.!.Z.n.m.8XQ.H.0X>X_.>X_._.OXOXiXgXzXV.uXqX<X<X=XgX<X<X1X<X<XT.-.G.XXE.:. XdX1X;XW.e./ W.P.6X1.e.~ P.6.zXP.=X9.a.%Xa.s.9.Z 7.^ ^ Z V ` E 1.X.R.q.}.-X=X<X<X<X;X,X,XC.:.=X1XXX_._._.=XxX .J uXJ o...+.u o.U G.C.P.R.R.U.U.e.R.W.6.R._.` a.e.P.U.Y.-.-X-.` w.q.8.8..XXX X,XE.=Xw.Q @XjXK.!.Q.x.x.hX!.oX`.x.[ !.E.U.G.C.",
"t _ _ w.8.` ` ` / ' 8.C.` 6.` }._.,X,X=XsX1X%X-X0.(.C.J.C.>XA.c.J.E.C.0.B.b.hXo.x.VXmXAXuXsXOX'.^.xXjXjXVXaXjXgXC.S.W.P.e.) >XT.1Xe.).J.V.0.w.Q XXv.XXE.G.w.6.-.6._ 6.X.6.8.m 6.e.X.0.-.0.U.XXT.E.L.T.C.:.o.} Z.n.n./.8Xk.Z.Z.).).(.>X_.gXzX1XgXbX1XgXhX<XgXjXiX>XgX<X_.=Xe.XXOX-.T.2X%XP.P.C.P.X.U.I.a.t.6.W.X.8.U.bX:XdX/ iX:X3X2.t.^ / 0.^ ~ _ e.3Xq.W.W._.D.E._.}.,X,XW.,X0.P.T., 3 0.P XX,XzXT.u uX< ! ;.+.Y O.O. .w.U.W.W.U.P.%Xa.P.P.P.X.R.9.P.e.e.P.8.G.U.w.q.w.-.R. X<X;X=XQ -.Q K.@X'.OXoX).).K.nX;.Z.b.} J J._._.:.U ",
"j 0.( Q _ ` ~ / 6.` q.X.8.C.q._.,XsX9.}.-XiX1XE.>X;Xj G.OX'.OX:.o.C.C.L.).).< qXrX0XpXAXaXc.H.!.pXqXVXVXvXjXxXxXA.G.X.0.0._ W.1X=X).} ).XXXXK.OXJ.J.E.V.T.6.6.` 0._ -.0.-.q.P.e.w.0.XX_.XXE.).OX>.>.o.:.v.Z.c.b.b.k.L [ ZXpXqXJ.OX_.iX=X_.=XXXvX;XzXOXyXuX<XgXxX>XgXjX_.U.C.J.V.J.W.zX1X1XcX,X6.9.6.C.iX>XR.q._ E.6.s.2XY.7.^ :XzXU.6.t.t.9./ ~ E 7.) dXW.W.=X9.6X,X=X,XuX=XR.C.C.X.U.w.U.w.W._.<X<XJ K ZXY +.c.Y V.:. .Q G.-.U.U.P.P.XXU.P.P.R.6.q.' C.6.P.6._ gXgXT.P.W.U.W.e.;X;XO.:.L.K.J.'.).).).;.fXlX`.`.} !.K.sXw.:.P j ",
"C.-.8.-._ ~ 9.` ' 8.) X.) ` ` X.~ _ I.1X1XxX1X_. .V.+.(.I '.0. .V.!.).E.E.K.c.^.qXn.nXH Q.n.uXxXBXAX`.VX).xXOXE._.<XP.W w.G.;X).Z.<Xo.`.XX+Xo.H ..K r w.V.w.-.0.X.-.w.-.0.-.U 0.I E.K.1X).J.E.T.V.:.:.:.V.o.b.] | n.NXMXz.H.`.).'.gX1X1X,X1XiXzXzX1X1XfXgX_.<X>XiX<X<X;XJ.cXAXV.W.S.iXC.iXbXcXbX;Xe.C.P.W.=X_.` %X&.1XzX1XW.7.3X&X2X=X&XY.P.$.^ Z ^ / T.}.=X_.:XiX>X|.W.T.=XR.W.,X6.G.T.e.T.C.P.W.<XJ ..r ZX+.K J :. .>.O.Y u :.-.0.w.T.U.P.P.a.W.e.T.W.G.R.e.e.>XaX;XzXXXW.=XX.W.W.B.OX_.+X:.V.K.yXpXhXpX).uXv.OXOXE...! G.-.w.",
"e.X.U =.` 6.~ ^ 6.q.8.8.X.' 1.,.I.W.T.iX=XxX<XW.6X!.aXA.C._...V.B.} H.K.;.H.Z.oXx.VXZ.xXVXVXCXCXVXBXpX'.jXiXT._.B.j w. .W.gX1XgXK ~.!.OX).v.| | | K < w.K.E.L.C.-._ -.X. .Q L.).E.x.+X).V.Y { :.o.Z.:.o.V.o.| } H NX[ L Q.pXuX_.gX1X,X<X<X1X1X1XcX<XXXOXlX+XfX>X<X).E.U.K.AXOXo.K.oXV.).).(.sXbX&X%X,X%Xy >XT.}._.-X:X:X:X:X%X{.%X3X:X9.%X-X~ t.Y.^ F.T.T.zXdXbXG.(.=X_.C.T.R.:.xXe.q.0.w.U.P.P.w.1X+.Z.] wXhXV.[ O.V.V.>.:.J _ Q -.e._.e.U.e.q.W.W.e.C.e.e.e.XX).XXXX(.G.U.V...C.-.Q C.V.0.>.:.:.:.J OXK yXZ.E.'.>X).W.C.>X6.X.",
"u t e.e.q.6.e.6.1.X.8.~ 8.v ` P.=X,XiXt._.` X.6.(.qX'.G.sXC.V.oXo.Z.v.| o.V.c.wXpXl.BXCXjXVXxX>X'.VXVXVX[ _.A.gXaX=X1XxX).uXY ] eX} hXH.).v.[ c.x.[ K G.U.O.G.C.8.0.C.G.C.T.v.H.} L H.K K { o.:.O.o.V.+. .`.} oXx.(.v.;.pX`.CXxXgX1X1X,X;X1X6X1XgX).E.<Xw.uXhX<X+XOXVXE.AXVX!.J.).O.XXu.sXXXuXE.,XzX6X:XC.e.P.1X_.P.R.a.{.2Xq.6X1X:X2X:Xs.$XY.7.t.,X_.}.,X}.xX_.).=X_.:X}.T.T._.C.8.8.q.C.U.P.U.G.<X>.c.] `.MXZ.Y >...>.w.w.w.V.-.X.e.e.T.P.P.P.P.e.a.P.G.G.w.1X).uXH.).V.c.O. .V.:.C.(.S.0.0.X.G.J.+X!.).~.J.aX+XjX-.T.G._._.6.",
"_ e.2 =.a.9.` ~ 6.P.` W.' / P.R.T.T.` C.P.S.vXC.`.Z.O.Y >.{ !.qXx.v.c.K v.[ pX0XqXuXxXVXCXxXuX'.CXiXjXVXVXCXCXVX4XE.).uX] `.ZXpXpXK ~.H.H.c.} x.x.K ] V.S...G.G.C.C.S.G.V.V.c.x.[ | L.Y Y +.o.>.B.V.V.B.{ Z.oXhXo.c.Z.o.H.vX4XzXzX<X<X,XzX,X1X1XzX1XzX+XbX+XuXuXBXCXVXZXAXH.J.A.>XL.1X>X>XC.E.G.OXE.w.zX_ P.R._.W.<X,XI.;X%XP.1X:X%X%XP.:X[.{.7.t.R.}.W.dXzX2X>X_.}.,XdX|.W.T.iXY.-XR.%Xu.u.P.P._.W.,X+.H qXmXqXo...J >.(.J.L.L.<XX.Q 0.w.w.R.U.G.G.P.e.1Xw.C.zXH.).!.V.!.V.>.V.V.OX'. .G.T.X.-.'.w...;._.).).XXyX! 0._._.OXT.6.",
"w.w.u.y y u.8. .sX,XR.q.6.8.8.P.6.T.W.>X:.zXXXqX{ :.c.aX!.J.[ yXoX] V.< H qXnXnX!.uXaXVXVXxXuXCXCXc.nXVXxXxXjX>X).| NXx.Y ZXAXoXOX[ fXmXa b.| l.} ] } ;.V.0.L.).S.V.o.V.!.H [ < c.| X.>.o.o...>.:.>.O.c.B.c.} Z.x.H.c.aXOXCXxXCXzX1X;XXXgX1X4X1XgXuXuXuXOXfXkXuXjXXXkXjXfXH.V.<X>XG.XX>X=X-.X._ C.( (.-XI.=X1X1X=XW.-X-X;XY.=X%XY.:X7XP.e.%X{.{.1X:X2X6XzXbX(._._.>X>X1XzXE._._.=X_.W.w.U.8.R.W.;XW.U. .{ K ;.AXoXr ;.V.L.<XOXE.XXV.E.<XgXW.w.P.P.XX XU.e.-.<XOXH.oXV.K.c.V.K.O.A.T.0.( (  .'.:.S.G.J.V.OX).:.!.V.! T.S.0.OXG.U.",
").w.>.:.u.XXV.w.U w.C.9.9.6.e.a.) U.-.cX<X:.K J Z.| Z.).pXpXc.| wXqXQ.> | ^.0XmXQ.} jXjXBXCXVXxX`.qXVXuXVXxXjXjXqXnXhXAXVXZXK.[ OXY mXZX~.x.eX[ K K ] qX} Y :.@XJ._.V.~.b.H } K K K.c.:.O.{ :.V.>.B.:.c.o.oXc.Z.V.K.'.`.>.pXxXvX<XiX=X<XxXcXuX!.oX+X_.OXK.jX~.hXuXCXOXkXOXJ.w.iX<XsXS.C.,X,XzX=X=XW.,X;X=X_.;X1XdX1X&X` 1X:X:X:X{.:X1Xe.8.6.6.}.dX,XiXzXzXC.G._.T.sXE._._.C.<XC.XX=XU.U.P.X.W.1X X1X;XI :.).!.OXnX`.{ c.<XaXjX<X<XXX;XXX1X<X_ >XC.CX XP.-.<X`.XXJ.uX).V.| OXV.'.'.V.S.e.e.8.-.T.).J.V.+XL.L.P S.I o.:.c.L._ w.J.",
">XQ K...Y c.J W.e.;XX.0.T.=X_ w.e.,X,XW.[ 0Xx.V.{ } `.`.{ !.Z.~.Z.pXQ.hXc.^.eX`.VXBXVXVXAXxXVX).pXjXVXaXaXoXZXpXVXZXeXJ.E.U.XXxXc.c.wX< wXAXAXAXAXhXK AXx.H K K E.).K.Q.} H ;.{ c.V. .X.V.+.o.O.O.:.A.B.).T.V.H.H.J.yXE.K.`.fX!._.OX).OX+XH.OX<X1X=XXXE.hX+XNXpXuXOXwXhXuXO.sXX.OX'.).E.G.1X1X,Xq.>XC.P.C.T.0.E.sXP.T.w.I.-X%X:X2XP.8.6.P.' q.T.w._.}.zX;XaXT.C._._.P.T.R.w._.=XC.U.gXj a.q. .zX%X:XU.C.).Z.oXZ.Q.ZX`.~.+X<XZ.J.uXxX<X<X4XgXvXzXxX<XgX<XuX<XL.G.).pXqXA.oXOXV.0.OXT.T.G.0.X.0.).C.).).uX!.J.(  .jXL.aXH.).jX+X).",
"_ X._.:.c.K.OXG.=Xw.q.e.q.P.P.D.W.P.XX<XQ.} | :.`.K !.Z.Q.[ VXZ.c.0Xm.wXhXpX`.`.pXfXjXjXjXBXyXrX`.VXxXCXnXVXpXqXfXE.uXwX).nX^.AXZX:.qXr _.H.Z.~.Z.} AXMXAXMX0Xb.n.} L [ J [ { +.! Z.:.X.:.S. .).J.G.W.W._.W.XX_.c.OXK.).V.>.~.!.xX).C.+XH.uX<X_._._.zXT.uXgX+XhXuXOX`.L.J.>.xX>X(.<XOX).C.).G.<XC.=Xw.B.}.iX=XW.W.{.W.>Xq.X.>Xe._ 9.Y.a.e.P.q.C.C.C.T.V._.>XiXw.C.R.C.E.C.iXT.<XiXW.9 e.e.U.U.bX.XU.U.G.V.).:.OX).v.hXo.Z.V.K.).E.OXOX4XzX<XgXzX).yXuXXXG.=XiXiX>XqXqXH.yXo.J.A.B.S.0.( >.-.>.OX:.J.OXpXK.OXV.J.!.!.uXT.yX:.(._ ",
"X.>.H.| | oXG.=X,X6.6.q.t.e.9.R.q.T._.X.n.`.[ ).{ c.).'.V.< `.!.!.nX/.x.k.n.} !.+XpX] n.jXCXpX`.uXBXqXqXZXmXQ.ZXCXgXT.J.=XE._.>XU.G.0._.OXA.G.'.J.).H r AXAXl.H mXZXpXwXhXwXwX@X_.X.{ L.).(.V.T.T.R.W.T.W.>X=X=XsXC.'.'.!.V.~.~.aX_.aX).v.<XuXV.OXOXuXfX+XfXJ.).fXeX+XV.W.W.aXQ sX>X_.C.V.S.E.S.X.0.T.>XR.P.=X,X,XP.` 1X:X:XzX:X$XY.Y.a.a.$.T.8.sX<XOXuXuX>X<X,XT._.sX>XT._.uXsXxX` ` 8.` ;X( iXU.P._.>Xo.:.).OXV.n.pX0Xv.V.yX+XOXOXK.jXOX<X<X@XuXXX<X=XXXJ.w.<X).V.).).Z.).V.OX:.V.>.w.v.T.+XpXK.L.:.).lX).OXK._.>X:.....Q _ ( ",
" X..>.J.4Xe.8.W.e.e.P.W.e.9.=XT.e.R.P.8.Y CXl.bXE.k !.x.^.M.~.pX!.Q.n.8X/.^.^.} ~.uXqXn.n.9XnXQ.nXqX`.pXpX).jXxXjX`.0.G.E.q.0.C.T.C.U._.pXG.OXOXV.).! [ G.Z.E.K.E.Z.).).C.>. . ._ 0.:.( :._.W.-.e.W.8.1X<X=XXX=XW.,X_.H.| V.`.Q.oX+XZ.o.v.`.v.<X<X<XXX_.<XjXuXuXOXK.).).E.U iX .yXG.G.'.G.G.X.( 6.C.6.q.W._.W._.i.-XW.s.Y.%X&X{.I.dXY.I.9.D.P.) C.>XjXK aXjXsXuX1XW.<X,X<XiXsXiXP.' =.8.` W.W.G.-XW.E.T.Q :.>XE._.Y oXmX`.~.| +X@XoXuXoXyXyXoX<X>X+XiXe.G.).iX).OX`.).T.G.V.J.A.w.G.V.).V.`.oX).J.J.H.hXE.r _ Q o.o.{ C.xXe.q.=X",
"W.O.<XQ 0.L.` W.W P.%X XP.8.a.W.8.t.P.G.B.1XiXzX1Xo.+.} pXQ.).`./.x.rXk.eX8XwXqX] mXVX[ !.jXxXZ.!.qXuXwXqXyXxXaX!.yXU.T.W.W.U.I.>XP.6.C.Z.).<XOX0.x.K.J.).Q >.G.0.X.w.X.P.P.P.-.X.8.sX>XW.T.6.6.e.1.P.P.C.8.=XW.W.>X=XJ.<XQ.bXvX<X<X4X4X4X<XE.=XE.1XE.+XuXBXhXOX`.wXOXOXgX7.I.,X_._.P._.)._.( 0.8.R._._.&.F._.>XT.W.P.Y.-X[.%XdX[.I.Y.Y.r.W.R.T.(.>XxXOXaX).A.>XjX_.`.<X'.iXiX'.T._.6.e.R.:X%X_ %X;XW.P.T.-.B.E.L.K ^.wXrXqX~.OX`.J.<XwXzXlX!.<XXX<X=XG._.E.@XyXOXoXx.V.(.>XV.(._.G.0.K.V.`.!.).~.V.P  .E.C.G.6.e.T.XXW e.8._ U ",
"U.Q ..,X1XW.0.R.P.Y.u.U.e.q.e.R.a.R.e.T.>.W.>XiXgXB.H.K.;.nXQ.oX`.!.~././.NX8X8X8X/.pXnXeXrXrXmXeX'.~.yXJ.VXBXuXaX>XE.G.C.P.R.R.R.P.6.W.(._.).uXo.w._.+.E.E.E.C.0.) _ 6.) q.8.6.6.X.E.6.P.q.C.~ 6./ W.<X<X,X,X=XP.XXiXG.V.1XxXe.R.m =.6.8.w.W.J._.@X).uX+XBXw.6.w.X.~ ( ' V ` C._._.W._.sXA.I ..{ A.T.T.w._.T._.,XE.<XU.Y.{.{.s.t.{.I.I.=XD.D._ -._.>XjX<X<XT.iXgXsX>X<X4XiX>XzXC.T.` 1.W.Y.%X` zXP.U.G.e.C.Q J.o.[ Z.!.MXqXv.!.<XfXgX@XcX!.@XgXXXjXJ.E.E.>X+XOXpXqXZ.} >.L.V.G.J.C.J.J.K.+X_.K.J.V.XXL.P.:Xa.s.e.,X,X:XU.j N ,X",
"U.U.W.4XP.iXU.J._ 6.` C._.W.W.U.e.t.Y. XW.=X).iXgX>Xu o.OXoXwXn.0X^.`.Q.^.rX8X^.wXnX`.^.nXmXAX^.xXaXjXCXxXjXuXxXOXaXC._ q.q.C.8.q.E.q.iXT.G.G.OXE.X.W.W.P.!.>X6.X.) e.~ ) C.P.P.$._.D.e.1.e._._.R._.q.D.}._.<XW.W.sX=XjX>XVXVXP.e.R.6.W G.W.).E.+XuX_.<X+XG.;XY.a.R.P.6.( P.=X_.}.R.,X}.W.>XT.0.W.T.T.C.>X)._.>X%XY.-.0.a.a.a.a.t.I.s.7.{.R.q.e.( 0.E.T.C.C.<XiXjX<X,XiX<X,X<XzXcX=X` q.{.[.e.` 1XY.G.U.V.O.-.XXo.K ! c.H.wXH.K.fXgXOXjXvXOXOX X_ -.U.<X>XG.@XH.J.~.^.!.K.V.OXC.H.K.V.J.S.OX`.J.T.C._ C.=X:XU.( m _.=XR.;XP. X=X",
"U.P.=XXXW.%X=X%X_ -.8.1XR.a.U.1Xs.,XW.xX<X).XX1XzXgXU.[ V.OXV.^.^.Q.wX^.`.0X0XeX^.wXpX`.ZX0Xb.BXCXCXAXxXBXQ.aXJ._.(.U._._.C.T.P.T.w.C.8.>XA.T.C.:._.C.q.a.C.'.aX_ X._ 6.&.q.&.6.D.q._.e.P.W.P.a.{.s E.P.a.R.P.iXP.t.=XK.bX<XP.1XW.P.U.W.8.W.T.,X@XOX).nX<XV.X.( C.8.6.Y.Y.9.P._._.}.R.P.=XW.9.W.T.V.G.C.T.(.E._.=XC._.q.9.2.2.W.y.I.{.t.}.t.R.I.D.T._.w.P.C.=XZ.xXiXiXsXiXxX,X=X,X,XW.=XR.%X=Xe._.P.G.e.W.V.Q H.K.@XY Z.H.#XoX!.uXcXyX+XgX).OXXXG.gXxXE.<X<XJ.~.!.Q.qXNX;.!.J.J.v.K.H.H.!.)...V...;XY.:X1XU._.` P.X.e.W.%X_ U.U.",
"W.U.w.U. X;X1XvX0.e.0.G.U.u.iX%X%X,XxX,XU.<X_.:.zXAXzXXX{ :.).+X;.n.0X[ `.eXQ.hXNX/.rXpXpX| [ aXCXjX).`.`.+XjX>XsXE.G.T.E.q.G.G.T.P.T.E.E.T.OXOX6.E._.w.R.~ W C.q._ 6.' e.e.t.e.1.6.D.=XW.}.=X=XP.R.D._.=XR.E.=XW.P._.J.XXW.P.W.U. X=X<X).-X1XW.;.0.Y.U.=Xe.6.U.I.P.P.P.R.P.9.T.W.=XR._.}.W.W.R.W.T.0.T.E._.).T. .>X` 9.P.e.t.r.r.Y.9.X.{.D.P.a.T.V.'.F._.6.1XQ.xXxXuX>XiXzX;XiXiX1XiX>X=X1X,XY.a.U.U. X<X).J.J.).uXxXv.o.^.~.n.).`.@X+X+X+XwXOX;X@X<X<X).@XV.Z.Q.b./.M.^.Z.J.).).@X| K.J.! _.L.R.:X,X8.C.%Xa.1.8.P.8.U.a.P.U.XX",
"X.( C.G.U.U.iXzXe._.:.;X,X-XX.4XW.R.>X<XB.X.T.=X-.;XbX1XE.Y Z.V.).+Xb.0XK qX] ^.pXrX9X0XQ.9X/.n.oXOXOXQ.b.| aXuX_.G.w.T._.P._.T._.<XE.OX>X).w.C.0.q.C.e.e.C.e.>XP.) E._.7.R.1.e.t.=X=Xq.U.t.P.I.e.P.E ` R.q.P.P.a.W.e.XXP.W.W.U.G.P.U.W.=X Xw.jX-.;XW.6.` P._ W.;XP.P.6.}.9.R._.e.e.,X/ _.,X,Xt.t._.(._.A.B.B.uXuX6.' ` r.7.9.a.I.U.{.t.P.=XI.P.w._.T.T.T.iXsXiX<X;XW.;X<X;X,X1X1X<X1X<X1X=XP.W.=XW.U.U.U.U.V.:.J.OX<XK.H.x.hXn.b.V.oX+X+XuXoXx.@X4XK.K.^.^.b.^.^.m./.M.b.wX`.l.[ x.OXc.! J.-.Q j <XgX:XW.-. X0.>Xe.C.%X-XG.G.6.",
"e.8.8.U U.C.OXXX<X4XOXw.W.=X<X_.1X>XzXW xXT.xXzXW.( iX4X4XzXT.V.>XE.<Xb.rX} ] < n.wXNXMXrXeXeXQ.qX!.+XuXZ.iXuX_.>XC.w.C.<XC.C.E.>X_.sXW.T._.T.) q.6.6.q.q.T.D.9.}.R.F.W.C.7.9.t.}.9.Y.6.W.I.P.t.,X_.}.P.t.t.P.C.P.e.P.W.=XU.U.e.P.C.=.6.U. X:XE.w.W.1.m ) a.M M ` r.P.,Xt.W.R.W.6.A e./ / t.t.t.e.}.(.B._.'.~.xX=X) ~ $.9.s.{.I.,X[.P.I.{.P.e.8...U T.'.>X>X_.S.W.0.P.XX,X=XW.,XXX>X=X,X,X,X,XP.=XU.U.e.w.U.).G.).+X+XuXuXo.rXv.M.@XOX).<X+XpX~.@XgXoXQ.k.Q.x.n.x.x.n.Q.Q.^.rXeXQ.@X).>.{ L.-.w.N _ w.=XP.C.M M ^ ` a.Y.-X;X6.R.",
"U.P.6.C.1X>XOX=X1XG.:.>XgXW.<X<X( -.=XS.;XP.,X=XiXG._.;X1X1X;XO.;.OXL.OXb.b.| c.[ wX/.`.`.pXpXwXwX`.wXqXaXxXXX).w._.E.T._.T.E.=X).E.>X_.T.T.C.C.q.q.D.R.&.q.D._.t.<X7./ $.9.7.a.I.9.P.P.P.R.I.W.R.}.0.T.W.W.q.R.W.e.e.U.U.G.P.a.6.P.P.1X1XY.zX<XY.e.=XY._.<X:X/ t.dXt.9.W.R.}.7.R._.$.7./ 1.9.9.9.W.B.'._.OX(.A.m U N ( U 6 a.Y.Y.&XY.U.{.s.P.C.C.P.( C.1X<X1X1X) e.C.P.q.;XC.>X X X_.1XsXP.1X=Xq.R.G.U.G. .V.w.XXJ.<X<XxX<Xv.b.K.wXQ.OX@X+X!.x.x.;XoX~.x.b.v.b.n.x.b.} MXmXeXtXb.jX+XA._.E.N ( w._.1X%X1Xe.` P.X.e.P.U.=X-X6.R.",
"w.U.C.E.,X<X).1XgX<X_ <X=XU.C.Q uXW.T.L.zXW.u.=X1XP.>X_.1X<X>XXXE.K >.<XZ.m.oX| l.~.!.x.H.K x.`.| c.Z.`.c.).uXT.>XE.XX<X=XE._.>XT._.OX_.E.E.) X.6.t.9.t._.D.t.}.9.}.e.t.e.1.9.t.I.9.I.e.W.R.9.}.P.6.W.U D._.e.P.R.P.9.W.t.B q M 7.~ W 6.~  XU.-XP.v -X%XgX1.' Y.P.W./ 7.r.W.}._.#.Z $.9.^ e.$.9.` P.( j K.T.<X( G.w.W Q N bX:X1X-X[.e.&X[.P.q._.6.>X_.>XzX>XT.q.e.8.E.8.8.q.8.%XW.W.>XXX>X_.=XU.e.0.J.T.:.E.iXaX+XOX<X<XgXgXxXfX9X@X@XoXuX+XZ.^.x.E.K.`.} Q.n.v.x.^.eXNX8XM.rXQ.wX`.pXJ.'.>XjXc.).+X1X_.=XXX1X8.v U 8.e.P.T.P.R.",
"T.T.U._.iXJ.c.1XbX;XT.U.W.W._.4X,X1XXXvXe.u.U.W.iXW.).w.%X<X=X;XE. ., ).@X| ^.c.| !.!.Q.Q.c.!.Q.@X+X).).+XuX_.XX_.T.XX_.E.E._.>XT.XX>X_.uXC.W._ C._.}.}.P.r.t.W.$.q.r.$.I.P.$.W.I.t.=X,X7.9.7.1.P.I.P.W.^ e.6.R.P.>X_._.X._.8.6.X.e.9.9.) e.;Xe.<XiXa.W.P.-.8.~ P.W.9.7.t.t.}.#./ A ^ 1.^ 1.~ / ^ 1._ E., Z.:._.E.E.3 9.6.a.-X:X9.%XY.:X%XY.` B m W P.' W.u.W.q.e.q.q.P.e.C.P.W.6.C.iX).V.T.U.G.T.C.J.V.L.Z.;.E.v.OX+XgX`.uX`.qX~.Q.`.H./.M.uXQ.x.oXk./.K } | Q.^.hX0XQ.~.H.`.oX`.hX0X_.!.XX+XOX_.<XiXiXuX_.>XW.~ ~ ` a.P.U.P.R.",
"C.P.W.<XiXiXvXzXgX,XC.W._.=XT.zXR.P.C.bX8.w.w.0.sX'.B.zXgX1X:XW. Xw.U.+.V.J.} k.Q.b.Z.Q.!.).).<XuXuXjX+X>XXXC.>XOXT.XX)._.OX_._._.T.q.G.E.>XT.8.R.T.}.e.I.I.t.6.[.}.q.7.a.$.I.t.I.9.9.7.r.1.7.1.$.t.,XR.F.P.9.,XP._.T.C.X.P.C.P.q.q.t._.U 1X;X=XY.gXB _.T.W ) W 1XU.9.) n t.7._.}.S 6.$.1.9.#./ S W.9.1.U C.W.G.0.( E.m ( ' $Xe.~ :X&X:X:X:X[.` G.( U.u.%XR.E.q.P.q.P.8.P.W.P.I.q.<X_.yX>X_._.U.E.>.o.} u H.V.v.+X+XjXhX| b.n.x.n.^.Z.@Xx.b.;.H.b.Q.x.} x./.0X~.Q.Q.b.V.(.Q.o.!.~.Q.eXZ.c.=X>X<X,X,X=XOX>XOXXX=XR.q X.e.<XX.P.-.",
"e.P.P.W.J.1X>.zXgXgXG.T._.W.;X<XT.T >XxXX.X.6.` X.8.T.cXiX1X4X<XE.V.U.C.T V.).~.Z.H.+XOXOXuXuX<XgXgXgXiX<X>X_.E.T.>XuXXX>X_._._.w._._.G.q.W P._.C.W.D.7.I.r.D.$.[.r.1.2.}.I.&.D.Y.W.r.I.a.I.7.1.1.t.q._.v 6.R.0.>XR._.' _.C.C.( e.t.}.T.=XP.W.;X X8.` <Xq.e.-.~ U ( ' _.Z P.~ 7./ $.#./ #.6./ 7.` e.a.$.9.U V.I W .._ U C.h 9.U ~ %X%X-X6X:XY./ P.( W.=X-XU._.e.P.P.P.P.P.W.I.W.8.>X>XE.sXw.T.V.V.w.'.{ J r c.!.+XfXjX} n.x.].Z.Q.Q.Q.OXOX`.Z.eX^.M.^.n.0X^.^.0XQ.b.).c.Z.H.Q.Y H.`.`.oXV.+X>XiX<X+X+XE.C.T.C.P.>XV y C.=.-.T.P.",
"_.-Xu._.T.gXgXzXiXiX=XC.O...vXgXE.zXzX1X4XbX:.U 0.( <X1Xu ;X;X;X1XK.0.XXV.VX+X^.Z.!.oX`.+XyXxXxXbX_.G.G.S.:.T.XXT.C.G._.XXG.T.E.).8.=X6.W.W._.` _.R.T.9.1.t.2.r.s.2.2.#.#.@.A F.9.I.s.t.7.1.9.7.7.7.W.P.R.q.T._.<X<X_.P.0.O.T.P.R.P.0.=XU w.e.8.0.W.6.U.e.iX=X=X_ e.q.U.t.$.7.R.7.Z Z 7.$./ r.9./ 9.' $.9.M H.O.m S.V.I _ ` W.P.C.w.P.1X&X:Xj B ` P.-Xe.%XW.W.P.P.I.R.R.C.P.W.U.=XU.X._.G.G.X.C.T.T.G.c.c.Z.c.OX+X!.[ [ MXb.x.n.x.vXuXaX).Z.!.`.Q.rX^.^.^.b.^.^.b.K.;.{ '.).0.OXuX_.`.{ >XiX_.>XXX+XT.T.P.w.P.P.8.B 6.P.v W.,XW.",
",X;XW.P.1X>XzXzXgX1X1XgXzXvX).zX4X4XiXgX4XzXzX_ W W., r 6.C._ =XR. XgXV.:.jXwX`.!.b.oX+X+XuXgX>XXXOXS.G._.E.G.C._.).T.T._.G._.T.8._.P.a.E.6.e.R.e.q.9.^ t.9.a.9.9.y.a.1.9.^ 7.7.Z / 1.t.t.7.$.t.9.e.D.P.8.X.E.P.1XC.S.E._.T.T.w.w.` ;X6.C.X.P._.=X,X}.9.%XxX1XX.` m _ P.P.t.^ P.6.$.7.e.9.6.r.s.[.~ e./ ^ U.( G.U w.0.w.j  .e.1.W._.T.` ` -.j X.W ,X=Xw. XP.T.U.P.D.P.W.P.P.P.P.6._ T.jXG.T.G.G.C.uXL.V.c.qXV.).+Xl.x.[ l./.k.} fXuXXXuX+Xo.v.).0X^.`.^.Z.} | m.!.!.{ K.H.S._.C._._.c.G.A.XX>X>X>XW.U.U.P.e.e.8.e.6.v C.C.G.zX%X",
"1X;XT.=X1X<XbX).E.vXvX1X1XvXx.,XzXbX<X,XXX_ _ u W.X.e.w.6.p W 5 W  X0.gXyX`.H./.oXc.Z.fXjXfXuX+X+X>X).XXE._.0.X.8.G.w.T.w.0.W.P.R.e.(.R.e.$.T.D.t./ S $.C Z Z 1.s.t.y.2.b #.1.t.` 6.I.2.9.r.$.7.1.D.}.q.D.6.C.T.E.V.E._.( 0.T._.C.T.) X.~ P.C.C.P.` e.q._.6.>XU.1XW.P.1X$.9.Y.` e./ 1.` B s.[.p.g.#.$.~ 6.%XW.K.U L.-.L.XXQ I W.iXW.6.Q m U -.N 0.XXP.C.R.R.T.P.P.P.P.P.T.T.P.U.X._.uX_.8.T.T.w.OX:.:...o.qXoXqXOX<Xc.yXCX[ BXCX<X_.>XuXuX`.x.v.`.Q.^.Q.Q.Z.b.~.).>.O.).).>XG.OX_.).XX_.aXJ.>X>XE.C.X.P.T.q.D.q.8.$.R.` 8.R.1X,X",
"1X,X;X).).<XzXgXzXzXvXvXxX).vXzX>X<XgX,XW._ I _ AXI Y.-XW.X.:.6.J =X=XE.OXcX!./.^.`.oXBXBXBX+XOXjX>X_.XXW.0.-.-.P.E.w.OX0._ -.' 6.P.P.R.D.e.e.t.7.Z #.D %.$./ $.2.y.1./ 1.#.7 S ) _ ` e.a.S #.#.1.q.X.q.P.W.Q G.A.T._.G._.E.A.X.T.C.0.X._ D.q.6./ ~ ` ` X._ ..C.-.4X-X1XY.^ 9.W.6.~ 6.P./ {.s.[.s.1.#.` #.` Y. .:.:.L.w.C.=Xi W.Y.%XU.R.y j U U.e.=Xq.q.P.W.E.P.P.P.P.P.q...( -.X.E.C._.G.U.e.S.-.S.{ V.!.~.~.Z.!.K._.+Xl.Z.jXjXfX<XuX!.!.`.H.} b././.0Xb.rXn.J.K.V.).o.L.>.J.).'.XX<XP._.{.R.E.q.C.8.P.6.D.D.Z P.1.P.=XP.P.P.4X",
",X1X1X0.gX<XiXzXzXCXbXiXiXZ.vX<XzXzXE.C.-.i -.1Xj U -._ P.8.X.%X' 2 W.vXXX).wXb.Q.fXuXCXVXcXCXCXgXOX).E.XX_.U.C.U._.S.C.G._ P.t.1.P.W.$.}.S I.D $.a.Z d y.9.t.y.f A %.#.#.2.&.%X6.8.$.^ $.t.n 9.$.m B ) 7.C. ..._.A.>XE.S.8.0...=XC.q.( T._.` B d ~ D.6.~ D.,XC.-.9.1XY.` ` ` r.$.e.M I.~ a.9.a.p.$.^ $.9.9.9.-.:.G.:...e.R.T.U =X=XxXP.5 m q .XU.6.P.a.P.W.:.P.P.R.U.C.0.8.T.C.U.w.w._.C.w.S.w.0...A.K.Z.`.).oXqX0X`.wXpXZ.jX<XiXaX`.!.;.`./.c.~.H.b.Q.Q.m.b.J.H...Z.G.!.).v.OXE.XXP.A.P.=XP.R.W.W.a.D.0.P.e.q.6.8.q.R.t.W.a.,X",
";X:X6XC.vXjXvXvXgXgX1XcX+X<XgXgXU.T.zX=XJ.W -.w.6.C.U.Y.u.:X%X&X9./ G.V.w.XXZ.yXAX`.~.nXCXVXcXjXyXJ.E.OXW.E._.).G.W 0.C.OX` 6.` e./ $.1./ ^ 1.9.1.$.b $.9.Z D 2.y.#.y.2.D.r.I.q.xXI.0.=Xq.6.E X.v 9.W.8.X.8.X.0.C.sX_.XXw.C.w._.T.T.q.R C.C.) 8 0 b E n 7 C.C.I.~ q. X&.6.( $.$./ $./ 6.9.a.e.y.s.7.9.^ $.9./ %Xn.XX..0.6.q.P.X.( X._ q.Q ,XW P.P.P.e.P.8.t.T.P.P.T.W.q.q.T.W.T.0.0.T.).S. .0.S.0...V.c.!.A.oX!.Z.`.qXv.OXuXaXxXK.).).`.Z.Z.c.H.b.c.^.Z.m.^.@XK.).:.| V.).C.o.E.aXG.C.P.W.6.C.W.P.R.P.R.P.a.1.1.B e.$.C.,XiXq.iX",
"=XzX6XG.zXxXvXvX<XXX>XzXxXzXgXw.R.iX0.( _ 0.I U.R.W. X:X=X*X3X%X%XY._.>X>.V.gXV.Z.CXVXpX^.VXVXAX).+X)._.U.OXE.G.E.S.0.-.9.6.` / ,.$.1.#./ $.^ / S / Z 1.$./ C C $.7.W.#.^ <.s._.P.P.=Xt.v U B 7.e.$.P.C. .0.q.0.E.aXC._.W._._._.T._.&.X.C.T.s 7 q.q.Z E X.s C._ O U.;Xe.$.e.9.6./ a.6.e.9.{.[.Y.a.^ 1.1./ R.~ ;X:.G.L.<Xw.XXU.W.0.6.0.) _ ~ e.XXR.W.=XW.P.e.P.P.T.P.W.U.8.T.U.C.w.E.T.w.:.0.0.O.:.:.o.O.J.!.T.C.sX<XZ.`.Z.OX<XiXOXiX`.H.H.Z.v.x.x./.!.^.~.Z.).J.(.A.:.G.T.e.P.C.XXT.T.R.T.U.I.a.a.}.W.2.#.$.I./ D.6.$.Z P.zXW.zX",
";X-XvXE.gXgXvXgXgXzXxXvXcXvXT.<X6X=X1XU.P.J  .-X7X:X:X%X$X&X6.7X*X%X_ XXe.G.T.bXo.K.).CXfXlXjXAXOXOX).!.).E.OXOXw.G.:.( W _ e.a.9./ ` / #.1.1.~ s D.B 9.d 6.x b b 2.1.^ / 2.y.B =X6.U.P.) &.` 1.7.P.e.e.0.O.O.0.X.,XE.=X=X_.E.gX( 0.8._.q.W.E ) B ~ 7 s 7 e.6.S ) 8.e.D.6.6.7.~ U P.t.I.6.[.s.[.y.$.$./ 1.S 8.%Xq.nX).E.W.R.=Xe.t j X.T.6.X.W.C.W.a.I.I.P.q.P.T.T.T.U.C.W.T.P.e.C.C.C.X. .0.O.V.0.:.:.:.S.E.XX_.<XXXT.XXV.Z.J.sXiXiXOXJ.o.c.l.| c.v.Q.x.!./.Z.G.OX0. .V.T.-._.q.P.W.T.e.6.T.~ P.Y.~ $.r.s.9.~ #.` 9.q._ e.W.1X4X",
"%X=X1X;XV.fXzXC.o.T.gXgXgX>XG.=X-X:X1X6X:X%XI t X.:X:X:X%Xa.-.:X%X.XU.>XXX-. .J.gXgX).`.lXmXpXAX@XK.`.OXOXOX`.0.:.G.J.Q j W ' / q.6.,.` 1.^ $.,.s F ^ x 7.$.b D C A C b ^ %.{./ 6.` C.W.P.6.) ` 7.U 6.Y.q. .I C.C.=X_.<X<X>X=XW.6 ` 0.P.&.q.s e.- v C.; b ~ B b ~ ` a.9.7.e.7./ 9.9.I.6.Z d.t.p.t.Z 7.$.$.Z ` ,X=XT.T.W.W.G.=XXX;X=X=X6.T.6.` P.P.a.P.T.P.C.W._.C.e.P.q.E.C.w.P.T.6.C.w. .B... .0.X.:.:.0.q.C.T.G.T.E.C.}.T.W.XX>XH.XXT.J.Z.v.c.| v.c.c.Q.Z.H.K.).V.+.P E.C.G.W.T.a.T.=XR.t.,Xb $.W.t.1.$.,.I.D 1.I.6.$.%XU.G.:.",
"7X5X1X+.<XhXgX<XvX<XvXxX1XXX,XU.R.;XY.<X;X;XW.0.m s.:XW.%X9.P.%X&XU J.e.U.e.-.I _.<XE.G.K.CXk.hXVX`.`.@X+XuXG. .OX_.'.( _ ( _.T.q./ 6.1.$.D D ^ #.1.b / 2./ b b n 1.C S D 6.9.t.( R.=Xa.W.P.q.( N % M -Xq t T.G.T.=X>X<X>X=XiXU R...8.' X.* v s 0 b 8.6.R.s 9 Z / ` Y.r.[.9.q.r.9.e.t.9.1.y.r.2.r.$.^ ^ 7.v 6.%XR._ `.<X;XXXT.uX>X1X,X1XW.8.1XP.e.P.I.8.e.P.W.P.w.U.6.w.w.w.T.T.X.T.).X.0.:.C.0. .C.P.0.C.0.G.W.R.T.F.R.W.W.R.D.W.>XXX).K.c.Z.H.b.c.!.Z.c.c.~.).).K.+.U.<X<XP.8.7._.e.=X;Xt.I.t./ a.t.I.2.#.r.2.$.e.a.a.{.;XgX`.",
"<X .%X=XgXgXfXgXvXgXjXxX_.XXJ W.;X;XV.0.%X%X;XP.p e.,X%X7X%XY.%Xh G.w.X.6.8.P.p _ ;XV.gXvXJ.AX/.fXvXVXCXjXuX{ T.T.0.L._ W (._ W ` m ~ ~ ~ 7.` ' #.^ / Z b b b D Z 9.^ d b #.2.2.s.w.( 6.,X1XT.-.U W ..G. ...T.iX_.).,X>XiXgXCX_.,X' T.6.&.R.T.v 0 b A P.^ &.F.s ~ ^ t.B ~ $X( 6.q.6.$.1./ t.2.t.y.$.7.D $.B / a.P.P.( T.1XOX!.OXhXW.XX;XW.P.R._.e.R.D.8.P.W. .E.E.8.e.T.G.q.6.0.w.C.:.( X.V.X.O.q._ 8.0.D.P.I.D.U.{.I.W.W.P.P.W.P.W._.E.o.;.c.H.~.(.K.OXx.c.| J.:.T.E.T._.,Xe.a.,Xs.;X,XR.-XP.Y.a.2.1.2.I.r.r.2.n 1.3.~ 0.{.:.>.",
"L.-.=X;XvXCXOXzXbXxXgXzX<X>.p L.+X>.j , W.W.W.G.U.e.U.P.$X0.e., 6 w.h q U.L.X.<X_.>X;X-.T :.k kX^.jXcXjXCXJ.A.T.V.G.L._ C.I U 1.9.9.1.1.9.W ' 1.1.S C t.e e 8 A #.$.2.@.r.D a.{.I.8.W.) W.=XiX<Xm I -.) G.( _ U.uXuXXXbXzX<XU.P.T.q.g F.*.T.Z b = v b D.x C.: b B ) a.A B 6.` I.a.9.7.#.#.r.r.<.t.$.1.^ $.` t./ 6.R.P.:.<XxXb.H.<XW.XX<XW.W.P.P._.=XP.W.U.'. .T.w.U.C.q.E.C.w.8.S.0.:.X.X.( O.e.6.e.q.6.6.e.P.8.7.e.W.{.{.I.I.D.I.D.P.W.P.L.>.H.o.(.).).o.).).G.G.T.P.C.6.a.=XR.,Xe.,XiXr.9.I.9.9.t.2.#.y.4.I.<.r./ C.i.` d.@X-.",
"=X;X;X-XC.bXuXgXbXxXgX1X:.G.XXw.o.P.U.W.W.Y.%X%X-.-.P e.%Xa.s.9 G.h y 9 w.-.W.U.G.j G.Q >.L.K.<XuXb.cXyXBXxXE.).J.C.T.T. .h y U N -.9.9.6.7 X.M 1.D.F n d 6.z D P.D b b 4.W.9.P.,X` T.gXm C.E.gXS.'.0.B.B 8.E.bX,XXX<X1XOX;XF.e.q.=X^ q.~ R.^ n A &.D n &.6.s b b ~ ~ ^ M $.a.m W.7.~ $.B ^ F y.%.C 1.S Z D 1.v q.W.Y.P.bX=XK.=XfXV.J.`.>X_._.G.T.6.0. .w.).S.O.W.G.e.U.C.w.-.:.w.X.A.B.:.B.P.q.q.D.9.C.P.R.e.$.6.P.e.T.Y.t.W.I.R.F.9.X.P.w._.Z.S.T.).)._.K.C.w.C.w.w._.,XP.U.W._.P.1.1X=X=X#.%.C 2.e.%.I.9.{.%.<.#.e.t.w :X5X<X",
"<XT.w.W.j gXgX1XgX<XgXk -._ W.P.W.{.P.W.j %X%XY.-.w.I 0.R.a.1 0.t U W 2 <X>XiX=X_.>XgXT.K OXuXCXwXqXb.oXOXaXuX>XL.w.S.G.C.T.T.W h M M m M z ^ s F &.S D ` v s 1.C c D / _.P.=XF r.` G.q.bX XCXG.iXW ( q.V...E.<XXXBXiX1XgX=X,Xa.q.) ,X` w $.I.D I.6.$.W.$.; d s 8 E Z S M %./ R.U.q.t.I.n $.^ y.7.@.#./ 7.2.$.1.1.P.%XY.0.zX1X_.W.| V.V.).E._.<X_.>XG.XX:.V.C.E.L.C.E.C.:.:.'.V.:.X. ._.! 8.e.e.X.8.6.e.` ` W.E ' $.e.I.9.P.a.W.e.q.e.e.P.T.T.E.E.(.E.)._._.).C.T.P.w.R.W.W.1XP.{.R.1X;XW.P.P.t.t.D.$.t.=Xc 1.y.I.:X/ 3.s.zXW.CX",
"U.U 6._ 0.iXgXfXgXfXxX .XXgX0.Y.-.e.Y.-X[.6.u.R., E.E.E.:.j O W.% O O 0.CXK.J.XXu OXK.uXVXcXkXCXjX} H.`.x.gXjXOXw.G.E.-.T.).w.u Q N -.7.7.9.1.v ^ #.D D v ) D >Xn - ^ Z Z _.}.$.7.P.X.P.e.C.6.G.<X>XE.6.6.7 y 6.W.E.XXOX XP.a.P.$.s * m F.2.%.<.}.R.F S #.S d A 7 f Z S b 9.1.a.9.a._ z y.C / F A F / / 7.P.7.$.^ I.P.%X%X0.;XgXG.c.=X)._.T.uX>XaXOXW.<X'.:._.).T.G.S.:.V.(._.C.X.S. .Q >X6.P.e.D.9.t.~ $.M ) $.&.) ~ I.I.I.t.I.1.$.9.e.8.q.C.X.G.T.T._.C.T.T.T.q.U.e.I._.=XW.T.W.W.9.,X-X}.P.I.I.P.P.1.R.1.n Y.W.{.I.%X2.3X%XE.",
"V.-.W._ 0.iX+XQ.fXgXgXL.vX<XXXq.<XW.U.e.( ` ( G.U % t >.J.Q U.G.U. XXXxXK.v.V.).+XvXcXfX`.kXAXuXOXuX~.^.H.aXyXC.J.T.J.E._.E.Q N S.1.a.6.' / 7.6.8 F f 0.C.F.^ z Z ) 8 / X.W.C.R.R.}.).=XC.T.XXE.XXU.1XC.~ 0.M P.W._.=X1X=XW.a.^ B q.V C.F a.<.t.7.2.$.t.F.b D b s z Z S D $.Z ` D 6.6.D #.#.1.9.C C D S D $.9.2.1.M W.XX=XR.U P.,X<XU. X,Xe.e.<X_._.K.(.).J._.)._.E.C.Z.J.:.:.>.B.>.G.<X_ q.9._ q./ ~ M / 9./ / B b #.Z Z &.Z t.t.7.e.e.w.q.q.0.w.-.P.w.T.T._.C.q.<X=XP.7.=XP.q.E.}.W.P.=X,Xt.7.t.r.{.I.1.Z d r.i.=X;X1X<.%X1.e.",
";X;X1X=XU.gXgXqXfXgXfXuXb.`.>X<XXXXX=X>._.T.V.XXw.I XXE.J.'.fXL.E.vXaX).!.qX+X).~.fXlXhXmXnXOXjXVX@X^.^.9X^.K.J.).w.E.OXU T ( ( S.t.8.q.W.9.B B n z $._.6.X.6.6.q.x T.Z 8.r.1.-XC.P.J._.>X=X_.U.uXW.C.=X8.M C.P.;XgX<XW.e.a.Z C.6.^ / n / =X9.2.{.%.#.F R.S ^ - ; 8 8 ^ b D / r.; 2.P.8.,.x B 1.2.S B ^ #.r.I.9.0 Z e.R.U.=XU.w.=X;XP.U.w.e.XX).0.XXZ.!.OX`.uXE._.).c.oX`.+X:.L.C.6.8._.e.P.6.e.B B b ) / A ^ 8 ^ b s b b Z &.~ r.9.D.q.P.e.q.P.0.0.0.X.w.C.C.P.G.P.>X=XP.P.9.$._.$.e.P.P.I.I.t.W.Y.%.^ D $.{.r.r.W.1XE F {.Y.Y.",
"R.` xX<X+X!.gXQ.^.xXbXjX@XgXXXgX<Xm 0.X. .w.G.:._.J.E.OX+X[ fXA.XX>XT.OXJ.0.8.6 P.X.w.e.e.q.).0.(.(.V.fXeXpXM.gX:.E.>X).0.T.T.T.0.X...) U P._.` e - 8 * x t.P.P.6.1.1.7.6.2./ -XT.1Xa.>XU.sXE.0.U. XR.U.;XP. XR.U.oXU.6.^ %XB 6.) ^ B 9 ~ 8.Z I.9.r.P.e.A A C = s b 8 e / Z / 2.; X M W.$./ 1.9.r.$.2.t.P.$.e.6.$.2.B S s.P.%XU.W.P._ C.6.w.>X0.OXaX<XV.OXZ.OX_.E.J.G.[ qXc.U.<XR.P.9.W.P.6.e.9.9.S E Z ~ E ^ $.E b q.D b B Z B 9.9.P.P.q.e.C.q.q.T.q.T.C.C.G.q.sX=XP.e.P.t.P.t.Z 7.D ^ b D #.$.$.7.7.1.7.1.W.=X=X{.Y.1Xb #.s.q.",
"%Xs.P.=XQ.kXH.~.~.Q.<X=X~.xX<X;Xu G.T.XXL.t U ~ ( ' t _ X.K.Q U w.%X1X$XP.[.$XY.t.` N 1 q ) _.e.,XT.t ).pXnXuXH.XX>XT._.0.G.G.P.~ v T.T.8.~ q.8.1.` E.(.T.P.t.q.P.7.a.$.9.7.W.W.) R.q.>XT.1X=XX.9.;XW.U.W.W.P.e.,XgXP.1XP.s.Y.s.` 2 B.' Z t.3.{.D ^ q.#.C D b 8 &.d 8 e s b 9.#.p.~ 7.e.e.2 e.Y.7.1.7.9.8.7.$.V ^ ^ ,.~ {.-XY.X.W.P.X.T.,XT.T.E.+XaXc.~.!.qX).OX).E.H.+XW.A.U.<X_.q.R.XXT.9.~ $.Z $.Z ~ Z v M Z E ` X.A 8 x Z $.P.a.I.P.D.P.P.C.C.6.X.C.w.-.T.C.e._.P.P.t.P.t.t.7.1.7.1.$.Z D 7.1.$.^ $.Z y.1.S W.{.I.I.W.P.;Xa.",
"P.P.u.G.pXVXzX=XXX@X~.wXc.U.Q.aX0.6.w.' 6.` -.` 8.y U.6.` 5 2X%X&X1X%Xd.Y.s.i.Y.$X[.6.e.e.1.q.V C.>XB.>XOXlXwX~.pXuXC._.T._.T.8.w.W.6.6.e.P.e.R.=XG.X.C.C.` / &._.}.9.) 6.e.U _ U.8.XXE.e._.1XU.) 9.e.%XP.T.;X;XsXP.P.W.=X=X,Xe.%X%XW.0 h W.W.{.d P.A A %.A b n f 8 8 - Z e $.8 B <.1.) %XR.s.s.a.P.t.t.` e.I.9.Z e.B i.7.9.a.=XP.C.:.C.,X=X=XXX).Z.^.oXoXJ.Z.>X_.).).E.J.P.P.8.}.P.G._.^ ^ ^ ~ ~ e.Z n Z ~ b d b ^ Z Z E b Z $.Y.I.I.D.D.a.R.8.T.0.w.q.w.W.T.D.I.e.e.P.$.e.a.a.$.9.1.$.D / D ^ $.%.1.$.9.r.%.R.2.r.3.t.I.:X2.1X",
"OXU.e.<XgXxXE.U.T =X^.^.n.XXvX1X0.=X_.m  .P.e.6._ W.t.M ` Y.T.XXR.I.2.n Z 2.[.M [.i.Y.a.~ B 6.` ..` C.OX+XfX<XaXn.fXyX).E.C.T.T._.A.E.( ) q.q.C.E.>X_.E.T.e.D.P.W.P.q.e.I.e.1.P.` $.<X0.( ` _.P.XXU.B dX%XW.W.W._.W.W.=X%X&.~ N _ P.Y.7.M :Xs.<.D $.$.#.C b - - 8 n s ~ 8 s = 8 b B Z %XXX;Xa.Y.t.e.9.I.-X,Xs.1.W.e.v I.%XU.I.Y.Y.P._.0. X;X0._.).^./.oXc.Z.o.E.!.!.E.).E.P.=X1X<X<X_.8.1.~ 6.B ' S ~ A v b Z b ~ B e b 8 #.^ r.t.Y.e.t.D.q.R.P.P.X.0.8.8._.sX_._.R.e.P.8.9.a.e.9./ $.^ D / ^ / ^ 7./ #.1.t.1.t.W.r.{.=X=XW.R...",
"XXe.q.CXfXCXE.( T I rXQ.[ n.fX( w.fXK.E.<XT.U.C.m ) I.U I.U.=Xr.a.P.9.1.I.#.2.9.Y.a.$X[.Y.a./ 6.X.%X>X).aXjX).w.).pXVX>Xw.'.E._.(.( ).S.W.0.C.8.T.e._.=X_.,X_.W.6.7.6.9.}.q.U P.T.W.>X~ 6.P.~ W.=XW.&.a.=XR.P.U.C.%X%XW.U.' M E U M ) 8.U W.I.[.$.r.1.^ n R.d n 4 d X ; 4 b 8 v %.8 S &XW. XW.Y.Y.W.=XU.iX%XP.` q.6.t.7.#.Y.=XY.u U.%X>XiXV.<XuXoXoXK.G.XXZ.Z.:.).).J.OXXX=X,XG.P._ q./ q.` B 1.` / v ` Z ~ ) ~ Z b b ~ 7 ~ t.$.t.I.e.t.I.C.P.q.R.e.8.w.W.W.T._.R.W.P.P.e.I.e.t.t.e./ / ^ #.Z Z #.C / %.$.2.#.Z e.P.=X` {.%XzXT.",
"v w.8.+X .j L.( G.W -.CXn.} /.<XE.W <XfX+XE.U.X.6.8.P.` %X[.1.{.1.2.e.8.9.2.p.e.[.Y.[.Y.1./ ' q.$.6.L.T.J.XXV.E.uXJ.uXjXuX).).).).O.>X_.T.w.0.q.C.0._.8.O.).'.(.^ 9.9.7.R.7.I.a.6.e.T.R.B t.U.I.W.P.P.t.` t.R.R.W.R.W.{.P.I.^ / &.V t U w.B }.=X<.y.2.t.A ^ d ~ w e 8 ; = ~ C ^ 2.v B s.%X-XXXP.%XW.;X;X1XT.e.:X&X6.,XW.9.1.i._.>X-X0.( 4X).fX8XeXoX#X=XuXZ.S.J.).!.E.U.). XP.T.' W.9.t.6.P.Y.R.t.7.f ~ S ^ v ~ Z b b Z Z $.a.9.9.R.q.9.t.6.W.P.P.P.R.R.E.<XP.W.,XW.D.t.e.D.q.9.e.6.$./ #.6.D ^ 1.$./ P.9.7.7.t.t.9.%Xt.{.R.xX_ ",
"X._.( c.).w.( G.G._.` Q vX[ uX~.Q.uX_.>XE._._ P.6.e.8.w.6.$.^ S Y.I.iXU.( W Y.[.[./ i.7.1.a.^ 1.q.=XO.).L.'.).>XOX!.S.jXuXJ.).oX! T...( >X).C.'.J.T.OXG.'.q.C.6.q.a.` 6.P.9.a.` q.P.T.W.R./ e.W.t.,Xt.t.P.I.P.R.=XR.R.Y.W.P.` $.$.N U $.M ..= ` 7.4.2.t.R.$.x s 8 - A C X : / e s S $.s.a.U.W.W.Y.P.,X1Xj zXCXW.%XU.Y.Z 9.W.,XcXB.( w.iXJ.OX/.rX8Xb.).NXE.o.0XZ.`.} T.U.>Xe.E.=X=X,X-.X.U.I.8.C.$.B v _.' &.T.6.s A s / ~ 1.a.r.t.I.6.e.I.X.P.P.e.a.R.P.sXT.P.W.=Xt.P.P.e.7.t.9.1.$.$.7.S $.6.#.` 6.^ &.6.e.e.e.t.9.{.e._ ).0.w.",
" .C.Q aXP J. .V. X:.E.6.I OXnX+XoX+X`.OXXXT I ( ~ ` 8.0.6.V q.^ S 9.@.2.2.i.q 6.6.Y.B $.9.1./ ` W._.( XX:.uX_.C.A.O.).w.yXnXgXpX:.:.C.P.P...K.T.B._.OXOXaXE.C.C.T.P.w.6.6.U q.P.8.q.t.U.W.I.t.I.9.t.a.Y.P.I.P.W.=XR.I.e.%XU.6.e.&.) e.D.t.P.0 X./ a.@.a.D 9.#.Z E $ D b o X / 8 s ' 9.a.s.t.P.=X%X;X7Xj J 1 j W :XI.P.Y.s.1X;XY.1XD.E.E.uXhXkX^.0X8X#X:.U.0.W.E.c.E.w.>XuXe.a.>X>XG.T.xX0.A._.) B P.M w Z ~ ~ Z ^ ~ $.Z D 6.t.t.9.' ~ e.P.q.C.P.` P._.t.e._.W.P.W.P.e.7.9.2.9.7.1.$.$.^ $.q./ 9.E e.&.` e.e.6.` $.( }.=XW >XB.T.",
"P X.J.(.-.e.U.XXG.U.W.P.XXQ fX@XfX).fX).V.I -.P.e._ _.q.7.B / &.b ^ b 2.r.y.2./ ^ P.[.a.$.$.2.e.9._.q.W.w.-._.iXC.( w.0.I E.eXnXB.'._.0.T.1.w._.jXO.6.uX).V.V.>.XX(.w.e.R.q.e.-.U U.9.T.P.e.9.Y.W.W.W.I.a.W.W.R.<X=X{.=X-X{.t.e.` M 6./ 1.7.2.r.{.t.y.r.W.#.P.7.` $.#.E s o b q M B / [.Y.W.X.X.P.=XE.O. .i zX-X,X%Xa.a.I.{.1X=X;XC._.uX+XlXwX^.} wXE.Q ( U _ 6.e.J.V.OXG.u._.P.sX' sXE.U C._ 1XC.v t v 0 E ^ B B v Z Z &.~ 6.$.$.6.e.P.F.P.q.' P.W.P.e.e.R.W.R.e.$.9.9.9.9.$.$.$.1.$.#.^ e.6.9.6.q.9._ D.6.X._  .P.E.U.W W.OX>.",
"T.OXm :.XXC.W 5 xXq y y Q ;XAX).jXuX).K.).<X-.X.X.G.q.q.{.-X` S ^ ^ ^ C %.2.3.r.s.a.P.1.a.9./ 7.D.P.T.P.A.).G.:.X.w.V._.E.:.K.yXA.V.T.).6.P.e.C.w.G.OXW.T.OXJ.XXU.G.XXXXU.W.U.q.` q.P._.U.P.{.Y.P.W.{.=X=X-X=XR.}.{.W._.=X%Xe.6.M ~ $.$.9./ t.D.7.Y.{.3.=X#.%.^ 7.5.r.o D   n * q ' $Xt.{.Y.W.=XiX+X3 _ i -.W.:X1XiXW.{.e.=X,X-X0.gX+X(._.VXoXhX+XG.' _ ` W B q r.' G.-.e.U.XX9.W.XX;.XXE.XX<X=X1XP.e.e.' ^ ~ &.s E e b ` 1.6.9.8.C.P.C.P._ P.9.P.6.$.6.~ P.,X6.e.7.9.$.6.9.9.7.1.$./ 1.e.$.a.P.e.) $.^ ~ 8.8...( O.C._.).<XuXB.",
"Y :.O.T.u.t y U y y X.j -.U.i fXT.XXfX).J.1X~ 6.R.( e.8.) -X9.D.1.s D / 2.<.a.s.$.$.6.I.P.P.1./ $.e.Z U._.6.(.A._.C.A.'.S.S.{ AXZ.T.>X-.:.X.a.P.8.W.C.OXuXC.a.-.fXL.;XXXW.T.XX<XT.U.W.Y.iXW.{.=Xt.1.q.,XW.,XW.,X,X}.e.}.R.R.P.8.) e.7./ e.7.t.D.$.@.$.t.y.t.$.D I.-X&.b C.* & 1 {.[.I.Y.-X{.I =XgX0.X.:.W. .U.%X6XY.e.e.%Xa.=XiX<XpXuXyXfXlXwXV.iX( 0.-.0.6.M h X.` I.^ U.G.>XOXe.=XW.uX..G.8._.>X_._.q.6.W.$.6.` s w B ^ / ~ e.9.C.6.q.6.e.6.6.q.$.6.8.` ) T.6.&.~ 7.$.6.&.9.6.r.1.7./ $.` 6.9.X.6.6.w.w.( ( C. .XXC.C._.).:.V.",
"<Xm 0.E._.1 X.C._ ' U 9.m  X,XuX<XC.J.).L.W.e.0.W.P.W.C.0.8.R.7.7.S 1.9.1.t.p.[.7.t.d.s.C.[.1.t.$.e.$.~ =Xq._.C. .5 <XW.8.V.X.c.AXJ.0._ :.-.XX_.8.&.~ E.C.q.6.OX<X).W zXzXE.zX_.E.G.XXP.iXXX;XR.P.8.U.=Xe.q.,X,X>X_.R.;X=X;X%Xe.P.` 6.q.9.e.9.9.7.t.t.{.I.r.7.r.=X=X9.Z ..b q Z t.a.Y.{.%XI.( 1XC.;XT.U  .0.:.XX6.u.:X-X%X{.;X_.C.).uX<X0XK.:.=X_ _ -.Q -.6.U q.6.-.9.9.$.R.T.S !.R.uX_.e.8.6.C._.=X` q./ 6.6./ ~ b b e ` ` 6.6.^ e./ X.P.8.6.e.P.6.` q.$.D./ 6./ 6.$.9.9.9.9.1.` $.$.a.6.7./ 9.q.6.) ) e.e.U t j C.E.C.Q C.yXV.",
"E.P i U.J 2 i  .t 5 q ( ( 8.=XVXXX).iXiXOX( ` e.P. X;X_.G.m P.6.Z x t.$.2.r.y.f.a.9.t.I.1.$.7.a.6.2.$.n e.` R._ 8.j _.6.>Xa.C.uX!.AXZXE...H.:.6.W.9.^ 7.:.b V P.U N v vXiXOXiXbXq.:XgX_.T.=XT.U.;X=XW.8.R.P.P.1X,X<X=X,XW.-X=XU.P.P.6.e.9.}.R.R.I.2.}.%.7.{.=X#.a.W.1.S q.8 f $.I.Y.Y.{.=X{.;XW._._.E.<X<X .Q Q zXI o.q.3X6X1X_ XX).uXfXOXY OXXXiXC.w.e.e.-.G.P.a.s.i.9.1.1._._.` ` gX_.' B T.e.P.1.1.T.6.` _./ e.~ V ` 6.' ` 8.6.P.) q.C.e.` 6.C.E 6.F.D./ / q.$.~ $.6.1.6.6.Z 1.^ ` ` 9.q.q.q.1.7.9.q.6.^ q.8.I N C.(...AXK._.",
"P 1 X.y 2 J i 1 M 6.t.Y.y j E.J.aXiXE.G.=XK.6.q.X.w.Z.P.W.U 9.` s S $.$.$.r.a.s.r.9.a.&Xd.a.a.$.I.=XD / / R.1.R.C.T.e.8.8.[.,XU uXmX).W._.yX).e.C.R.0 7 B w.w.~ ~ X.P W B m 0.;XE.gXbXG.+XU.W.6.%X;X;X' P.P.P.R._.uX=X=X=XW.=X1X-X%X_.C.P.8.=XP.t.r.t.y.t.R.t.I.Y.:XV ~ b - v e.Y.9.%XP.%XW.q.X.w.W.+XbX>XfXJ G.gXgXJ.>XgX( Q uX:.V.CXhXuXK.V.V.V.| K._.w.C.W.d.s.a.r.3.=XP.e.^ / sX_.W.U 0./ C.T.6.D 6.D.q./ ` / ~ ~ / M ` 9.e.8.e.q.6.&.6.` e.` 8.&.C./ / / $./ / / $.^ / 1.2.1.1.7.8.t.7.e.6.e.6.e.7.2.` $.P.v w.T.E.`.CX'._ ",
"5 j 0.0.( 0.e.( _ B % N + w.u.U.fXfXJ.,X=Xa.U.6.V.W.XX).=XU.U 9.3.~ q.q.t.2.{.I.r.r.9.9.a.I.[.r.2.#.a.W.D P./ P._.X.e.Q 1XxX( %X*XU NXuXW T.w.m e.P.V v 4.Y.a.7./ ` P.X.X.N W.<X).<X+X<X4Xe.T.e.;XR.X.e.P.R.6.X.,X>X;XW.W._.;X,X,XP.0.P.` I.R.I.7.D.{.{.t.R.4.9.W.t.6...6.C.y ~ ~ 9.a.{.{.P.{.C.P.8.E._.U.1XuXbX-.-.` ( t G.E.T...E.OXZXlXcXT.V.J.c.w.w.G.6.a.r./ a.s.7.W._.iXb P.BXe.$.i.B 6.}.2.1.B e.e.X.S z n S S S 6.6.8.e.8.` ` q.&.D.6.9.$.q.^ 6.` ` S $.' / ~ $.6.r./ 9.r.6.9.7.1.9.9.t.9.7.9.' $.6.~ v / X.w.).jX`._.( ",
"U U 5 8.X. .i i j y P.Y.s.9 w.=X:.V.L.-.=XP.e.W.C.1Xa.<XXX1XC.( s.3XW./ ) 9.Y.7.I.7.i.a.s.I.r.r.2.2.7.=XW.7.e./ {.( m &XzX&XD.w M i.).yXS.y XX0.P X.9.t.2.P.7 Y.I.6.P.` U q.q.W.<XW.vXxX1Xa.U.R.W.6.` 6.P.P.t.q.;X<X,X,X=X,X_.T.=X;X6.B.(._ R.T.q.X.3.a.a.1.D I.) 6.C.X.) 8.8.s ^ v $.6.Y.[.W.C. .W._.gXgXOX)._.w.W.gX_. .).T.=XW.1XlXL.AX<XXXW.C.G.C.q.w.e.9.a.6.I.s.{.P.=XU.W.yX^ ,X-X1X{.2.R.I.<.9.W.2.q.` / n b P.S ` ` 6.) ` q.6.&.6./ / &.` ` $.e.B S M ` X.` q.^ / 6.1.$.9.9.9.~ X.e.a.9.P.t.9.9.` ' e.` ..W T._ kXV.E.O.",
"U._ e.R.U  .y 5 j 5 m B y ` ` h j wXU.K.E.U.6.6.,XW.=X1XU.e.` 1.` Z :X*Xt.6.t.I.7.7.1.s.I.{.{.y.r.a.3.1.1.P.s.r._.,XW.[.iX9.a.n ` b -X^.0.W ).:.V.0.s.v @.4 e.I / 9 P.e._ ( W.vX=X<X4XgX;X;XiXzXXXw.` e.e._ P.X.=XzXlX=X<X_.W.T.1X<X,Xw.T.w.C.F.S.9.}.{.t.Y.s.` e.) V 8.e.P.=XI.=XB Z Z / a.a.I.C.C.C.U <XyXuX,XJ.uXjXCXaXT.Y V.).!.BX).uX).).E.<XT.G.R.e.P.e.P.Y.4.a.i.1Xe.P.xXw.%X6._.{.Y.=XW.1.I.2.#.U.P.6.S 1.` w ` S ` ` / 1.6.8.8.~ q.~ 6.~ q.e.Z M B ~ / q.) ^ Z B ^ 6.$.2.Y.Y.) 6.) 6.t.6.7.1.1.t.9.,.B ( e.E.V.Y OX).zX",
" .$.^ P.6.$.1.B m y ~ 1 q q.a.a.a.9 bX-XU.P.Y.R.P.P.=X}.I.;XU.M {.P.a.9.e.-Xe.t.7.7.9.[.a.9.I.Y.9.4.a.t.P.P.7.t.C.=XI.,Xa.Y.e.D.S w b XXeX_.Q E.OXR.7.1.^ Y.%X1 Y.9.( ' ` e.U.OX=X-.q.P.zX-X.X;XzX;Xa.e.6.e.C.P.XX1X1X=X>X>X_._.,X=X,X%XP.T.I.R._.` / }.1.&.z E C.v U I.:XY.t.-Xe.B n / a.r.I.P.q.w.w.T.OXT.XX`.<XyX_.pXjXC.T.C.w.).qXZ.G.T.J.T.XXT.U.R.P.9.Y.9.B s.[.Y.=X6.e.nX` a.;X_.{.@.=Xt.I.=XI.W.F 1.^ / #.^ / ~ ~ ' ` ~ ~ 1./ 6.&.B D.6.` ` ~ T.^ ~ &.` ~ ^ ~ ` S ~ ^ / 9.[.7.` ) ~ U 9.1.1.1.7.#.$.D.) M w.R.V.!.XXX.9 ",
"E ` ` $.$.^ ~ 1.w.C.q.8.` 7.7.t.a.I.t qXU.U.cX;X9.=XR...B a.,X_.Y.[.P.e.7.:Xt.{.6.r.Y.t.r.t.,.2.4.I.B 7.F q.t.W._.Y.{.W.I.2.e.` 2X$XE Y.bXqXG._._.C.%X&XY.i.Y.C.Y.%XW.W.U.W.).<XN M W m .Xa.-X=.` m U.P.P.P.I.R.W.,X_.uX_.<X,X,X;X,X1XW.W.G.}.{.I.^ w.6._.Z q.z m ) %X{.iXP.a.W.}.1.6.^ $.a.R.W.T.e.u.P.Q _.J.VXAXfXAXuX-.).OX0.).+X_.o.w.E.).XX;XE.W.W.P.R.W.Y.a.P.e.s._._.a.).s.>Xa.e.{.y.;X@.{.,X=X7.P./ D 6./ / ` S B ` 1./ ^ 1.6.1.Z ~ _.` ` E.e.C.V 8.~ C.^ ' ~ ' b ~ ~ ` / $.` ` ) 6.` M t.1.7./ 1.1.$._ m N -.Z.I w.G._ ",
"h ( m ` 8.B n q.e.P.) q 9 6.v B S e.b W.%X XiXP..X,X;X' a.I q.W._.a.-X8.P.$.P.[.:Xt.s.7.r.a./ I.s.2.r.9.}.7.t.P.P.}.R.i.1.1.Y.1.-X-XI.e.$X_ 0XC.0.E.C.P.R.w.U.w.P.P.-.-.zXuXuX8.y R.Y._ ' =XzXm e.s.` 9.e.6.{.{.P.,X=X>X<XW.=X=XP._.>X_.E.W.}.=XI.,XY.R.1.6.8.1.%Xq.a.e.=XX.,X~ =XY.2.{.2.a.%X1.8.T.G.:.iXOX:.| =XG.uX .`.E.T.W.uX>X_.L.XX).C.E._.W.XXG.G.U.W.XX_.P.P.s.=XuX<XW.V a.<X,XI.D r.1Xr.R.Y.a.I.a.1.S / F / =./ 9.9.1.1.6.' ` ^ ~ ~ ` $.B q.M q.C.W G.y y N ( 6.q.` q.m 8.X.6.$.9.` 6.` $.6.` ^ 9 N v N E.<X+Xe.XX0. .",
"p q _.~ / F.e.e.q.R.I.~ y / 2.#.~ 2.s.W.mX-XU.W.W.W.XXa.t Y.{.R.) U :Xt.e.I.$.6./ :XY.s.%XY.s./ a.r.#./ $.,X9.=Xq.P.1X;X#.W.^ Z e./ S 1.Y.-.XXI m G.<X_ 0.U.6.8.8.6.XXwXfXjXW.P.a.8.P.I Y./ _ 2.q.q.E Z e.9.s.%X0.W.,X1X>X_._.=XW._.P.q.w.T.C.^ / R.,X}.1XY.P.W.P.1XY.1X6.` 9.I.~ {.{.X.t.e.P.q.G.gXw.W._.,X>X>XiX_.XXw._.)._.>X).).J.XXJ.L.T._.C.V.T.P.;XU.q.%X0.8.P._.<X_.t.-Xt.@.d./ 9.{.r.Y.t.t.s.I.r.t.P.2./ e./ 6.1.1.6.9.8.6.6.9.$./ 6./ ~ C.V / B $.S.1Xy W I N ` 8.6.6.y M 6.9.$.s.9.` t.9.9.#.9.$.` ( W e...1X-.xX& _ ",
"9 C.U M ~ 8.&.) 6.y ( 9 8.e.M 9.9.e./ z XX:XW.W.=X,XgXT.P.v a.I.W.U ` I.~ t.7.a.7.$.a.2.r./ 1.7.2.2.1.a.W.P.t.P.C.P.e.=X7.R.[.4.' D S / z $X;.XXfXU.U.<XG.w.8.U.8.=X).w.;X;X6.` 6.-.,.X.Y.Y.C.9.6.9.t.6.e.s.' 8.R.P.=X=X_.1XC.=XW._._.,XT.P.W.e.q.Z }.R.W.e.6.T._.q.X Y.T.t.t.t.r.i.s./ 9.a.$XV 1XU.I Q  .iXzXU.U.).C.+X<X_.E.XXyXV.J.E.L.K.XXT._.T.G.).V.0.C.P.P.G.+X+XW.=X9.}.}.=X4.s.=XP.a.r.t.{.Y.}.a.I.I.S / S 1./ / 6.,.,.9.6.6.' ^ / #./ ~ T.' ` ~ W U <XQ T.m U ..U U 8.q.$.~ 6.6.t.a.6.9.9.r.7.9.B ` / U X.A.R.S.C.v Q ",
"U 0.q m 7 X.) ..6.D.6.q.P.U.G.P.2.1.e.^ ;XNX;X=Xw.~ E.=X-Xy ` a.I.-X6.t.a.` a.&.s.1.s.s.^ 6.^ ` 6.~ ) / W.=XW.6.=XF.e.=X9.e.r.{.p.a.z 1.$.Y.S.h 4XXXw.zX<XXX4XW.e.+X%XlXH. X' ` =.6.e.6.9.=.W.` T.t.1.1.^ b ~ C.W.P.=X_.,XE.=X}.}.W.P.T.=XX.}.9.{.v P.) &.Z ` >XC.- 0.= b 1.6.I.W.b w 2.7.Y.-X` T.U. XG.XX{ ).<XW.G.0.uX1X<X'.>X<X(.{ OXT.>XXXG.XXT.T.T.jXXXXX>X) E.>X=XP.G.,X}.sX3.9.2.i.r.e.I.C I.I.t.e.9.S 9.9.a.9.,.1.6.1.=.6.6.e.` 6.q.q.1./ ^ 6./ }.1._ I U.y y 6.( 6.6.e.` q.$.` &.9.a.7.a.6.9.a.&.r.6.8.y >.c.B U X.C.).",
"Q A.h ..w 6.1._ &.e.M Z 7.w G.=X^ t.e.9._ zXbXE._.e.W.C.=Xh B 9.Y.I.I.` %X7.~ a./ a.q.$.d./ ` 9.7.&.N 1.P.e.{.q.e.9.e.P.2.=X9.9.s.2.,.Y.r.-X6.NXP.XXxX4X1XvXgX=X=XXXe.8.9.e.P.~ X.P.{.Y.-.e.R.6.1.$.2.2.1./ ^ _.P.P._.=XE.T._.}.W.q.W.&.C.q.t.T.D.t.T.B ~ B ^ b Z ~ / e : * ~ D.=XS 7 = 1.3.;Xw.e.OXE.XX6.W.gXVXxX_.iX>X).wXjXVX).uXaXZ.+X+X).J.J.>.E.J.O.xXOX_._.T.W.E.T.W.P.R.R.W.r.a.r.a.a.I.#.I.=XW.1.{.,X_.7.6.7.7.9.,.1.6.-.6.' / 1.q.P.q.$.$.1.$.e.1.` C.-.U ) 9.P.6.V 6.$./ 9.6.$.7.a.r.r.2.7.7.7.$.t.r.X.8.U.C.=XU.6.P.",
"U 2 m v 9 ` ` ~ B ` 8./ X.6.( zXU }.t.2.q._.>XS.T.P._.=XW.q.X 6.P.Y.a.%X%X9.t.9.6.e.q.t.I./ a.N t.9.B 1.9.R.,Xq.$.t.6.a.=XW.7.^ 7.r.9.Y.2.Y.9.W.R.;X<XzXgX+X4X).).8.a.q.6.e.e.t.6.R.e.6.` R.W.$.r.I.t.1.9.2.P.t./ _.E.=XC._.R.T.R.P.U.q.0.D.t.D./ / 2.{.^ 9./ U E S V C %.X 1 s P.Y.e ^ r.~ Y.{.8.>Xw.X.,XW.).).).J.OXE.`.nXnXCX+X`.uX).OXT._.XXuXU.C.C.vXE.<X1X1X=Xw.G.,XiX}.R.#.,X,XW.I.a.=XY.t.I.t.}.1.t.P._.P.8.P.6.6.u.P.1.=.6.1./ 9.B 6.e.P.~ &.e.S.` _ U.j I N _ 1./ q.6.6.6.e.Z $.9.a.t.7.9.$.1.a.' / 1.` / =Xq _.w.R.R.",
"W 9 q 6 M -.~ ` $.$.T.1.f T.t.8.iX) I.F e.<XhXXX1XY.<X>X<XC.P.q 9.a.I.-X=X{.9.{.P.I.Y.{.Y.1.6.D.~ 9.^ 7.}.I.P.8.$.9.9.P.6.Y.t.t.I.4.6.S $Xs.P.W.XX=X4X4X<XXXL.Z.;Xe.X.6.e.P.q.' t.G.t.8.C.a.7.9.^ 9.2.9./ 1.1.P.7.T.XXT.=X_._.E.T.W.P.C.&.t.t.t.t.$.P.P.1.P.9._.^ E ^ r.F S v X ; / 9.s.i.s.$X=XC.U.P.y P.0.J ).yXfX+XjX+XeXnXpXyXpXOX+XE.>X_.T.T.T.w.S.C.>XzX).<XG.X.P.C.T.E.}.t.sX7.1.W.W.t.t.7.=Xt.I.}.I.e.I.R.e.U.e.8.1.e.6.7.1.9.,.q.q.` _ ` 6._ w.0.XX0.,Xy j C.8.6./ ` ` / ` ` $.Z $.a.t.y.9.9.r.2.B 6.Z ' ` W.Y.<XW.W.6.",
"bX5XN ~ 0.W.m V ) Z 6./ e.X.C.W._.W.P.a.a.C.hXw.1Xu.>XiXW.G.:XI.9 9.Y.Y.-XP.{.{.e.=Xs.Y.1.1.^ t.E 8.~ e.a.9.r.E.6.a.9.t.r.t.R.I.7.I.a.Y.;XP.W.W.!.;X_.>X>X1X:.V.W.) C.a.a.X.q.P.G.q.6.,X9.9.W./ 7.s.{.8.6.$.P.9.7.<X_._.W.W.T.W.}.W.R.I._ e.e.e.t.D.b 9.P.7.$./ / / 1.r.8 e X 8 e F.Y.0.9.a.Y.X.1XP.U.=XP.0.=XT.+XpX_.fXnXAXAXpXyXOXXXOX_.>XE.W.W.W.P.C.>Xw.:.aX1XX.w.<XE.jX=XW.` P.7.P.D.}.e.W.9.}.9.t.I.a.e.W._.6.u.C.9.,.1.9.,.1.1.9.e.6.e.e.8.G.<XV.J. .X.E.T W ' 6.e.a.R.e.8.9.8.6.` 6.` 1.y.p.r.1.f m 7.$.B $.` C.e.U.W.=X",
"X.W M xXaXP.C.) U N 6.6.m U q.S n q.e.9 E.W.>X+X;XU.4XgXXXU.a.9.v M e.I.{.t.6.{.t.I.R.W.7.Z q.e.` I.I.r.{.7.1.C.9.W.I.}.r.#.t.U.9.P.W.Y.I.W.=XXXXX=XXXE.E.XX+XK.U.e.P.P.-.9.X.` 6.8.P.q.P.e.sX=X1.6.~ 6.W.t.R.q.P.<Xw.W.W.U.W.=XR.}.T.P.` q.e.e.t.6.,.S $.7.1._.Z / b w q.- 7 ; 2.Y.' 2 2 M _ -.=XU U.e.;XP. X>XS.+X).V.uXBXnXjXVX+X).>XOX>X>XXXXX=X XP.U.w.X._.J.xXgXW.iX_.W.=X_.W.uX}.8.W.W.P.P.7.,X,Xe.e.U.' e.e.6.P.P.W.1.R.1.7.$.1./ ,.e._ T.<X'.OX!. ...>XI j r y N _ Q ` a.-.' t.1./ ^ ^ ^ ~ ~ f M 1.9.Z 6.X.W e.q.B ) -.",
"E.h v U T.X.6.P.C.( U _ M ( _.` 6.( 6.W.q.W.gXeXgX>X1XzXbX<Xe.a.N U 9.$XI.Y.U 8.6.W.R.D./ B ) g ~ I.) ` e.t.R.E.=X9.6.{.Y.7.9.I.a.a.9.a.P.R.P.}.=X!.<XW.XXG.V.V.XXq.P.e.q.8.q.q.9.P.e.` P._.P.~ e.P.e.e.U 1XE.G._.P.P.<XiX<X<XE.T.C.T.P.t.( ` 9.q.q.S ~ 8.b 7.#.$./ b V X.* #.n Y.9 X.B j w.W.N =XU.P.U.e.S.>XE.K.G.OX).uXAXCXeXuXOXOX<XuX_.=XOX1X=XXX_.R.T.G.T.C.0.` C.<X_.C.t.,Xe.}.6.1.e.P.R.6.7.1.R.e.C.C.a.e.C.a.t.9.W.1.=X1.t.9.9.t.P.8.6._.U XXQ <X;XiXi u r j r u 3 P U ( 6._ X.t.q.` 7.I.1.$.7./ B Z 7.6.8.-.6.M 0.G.T.",
"v 6 m _.~ ) ) ` E.U.0.0.T.( P.6.e.y bXXXP.W.U.`.<XP.W.bX<XzX8.e.X.y e.I.I.P.P...T 0.0.X.g 0.q.P.{.9.0.U.R.6.` 0.e.P.t.Y.P.a.e.t.a.I.t.a.1.a.U.P.;Xv.OX_.>.K.V.=XXX<XW.P.8.e.9.P.` 7.P.e.a.6.9.P._.sXU.XX<XsX X,XW.8.U.R._.>XOX>X,X>XC.q.t.t.&.q.D.D.$.$.I.#.n ~ e n 9.1.` 7.a.=.9 8.R. X4X=X0.8.U.W.XXG.>XE.OX`.OXw.>XOXyXmXZXpXZ._.XX>X1X=X<X6.t.P.XX=XU._.P.G.=X;Xq.<X_.iX=X9.6.T.=X1.e.R.W.P.7.$.q.T.8.).J.P.6.9.I./ I.}.t.r.a.e.P.a.e.=XW.0.-.q.G.J.<X`.lXw.XXr , , a J XXzXY.I.I.U.U.Y.8.` q.6./ ' ~ I.9.7.P.y V y M 0 G.M ",
"1.^ w = Z t.6.` q.XXC.>XP.1X,XP A.bXR.bXU.:XW.uX+X4X8.iXJ.4X-.e.R.t ( 6.R.X.U C.1XS.X.8.V E U g I.e.P.6.s.1X0.q.W.P.P.iX;Xt.1.7.t.I.I.a.I.a.P.W.P.).+XuXOX_.E.,X,X;XW.U.q.P.a.t.9.e.9.e.U.e.>XW.xXxXAXfXU.e.a.<X%XU.J.U.U.T.).XX_.W.=XC.q.0.e.8.&.6.~ $.9.$.e.1.S W U U X.N m G.w.bXV.<XL.XXU.P.R.R.XXC.V.<XV.!.)._.E.>X`.ZXhXOX)._.R._.T.8.U R.P.P.&.e.U.P.6.P.W.R.a.W.W.,XP.1.e.1.R.$.9.9.9.6.t.8.q.P.e.J.U.P.R.t.e.7.6./ 9.7.9.9.R.P.9.e.-.-.( Q B.:.O.VXhXuXJ.fX).H.AXAXj _ U ` a.e.M N P.e.~ _ P...t.9.~ 6.6./ ` 1.S 7.6.B ",
"^ C ^ s P.) t.&.q.C._._.xXXX_.C.P.R.U.T.<XT.XXfXZX~.` zX6XzX4X=X;X8.( X.Q Q T.W.,X1Xq.X._ U $.9.E I.I.6.6.R.( w.T.C.8.q.8.Y.7.a.I.W.I.6.a.}.P.W.U.G.qXuX+X).=X,X1XP.6.a.P.e.e.e.D.q.a.D.e.0.>XuXyX_.( XXaXiXw.E.U.q.=XW._.V.W.6.C.C.q.0.6._.q.q.8.X.6.~ q._.^ t.r.S n b Z ,.1.r.h 6 e.w.U.U.XXW.+XE.-.1XV.E.K.G.T.G.V.iXQ.ZXjXoX>X=X=XR.,XP.P.P.R.R.6.Y.t.%XP.$.&.I.a.P.q.,XW.9.6.1.D._.9./ P.$.6.D.q.u.R.B / P.9.7.I.2.1.7.1.$.t.t.t.I.U.e.P.P.P.P.u.0.o.OXCXgX<XAX;.Q.cX! t j U U h t _ Y.Y.I.Y.` W ` v 6.;XW -.6.1.S n 6.r.C ",
"q.C #.F q.6.q.` W.P.P.G._.S.).`.vXxX1XgXvXvX4X<X@XE.6.:X<XxXbX=X .%Xa.T.T.W.1X;X}.,X=X,X8.X.N ) t.=X9.t.P.P.-.P.U.=XY.G.R.%X9.P.P.$XP.s.I.{.W.%XU.1X).~.uXJ.<X,XXX=Xq.R.P.e.a.P.e.I.U.P.W.K.+X).).>XnXcX>X~ _ C.0.e.T.W.>X>X_.6.q.8.P.e.q.e.^ Z ` E ^ 9.Z Z #.#.D C x S b Z 9.9 t  X;Xe.=XU.q.P.R.w.C.>.J.<XV.E.J.XX!.qXmXZ.).qX=XP._.W.}.=XX.P.P.P.=XG.I.a.W.{.I.1.9.e.W.` q.P.q.1.q.D.$.9.,XE.q.P.P.X.6.6.6.I.e.9.2.I.e.9.9.$.a.I.a.a.9.e.a.P.C.t.e.XXj | ).AXJ AXAX} hXj O.Q 6.-.` ( _ 8.U.I.Y.e.e.a.=XU.8.6.9.r.a.B x P.a.s ",
"q.x A ^ F 9./ ~ B T.P.=XdX_.uX_.vXAX<XVXzX<XzXiXeX<XXX1XXX1X;X4X8.R.;X;X>XP.,X,X=X=X=X=Xe.P.X.&.U W.6.e.1.}.` 8.q.8.a.=XW.R.-X%Xs.a.I.t.I.R.%XT.U.,X`.pXyXuXXX1X,X,X=X_.R.U.P.9.W.P.R._.G._.,XuX_.W._.U._.G._.` _ E.W.W._.C.E.C.0._ 8.8.D.6.B #.Z E &.~ B B 1.9.e.Z 2.D x / z #.y ~ e.h 6 C.XX_.U.G.W.C.XXT.V._.+XE.<X`.pX<X).J._.=X=XT.T.{._.w.I.C.e.W.,XI.I.9.a.r.I.t.I.6.W.}.W.` P.8.<XC.P._.q.}.e.a.U.U.e._ 6.` 9.2.C.9.9.9.t.$.1./ 6.7.8.q.9.e.8.:.Y AXjX<XuX3 Y t P I Q -.6.e.` U e.t.` ` 0.q.q.e.X.~ s.s.B ` s r.n ` 9.c ",
"t.c W.I.D.I.t.$.) 6.) C.8.W.sXAXcXAXAXuX1XXX=XgXjXZXXX6XXXgXiX,XP.C.-.C.T.XX1X=X;X,X_.;XW.q.q.W.;X9.D.W.a.6.w.e.W.G.{.W.U.W.W.R.0.{.I.t.W.I.P.-.=X1X).qXH.>X_.=X=X=X=X=XE.e.W.R.P.=XP.).V.T.e.0.E._._ -.8.6.' e.w.` 8.e._._._.C.G.8.e.&.6.t.9.1./ e.A b q.A 0 1.s.3.r.D x o n r./ ^ / / / ` 8.T.e. XT.XXH.).E.XXOXOX`.wXhX).AXiX=X_._._.C.W.X.X.( ( 9 ( ) ..P.R.t.t.Y.t.1.I.9.<XP.e.>XP.6.q.q.1.P.) 6.e.6.~ 9.8.8.9.7.1.t.9.~ 9.a.9.C 1.6.9.9.t.1._.W. .Q Q gX{ { P.:X%X.X_ ` e.w.-.8.e.6.~ 9.u.R.W.q.q.I.a.9.1.i.Y.~ V D 8 {.%."
};
