/* XPM */
static char *result[] = {
/* columns rows colors chars-per-pixel */
"256 256 243 2 ",
"   c #0E140F",
".  c #2B271C",
"X  c #32382B",
"o  c #1D221A",
"O  c #483A28",
"+  c #394437",
"@  c #38412D",
"#  c #69571C",
"$  c #725E1D",
"%  c #634E1B",
"&  c #78631D",
"*  c #59442B",
"=  c #464839",
"-  c #584936",
";  c #534B36",
":  c #654C2A",
">  c #6C5629",
",  c #755B2B",
"<  c #765C2A",
"1  c #634D35",
"2  c #695339",
"3  c #775A37",
"4  c #756122",
"5  c #7B6523",
"6  c #7E6923",
"7  c #7C632B",
"8  c #79672C",
"9  c #7B6736",
"0  c #6E6136",
"q  c #5B4A19",
"w  c #3E4D41",
"e  c #454D43",
"r  c #4B5449",
"t  c #5C5A4C",
"y  c #57564A",
"u  c #555C53",
"i  c #5A5C54",
"p  c #545147",
"a  c #675A47",
"s  c #755D43",
"d  c #635D53",
"f  c #5C635B",
"g  c #5A6257",
"h  c #6C624B",
"j  c #786648",
"k  c #7E7148",
"l  c #656255",
"z  c #6B655B",
"x  c #6E695D",
"c  c #676558",
"v  c #726B5D",
"b  c #766A55",
"n  c #7C7259",
"m  c #5D6662",
"M  c #646C63",
"N  c #696C65",
"B  c #736D62",
"V  c #716E68",
"C  c #6C736A",
"Z  c #767065",
"A  c #7A7366",
"S  c #7C756A",
"D  c #7E796D",
"F  c #74756B",
"G  c #787B74",
"H  c #6E7470",
"J  c #836D24",
"K  c #846B2B",
"L  c #85692D",
"P  c #8B7426",
"I  c #8C742B",
"U  c #887228",
"Y  c #937A26",
"T  c #947B2B",
"R  c #997E2B",
"E  c #93782A",
"W  c #836433",
"Q  c #8B6C33",
"!  c #876838",
"~  c #916D39",
"^  c #8C7333",
"/  c #887539",
"(  c #937433",
")  c #947B33",
"_  c #9A7C33",
"`  c #97793A",
"'  c #A27D3B",
"]  c #876C23",
"[  c #866846",
"{  c #887848",
"}  c #947C45",
"|  c #877A57",
" . c #8B6E4C",
".. c #827B6D",
"X. c #867C63",
"o. c #847E72",
"O. c #887F70",
"+. c #A67C45",
"@. c #7C827B",
"#. c #9C822C",
"$. c #9B8126",
"%. c #9D8232",
"&. c #99833B",
"*. c #A1862C",
"=. c #A58A2E",
"-. c #A98D2E",
";. c #A58826",
":. c #AE912E",
">. c #A28532",
",. c #A58A32",
"<. c #AA8D32",
"1. c #A6893B",
"2. c #AE9132",
"3. c #AC923D",
"4. c #B39533",
"5. c #B69833",
"6. c #BB9C34",
"7. c #B9993A",
"8. c #B49430",
"9. c #BFA038",
"0. c #C6A537",
"q. c #D3B13B",
"w. c #C9A636",
"e. c #988548",
"r. c #8E815A",
"t. c #938454",
"y. c #93855B",
"u. c #9B8A58",
"i. c #8F804E",
"p. c #A38C45",
"a. c #AA9348",
"s. c #B59A47",
"d. c #A18E55",
"f. c #A79459",
"g. c #B39B55",
"h. c #BBA253",
"j. c #8D8264",
"k. c #8C836C",
"l. c #928664",
"z. c #9B8D63",
"x. c #95896C",
"c. c #9A8D6B",
"v. c #938867",
"b. c #9E916B",
"n. c #868074",
"m. c #8A8375",
"M. c #8C8679",
"N. c #8E887C",
"B. c #85847B",
"V. c #948B73",
"C. c #938B7D",
"Z. c #978D75",
"A. c #9D9174",
"S. c #9C927C",
"D. c #A69668",
"F. c #A59978",
"G. c #B19E67",
"H. c #B5A57A",
"J. c #B3A271",
"K. c #C4A84D",
"L. c #C4B076",
"P. c #8A8A83",
"I. c #958E81",
"U. c #968F83",
"Y. c #8D938B",
"T. c #969083",
"R. c #9B9384",
"E. c #94948B",
"W. c #9D9689",
"Q. c #9D988C",
"!. c #95988F",
"~. c #949C93",
"^. c #9C9C94",
"/. c #999C96",
"(. c #8F9D91",
"). c #A49A84",
"_. c #A39B8C",
"`. c #A69C87",
"'. c #A49E91",
"]. c #A59F93",
"[. c #94A196",
"{. c #96A399",
"}. c #9AA59D",
"|. c #9CA69D",
" X c #ABA28C",
".X c #ADA184",
"XX c #B5A887",
"oX c #ABA393",
"OX c #A3A39B",
"+X c #ACA69A",
"@X c #A8A598",
"#X c #B2A995",
"$X c #B4AB9B",
"%X c #B4AB98",
"&X c #BAB19E",
"*X c #BCB195",
"=X c #BEB08F",
"-X c #9DA7A0",
";X c #9EA9A2",
":X c #A2ABA5",
">X c #ABACA4",
",X c #A5AEAA",
"<X c #A8AFAC",
"1X c #A4A6A1",
"2X c #B2AEA3",
"3X c #A7B0AA",
"4X c #AAB1AE",
"5X c #A8B1A8",
"6X c #BCB3A2",
"7X c #B4B3AB",
"8X c #ADB4B2",
"9X c #AFB8B1",
"0X c #A9B4B4",
"qX c #B1B6B5",
"wX c #B3BAB5",
"eX c #B3B7B8",
"rX c #B6BCB9",
"tX c #B9BEBC",
"yX c #B9BAB5",
"uX c #C3BAA7",
"iX c #C4BFB3",
"pX c #C3B58F",
"aX c #B7C0BA",
"sX c #BBC2BD",
"dX c #B6C0B7",
"fX c #CBC3B3",
"gX c #BBBEC1",
"hX c #B6BCC1",
"jX c #BEC4C1",
"kX c #BFC8C3",
"lX c #C1C6C4",
"zX c #C3C9C6",
"xX c #C4C7C8",
"cX c #C6CBC9",
"vX c #C9CDCC",
"bX c #CBCCC6",
"nX c #CCD0CE",
"mX c #CCCFD0",
"MX c #CED1D1",
"NX c #D1D4D4",
"BX c #D5D7D9",
"VX c #DBDEE1",
"CX c #7F8781",
/* pixels */
"vXNXNXvXnXzXzXnXNXBX4X&XS.M.#XW.R.uXD.F.x.D.g.a.P #.1.I | X.).R.+Xz S cXzXzXzXzXdXcXzXNXnXdXkXnXcX9XaXcXmXgXMXmXmXvXsXrXwXjXjXlXwXtXtXlXzXlXgXlXtXeXwXwX9X5X4X4X9X5X;X;XsXjXjXrXjXlXjXrXrXrXwXdX9X|.:XwXqX4X|.;X;X<X4X8XjX:X{.{.}.;XOXD R.$XB uXfXS _._.I.C.m.C.C.@X1X4X8X,X;X;X{.3X;X;X3X4X8X<XeXrXrXrXrXtX8X<X1XqX4X4XdXsXfXkXjX8XtXyXzXrXlXsXzXcXzXsXeXkXzXkXkXkXlXvXkXlXzXzXzXvXvXzXsXlXsXkXfXjXkXkXsXsXdXsXsXnXvXnXT.N.&X+X$Xu.4.Y Y e.z.t.b.f.h.#.e.p.&.%.#.%.L 7 ) , 2.%.R q._ ( I L P R < ( T 4 6 P { r.A m.zXMXzXzXbXcX",
"vXvXvXvXcXcXcXnXNXbX@X%XuXT.N._.V V. XF.F.y.f.G.1.U a.f.`.Q.B C.yX7XcXcXzXzXzXkXdXnXdXNXnXkXcXzXkXwXtXlXgXjXvXNXMXlXcXvXrXtXrXxXwXrXsXgXlXxXlXgXmXwXwX9X4X|.|.dXdX9XwXrXwXeXrXlXxXcXrXqX:XsX4X4X;X:XrXkXtXwX4X5X;X,XeXrXrX,X-X-X;X-X{.R.Z.W.C.C.uXM.+XS.C.I.N.T.G N./.,X,X;X-X}.}.;X5X3X9X8X8X8X8XqXqX8XtXrX8X8X-X,X,X<XaXzXmXkXrX8X8XrXkXaXlXlXvXlXrXsXrXkXkXkXsXzXzXkXlXzXkXzXzXcXnXvXcXsXsXaXkXjXjXkXsXsXsXsXsXzXzXkXnX@XC.&XT..Xu.I %.U &.&.a.i.p.a.G.K.s.q.-.I ^ 8 ^ 7 < #.E L W W ' _ 7 L < ^ <.P 6 9 y.R.M.c MXvXcXzXcXcX",
"cXnXvXnXnXnXNXBXBXNXT.k.R._.).oX XC.6XI.y.D.| c.D.e.{ u.M.o.x mXMXvXzXkXnXkXzXfXsXnXkXnXnXvXnXdXcX4XwXrXrXkXjXkXMXvXtXjXwXrXrXtXrXsXrXsXxXlXhXtXjXrXzXqX4XdXvX4X9XkXeXjXrXjXgXjXlXtXwX9XwX4XwX5X:XgXrXrXrXwX8X<X;X,X8XlX<XtX;X:XsX;X|.{.{.E._.M.uX$XR.&XoX6X_.oXN.).|.,X:X;X{.{.}.|.:X8X9X8XlXhXqXqX<X8X8XqXyX8X<X4X4XwXrXkXkXgXrXqXrXtXrXrXlXcXcXrXbXvXkXxXsXzXzXkXkXzXzXvXlXcXzXcXvXvXbXzXzXzXcXkXjXkXsXkXkXsXsXsXzXcXcXMXdX&X_.6XA.X.d.e.i.1.e.d.e.d.u.h.%.#.#.2.5.#.3.%.U K ~ W 1 s , ' Q _ I 7 I 5.&.{ j.x c /.nXzXcXcXcXnX",
"cXcXcXcXnXnXnXNXBXNXkXwXbXE.N._. XR.$X$XZ.#XF.A.v.A.| E.R.I.B 1XMXcXzXzXkXkXkXkXdXsXvXnXvXcXcXzXcXcXaXsXsXeXxXcXtXtXcXwXcXvXrXlXrXtXrXdXgXlXtXtXtXrXyXzX|.wXrXsX3XzXwX8XeX<XjXjXtXsXaX9X4X[.wX|.:X,X8XtX4X<XwX,XtX,X8XeX8XjX,X:X4X3X3X[._.%XI._.6XXX XW.oXW. X..n.N.^.,X:X:X}.}.;X:X:X<X8XeXjXtXqX8X,X8X<XtXxXtXwXrXqXqXrXgXrXgXcXtXrXlXlXvXjXzXlXsXvXcXkXfXsXvXcXfXcXcXvXMXcXcXcXzXzXcXcXcXkXzXzXsXsXkXsXkXsXjXzXsXsXbXnXnXnXR.oX_._.&X_.uXD.e.e.D.} / i.a.s.7.2.T #.I I 1._ E ! : a a : > L _ R J < $ K l.W.P./.MXvXkXzXzXnXkX",
"zXcXcXzXzXvXnXNXBXBXMXMXnXfXT.'.T.R._.oXS 6XW.N.S.).m.c W.M.U.7XnXvXzXzXnXvXkXkXzXnXzXnXnXnXzXcXbXcXcXvXfXaXkXcXzXvXbXrXnXzXwXwXsXzX8X9XsXwXsXaXwXsXsXaX4XrXsXrXzXvXrXtXlXlXtXtXaXwXrX5X5X|.wX5X|.-X4X8XqXjXtX,X<XeX<XqXeXgXtX8X,X8X;X}.Q._.oXC.=XA.k.oXW.)._.C.A o.P.,X,X:X:X:X,X,X,X,XgXgXgXgXhXqX8X8XeXtXgXeXrXaXrX8XrX8XeXsXzXsXsXsXjXzXsXvXwXcXzXzXcXzXzXvXcXzXvXMXmXzXzXcXzXzXkXzXzXcXbXzXzXsXzXzXzXsXsXkXsXsXkXkXzXzXzXcXzXB m.R.C.%XM.c.u.G.D.r.S.c.K.s.4.# I 0.-.*.E _ W s a s 3 3 Q 7 T <.%.6 { m.n.+XNXnXcXkXsXbXcXzX",
"fXzXzXkXsXzXzXnXBXMXBXBXMXdXC.W.T.I.oX&XM. XR.C.%X#X_.M.7X7XiXvXnXzXcXcXvXkXkXvXcXvXnXnXnXnXcXnXnXnXcXvXcXkXwXkXnXnXnXqXlXnXzXvXsXvXcXcXzX8X9X9XwXtXwXsXrX5X8XtXgXmXvXtXgXeXrXwX9XwXwX:X9X{.{.3X4X<XrX4X,XjXqXjX,XeXqX8X8X8XeXeX,XeX,XOXR.'.m...k.v.| k.I.I.R.n.Z O.-XeX8X,X-X,X,X1X8X8XlXhXxXlXgXeXeXeXtXgXxXtX8X8XwXwXeX9X3XzXlXzXtXlXlXlXsXvXtXcXzXcXtXzXvXnXMXMXmXcXvXzXkXvXbXzXzXkXcXcXcXzXzXkXsXzXzXzXkXkXsXsXkXzXzXzXkXcXcXzXwX6X'.&XC.@Xv.b.b. XC.S.H.p.9.` { U =.5.R '  .[ a s 3 , > W R #.2.&.| n.m.cXnXnXkXkXsXsXzXkX",
"kXcXkXkXcXcXcXvXMXBXNXMXMX#X&XW._.S.R.$XN.#X+XQ.$X$XR.R.yXcXzXNXnXcXbXcXnXcXkX9XvXbXcXnXvXvXcXsXcXcXnXcXkX9XaXwXzXaXnXlXMXtXsXvXbXsXsXzX8XzX4XwXqX9XwXwXsX4XrXtXxXcXvXgXrXwX4XaX4X:X:XaX}.;X3X:X4X,XqX8X8XtX8XjX<XgX<X<X<X8X8XeX0X8X8X^.#X%X#XT.R.Z. X6XA R.R.C.S B rXrXhX<X,X,X,X,X>X8XeXtXgXgXlXgXgXgXtXgXrXeXqX8XwX8X4X9X3XwXaXsXlXtXqXsXlXvXlXlXvXcXtXzXvXvXvXNXNXNXcXcXzXlXzXvXlXlXzXcXcXzXzXzXsXkXzXsXzXkXzXsXzXzXcXcXkXzXlXlXjXkXzX@XC.oXW.F. XR..Xr.A.t.K.a.6.5.0.P R ( ! j a [ 3 < , >.T U $.d.V.R.OXnXkXcXkXnXkXfXcXzX",
"cXcXcXcXzXzXsXnXMXsXBXvXR.R.%X&XT.$XT. X_._. Xm...m.m.OX1XsXyXvXzXvXcXcXzXcXsXkXzXvXvXnXnXnXnXvXcXnXcXsXcXkXaXsXnXvXnXvXcXrXzXwXaXvXvXcXsXvXcXkX3X4XaXnXaXwX8XsXgXxXlXrXwXkXrXrX,XkX8XrXrX9X8X9XwX4XrX3XqXwX<XrX,XeX,X,X8XqXeXhX,X4XwX:XC.W._.`.oXU.M.#X$XT.W.n...B <X8X8X<X8X4X8X0X8XqXtXeXrXhXlXxXgXeXeX8XqX8XqXqXrXjX8X8X8X9XqXaXvXlXrXcXtXlXzXcXzXzXvXvXzXnXMXNXMXNXmXvXcXzXcXvXzXlXcXcXvXzXsXzXzXcXcXzXfXkXzXzXcXcXcXcXzXkXsXaXkXkXcXzXkX&X XR.D Q.#Xr.XX=Xi.:.-.0.0.>.( K ~ s [ 1 ! ~ Q ' T J J } B.C.3XzXkXcXMXkXnXzXcXcX",
"nXzXzXzXkXcXnXcXzXE._.m.%Xm.'._.uXM.).7XT.D C. XQ.dXMXMXnXvXvXvXcXnXkXnXzXsXsXsXnXcXnXnXnXnXnXnXnXnXnXvXzXzXsXcXlXvXMXsXMXlXwXwXeXcXnXjXMXvXcXsX5X3XwXwX9X9XdXjXgXtXtXrXwXwXrXrXtX8XrXwXwX}.4XsX3X3X;X;XrX:X:X,X8X8X:X-X:X,X8XjX:X<X>X_.z m.k.Z..X*XM.XX#X..oXM.S E.:X8XqXeXeXeXeXqX8X8XrXeXqXeXgXlXkXeX8X8X4X4X,XwXdXwXaX4XwX4X:XzXsXzXvXbXxXlXsXnXnXvXvXvXvXnXBXNXNXNXMXMXMXMXcXMXbXlXcXvXvXzXkXkXkXkXzXzXzXzXzXzXzXzXzXcXvXlXkXlXlXzXvXcXcXcX_._.'.).#XC.S pXz.J P Y :.<.T ( ~ s 3 3 3 W W ( R =./ { '.m.4XnXnXnXcXzXzXzXvXvX",
"nXnXvXcXcXcXnXNX1XV...U.C.C._.A ).zXMXmXMXMXBXMXMXMXMXnXvXzXvXcXcXfXkXkXcXzXsXnXbXbXbXnXnXnXvXvXkXnXvXkXsXcXcXcXlXlXsXzXnXlXsXzXcXeXrXlXMXMXzXkXdX3X8XrXjX3XwX9XwXqXwXtX4X,X4X8XvXjXrX}.}.-X,XeX,X5X;X{.;XrX;X:X<X-X{.:X:X,X<XtX:XZ.I._.%Xk.b X.| k.'.S.).m...R.B d d ,X0XrXeXeXqXeX8X8X8XqX8X8XrXgXgXeX3X8X5X9X:X:X4XwX4X4XwXrX4X4XsXzXcXcXlXtXcXcXMXcXvXvXnXnXmXMXNXNXNXMXcXvXvXvXzXzXvXvXcXcXlXcXkXkXzXzXzXzXzXcXcXzXzXzXzXzXzXcXzXvXvXzXzXcXiX).o.B %X_.B.).L.-.6 :.#.0.8 Q ~  . .2 2 2 , L K 6 0 k S B ..tXNXnXnXkXkXzXzXnX",
"nXnXnXvXzXvXvXMXS U.C.).C.N.R.W.sXNXBXNXNXMXMXMXMXnXcXnXnXvXvXvXkXvXkXkXzXzXsXzXvXkXnXkXnXnXnXnXvXnXnXfXnXcXcXcXwXrXvXrXcXMXsXbXlXkXlXkXNXNXvXvXwXwXaXkXjXjX:X3X4XrXlX:XwXrX:X<XgXlXkXrX;XrX8XrXwXwX:X{.}.rXeX4X-X:X:X}.;X<XgX<Xv W.O._.I.).v.D.F.S.m.$XuXoX$XM.O.B I.d :XjXrX8X8X8XqX8X,X,X,X9X,XwX8XrX3X3X5XwXrX<X,XrXlXqXqXwXrX<XbXqXkXzXzXjXtXcXzXzXvXzXcXvXNXNXNXNXNXNXvXMXcXvXvXvXvXvXmXvXxXzXkXkXzXzXzXzXzXvXvXvXlXzXzXlXcXvXmXvXvXcXcXcXvXqX'._.6X%XN.C.J.s.I #.#.6.#.> < ` [ 3 2 > Q L T #./ k ..M...y 5XnXvXcXcXvXzXnX",
"nXcXcXnXzXkXcXMX7X@X..m.S C.+XvXNXNXnXnXMXMXMXvXnXcXnXnXnXcXvXbXvXkXkXsXsXzXkXcXnXnXnXkXnXnXnXnXvXvXnXnXcXcXzXcXcX9XwXrXvXnXvXzXcXcXcXmXMXlXcXcXkXaXjXjXcXkXaXaX:X9XaXrX-X-XeXkX8XtXjXlXjXrXwX-X,X:X4X;XrX;X:X1X:X,X:X:X,X,X0X1XU.U._.U.].Z.l.Z.x.j.A )._._._.C.o.N ..z B.8X8X0X<X8X8XeX8X,X,X,X:X:X,X3X3X,X9XwXkX3XwXwXsXrXqXrXwXwX4XrX9XcXkXkXzXcXbXvXvXlXcXvXmXMXNXNXNXNXNXvXcXvXvXNXcXcXNXvXcXlXfXsXsXsXsXzXzXzXzXvXzXzXzXvXvXmXmXmXvXvXzXcXcXvX>XS.&X'._.W.R.F.D.a.s.& #.q.5.) , W ! < Q L =.J } u.x.v M...A kXnXcXcXcXbXnX",
"zXkXcXzXcXzXcXMXBXlX%X_.o.OXnXnXnXnXnXzXbXvXnXcXcXcXzXnXvXMXvXMXkXaXsXsXfXkXkXkXnXnXNXNXnXnXnXnXnXcXnXvXcXzXcXbXcXsXzXrXvXlXlXvXMXnXhXjXzXlXkXcXkXlXtXtXcXzXfXjX9XdXlX:X:XwXjXrXlXeXlXtXlX:XrX>X9XrX|.,X<X:XhX,X:X<X,X<X8XqX:XR.).6X$X].).S.A._.6X6X_.C._.#XS R.).B o.O.o././.;X:X<X4X8XwX<X8X>X:X:X}.:X4X:X|.wXtX3X4XzXsXrXqXsXrXzX8X4X4XkXlXwXkXcXcXsXzXrXzXzXvXmXNXNXNXmXzXvXvXvXvXmXvXmXNXvXcXkXrXaXsXsXsXzXzXlXcXlXzXzXvXvXvXNXMXmXcXzXcXzXxXvXMX_.I.$X%X$X#XoX@X).D.h./ &.5.6.^ Q W 3 W L Y $.&.y.l.{ c Z v 5XnXcXvXcXzXsX",
"kXzXzXsXkXkXkXMXNXlXM.W.m.nXnXMXnXvXvXnXzXlXvXcXcXcXnXNXNXvXvXcXnXkXdXsXkXkXkXnXvXnXnXnXnXnXnXnXnXnXnXvXsXsXcXsXkXvXsXzXvXcXcXvXjXrX9XeXzXnXzXzXkXlXlXcXcXcXaXwX3XbXrXwXwXOX8XqX8XgXtXlXxXxXsX:XwX4XrX8XeX,X<X,X:X,X<X8XeX<XC.oXoXU.6X_.6X`.S 6XI.W.m..._.M.o.R.].M.I.O.S P.~.-X:X4X4X,X,X,X,X,X;X:X:X{.{.dX5X9XwXrX,XwXtXlXqXrXrXkXsX4XwXrXzXcXrXwXvXnXyXzXzXsXcXcXNXvXvXcXvXvXvXvXmXNXmXvXcXcXkXsXsXsXsXzXzXcXzXlXlXzXlXzXzXvXMXNXNXvXcXzXzXzXzXcXvXMXMXBXiX2XS.fXM.+XV.z.&.&.3.6.0.I W 2 2 L E *.e.{ r.| j.d y 5XnXcXzXvXzXzX",
"zXzXzXzXsXfXzXvXMXyXC.@XsXkXcXnXnXnXvXcXzXzXzXcXzXnXNXNXNXvXvXNXnXkXsXsXkXkXcXkXnXnXnXvXnXvXnXkXkXvXnXvXcXkXzXbXnXcXnXnXnXvXvXsXjXcXaXqXzXrXvXcXwXwXrXcXrXwXsXrXdXaXrXaXsXdX8XrXtX<XeXhXgXgXcX<X-X3XtXwX,X:X<XqX8X,X8XeXQ.@X..].R._.$X$X@XuXD @XoX$XuXW.uXuXW.z O.N.O.I.M.1X/.Y.:X,X4X:X,X,X,X,X,X:X:X{.{.9X,X|.qXaXwXrX8XzXjX8XsXwXsX9XwX5XlXvXcXcXrXqXqXzXzXzXzXzXvXvXvXvXcXvXvXvXNXBXvXcXcXcXkXjXsXsXzXzXcXcXzXkXzXbXlXzXcXvXvXnXnXcXcXsXkXsXjXzXzXcXnXNXBX4XC.N.W.W.6XF.d.s.) 0.q.,.> 3 , L , J Y { r.k l.n.c 5XnXcXnXnXnXnX",
"nXnXzXzXzXzXcXbXMXNXcXcXzXkXkXzXcXcXlXzXcXnXvXnXNXnXnXnXNXMXNXNXNXnXnXzXnXnXnXnXnXnXnXvXvXvXkXnXnXnXcXkXzXzXkXvXnXnXzXMXcXcX4XsXfXsXlXlXqXzXzXlXsXwXzXrXkX4XsXjXsXsXsXvXsXsXsXrXrX<XrXxXeX<XrX4X3X3X,XqX<XqX0X<X8X<X8X^.d R.).S._.D oX6XZ._.S.A OX>X+XW.#X#X#XS o.z M...d M.D P.;X3X:X,X8X8X<X<X4X3X:X|.|.4XrX,X4X3X:X5X4X8XlXqXwXwXcXwXzXzXcXmXvXNXvXtX3XrXzXsXlXcXvXvXcXcXcXNXvXvXNXvXvXcXzXzXjXkXfXzXzXcXvXcXvXsXzXzXzXcXvXcXnXnXnXcXcXsXsXsXsXzXkXkXvXnXNXqXN.m.oX XfX XF.L.a.J 5.1.W 3 : W T P P P J i.y.C.Q.nXnXnXnXnXnXvX",
"nXcXcXvXcXcXcXnXMXMXcXcXzXzXcXcXcXzXzXnXnXnXNXNXMXvXMXNXMXmXvXNXvXzXvXvXzXvXzXcXvXlXzXvXvXvXNXnXnXcXzXcXzXzXlXvXfXeXwXnXcXkXzXkXzXzXsXzXsXsXsXlXkXrXsXzX4XdX,XcXwXwXsXsXjXjXwXjXsX,XgX8XjXwXjX3X4X:X;X8XjX8X,X8X<X<XqXT.C.M.I.B M._._.F.oXm.m.~.[.-X;XY.+XoX6X$XM.U.<X8XY.V o.(.}.:X:X-X8X8X8X8X8X,X,X:X-X;X8XwX4X3X<X:XwXsXzX4X:XrXaXbXsXsXtXlXMXMXNXvXrXsXvXvXcXnXzXzXkXcXcXMXvXMXvXcXzXzXcXlXaXkXkXzXzXzXvXvXvXlXzXbXlXcXzXvXvXvXzXlXlXkXkXkXsXsXzXzXcXnX7X$X].].B '.oXoXk.y.7.5.4.( Q ! L 7 T *.U P 8 { r.o.M.nXMXMXMXNXmXNX",
"MXnXvXnXvXvXvXMXnXbXzXsXcXcXcXzXnXcXbXzXzXcXMXzXMXNXNXmXvXbXvXvXmXNXvXzXzXzXaXkXzXvXvXzXsXzXvXvXzXzXnXnXvXzXvXlXkXkXkXvXcXzX9XsXdXsXcXsXwXaXjXjXtXcXzX3X9XdX3X9X8XwXqXjXeXrXgXjXjX8XqX8XgX8X4X;X;X5X;X3X,X8X9X8X<XeX>X@X..S _._.U.C.c.F._.W. X+X-X;X,X-X-XR.Z Z >XeXhXqX8X,XI.{.{.}.-X{.}.1X<X8X,X,X:X;X:X:X8XwXeXrX8X4X4XcXcX8X3X9XwXlXvXsXjXjXmXMXMXcXNXwXvXcXwXcXcXkXcXvXmXvXNXvXlXzXkXzXzXcXcXkXkXzXlXzXzXcXvXcXzXzXzXlXlXzXcXcXzXlXfXjXjXkXzXsXzXzXkXfX2X_.'.#X..uX].).X.f.*.P I E <.0.<.8 T <.4 9 / k j.G C.1XNXNXNXNXNXMX",
"NXMXnXcXcXvXzXcXzXcXzXlXcXnXnXnXcXcXkXcXcXnXvXnXmXmXcXcXcXzXcXcXvXcXcXvXvXzXlXvXvXvXzXsXlXsXvXMXcXnXNXcXjXsXvXzXaXdXcXsXkXdX9XwXkXzXcXzXsXjXlXlXkXkXdXwXdXdX4X5XsXwX4XrXrXkXjXeXlXlXjXlX:XrXwXdX3X[.|.{.,XrX8X,XrX8XC.#X+X).'.'.).O.k v.&X@XS  X-X;X0X;X;X1X_.8XeXhXeXqX,X;X-X-X;X-X-X:X-X;XqXeX8X4X:X4X:X,XqXrXrXeXqX:X,XzXzXtX9XrXsXnXvXrXgXjXzXvXcXMXNXvXnXcXnXcXcXzXzXzXvXMXNXcXwXsXlXcXcXcXzXcXkXzXlXzXvXzXvXMXvXzXcXlXkXzXzXcXzXlXkXkXkXkXzXzXzXcXnXvXdX.._.'.).].C.C.$XZ.a.5.5.Y 7 7.5.E U 2.T $ U 8 k n Z B BXBXNXNXBXNX",
"MXnXcXcXcXkXfXsXzXsXsXkXsXcXnXnXnXcXzXzXcXfXcXNXNXcXcXcXcXcXlXvXcXNXvXvXzXvXnXzXzXnXNXcXnXvXzXnXnXBXcXcXcXjXsXlXjXkXkXwXcXfXdXwXcXwXrXjXsXkXlXmXvXfXaXrXdXsX9X9XrXlXrX4X:XrXxXjXgXxXrXlX;X<XrX;X:X[.-X-X-X;X;X3XeX'.Z &X_._.$XS..Xx.X.A.v M.B.B ;X;X;X;X-X{.1X,XqXeXrXeX8X;X;X-X;X;X:X,X,X,XeX8X4X,X3X:X:X:X8XqXrX8X<X,X:XkX8XwXsXwXkXnXcXlXvXjXjXcXlXvXnXaXnXnXnXlXrXjXkXkXzXxXvXvXzXwXzXcXcXbXcXcXkXkXzXzXcXcXvXvXvXcXcXjXrXzXzXzXzXcXkXjXjXkXcXcXzXcXcXnX>XD ).O.+X).&X&X+XG u.p.q.4.) #.%.>.0.=.E *.U E { k.D c B.BXNXmXNXBX",
"MXvXvXzXkXkXjXkXzXsXcXcXzXcXvXvXlXcXcXvXkXkXkXxXvXvXvXvXcXlXlXcXlXnXNXNXcXzXzXkXaXlXnXNXvXcXzXvXnXkXmXNXNXvXxXlXaXrXkXdXcXsXdXsXjXdXaXaXlXlXxXxXkXjXjXgXeXsX9X9XsXsXsX5X9X,XrXlXlXvXlXwXrX4XrX9XdX9XrX/.Y.G OXP.m.m.o.fX@XW..Xb.| F.h | V.W.x P.-X;X;X;X-X;X,X<XqXeXrXeX8X;X-X-X-X{.;X3X,X,X8X8X,X:X}.3X4XzXjXrX8X<X:X}.4X|.|.4XwX4XzXzXsXzXwXcXMXvXtXvXvXzXvXzXzXzXaXsXsXfXkXvXvXcXvXzXlXzXzXzXzXvXlXzXzXcXvXcXcXzXvXcXvXsXsXzXzXcXvXcXlXsXlXlXzXzXzXcXcXnXnX:X].>X7X6XC.+XoXU.H.> #.7.4.2.6 <.K 2.U P P I r.X.M.x 1XBXNXNXNXNX",
"MXvXvXcXcXcXkXcXzXsXkXzXfXzXzXzXvXvXzXlXkXkXxXxXNXNXNXvXvXcXzXkXvXvXvXvXnXnXcXcXvXzXlXvXzXvXvXvXjXvXmXvXvXmXNXlXzXkXtXrXdX0XdXdXwXwXjXjXxXcXvXNXmXxXlXlXaXwXwXwXaXwXwX9X{.jX,XlXcXjXzX/.9XaXdX5X3XN.R.S I...M.R.n.I.C.+XoXX.z.u.{ y.| x.R.R.n.Y.-X-X;X3X-X;X:X,X8XeXeX<X4X;X{.{.}.-X-X,X<X,X<X:X,X,X:X:X;X8XxXlXqX8X,X,X5X;X{.4X|.;XsXzXkXMXgXrXzXmXkXdXwXzXzX9XzXzXzXaXsXdXkXkXvXMXmXmXvXlXlXzXzXcXcXzXzXcXvXcXcXcXcXcXcXzXlXzXcXcXcXzXcXlXkXzXcXzXcXcXcXcXcXMXNXNXcX].m.m.6XQ.G.Y & #.9.9.1.U ,.E T J $.U j.S S >XNXMXvXmXNXmX",
"nXvXnXvXzXzXjXzXkXjXjXkXjXkXkXsXcXcXkXlXzXzXvXvXcXmXNXmXvXvXcXlXlXvXNXvXbXcXnXcXvXzXcXvXnXzXvXvXmXmXvXMXmXvXmXxXkXjXsXsXaXdXaXdXfXhXsXgXcXxXcXcXlXlXlXcXzXwXwXrXrXaX9X4XrX8X;XrXMXkXsXdXsX9XsX>XS Z D o.C.C._._.6XI.#XW.A.v.F.u.K 9 j ).M.I.A N.-X-X,X,X-X-X,X<X<X<X<X:X;X,X{.~.(.[.;X;X<X0X<X,X:X;X,X4X4X,XqXrXqX4X8X9X3X3X|.3X,X|.;XlXjXlXsXrXsX8XsXsXzXzXcX4XkXkXdXsXrXlXlXzXvXNXvXvXNXvXvXzXzXcXvXcXlXzXcXcXcXzXzXcXcXzXzXxXzXcXbXcXzXlXkXlXzXzXcXcXzXcXvXMXMXMXmX].fXm.I.@X{ &.s.*.Y T %.T 2.<.4 & %.i.m.B S NXNXNXMXvXmXmX",
"mXNXnXcXcXkXzXkXsXkXkXjXkXkXsXzXlXcXcXlXcXvXmXzXcXcXMXNXvXvXvXxXcXlXnXvXnXcXzXzXcXMXzXzXcXnXlXlXjXcXNXBXmXNXmXvXlXtXsXjXcXzXkXkXtXlXxXxXvXxXvXzXjXjXlXjXsXwXwXdXdXdXyXdXdXrX:X8XjXcX4X4X!.P.D D B N.m.D o...R.R.C.n A. XA.v.l.i.&.K e.u.M.m.C.B ,X,X<X:X<X-X:X,X:X-X-X-X;X|.:X{.:X:X;X4X8XqXqX<X:X}.:X4X,X,XwXwX<X<X:X:X9X4X:X;X,X,X8XsXtXvXsXwX,X4X3X9XzXsXzXdXaXfXsXzXlXjXcXzXcXvXNXNXvXvXvXvXzXcXcXvXcXzXcXcXcXcXcXvXvXzXzXzXcXcXzXlXzXzXzXlXkXzXcXcXkXzXkXnXmXmXmXiX%XoX..+Xf.&.e.9.0.9.#.4 9.2.U J & r.E.D ^.MXNXMXmXmXmXmX",
"NXmXvXvXzXfXkXjXkXjXkXkXkXkXkXlXzXzXlXzXvXcXcXcXcXvXcXcXMXmXvXvXzXxXzXzXlXlXzXlXcXnXnXkXcXvXvXjXzXvXNXBXNXnXzXlXzXlXlXzXmXvXcXxXMXxXcXxXvXNXcXcXlXsXsXvXzXrXwXwXaXrXrXrXaXrXsXkXlXlXcX..z M.D T.I.R.x.c.S.Z.j.{ z.y.e.v.z.| u.d.8 I &.&.k P.D n.,X;X<X:X,X;X-X;X,X1X:X;X;X;X:X;X,X;X:X<XqXeXeX<X:X:X:XwX4X8X3X8X4X8X,X,XjX8X,X<X4X3X4XwXcXzXnXnX0X,X-X:XdXaXwXkXjXsXkXkXzXzXjXkXzXvXNXvXcXcXnXcXzXvXvXMXxXbXcXvXcXzXxXcXbXlXxXzXcXzXzXzXzXcXzXvXcXzXkXlXsXsXfXcXmXmXvXlXfX1X2X].k.d.{ i.&.0.2.$.$.#.J P & F.'.N.o.NXnXnXvXvXvXNX",
"MXNXvXcXlXlXkXkXjXjXlXlXkXdXdXsXcXzXzXcXcXlXmXMXmXvXmXvXcXvXvXmXvXcXlXlXsXsXaXzXzXcXzXkXaXdXcXcXMXNXNXvXnXcXlXMXxXxXxXmXvXvXvXmXNXBXxXcXmXmXNXbXcXnXzXaXrXrXwXeXsXyXjX,X8XaXjXrX8X^.B M.M._.oXm.S.y.k { z.l.y.i.9 a.&.{ u.e.} &.> 6 & U 8 n D m.;X3X!.:X:X,X<X,X<X:X:X;X-X;X,X,X,X:X:X4X8X8X8X<X,X;X:X,X:X4XqX8X<X8X8X8X<XtX8X8X8X3X:X,XcXzXcXnXtX9X;X3XsXkXsXwXdXkX9XzXzXcXzXsXsXzXMXnXcXcXzXcXlXcXvXvXzXcXcXcXcXxXzXzXcXcXvXvXzXzXsXlXkXzXcXvXcXzXsXsXsXsXkXnXmXvX>XrXvXvX7X+X6Xd.D.a.&./ 9.3.%.& P U , k @XS F jXvXlXzXzXvXNX",
"vXMXvXlXzXzXzXzXzXzXzXlXsXkXkXcXlXlXkXlXcXvXxXvXmXBXmXcXvXmXMXmXcXvXcXxXsXsXsXwXaXsXgXjXlXjXjXjXcXvXvXcXvXlXcXzXNXvXvXxXvXmXxXmXvXNXcXcXvXxXgXtXtXlXrXaXkX9XjXjXkXcXlXlXzXB.P.E.D ..C.S _.R. XZ.9 t.y.u.9 k 8 &.$.&.i.9 d.1.%.6.U #.6 % % r.Z M.<X<X<X,X:X,X,X8X<X,X;X,X/.}.:X:X,X,X8X,X<X8XeX8X,X:X4X,X,X8XeXwX<X8XwX8X8XwXrX8X9X3X4X4XdXwXdXzXzXsX,X9XrXfXwXcXvXvXcXcXnXaXsXsXsXzXzXvXvXvXzXzXcXcXvXcXzXcXxXcXzXzXcXcXvXvXmXvXvXkXfXjXkXkXvXvXkXkXkXsXsXzXzXcXMXMXvXzX>XoXoXS H.d.f.7.5.a.p.h.a.P 6 &.9 k S n.D ..vXzXzXzXvXmX",
"vXNXcXcXcXvXvXvXzXkXzXzXsXkXkXkXkXkXzXlXzXkXzXxXmXcXmXmXcXMXNXMXvXvXvXzXfXsXsXsXjXjXlXcXlXzXjXzXzXlXkXsXvXvXzXnXMXvXvXmXBXmXxXxXlXxXMXxXxXxXxXzXlXzXsXrXkXsXeXxXcXvXlXlX<X..R.n.S.T.M.E._.W.D.} 8 } e.a.e.8 ) U I e.1.Y $ P J Y 6 #.#.#.8 k D S 0X,X,X,X,X,X<X8X8X8X:X-X-X}.-X,X:X3X8X8X<X8X<X,X,X;X,X:X}.|.:X,X:X4X4XwX,X8XeX8X;X{.|.|.;X;X4XwXsXwXzXkXkXkXlX4XeXcXkXcXzXwXsXsXlXzXcXlXcXzXzXzXcXcXvXvXcXvXcXxXcXcXvXvXmXvXmXmXcXkXjXjXsXkXjXzXxXkXcXfXlXzXcXvXMXmXmXmXo.2XF.D.i.e.-.6 &.6 &.5.q.5.#.{ { c.x.Q.z x lXlXzXlXzXnX",
"mXvXvXcXvXvXNXvXzXsXsXzXsXzXkXkXlXlXzXkXfXkXzXvXcXcXvXlXzXcXbXmXvXNXNXzXkXaXkXjXjXlXcXxXmXcXzXvXzXzXrXcXsXsXzXzXzXcXjXBXxXxXxXcXvXzXgXlXvXlXkXrXcXwXwXdXjXjXvXcXvXMXkXjXv o.m.N.m.N.#XC. Xj.{ &./ e.e.t.2.,.9 ,.$.8 2.=.4.<.E >.4 6 #.# 8 k b l -X;X;X;X,X3XeX8X0X<X-X,X,X8X;X,X,X,X,X,X<X,X:X:X:X,X:X-X-X-X:X;X,X,X4XqXqXqXqX<X-X,X-X:X,X,XwX9X:X:X5XdXlXcXcXvX9XkX3XsXaXwXsXfXzXvXcXlXzXsXlXzXzXvXcXvXMXNXmXmXvXMXmXNXmXmXvXvXvXkXsXlXzXsXkXkXzXcXlXlXzXcXvXvXmXMXmXmXN.N.D.e.s.k p.e.a.#.&.6 =.#.#.%.{ t.j.V.C.D {.cXlXsXzXzX",
"zXcXvXcXvXvXvXcXzXzXsXsXsXzXcXkXzXzXlXzXxXkXkXcXvXvXvXlXlXlXnXvXcXzXzXlXkXkXkXaXlXjXvXvXmXcXkXaXaXyXrXdXaXwXyXwXcXsXtXvXvXNXcXlXzXmXlXzXsXsXvXsXwXwXOX4XtXjXmXjXkXgXkX].oXS.'.#XA.b D.k c.k &.e.0 6 a.8 ^ 3.&.U #.$.U T %.E K 4.%.#.#.$.& i.k.R.i <X,X:X:X,X<XqX,X,X;X;X,X<X0X,X4X,X:X-X:X:X-X}.:X,X,X:X3X,X:X,X4XqXqXqXeXqX8X:X,X4X8X4X8X4X3X3X8X4XcXsXlXvXvXzXqXcX3XsXzXsXjXjXlXjXzXlXzXlXlXlXvXvXmXvXNXNXNXmXvXMXmXNXmXvXvXcXlXkXaXkXzXzXkXfXkXkXzXzXcXvXvXvXvXvXvXfX)...S.d.H.H.b.i.s.2.$ P / U 8 6 ) 9 n X.m.Z N.cXcXzXzXzX",
"lXzXvXcXcXvXvXcXzXsXsXsXzXsXfXnXvXvXzXzXvXxXcXvXcXmXcXlXkXjXsXsXsXlXtX4XjXcXcXkXlXjXcXmXmXcXkXjXdXrXdXrXaXsXsXaXwXzXsXrXbXlXlXlXjXtXtXlXlXsXrXsXrXsX4XkXjXsXjXhXjXjXjXU.'...U.R.&Xj.| { e./ ) *.) T Y 0.&.&.#.4.$.$.%.< ^ ^ P K P #.U $.$.; @.N.M.,X;X,X;X:X,X<X:X:X}.-X,X<X<X,X,X8X:X-X}.:X-X-X:X,X:X{.;X;X>X<XqXrXeXtXtXeX8X<X4X8XeXeX9X8X8X8X3X5XkX8XcXzXzXvXcXsX3XrXkXkXaXcXvXvXjXcXzXzXcXcXvXvXmXmXMXNXmXmXMXNXNXmXmXvXvXvXlXkXkXsXsXzXzXzXzXkXkXcXzXvXvXcXcXvXvXOX_.C.).2 J.x.XXD.3.=.$.T $.-.# U ) t.X.M.z C.>XnXnXcXkXsX",
"lXvXMXvXvXvXzXcXsXsXdXsXzXzXvXkXvXvXcXvXxXvXcXkXmXvXcXlXkXzXzXlXlXlXlXcXcXvXcXcXcXlXcXmXmXcXfXdXrXsXsXaXsXlXzXrXaXwXwXyXtXgXlXxXzXqXlXlXsXkXlXjXjXsXkXkXjXjXrXjXjXgXsXlXO.C.A N.6XF.p.$.$.U *.6 2.9.Y U 0.2.5.T > / 8 3 9 _ R _ ,.#.6 P #.k n C.V eX4X-X:X-X;X,X<X<X}.-X,X8X8X<X<X,X<X:X{.{.-X:X,X,X:X8X{.{.;X8XrXeXqXeXeXeX8XtXeXjXrXaXP.Z eX9X:X;XwX9XaXcXcXjXcXzXzX8XkXkXcXvXmXNXvXvXcXlXcXvXvXMXmXNXMXNXNXmXNXNXMXmXvXbXcXvXzXzXlXkXzXzXzXzXzXvXzXzXzXkXzXzXxXcXvXvX_.#X#XD.v.S.Z.G.f.p.%.2.#.=.I 8 { l.C.W.W.C.OXdXc @XcXsX",
"kXcXnXnXnXvXvXsXdXsXdXsXkXcXkXkXvXvXlXbXcXbXlXcXMXvXzXzXjXcXvXcXzXlXzXbXcXlXlXvXkXkXnXMXcXzXtXlXrXaXzXaXjXcXlXtXjXsXrXsXsXlXcXmXmXxXmXlXxXlXeXlXvXtXjXlXsXsXjXqXsXtXsXsXR.W.C.n.I.A.e.*.I *.q.T T ,.5.<.Y 6.6._ L 3 : 3 2 > 7 >.=.=.P { k l.M.S S B.9X{.|.}.;X,X:X,X8X:X}.3X,X,X:X:X8X4X}.:X;X4X8X,X,X8X4X;XwXlXwXqXeXrX8XeX8XeXrXrXeXA S o.d U.8X8X:X3X:XsXvXrXnXaXzXkXkXkXlXmXcXzXcXlXzXlXvXmXmXmXmXNXmXMXMXMXNXmXvXnXnXcXnXcXzXzXzXzXzXcXzXbXvXcXzXkXzXzXkXcXcXcXnX1XR._.n. XF.b.m.v.G.p./ E 5.P Y 9 r.| P.S D C.A z x M.wXzX",
"cXcXcXnXnXMXkXkXsXsXdXsXaXjXkXkXcXjXlXzXvXqXvXNXOXV mXvXkXlXcXcXvXzXlXzXlXcXzXlXkXfXaXjXcXjXsXjXsXlXsXzXcXxXxXjXjXsXsXsXsXlXvXxXvXmXmXxXxXlXxXxXvXzXqXtXlXjXjXjXsXrXsXrX)._.$XR.F.D.I Y <.P 4.<.5 E L R <.4.4.I W W s 1 p 1 7 > 2.$.Y r.r...o.C.D Y.8X-X,X,X:X:X:X,X:X4X;X;X:X,X:X,X8X8X{.:X:X4X0X8XeXqX:X4X3X4XlXeXeXeX8XwXeXqXgXMX/.x d Z y B P.>XrX8X,X3XfXcXcXzXfXjXrXkXrXzXjXkXlXkXxXkXvXvXvXMXmXmXmXmXvXvXNXvXnXnXnXcXcXcXvXnXsXsXsXkXcXvXvXcXcXcXcXkXkXcXcXvXnXN.M.R.S  XF.F.F.e.g.h.g.&.=.=./ { r.S.oXR.#X_.n.c t B nXzX",
"cXcXvXvXzXnXnXkXsXsXdXsXsXkXkXkXkXkXOXtX7X<XMXcXo.d MXvXkXlXzXzXcXcXcXlXkXsXlXkXsXsXsXdXdXjXkXlXlXzXsXlXxXmXlXlXsXkXtXjXjXjXlXvXvXNXmXvXxXxXvXvXxXlXtXlXjXsXsXrXaXaXrX4X%XS oXS.c.f.%.*.E P I ) #._ ( _ ) <.7.7.L * O p p : W J :.Y / l.XXN.C.o.N.Z {.rX;X;X:X8X,X,X:X8X,X|.,X:X,X,X,X:X3X;X5X,X8X<X8X,X,X8XqX4XqX<XqXqX8X8XnXwX,X>XR.B ..I.d p S rX0X4X3X0X4X9XsXsXcXzXlXzXkXlXcXcXcXlXvXvXmXmXmXvXmXMXvXcXvXvXvXvXnXcXcXcXzXzXzXzXsXcXvXcXzXcXbXvXnXnXcXzXkXkXcXnXkXR.+X$XuXk.j.u.u.z.r.f.D.{ 8 & #.e.y.D  XC.D oX_.M.D Z MXcX",
"nXnXnXvXzXzXkXsXsXsXdXkXsXsXfXzXlXsXqXU.N...<XlXB x >XMXcXkXlXlXcXzXvXzXzXvXzXzXsXsXsXsXkXdXkXlXlXlXjXlXxXvXmXcXsXtXtXsXjXsXxXxXvXxXxXxXxXlXxXzXlXcXlXlXtXkXrXtXrX3X3XzXoXA R.).x.D.e.s.T 5.$.#.>.U T L 1.#.7.,.~ ! 3 a 1 2 ^ K J a.l. X| ..V _.m.n.z {.-X3X:X<X:X;X8X8X3X4X8X8X4X-X-X;X8X4X;X:X<X<X<XwX4X4X3X,X<XqX8XqX4X:XsX4X..>XM.R.A ).N.B o.8XrX<X3X;XdX-XaXkXsXlXlXrXjXlXlXcXlXcXcXmXmXmXMXcXvXmXvXcXvXvXvXvXcXcXcXzXkXkXvXsXzXzXvXzXvXcXzXcXvXvXvXvXkXkXcXvXMXB.M.Q.S.n D.e.&.G.F..XJ.G.%.# 8 { *XQ.N.C.S D +X_.m.D ,XMX",
"MXnXnXcXkXkXkXkXsXsXkXkXkXzXsXcXzXaXzXzXOXM.x N.S Z.P.NXMXnXvXlXcXlXlXxXvXvXvXvXzXsXdXsXwXdXrXsXvXlXlXlXxXvXmXlXlXtXzXlXjXzXzXjXjXjXcXlXjXjXlXlXcXcXlXzXtX,XrXlXsXdXsXsXjX#X_._._.S.b.D.p.=.$.$.4.Y P & <.*.>.L ~ 2 : * - * I =.J k k.c.V.v...l D m.C.x M.8X,X,XwX3X8XqX8X4X4XqXwX4X3X4X9X,X3X3X3X4X8X<X:X:X,X8X:X>X4X4X,X;X3XM.C.O._.o.B R.O.d E.wX9X8X3X;X3X3XsXkXlXcXkXkXaXjXsXlXvXkXMXvXmXMXvXcXvXmXmXvXvXmXcXcXcXlXkXsXsXkXsXkXnXvXvXcXzXzXkXcXvXnXnXvXfXkXcXvXvX&X.. Xc I.X.c.| c.c.A.D.i.a./ &./ W._.C.W._.V A C.m.C.S bX",
"5XnXnXzXfXsXnXkXfXkXsXkXcXcXzXzXcXvXMXnXcXO.S B l Z NXNXMXnXvXzXzXlXsXcXmXMXmXvXcXsXsXsXwXdXwXsXtXsXlXlXxXvXmXxXxXlXlXlXxXlXlXjXtXjXsXjXjXtXjXvXeXcXcXxXxXcXcXzXrXrXdXkXlXrX_.6X_.*XXXH.y.y.D.e.3.8.5.U *.R $.#.( Q ' ~ K 8 P J #.e.| v.| c.v...D ..m.p y P.wX<X8X8X4X8XrXrX8XeXwX4X4X,X3XqX4X;X4X3X4X4X8X8X,X,X,X3X<X0X,X}.:XS '.&X_.).A O.B x x eXeX4X9X4X;X;X;XtX,XwXvXcXjXfXwXkXcXkXvXkXcXcXmXvXmXkXxXvXvXxXcXlXkXsXaXdXsXsXsXbXcXcXnXcXzXsXzXcXnXnXnXvXkXkXzXvXvX XS.6X6XE.$X6XW. X XM.r.u.e.p.e.t.Z.'.6X#XS.A.X.x R.t Y.OX",
"+XzXzXzXkXsXsXzXzXkXkXcXcXcXzXkXzXvXcXzX>XR.).C.m.G NXmXnXvXcXcXlXkXjXxXmXmXP.qXlXlXkXsXwXwXrXsXsXjXlXzXcXmXmXxXxXcXzXlXlXlXzXrXwXlXjXzXgXjXlXcXcXxXxXlXlXxXzXtXdX3X;X4XjXjX7XC.C.R._.2X$XC. Xv.u.1.<.h.d.g.*.R 8.*.>.:.$.2.,.T &.G.| z.k.j.z.c.v.X.C.o.B y 8X,X3X8XwX8X8X<X<X<X,X:X4X:X:X,X9X4X3X;X;X4XwXrXwX,X8X8X:X3X/.T.oX_._.R.I.'.R.C.U...V jXwXeX3X4X3XdX3X4XeX3X0X9X:XsXrXsXsXcXkXzXcXcXcXcXvXxXvXkXnXMXfXlXsXsXdXaXjXkXzXzXcXvXvXcXcXsXkXcXvXnXnXvXzXzXzXvXnX^._.R.@X%XC.$X+X$X'.R._.b.b.y.F.S.oX X+XQ.oXI.C.S M.x c z ",
",XcXkXkXsXsXzXsXzXkXcXcXcXcXcXzXvXE.M.C.P.v N.m.Z OXmXvXcXnXcXcXlXzXjXmXvXM.P.bXaXsXsXdXdXdXdXsXlXzXvXlXxXmXxXlXxXcXjXlXtXsXlXsXtXlXlXjXjXjXeXlXxXlXlXlXgXzXxXtXkX:X8X3X8X8X3X,X^._._.oX'.oXW.U.S.c.G.`.k.G.G.e.I :.R ;.$.-.#.I a.f.e.u.r.u.y.h { | C.S m.y eX0XeX8XrX8X:X,X,X8X;X:X,X;X:X;X:X4X4X8X8X9XeXgXrXeX9X,X/...B N.n.'.M._.+XM.].U.C.O.o.rXeX9X3XaX4XeX8X8X8X9X8X3XwXsX:XwXfXkXkXkXcXmXcXkXmXmXmXvXvXvXcX8XaXrXaXkX9XfXkXsXcXnXnXbXzXkXsXzXzXcXzXvXzXzXcXcX>X6XW._.C.%X&XR.oX$X&X$X6XoXoXm.Z.XXN.T.T.$XC.W.S m.o.S ].S ",
"vXzXzXsXzXkXkXkXzXcXcXnXcXnXcXzXnXm...C.C.x x o...sXrXvXvXzXnXzXzXzXzXfX/.mXmXcXdXsXdXwXaXhXlXcXlXrXrXsXlXcXcXjXlXtXjXjXjXjXhXaXrXlXsXlXsXrXgXkXzXsXlX,X:XjXvXcXdX3X8XsXqXrX,XrXzX^.R.A _.6X'.6XR.$XQ.+XM.E.F.D.d.t.7.1.` / %.U p.e.&.) 9 &.i.h h k | A D c hXjXeXrXrXwX3X8X9X-X}.|.}.-X:X:X4X9X,X8X8X8X0XwXqXhX_.B V m.D X.V.n V..X).n.E.S M.S hXrXeX8X3XwXjXlXjXxXxXtXtX,XsXsX5XaXaXsXjXkXhXlXvXmXvXvXvXvXvXcXzXsXaX9XaXzXzXsXkXzXvXnXvXzXkXkXsXsXzXvXzXvXnXcXvXcXrX$XoX Xn.+Xm. XR.m.oXW.N.6XoX&XI.$X_._.N.$XoX).M.n.OXNXcXvX",
"vXzXsXsXfXkXdXkXzXcXcXcXvXnXnXcXnXN.D +XfX9X/.@X{.jXOXzXzXzXcXzXzXzXkXvXjXcXcXcXsXrXrXaXjXjXlXlXsXsXaXaXlXlXlXjXsXlXkXgXjXgXtXaXdXaXsXsXfXsXkXcXkXrXqXrX8XqXvXxXsX|.dX3XjX4XrXwXrXzXOXW.+X2X7X2XQ.m.R.W.$XR.6X_._...f.h.f.u.e.e.t.a./ &.&.k z.d.0 | x.M.Z.P.qXgXrXwXjX8X:XeX;X,X:X;X5X5X3X3X4X8X4XeXwX3X8X8XqXo.B.R.Z.v.9 L } [ y.u.| n.W.C.Z n.rXhXeX8XwXkXcXcXvXvXMX8XrXqX:XdXOXwXsXsXzXcXvXvXmXlXzXcXvXzXzXcXzXzXcXsXzXzXzXrXkXfXvXnXkXkXkXkXsXsXsXcXkXsXzXnXnXnXvXcX6X7XN. X_.fX%XA R._._.m.W.I.oXR.oXoXuXZ.#X@XoXwXvXvXvXcX",
"nXcXkXzXkXkXcXcXzXcXcXnXvXvXvXcXlXC.R.I.9XzXkXwXwXkXsXzXzXlXcXzXrXOX8XrXvXcXxXkXlXkXsXkXrXjXjXcXaXaXsXsXtXtXjXlXsXlXfXkXcXlXdXsXsXdXsXwXvXkX8XjXkX:XqXqX<XxXNXlXaX9X;X|.:X4XrXqX3X3XrX+XkXzXkXzX4X4XfX7X'.OXI.6XoXI.U.j..XH.d.{ i.d.&.6 e.{ d.D.D.).I.S m.../.8X<X<X,X9X4X8X;X-X;X}.4X3X5X4X8XeXqX>Xo.S o.M.B o.C.{ I & J & $ Y K > i.x.S.I.m.Q.P.rX0X,X:X4XrXvXcXsXcXkX9XsX4XwXsX;XdXrXzXcXcXlXcXlXlXlXlXlXlXcXlXzXzXzXzXcXnXzXnXnXkXnXcXzXkXsXsXdXaXkXkXkXcXnXcXcXcXcXcXnXnXNXyX&X+XS...C._.#XoXR._.o.C.m.6Xm.m.M.cXvXcXlXvXnX",
"vXzXsXsXkXzXcXcXnXcXcXcXbXnXnXzXrX+XOXlXzXcXsXdXdXlXzXbXzXcXnXzXB S E.vX1XjX8XxXsXlXsXsXjXkXjXzXaXsXkXrXkXsXlXxXsXlXkXvXcXcXsXrXwXrXwXlXjXjXzXjXtXsX8XqXxXmXvXmXcX;XjX|.3X3XwX,X,X3X;X3X8XhXkX9XsX>XxXeX8X8X4X1X$X6XR.T.N.W.XXD.k ^ I #.i.i.k y.r.).C.R.V O.m.,X:X:X3XeXeX4X9XwXwX3X|.:X;X4X3X4XqX}.C.C.P.o.C.X.3 & J Y I I W W U Y & / | n N m.d 1X0X,X5XrX:X:XaXkX9X;X}.rXzXsX5X:XaXqXzXlXlXkXjXkXjXkXlXzXzXzXkXzXzXcXcXcXzXzXkXkXkXnXcXzXsXsXsXaXkXkXkXcXzXzXzXcXzXcXcXnXMXNXqXn.R.@X_._._.&XoX_.m.#Xo.C._.N.m.MXvXnXvXvXnXnX",
"nXzXsXsXsXzXzXcXvXnXcXnXcXvXvXMXcXcX9XzXzXzXsXdXrXzXlXzXlXzXnXt z o.m.gX1X1XkXkXzXcXzXzXlXlXkXjXfXrXkXjXsXsXlXzXsXlXkXzXcXcXjXtXrXkXlX,X8XrXzXrXmXqXvXvXtXvXvXmXzX9X;X8X;X,X8XeXaX3X4X:X;X;X;XsXrX,X,X<X8X:X<XxXjXiXoXW.o.o.V.J.t.&.&.e.b.A.y.h A.V.o.n.T.B c 8X8X4X4X9X9X;X:X8X8X:X9X;X3X4X;X:X,X3XQ._.'.| _ 3.6 & 6 7 : > , * , K % & J i.0 N.M.D 8X3X:X3X3X;X|.3X8X,X;X5XdX9XsX4XdXaXcXvXkXjXrX9XdXsXsXzXzXzXkXzXcXzXcXcXzXvXkXnXkXfXzXbXkXkXsXfXkXkXsXzXvXzXzXzXzXzXvXnXNXNXnXsX#XoX%XC.+XR.R.2XR.R.N.o.M.7XNXnXnXnXnXvXvXvX",
"zXcXzXzXcXcXcXcXvXvXwXb D wXcXvXvXfXdXsXzXzXzXzXzXsXsXlXcXvXaXN.v z M.!.t ^.jXvXcXcXtXxXcXjXjXjXkXjXjXwXsXsXzXsX8XsXtXsXlXlXjXtX4X;XzXzXzXzXzXqXxXvXmXzXvXjXtXeX,X8XzX,X4X3XlXwXrX;X3X8XdX;X,X;X3X:X,X,X8X8X4X8XzX9XqX7XoXT.#X).H.t.i.n x.=Xb.n n M.M._.A C.S S P.P.9X4X,X-X3XwX8X8X0XeX8X8X4X3X3X3XR._.+Xa.& T =.4 6 ^ 3 2 O - ; 3 4 J & J > m.I.x Z 8X3X4X:X,X;X3X,X3X:X;X5XsXkX9XsXsXkXkXzXxXzXkX:X4XsXvXvXcXsXzXcXkXzXkXvXvXkXkXkXzXsXzXzXzXkXcXnXnXvXvXzXvXcXzXzXzXzXcXnXNXnXbXoX_.M._.N.$XfXqX^.OXvXnXnXMXMXnXnXnXnXvXvXvX",
"zXzXcXnXcXzXzXzXzXwXsXz 5XzXcXkXkXkXzXzXzXzXkXsXzXzXzXcXvXNXvX>XA c m.A S lXfXxXvXcXzXxXxXcXzXfXjXkXsXsXlXsXtXlXlXsXdXsXsXjXtXzXsXjXeXcXqXzXzXlXtXlXMXxXvXcXrX8XlXgXcX:X8X4XwXrX3X8XrXrX|.-X:X9X-X9XkX8X0XxXqX8X5X4X9XaX6X6X_.$XfX$X&XR.v.k D.n c.Z.I.I.M.C.A M.B B Y.0X,X8X4XqX9X:XaXrX9X9X5XN.O.I.W._.k.,.-.J 1._ L 9 > 3 O - - * , 7 > Y # 0 S.B.B /.:X:X:X:X,X,X3XsX9X3X;X5XdX5XsXdXjXkXzXqXaXsXzXsXlXvXvXvXkXcXnXzXsXzXkXvXkXkXsXzXsXzXcXcXbXnXnXnXvXvXcXzXcXcXcXzXzXnXcXnXnXnXOXwXR._...6XzXnXzXcXvXvXvXvXMXvXvXcXvXcXzXzX",
"zXsXcXcXcXzXkXcXnXP.C.|.kXsXsXdXsXsXsXsXzXzXsXzXzXkXlXvXvXvXzXyXo.S Z.S qXzXkXkXvXvXcXlXcXxXcXxXlXkXkXeXjXlXgXjXzXsXaXsX8XsX3X,XgXzXjXvXbXzXlX:XqXjXxXmXlXsX8XwXqXcX8X,X4XqX<X8X8X8XeXwX3X,X3X4XrX{.,X,X8XlXkX,XrX|.{.4XrX{.D R.oX6XT.Q.T.S..XXXv.v.).$XD C.C.R.M.o.t ,X8X|.B A S x B n.D l ..T.M.R.n.j.{ 1.;.5 *.` ! ! W a s 2 - * O : < L U J { M.m.B c 3X9X3X4X3XcX3XaX3X;X{.{.|.5XdXaXfX4XqXaX7XlXvXcXzXvXnXvXzXzXzXsXsXkXvXzXvXvXzXvXvXnXcXvXnXNXnXvXzXzXzXcXcXnXzXzXcXnXcXvXnX>XC.T.A vXnXNXvXvXzXzXvXvXvXvXvXzXzXvXzXzXzX",
"zXkXzXzXsXkXnXcXcX5XsXsXzXvXzXsXlXxXcXkXsXzXkXcXlXjXlXzXnXcXvXrXo.A B /.cXcXjXzXlXlXlXgXlXcXxXvXcXtXlXxXlXlXzXlXlXsX8XtX4XsX-X:XvXlXxX,XxX:X,X,X:X4XrXlXzXaXsXlX<XlXqXrXlXtX,X:X<XqX4X,X3X4XkXwX;X{.;X:XrX,X,X,X:X,X[.(.(.}.5XY.!.<X6XW.oX_._.iX`.C.M._.W...S C.C.N.o.A z B B _.W.Z S R.R.R._.M.oX X).b.{ ) :.Y J < 3 3 W 2 O [ 2 3 * O 2 W J P J &.M n.n...3X9X9X3XkX,XrX,X,X;X|.;X{.dXsX|.^.E.B ..qXzXzXcXnXvXvXtXtXsXtXrXsXlXzXzXnXcXbXnXnXnXnXMXNXvXcXbXcXcXcXnXvXzXcXcXcXcXcXfX+XW._.Q.cXMXNXvXcXzXkXvXvXvXcXvXbXzXcXcXzXzX",
"bXnXzXkXzXnXnXcXvXcXzXsXsXcXnXsXlXmXvXvXkXlXlXcXcXsXzXlXcXkXkXE.O.O.OXkXzXlXjXzXmXmXvXjXlXvXlXlXjXjXtXtXeXcXkXxXlXlX,X,XrX<XlXcX<X8XjXmXgX<XcXvXxX,XlXtXaXdX|.:XtXrX8XqXeXeXeXqX4XwXwXsX3X3X3X;X;X[.-X;X;X,X,X<X4X;X{.~.(.[.-X3X8XzX<X1X>X_.M._.#XC.W.C.m._.S R.oXR.O.N.o.O.S M.m.n.A v.M.y oXoX_. X=Xu.e.*.#.5.' ^ 3 3 ! , 2 ( 3 3 - - 2 > I J U > j M S ..9X4X3X3X3X8X4X3X8X3XA m.P.T.OXP.D c m.D OXzXcXcXnXnXmXvXqXlXcXjXwXsXsXzXnXnXnXnXnXnXnXnXMXnXcXzXkXcXcXvXcXzXcXzXcXcXcXcXqXD W.sXMXMXMXvXvXzXcXvXcXzXzXcXcXsXzXcXcXnX",
"nXbXzXsXzXvXnXnXvXcXsXsXcXzXcXkXvXMXyXjXsXlXlXjXlXzXkXzXkXkX>XM.o.W.P.vXcXxXkXvXvXcXvXxXxXkXlXlXlXlXcXxXmXmXlXxXcXgX8X<XjXrXmXcXmXxXjXmXtXcXxXcXcXlX8X;XsX3X{.,X:X:X<X<XeXlXMXqXqX4X4XwX;X:X3X|.|.|.-X3X:X,X8XrX,X;X[.~.}.{.}.;X4X0X3X;X8X$Xo.R.oXoX&X%XN.uX_.n.N.x.A.&XR.C.N.oX#XS.S.c.XXR.m.X.M.m.).G.0.P <.<.( Q 9 Q ! ` ' ! ! - - 1 1 : > # Y I 9 x A B E.4X,X3X9X8X^.8X|.m.n.v B D C.N.n.x S c n.,XsXcXvXcXmXvXnXrXsXsXzXwXkXzXzXnXzXzXcXcXvXvXvXvXcXzXzXzXcXnXcXvXcXcXkXkXkXcXvXMXnXMXvXnXvXvXzXzXvXkXzXcXzXzXkXsXfXzXcXcX",
"kXzXsXzXzXkXvXsXbXsXzXkXkXkXcXnXMXvXvXvXcXlXjXlXzXcXlXlXfXcXOX..m./.mXkXkXzXxXlXjXlXlXmXvXcXlXlXjXxXcXvXcXxXlXrXlXeXmXtXmXlXxXtXhXcXcXlXcXxXjXlX4X8XcXcXkX{.|.;X8X<X8XqXrXxXvX:X-X<XsX,X{.{.{.4X;X;X|.sX,X,X8XqX4X3X;X{.{.;X3X,XaX;X,X,X@X..oXR.C.M.$XR.o.).6X_.R.F.V.`.%X_.N.T...A n ).C.oX`.c.V.W.I.k.g.:.U Q ~ ~ ( Q ( L _ +.[ 2 1 2 2 : : W ,.q 6 r.i x D 4X0X8XjX,X^.OXn.n.C.W.S S m.C.B N.B d v cXrXcXcXvXlXvXvXvXlXdXzXzXkXzXcXzXzXzXkXzXvXvXvXvXvXcXzXvXvXnXvXnXnXnXjXsXkXkXcXzXvXvXnXvXbXzXzXvXvXzXkXkXsXzXaXaXaXsXzXsX",
"dXsXcXzXsXvXnXcXsXlXcXlXzXkXzXnXMXcXvXcXmXvXvXlXMXMXnXkXrXaXoX{.jX>XsXaXkXjXrXzXxXkXcXcXxXlXcXxXlXzXcXcXlXkXtXlXMXNXNXBXNXmXmXcXkXkXzXkXkXsXkX-XzXrXtX:X}.8X{.3X<XqXrXjXwXqX8XqX<X8X4X,X<X;X{.~.;X;X{.|.;X4X8X9X,X4X-X{.{.,X8X;X:X;X:X;X X6X_.#Xn.W.#XoXN.E.).W.oXO.`.C.%XuXM._.oXuXC.n.S .Xy.b.c.T.oX).D.) 4._ Q _ ( 1.7.Q Q , W > 3 2 : - : < Y q $ k Q.A x z O...].S o.B N.D N.oX Xn.).%XS N...A x kXrXzXjXzXhXzXcXcXnXzXcXvXcXzXzXzXsXkXvXkXcXvXnXnXcXcXvXzXcXvXnXnXnXkXkXkXaXkXkXzXnXnXcXvXcXlXcXcXzXzXcXkXzXsXlXdXaXaXkXaX",
"sXsXsXsXsXfXkXkXzXsXlXzXcXcXnXzXlXlXlXvXlXvXcXmXvXvXbXsXkXsXlXsXkXsXrXaXkXfXaXkXxXvXmXmX7XE.MX<X^.B.C.yXvX>XmXmXeXrX1XS B o.xXvXcX8XvXjX8X;X}.4X:X:X8XvXzX3X[.}.8X8X8X8X,X,X,X,X4X<X,X<X0X1X-X}.}.}.}.;X8X8X3X:X:X:X:X-X;X3X,X,X;X:X:X;X}.#X#XR.m.).oX+XT.|.R.W.R.d C.C.U._.oXoX XuX6X$Xx.l.y.y.j.H.k.F.y.9 #.Y I _ ( %.<.E <.^ W W Q ! O 1 > L U T # J |  XE.m.t m.F U.o.Z @XX.X.X.T.M.B N.S ..n.m.1XgXkXkXvXlXjXrXrXcXvXcXvXvXvXvXkXzXvXvXsXkXzXzXcXcXcXcXcXcXzXcXzXvXMXnXzXkXkXkXkXzXvXnXvXvXcXzXvXzXcXcXcXcXzXzXsXaXkXkXkXkX",
"zXsXsXsXsXkXsXsXaXsXlXvXlXzXvXvXcXxXcXlXvXcXxXvXcXlXsXsXsXsXsXsXdXsXsXwXaXrXqXlXqXB.x D ..M.m.A o.A o.B P.B.mXMXlXB S S B o.S eXcXaXcXsX,XvXsX8X|.;X:X3X:X3X|.:X:X4X8XrX4XqXtX<X,X<XwXzX:X,X<X,X;X;X:X;X;X;X:X:X}.;X;X:X:X,X,X4X:X,X;X;X-XW.$X#X^.R./.9X5X|.:X^.$Xm.m.#XoX.._.R.n.R.W.R.A.F.c.j.S.F.F.z.f.a.$.5.U Y <.2.U #.2.7.8.! [ 3 * : > < Y U 6 & / n C.$Xo.B ].Q.U.m.k.| { j. Xo.R.$X_.vXcXkXjX8XkXjXlXvXlXeXgXrXkXkXzXvXvXzXvXzXsXzXkXcXzXzXzXkXcXcXcXcXzXzXvXMXnXvXkXfXsXlXlXkXcXcXcXzXvXvXcXlXkXcXcXcXcXzXlXkXkXlXsXkX",
"zXkXsXsXkXsXaXdXaXsXlXxXMXcXMXcXmXvXcXzXjXlXkXjXtXlXlXrXsXlXlXlXkXsXjXzXrXrX3XE.M.....B t o.A N.S ..B n.B ..kX1X@X..m.D S x B x A zXrXeX,X4X4X8X:X<X<X8X:X}.{.{.4X8X4XwXqX4X8X8XgXwX4X:X:X8X<X<X0X3X:X;X}.;X|.|.;X;X:X:X,X<X,X,XwX;X}.}.9X;XN.{.{.|.{.{.[.;X,X<X$X%XU.W.&XC.C.&X_.$XR.R.A.=XA.Z.m.S.XXA. Xv.I =.q.#.%.0.0.*.U %.' ~ ! W 1 > < L ) E Y Y P / X.M.'.T.F.S.x.A.F.j.j S.oXW.m.M.{.jXvXkX0XrX,XjXkXgXvXMXcXkXkXkXjXfXkXvXvXnXnXcXvXkXzXsXsXfXkXcXzXkXlXzXMXnXnXMXvXcXcXzXvXzXcXcXcXnXvXcXcXzXfXkXvXcXvXvXcXzXzXzXkXzX",
"zXlXaXjXfXlXsXrXsXfXvXcXcXMXcXxXcXmXmXlXfXjXjXjXkXjXsXrXlXlXlXlXzXzXrXrXaX9X>XM...C.R._.n.Z...C.)._.x N.C.n.N._.R.'.m.T.N.m...o.n.t c OX8XrX8XcX,X,X8XgX<X,X}.;X|.;X{.-X;X,X8X8X,X:X1X,X<X0XeXeXeX8X,X8X,X;X{.-X;X;X-X:X8X8X<X1X{.}.{.{.[.[.-X{.;X-X-X~.}.;X:X<X%X6X%X$XiX#X_.].%XoXR._.R.Q.W.oX_.Q.N._.I.S.) / 0.6.#.4.0.5.,.<.' <.~ ~ ! ! W I ^ 7 J T I i.r.@.S.v.D.| r.{ Z.S.S.V.Q.Q.N.o.A '.eXgXcXjXlXrXrXn.OXcXjXrXjXcXbXjXsXkXzXcXnXzXkXvXzXkXdXkXcXcXfXzXzXvXMXMXvXMXcXzXcXvXzXcXvXvXnXcXvXcXzXsXkXzXvXmXvXnXcXcXvXvXzXcX",
"zXkXsXjXkXsXsXlXaXjXzXcXcXmXvXmXvXzXxXzXkXkXkXxXjXlXsXlXlXzXlXxXlXlXsXrX4XzXlXR.R.B A C.R.R.C.C.R.R.W.S A S.@.C.X.A.n j.m.W.A n j.v y d F 8XwX4X8X8XjXqXrX,X:X;XwX;X-X-X,X<X<X<X<X8X:X<X<XeX8XeX8XqX8X1X;X1X,X,X,X,X,X<X8X8XqX,X-X{.[.(.{.{.}.-X,X<X;X:X1X,X,X<X8X^.R._.R.&X X_.%X#XoX_.R.m.6XuX XA M.@X&XfXD.e.E 2.#.J T 4.U #.6.-.=.E U ) >.K L 7 T 6 $.a.e.n | 3 / } 4 i.| y.H.C.R.D C.R...C.Y.jXjX3XkXsX7Xp B.cXcXqX,XtXrX4X5XsXzXcXzXzXkXfXzXzXkXcXcXcXkXzXsXzXcXvXvXzXkXzXsXzXzXzXvXnXcXbXvXzXzXkXkXkXvXmXvXvXcXvXcXvXzXvX",
"cXlXjXjXjXkXxXzXaXaXkXkXcXcXcXlXlXxXxXvXmXxXvXxXlXzXlXxXvXxXxXlXkXkXsXwXlXcXlX<XR.C._.M.@X&X_.m.S R.T.N.D +Xm.k } ) ^ / e.l.x.| { e.| c d d B S o.I.rXtX8XrX,X,X:X:X,X:X:X<XeX8X<X<X,X,X8X<X<XeXeXeX0X:X:X<X<X<X4X8X<X8X8X8X<X<X}.-X{.}.|.-X-X;X0X8X<X<X<X0X<X<X,X8X>XU.N.&XN.N.#XR._.&X_.).C.M.6X&X#XN.N.6XA.f.E #.<.%.4 2.0.#.4.7.-.0.5.> %.=.,.8 %.Y $ U a.d.&.8 # $.6 &.k { i.v.oX6XT.C...D x qXrXlX8XlXaXOXqXNXMXlXjX8XrX,XOXdXsXzXdXsXsXsXkX9XcXvXcXcXwXsXsXkXkXvXvXzXkXkXsXzXsXzXnXNXnXnXnXbXzXlXlXkXkXcXvXvXcXvXvXzXzXzX",
"cXzXkXkXjXkXcXcXjXjXjXjXjXkXlXzXcXmXcXmXmXxXvXxXcXxXxXvXxXvXvXxXjXrXjX8XrXcXzXzXrXC.W.o.W.uXoXoXC.fX#XB.R.$Xn.h % Y T 4 $ j | n / 9 | v.v S B B B m.N...tXrX<X4X,X4X8X:X:XqXhX8X0X<X,X,X:X,XqX<XqX3X,X,X,X,X8X8X8XqXqXeX<X;X:X;X{.(.{.{.;X:X,X,X8X0X:X,X<XqXeX,X:X:X8X1X'.fXU.R.uXN.'.&X4XE.uX%XW.W.#XI.T._.F.p.#.=.0.2.6 P 1.5.T 5.5.6.4.#.%.%.J 7 J Y 6 $.$.s.a./ $.6 U $ U 9 $ &.z.R.W.D B ..d lXlXtX,X3X3XcXvXvXvXrXcXvXgXrXaXzXzXrXsXsXzXzXcXnXnXcXnXcXzXzXfXkXkXzXzXlXzXzXsXzXzXzXzXNXnXNXMXvXzXlXkXlXzXzXcXcXvXvXvXzXlXlX",
"cXvXlXkXjXzXcXcXlXlXjXjXlXcXjXcXjXjXcXmXmXcXvXcXxXxXzXMXNXmXvXzXgXxXkXxXxXxXvXxXfXn.@XD 6XW.$X XT.@X).x.V.S.u.$.6 U 4 =.U %.{ 9 { / j.j.v.b n c o.D ..o.S P.,X,X4X8XwX,X<X8X8XgX8XqX8X:X-X-X;X<X,X8X8XqX<X,X,X,X,X,X0X<X;X-X;X-X;X{.-X-X;X;X,X3X,X,X;X:X,X0X<X,X:X;X{.{.~.>X_.I.).B.M.@XeX3XOXoX)._.R.$XR.T.#Xe.:.Y 5.5.U 8 %.U <.8.` &.#.=.#.5.T I T 5.> $ P p.e.e.#.#.U 4 U 6 & & 4 b .XN.R...B tX8XtXsXvXwX4XzXvXcXbXvXMXvXqX:X4XaXrXzX4XsXrXkXnXcXcXcXzXkXkXsXzXsXcXcXzXsXbXzXlXlXzXvXMXmXMXMXvXvXvXzXfXkXkXcXcXcXxXNXvXzXcX",
"vXlXlXlXsXlXcXvXcXvXlXlXlXlXkXlXlXlXxXmXmXcXcXvXcXzXcXzXlXvXlXjXkXxXxXxXvXmXmXcXlXW.M.n.T.m.+X+X`.b.i.{ &.d.Y $.6 4.P 6 Y J P 8 8 k | | y.l.| X.a B n.S Z E.|.:X3X8X,X4X<X8X<X8X0XeX<X,X;X;X;X,X<X0X8XqX8X8X<X<X-X,X<X,X:X;X;X;X:X:X1X:X,X:X:X;X;X;X-X-X,X<XeX,X:X|.{.{.{.>XS.R.oX#XT.T.4X9X;X{.^.C.N.oX6X6XoXf.s.#.T 9.7.E >.0.9.:.s.) p.4.4.2.<.4.>.5.#.J $.g.9 #.7.2.%.$.$ #.U # 8 r.V.E.S D B P./.8X8X8X3XrXsXvXvXzXvXvXMXcXsXlXzXsX9XrX8X8X8XsXcXcXkXdXkXkXcXsXzXzXzXzXkXzXvXvXcXcXvXvXvXMXMXNXvXvXvXzXxXzXlXxXcXbXcXcXvXcX",
"vXzXsXzXlXlXzXxXvXvXcXlXxXjXlXlXzXzXmXmXvXcXsXlXbXlXrXlXkXsXjXkXsXgXxXxXjXmXmXmXsXR.R.R. X@XR.k.z.9 4 &.e.f.6 ,.5.=.5.U U $.P #.U 8 } u.f.r.r.x.Z.C.o.m.B F P.z I.(.8X8XjX4XeXeX<X:X:X,X,X;X:X:X8X0X8X8X,X8X:X,X;X;X;X-X:X:X,X,X<X,X8X8X8X,X-X}.-X-X1X;X,X<X0X0X,X;X;X-X{._._.C.O.'.E./.;X;X-X-X{.Q.C.).'._.E.XXa.$.6 I <.T #.#.E 5.R i.k >.2.,.< =.#.2.#.# %.%.2.#.<.#.P #.$.$./ I y.F.N.uXW.N.F o.8XrX4X4X,X9XsXsXvXlXzX4XlXcXzXvXwXwXzX9XcXNXjXcXzXzXkX5XdXkXcXsXsXzXzXsXzXcXzXvXzXzXzXmXvXnXvXnXvXvXcXvXvXzXsXzXcXcXvXvXMXvX",
"cXzXlXlXjXlXcXxXvXlXlXcXvXvXmXvXcXzXlXlXcXcXzXaXrXtXtXsXjXjXjXlXlXlXjXmXmXNXvXkXQ.S.C.T.W.oXv.i.e.#.$.T p.s.&.=.#.#.2.4.I %.6 P E =.8 0 e.i.Z.k.n x M...o.M.B z N.D Y.8X,X,X1X,X<X,X<X<XqX<X,X:X,X:X,X1X-X}.}.-X{.;X:X;X;X:X:X,X<X8XeXeX8X,X;X{.-X}.}.}.-X:X,X<X:X:X;X:XW.#XR.).d '.OX>X;X-X;X;X}.OX6XoX6X&Xj.| K.0.I U %.2.T J 5 s.a.G.f.3.,.=.Y *.2.#.4.#.P #.2.*.2.#.=.,.9 i.D.D.T.@.N.Q.R.A o.].rXgXqX4X,XwXsXaXsXsXzXvXzXzXaXrXvXqXtXnXMXNXjXrXdX:XdXsXsXzXbXsXzXsXzXzXcXcXlXvXvXzXzXvXcXcXcXvXvXcXvXcXNXzXkXlXcXvXcXvXmXvX",
"cXzXzXsXxXzXcXcXcXlXlXmXcXmXmXmXmXxXlXxXlXlXjXsXwXwXsXjXkXjXjXlXcXxXcXmXxXcXlXOX&X_.%X%X$XM.A.8 Y Y E P 3.,.# P U #.I a.4.#.I & I #.6 > 8 9 r.j.`.M.N.l N.o.D x B S E.{.;X-X;X;X;X,X<X8XeX8X<X1X-X[.-X-X-X-X-X-X;X,X;X;X;X;X-X:X0XeXhXeX<X}.}.1X{.(.(./.-X-X;X;X;X:X:X:X+X_.oXW.S R.[.;X;X}.;X;X:X5XC.). XXXc.| &.0.q.E I #.4.$.d.y.c.j.G.g.h.` 2.9.:.5.2.6.5.#.U 5.*.#.U a.XXZ.S.oX#XZ.R.C.W...P.xXeXeX,X,X,X4XkXwXkXzXwXzXzXcXkXcXvXcXcXtXnXMXlXlXvXMXlX<X3XwXzXzXzXsXsXzXbXnXnXnXcXcXzXcXcXcXkXnXmXvXmXmXNXvXcXxXcXvXvXvXmXvX",
"cXvXzXsXcXcXvXcXmXvXlXcXxXNXmXmXNXcXlXlXkXjXsXsXwXwXsXsXrXlXlXcXzXvXvXxXxXvXlX7X_.oXW.'.$X@Xz.6 Y *.6 J U 6.-.4 2.6.q.6 2.5.#.4 $ Y #.5 & $.9 .XT.#X_.%XZ n.C.m.C.C.B.;X;X;X-X-X;X,X<X8XeX8X0X,X-X-X-X-X-X-X;X<X4X0X;X-X;X-X-X;X<XtXrX8X<X-X~.}.}.~.(.[.[.-X;X;X:X,X:X<X4X/.^.E.m.(.;X}.}.[.[.{.!.+XN.R.).).`.u.%.:.<.#.T $.#.p.j.A.R.l.i.t.g.D.G.1.6 3.=.%.0.E #.2.4.$.%.k n M.I.oXS.F.)...C.n./.8XqX8X4X,X;X5XsXdXwX4X|.|.4XkXzXzXvXzXNXsXnXnXNXMXnXMXNXvXzXsX:XrXzX4XsXcXcXnXvXnXcXcXzXzXkXfXkXkXmXvXmXNXmXlXzXzXcXcXvXvXvXcX",
"vXvXzXlXcXmXcXcXlXzXkXcXlXmXmXcXvXcXzXlXkXjXaXjXdXdXrXdXqXxXcXcXjXxXcXcXxXcXcXE._.#XR.T.V.).) 5.#.<.#.5.%.$.9.#.U Y Y ,.%.T q.) > 5 %.J & $ I y.Z.R.T.#XN.n.x D S A C.Y.3X4X;X3X3X<X8XqXeXeX8X<X;X-X-X-X;X;X;X<X<X0X<X;X/.}.-X;X,XeXeXeX<X:X-X-X-X{.{.{.-X;X,X,X1X8X8X<X3X4X,X;X[.[.;X;X}.}.{.}.T.n.M.n.m.#XF.H.p.6.2.6 #.4.%.p.D..X=Xv.k b.D.XXS.J.u.&.s.0.T 4.9.#.U #.=.{ F.A.C.S @Xn F.B n.C.S U.eXeXqX8X,X;X,X:X|.9X8X,X}.|.8XkXcXjXvXcXzXvXlXvXvXMXMXvXcXrXzXwXwX4XcXcXnXzXcXcXcXzX4XzXcXcXsXaXkXmXmXNXNXNXcXcXcXcXzXxXvXcX",
"vXcXcXcXcXvXcXcXlXlXlXcXlXmXvXxXcXvXcXlXaXwXaXjXwXdXdXsXlXcXxXcXjXjXlXjXvXxXlXOX).%XoXM.y.f.#.#.E #.T 2.,.2.#.,.U 2.( 7 < : L Q 8 : 8 4 P J J { F.A. X X_.T.n.m.m.v n.N.;X;X;X;X4X0X8X0X8XeX8X8X;X-X(.{.{.-X;X;X:X<X,X;X-X-X;X,X:X<X<X0X8X,X:X;X}.-X;X,X,X;X;X;X;X,X0X0X4X,X:X<X3X:X;X;X;X;X;X|.@XuXuXR._.m.z.D.&.:.5.T Y T 0 a.y.Z.$X XW. XV.#XoX7XH.f.J.f.e.-.$.T 6 U %.u.A.c.).)._.XXF.n.B ..B d hXjXqX8X,X;X;X;X,X8X8X4X,X:X;X,XvXzXzXsXbXcXcXlXnXvX3XwXcXvXaX:XwXcXnXwXcXnXzXcXzXkXcXzXcXkXzXvXvXzXvXNXvXMXvXvXzXlXcXvXvXcX",
"vXcXcXzXcXvXvXxXcXzXzXzXsXzXzXcXvXvXvXzXlXrXaXaXrXaXaXjXjXcXzXjXaXrXsXlXzXvXcXoX6XX.l.} 8 :.2.*.<.4.7 I I >.5.2.=.L , W < Q ) I ! , U %.#.U 6 i.r.v.c.m.uXZ.F.n | G t X.{.{.-X;X;X,X<X<X8X<X8X,X;X-X~.[.~.~.}.-X;X-X1X:X,X:X1X,X<X<X<XqX8X<X<X;X}.}.;X<X<X;X-X-X:X,X,X,X,X8X,X8X3X4X~.Z N.R.OXOXN._.6XC.&XA.r.r.3.0.=.*.5.Y 4 d.i.Z 6XQ.#XoXZ R.E.I.j.y.b.G.p.=.0.9.6 T &.f.F.A.F.x.A.A.$XC.R.S B P.eXrX8X4X:X3XwX<X,XrXzXqXeXtX8X9XzXkXlXkXcXzXrXcXzXvXcXzXvXcXvX9XcXvXnXMXcXvX8XzXzXcXzXvXcXvXMXvXtXcXcXvXvXcXvXvXcXzXcXMXvXcX",
"cXzXzXcXcXcXvXvXvXzXzXzXzXsXsXnXcXxXzXzXlXrXwXjXdXaXrXlXlXjXjXsXjXdXrXkXkXrX..oXT.F.e.1.#.E 5.T =.0.^ ( ^ K 3.I 4.^ : < ( ^ I <.L ( I T P $.9 y.A.D.| | j.y.).| j M.m.A ~.P.}.|.;X,X,X<X<X,X1X<X-X;X-X[.-X}.-X;X;X;X,X,X,X,X,X0X8X<X<X8X,X,X,X;X{.}.;X,X,X<X;X}.;X,X,X8X,X8X8XeX4X4X{.N.c N.z W.T. X6XuX6XF.f.z.&.&.J &.J i.t.u.{ k.M.T.R._.&XoXuXS.F.l./ >.4.#.2.9.J U ^ | i./ { n X.).W..._.S N./.rXrX8X8X,X:X8X4XlXqXcXMXkXvXrXsXkXlXrX5X4XzXkXsXkXzXvXcXwXlXnXnXvXzXcXcXcXcXMXzXcXzXkXcXvXMXmXMXcXjXtXzXzXvXvXzXzXzXcXvXmXvX",
"zXzXxXcXvXcXxXcXxXvXkXkXsXzXsXsXtXsXzXlXsXaXfXjXsXrXaXzXzXsXrXrXjXsXrXrXlXI...oXx.G.&.4 5.T #.#.4.7.L 7 9 Q ( L Q _ Q 7 _ L %._ < L ) 8 U -.6 i.} e.u.j.| F. X Xm.z n.n.A F |.-X-X,X,X<X<X,X;X;X-X;X;X-X;X,X1X;X<X,X<X0X,X<X<X0X<X<X,X<X<X:X,X;X-X-X;X;X<X<X,X,X:X,X,X,X:X,X8XeX<X8X8X^.m.R...D m.R.C.uXQ.j.r.H.z.e.,.s.e.c.t.y.b..XV.$X$XD W._.6XC.$XA.&.%.7.,.) =.Y ) / { } &./ | v.uXR.C._.C.m.8X8X<XlX8X,X,X,XqX8XrXqXsXlX,XaXaXkXkXzXzX;X4X8XrXzXlXbXvXkXrXrXqXnXvX9XcXsXcXkX8XaXcXkXzXvXMXMXcXmXvXvXcXzXvXcXzXzXsXxXcXvXcX",
"xXcXbXcXcXzXzXxXxXmXlXkXkXfXsXdXrXsXjXsXsXsXkXjXfXwXrXaXkXsXsXsXkXsXsXzXzXn.R.@Xv.e.&._ -.#.5.E *.>.) ( L 7 L Q ) >.q.Y 5.T T <.%.E U <.6 Y #.#.k r.H.$XM._.oXW.#Xm.M.D N.B.|.-X;X;X:X<X<X8X:X:X;X<X<X,X<X0X<X:X,X,X,X,X,X<X<XqXeX<X<X8X8X0X,X;X:X;X,X,X<X<X1X1X:X,X,X:X-X,X,X,X,X,X8X^.E.R.{.{.E.W.R.uXfX6Xc.H.u.F.D.y.F.F.S.X.F.n.R.oX6XC.R.uXoX6X6XfX| u.e.t.t.g.f.r.y.X.c.| z.k W.C._.M.`...Z.!.gX<X:X8X8X8XsXwXkXtX3XqX:X4X3X9X{.-X;XfXsX<XsXnXrX,XtXtXcXmXMX4X3XsXsXzXsXnXvXvXqX4XzXkXcXMXmXMXmXcXvXvXcXcXbXzXzXlXxXbXxXcX",
"cXlXlXxXzXzXzXzXlXvXcXgXzXsXsXrXdXrXsXsXgXkXlXjXaXwXrXsXzXkXsXsXaXsXsXwXkX@XoX$X Xt.a.Y P <.q._ T < R ( ~ ! 3 < ( <.6._ 5.0.R 6.q.4 Y 2.J Y J E 9 c. X$XC.oXC._.T._.R...N /.;X1X;X0X8X<X8X8X<X<X<X<X<X0X<X<X,X,X,X:X,X:X:X<X<X0X<X<X<XqX0X0X>X:X1X;X;X:X>X,X1X,X,X:X;X}.{.;X:X:X,X,X,X;X-X-X;X:X>XE.M.R.iXC.&XoX X'.Q.].B.6X$XS.fX#XI.n.6X+Xx _.$X$XR.W.F.F.XXD.k.F.b.6XF.C.C.XXoXF O.W._.Z E...Z {.wXsX4XrX0X9X<X>XsXaXkXwX4X,X|.}.;X5X-XwXsXjX4X<X8XlX,X,XvXMXNXcXrXnXvXvXzX3XsXnXzXvXfXkXcXnXmXvXvXvXvXvXzXlXcXlXcXkXxXvXkXkX",
"zXvXlXjXzXjXzXlXcXcXcXlXcXsXdXaXsXrXsXsXjXcXlXcXaXaXrXjXzXjX>XlXjXaXjXsX Xm.N.6X{.c.2 &.0.<.5.5.,.<.I ~ s s a 3 L J 9.-.,.#.4.<.0.2.Y 9.K.e.| t.J.`.$X+X$X%X6XM.d o.o.E.-X<X<X<X<X8XeX<X<XeXeX8X<X<X<X<X<X<X,X,X;X1X:X;X,X,X:X:X:X,X<X8X8X0X<X<X;X;X-X,X<X0X0X0X:X-X}.{.{.}.;X;X,X:X:X:X-X{.;X;X3X4X9X^.).m.+XR.6XC.$X_.R.+X_._. XfXR. X X%XE.n.>X+X&XuXo.k.6XR.@XB.'.6X2XuXT.'.U.I.B Q.E.P.~.|.:X3X;X:X8X4X4X3X4X,X;X;X:X3XqX,X;X:X3X9X;X;XkXvXeX8X8X8XtX8XwXvXvXnXrX<X,XwXzXlX4XaXvXlXrXsXcXvXvXkXvXvXcXsXzXzXkXlXkXkXzXvXjXlX",
"cXxXlXcXcXzXtXcXvXlXcXfXsXsXwXrXaXsXsXaXjXcXlXlXkXwXrXkXlXcXjXtXrXdX+X).6XC. Xo.uXoXj./ K.:.5.5.,.4.,.3 a p - 3 L R -.*.*.$.R <.Y Y % 8 u.F. XA.m.D D T.oXU. X$X%Xo...o.0X<X<X<X0XqXeXeX<XeXeX<X<XeX<X<X<X,X:X1X;X;X-X-X,X,X,X,X-X:X<X8X<X<X<X1X;X;X:X<X8XeX0X,X;X-X}.}.{.}.-X:X,X,X:X1X-X-X-X;X:X4X8X3XM.M.%XR.W.#Xm.E._.R._.oXm.oXN._._.6X&X).8X4XC.uX_.W.oX#XR._.oXN._.$X$X_.&XC._.@X@X,X:X;X;X3X;X:X4X4X3X3XrX,X:X8XwX4X3X4X,XwX3X3X8X3XrXrXqXrXrXeXlX8X4XlXtXzXcXcXzXrX8XnXMXnXwXrXzXrXrXcXvXvXcXjXvXvXrXlXsXzXzXkXzXcXzXzX",
"lXcXvXzXtXzXcXvXvXkXkXjXsXwXdXlXsXzXrXtXjX<XjXjXkXjXsXkXlXcXcXrX^.d o.v z o.R.@XV.fXZ.e.<.-.=.*.4 J <.3 [ a a 1 ( *.J *.=.p.p.&.e.g.&.i.x.V.oXfXuXoXW.M.oX+XW.n.].).).G 0X<X<X<X8XhXrXhXeXeXeXeXqX0X0X:X1X,X,X:X-X-X-X-X;X:X:X,X,X,X<X0X,X:X<X<X<X<X<X8XeXeX,X,X-X-X-X}.-X-X,X,X4X<X<X:X;X;X;X8X4X,X,X,X4Xm._.6XW.R.S.;X&XU.m._.S.R.m.n.B &XT.@XZ @Xn.oXn.$XfX_.n. X&X_.M._.oXV _...o.C.E.,X;X|.{.5XrX3X,X3X9X:X;X3X:X3X<X4X8X<X4X3X;X;XsXzXMXnXlXlXqXgXeXlXjXqXvX,XsXlXnXnXnXnXcXxXkXfXzXzXvXcXvXcXcXMXcXcXqXtXsXzXsXfXkXzXjXjX",
"mXmXmXlXcXlXcXcXxXkXcXkXrX9XtXlXaXkXrXjXkXkXrXjXjXlXlXlXzXzXjXkXOXM._.R...I.'.#XW.W.S.D.p.7.4.<.0.2.J < L ~ W Q # -.K.R _ e.u.i.e.1.e.a.D.S.W.C.$X&X_.M.R.oXC.C.Z T.I.Q.0X<X8XeXeXeXeXeXeX<XeX<X0X0X,X1X,X:X,X,X;X}.~.-X;X:X;X:X<X<X,X<X,X1X0X<X<X0X8XeX8X8X,X1X;X-X}.|.;X:X,X8X<X8X0X,X,X,X4X8X8X,X:X,X8XOX}.].5X3X:X3X+XoXN.I.R.$X1X3X{.I.C.OX_.%X%XoX_.Z uX6X$XS uX6XC.M.W.).R.oXS ].3X3X;X-X|.{.{.3X9X;X;X4X:X4X;X:X4XqXqX<X:X3XcX9X|.3XnXvXvXvXgXvXkX4X8X8X4XrX3XrXvX8XrX;X9XkXzXkXsXzXzXwXzXcXvXvXtXlXlXrX9X0XjXfXjXzXcXcX",
"cXvXmXxXlXcXxXcXxXvXlXtXrXjXjXjXzXfXaXwXkXkXcXxXxXlXlX1X7XvXxX>XR.U._.oXC.m.m._.$XN.D.f.) $.=.*.6.0.5.T *.T T P Y I g.L.D.t.e./ i.i.t.t.S.6XR.+XW._.oX XuXC.oXC.I.o.U.).<X<X8X8XeXeXeXeX8XeXeX<X<X,X:X,X;X:X,X,X;X~.[.[./.-X-X;X:X:X,X,X:X;X:X0X8X0X8X0X<X<X,X,X,X;X-X-X;X:X,X8XeX<X,X:X,X:X,X<X<X,X:X8X4X4X,X:X;X;X-X;X;XE.T. XA 4X3X,X>XE.M._.$XU._._.T.R.M._.uXC.C.oXuXW.M.C.N.U.n.4X3X3X;X-X{.|.|.{.}.}.;X;X;X}.;X4X4XwXlX8X5X5X5X-X,X5X4XnXvXmXcXtXsXsXjXlXqX8XqX4XaXnXyXwX4XzXkX9XzXcXzXwXzXcXcXcXcXvXlXjXkXaXaXaXkXtXcXlX",
"vXcXvXmXcXlXzXlXcXcXlXkXsXdXkXlXkXkXwXwXjXxXmXlXlXcXd d C.Q.Y.C.W.%XoX_.n.W._.S @Xn.x.f.p.<.:.R 2.5.0.-.2.Y =.0.Q D.).6XoXF.l.J.i.k ..k.m.@Xm. X XM.oXC.I.m.$XoX@Xd S S /.eX8XeX<XeX<XeX8X0X<X1X;X;X;X:X,X,X,X,X-X{.{.-X-X-X-X:X<X1X:X<X:X1X:X<XqX0X8X<X>X,X,X0X<X;X;X:X:X<X,X8X<X8X,X,X>X;X<X,X:X:X<X<X8X8X,X,X;X-X}.;X;X:X3X4XeXqX4X3X,X8XA R.#XR.oXoXM.S #X..N.oXm.U.I. XR.C.'.E.^.4X,X,X,X{.;X{.|.{.{.}.|.;X|.:X,X8X8X8X<X<X4X|.:X;XwX4X:X}.4XzXtXqXnXnXnXcX8XsXsX<X4XrXsXwXkXwXsX3XaXzXcXzXzXlXcXlXvXmXmXvXzXrXrXsXsXsXlXcX",
"cXcXzXmXvXcXxXtXjXxXzXjXwXrXkXlXcXaXwXjXkXvXxXo.m.U...z ..U.@XR.M.).C.%X'._.#XoXoXuXo._.J.f.7.8.$.R P &.K.p.3.e. X6X_.E.T.W.#X XA..XR.R.R.oXM.#X_.).R.D N.&XR.C.).S S B E.eXeX<XeX<X0XeX<X,X1X,X:X:X-X,X:X:X,X0X,X;X;X;X:X:X<X8XqX0X0XqX0X,X<X:X<X<X:X>X,X1X,X<X8X,X<X,X8X8XeX8X8XeX8X,X:X;X:X,X,X:X:X8XeX8X8X8X:X;X}.-X;X3X4X8X4X4X8X,X3X8XC.N.oXoX%XoX$X_.$XoX X_.C.%Xo.C._.E.1XQ.~.~.;X;X,X3X;X;X;X|.|.}.|.|.:X,X,X4XeXeX8X1X|.,X:X,X:X,X3X:X|.:X,X4XsXcXzXcXcXsXvX3X3XrXwX4X3X8XsXdX3XwXwXwXsXzXzXcXvXcXzXlXrXtXsX4XdXsXrXcX",
"zXsXsXzXcXlXsXzXvXkXkXwXeXjXjXjXgXkXjXsXgX1XP.o.O.M.M.).Z _.I.$X).'._.N.uX].&X&XiXT.&XA oXH.y.G.e./ / } | L.J.).W.+XN.C.W.m._.m.&XoXoXn.W.>XOX@XR.R.6XuX-XC._.C.I.o.o.S -X,X<X0X8XqX8X0X8X<X1X<X<X,X:X,X,X,X,X<X<X<X<X:X,X,X<X0XeXeXeXeX8X<X<X>X:X;X:X;X;X-X;X,X:X:X8XeX8X8X8XqXqX8X,X:X;X-X-X;X,X:X,X4X8X8X<X,X:X}.}.-X;X5X3X8X3X3X8X4X3XOX_.N.oXN.R.C.n._.oXuXW.%X).oXM.E.OX8X4X4XY.B S ,X8X3X3X3X,X,X,X;X}.}.|.:X3XsXqXeX4X<X:X:X,X9X,X8X8X,X-X<X:X:X,X{.4XkXzX4XzXwX4XqX4X3X4XzXwX8XrXsX;XrX<XwXsXzXcXcXcXkXvXjX4X;XkXsXsXkX",
"sX9XsXeXtXzXjXcXjXsXwXrXsXcXlXvXcXkXsX4XQ.Z o.C.m._._.6XC.@X>X$XuX]._.uX).oXM.$X).uXR.'.W._.#XXXH.u.G.{ l.c.D.m.m.Q. X`...R. X&XoX..R.M.Q.gXtXjXsXsXrX;X:X>XW.U.O.S d z <X,X:X<X<X0X<X0X<X<X:X,X<X<X<X<X<X0X,X:X0X<X,X,X,X,X<X8XqXeXeXeXeX0X<X<X,X-X-X-X-X-X-X1X,X,X8X8X8X<X<X0X8X,X:X-X-X}.;X,X,X:X}.,X8XqX<X:X:X:X;X-X;X:X4X8X4X4X4X4X8X3X@Xm.2XM.,X4X)._.M.M._.W.uXM._.OX{.OX5X;X@.B.M.4X8X8X,X/.-X,X:X{.}.|.:X:X4X9XqX8X,X4X,X:X3X3XsXtXrXeXqX<X3X,X:X,X(.;X:X9XdX3XwX4XwX;X:X:XrXsXrXrXtXrX:X,XsXsXkXkXcXnXmXcXcXrXrXdXdXwX",
"dXwXrXjXvXzXzXvXcXsXsXsXsXcX<XT.wXlXzX<X).M.B O.S T.T.oXU.U.U.O.I.'.O.R.#XC.U.R.oXuXO.I.O.oXF.| D.pX.XXXO.Z.).oX_.oX2X:XqX:XOXaXsXrXjXrXkXjXeXkXjXjXwX8X;X;X,XOX..R.o.d 8XqXeX<X<X8XrX1X-X-X1X;X:X,X;X;X:X:X,X0X<X<X:X1X1X:X<X0X<X<XqX<XeX<X0X<X<X-X-X-X-X;X,X1X,X<XqXeX<X,X,X3X,X:X-X-X}.;X,X8X<X:X-X:X4X8X,X,X,X,X,X:X;X;X:X,X8X4X8X8X3X/.W.N.,X4X,X8XqX4X,X4X8XeX8X,X{.,X:X;X{.:X,X5X3X;X,X3X4X,X4X>X,X-X|.;X:X;X:X4XqXwX4X,X>X;X4X4XxXxXeXeXqX4X4X,X4X3X|.5X:X:XrXwXqX4XsX8X5X{.{.1XsXvXbXkXaX|.rXwXaXjXkXcXvXMXcXcXsXsXaXsX",
"aXdXsXcXzXrXlXlXcXlXkXaXdXzX>Xo.wXyXOXW.R.oX).'.O.M.C.N.7X@XoXoXz ).'._.uXuXI.R.C.6X_.+X_.).F.u.e.e.c.).*XM.o._.M.A wXdX9XrXrXsXjXtXjXgXjXlXeXjXjXjXrX8X8X:X:XeX>X1X_.<X8X8X8XgX8X<X<X1X;X-X;X-X;X;X-X{./.;X;X,X<X<X,X,X,X:X<X<X<X8X<X8X0X8X<X8X0X,X;X:X:X<X<X,X,X8X<X,X,X,X,X8X<X,X1X:X:X:X,X,X<X:X-X-X,X4X<X8X8X8X4X,X,X3X:X;X:X<XwX8X8X4X3X3X4X3X3X4X8X4X3X4X4X8X8X<X,X:X;X:XOX:X3X,X:X-X-X,X3X,X,X,X;X,X:X:X:X,X:X,X,X:X,X,X-X;X3X8X8XrXmXeX8X<X,X-X|.5X{.{.|.9X4XdXcXlXrXrX3X3X:XwXkXqXsXnXjX3X9XsX9X9XwXkXzXvXcXrXwX5X9XaX",
"rXcXaXsXjXkXrXaXlXxXMXjXaXwXB.T.tX@X.._.N.).#XN.I.C.7XlXcXrX2X#XZ.o.+X#XI.$XuXoXX.b.X.A.%X#XX.} &./ u.b.).I.T.m.#XaXrXwXwXrX4X3X,XtX8XtXeXtXeXlXeXkXgX3X;X,XrX8X<X0X0XeX<X<X0XeXhX<X0X,X,X<X-X-X;X;X-X{.{.{.-X;X,X<X,X,X,X:X,X,X<X<X<X8X<XqX8X8X0X,X,X<X<X<X>X0X8X8X,X,X,X:X,X,X,X8X<X<X8X,X,X,X8X,X:X;X1X,X>X<XqXrXeX<X,X1X;X,X8X<X4X8X8X3X,X3X3X3X4X3X3X4X4XqXqXeXqXqX,X:X:X<X3X4X<X,X}.[.-X>X,X:X3X,X,X,X8X3X,X,X,X;X}.;X;X;X{.;X:X4X<X<X<XeX8X,X,X-X-X;X,X1X{.{.{.5X9XzXcXdXwXlXrXtXrXrX:X4X3X:X|.rXvXsXcXfXsXzXaXdX9XdXdX9X",
"wXsXzXsXsXtXlXzXE.W.C.Y.kXjXB.S I.o.B W.o.oX_.).m.'.W.yXjX7X$XuXC.N.R._.R.m.$XW.).D.G.k.U.#X`.X.z.r.{ m.#XM.d lXaXjXjXaXrXdXdXrXwXjXtXlXgXjX,XtX,X3XsXkXrX:X8XrX:X,X<X8X<X,X8X8X8X<X<X<X:X:X;X;X:X,X-X-X{.}.-X;X;X,X<X0X:X-X;X-X1X<X<X<X8X0X<X<X,X:X<X<X<X<X<X<X<X,X;X;X:X-X;X:X,X<X,X:X<X8X8X8XeXeX<X<X:X,X<X8XeXrXyXeX8X<X,X,X8X8X8X4X4X4X,X,X;X;X,X;X:X3X4XqXqXqXhXqX<X3X,X<X8X8X8X4X:X;X<X<X,X8X4X4X:X4X8X8X,X;X:X;X|.}.:X-X:X}.;XqXeXeXeXqX4X8X,X,X,X,X,X1X:X4X4X4X;XkXsXcXlXrXrXrXrXsXsXsXvXrX8X{.zXsXsXsX:X4XrX9X{.9XwXwX",
"aXaXaXzXlXzXcX>Xx z B P.xXkXW...U.O.o.M.S R.'._.S ^.>XsXgXjX7X2X&X+XW.I.$XD C.Z.x.| F.F.R.N.oXF.x.S.#XM.Q.tXvXjXaXgXaXsXrXrXsXwX4XjXqXjX8XxXjXjXeX;X:XrX<XlXsX4X:X1X:X,X,X<X<X<X<X<X0X<X:X:X,X,X,X;X;X:X;X;X-X;X;X,X<X<X-X;X-X-X;X;X1X<X8X0X8X<X:X:X<X0X8X8X8X0X:X1X;X-X}.}.{.{.-X,X,X:X<X<X8X8X8XeXeX8X0X<X8X8XeXeXtXeXeX<X>X:X,X8X4X:X,X3X<X,X3X:X;X:X,X<X8XeXrXeXwX4X8X8X<X4X8XqXqXeX4X<XeXqXeXeX8X3X,X,X8X8X4X;X:X:X:X,X:X:X3X,X,XqXqXqX8X8X<X8XhX8X8X8X8X<X|.4X5X4X3X{.dX8XlX8X,X:X4XrXcXtXcXcXrXwX9XwXdXsXcXzXsXdX9X:X9XwX",
"sXsXlXsXcXOXd A ..A c P.xXkXxXM.o.I.O.C.U.O.C.M.].qXaXqXqXcXjXOX_.).#XC.%X'.`.D.l.x.`..X_.uX%X)._.R.M.m.,XvXxXkXzXjXjXrXsXaXwXrXwXtXtX,XrXxXjXkXrX<XrX:X,X8XwX5X:X-X<X-X-X:X<X<X<X<X<X<X<X0X<X,X,X:X;X,X;X,X,X;X,X,X,X<X:X;X-X-X;X:X;X1X<X8X<X<X,X-X<X<XqXeXeX<X,X,X-X{.{.}.{.{.;X:X;X;X;X,X8X8XqXqX8XeXeX8X<X8XeXtXhXhXhX8X:X,X,X:X:X:X3X8X3X3X,X,X;X>X4XqXqXrXtXqXqX4X3XqXqX8XrXeXgXeXrXgXtXqX8XeX8X8X,X:X,X4X3X,X;X,X,X,X,X:X|.:X,X8X<X8XjX<X,X<XtXlXgXgXtX<X:X|.[.{.{.{.{.eX1XlXjX<X-XrXtX<X|.qXaXqX~.9XrXzXrXsXsXsXsX{.{.dX",
"sXfXjXkX8XS.S o.U.C.M.>XlXcXzXOX'.).C.OXQ.2Xo.S.2XsXsXkXlXlXjXyXrX1X#X'.oXU.U.`.V.F. X%XoXC._.oXD o.T.;XrXkXlXjXkXrXjXlXrXwX9X9XwXsXsX:X,XzXjXrXrXrXsXtXaXrX1XrX:X{.-X-X1X;X,X<X8X0X<X<X8X0X8X<X<X,X,X{.-X1X;X,X1X,X<X<X-X;X:X:X,X,X1X1X;X,X,X:X:X;X:X,X0XeXeX8X<X,X;X{.{.{.1X:X>X;X-X}.;X;X8XqXeXeX8X8XeXeXqXqXeXgXgXgXrX8X<X,X,X;X:X;X3X4X8X4X4X3X,X,X3X8XrXhXrX4X4X4X:X,X8XqXeXeXrXgXgXeXqX8XwX8X8X,X4X:X:X:X,X,X:X:X:X4X,X,X:X-X8X8X,X,X,X4X3X3XjXrXeXeX8X<X5X-X-X;X-X;X;X;X8XjX0X8X<X:X:XgXaX;X;X;X3XdX}.dXzXdXsXrX8X;X}.}.",
"jXjXjXOXc _.R.W.o.O.M.yXlXjXsX@XT.@X XjXkXqXkXsXaXrXrXgXkXgXlXtXjXcX].$XoX'.R.A...M.2XC.uXn.R.W.+XdXjXwXrXaXtXlXrXrXtXrXrXwX9XwXrXrXaX4XtXtXjXjXrXgXwXqX:XsX3XrX8XwX}.;X;X0X;X<X8X<X0X8X8X8X8X8XqX<X8X-X1X:X,X;X,X,X0X:X-X;X;X:X,X<X,X>X;X:X:X-X:X;X-X-X:X<XqX<X8X<X,X-X}.-X:X:X,X,X:X;X-X;X8XqXeX8X8XqX8XeXeXeXeXeXtXtXhXeXqX8X4X,X:X;X,X3X8XqX8X3X,X:X,X4XrXrXeX<X<X<X,X,X<X8X8XeXeXtXtXwX8X<X,X,X8X,X4X:X,X,X4X,X;X;X4X,X,X,X3X,X<X8X8X,X-X;X8X8X<XjXxXgXeXqX:X:X;X,X,X,XeX8XjX<XxXeX8X8X,X-X;XjXrXaX9XsXaXdXwXrXsXzX,X,X<XrX",
"-XwX@...x z oXB C.B U.I.cXjXkXsX@XQ.xXzXkXgXsXsXrXdXkXjXjXkXsXjXlXlXrX$X%XoXS.l.F.I._.W.C.W.U.>XkXjXaXjXrXgXjXlXjXrXaXrX9XwXwXwXrXsXaX9XqXjXtXsX:XjXtXtXrXrX4XaX-X{.-X-X;X8X:X,X<X<X<X<X<X8XeXeXqX<X:X-X-X-X-X-X;X,X<X-X}.-X,X<X0X<X8XeX,X;X,X;X:X;X;X{.1X,X8X8X8X8X,X:X}.;X,X,X8X,X,X;X;X:X:X8X8X8X8X8X8XeXeXeXeX8XeXqXeXeXtXeX8X4X,X5X:X:X4X8X8X,X,X:X<X<XqXqXeX8X:X:X|.:X3X4XeXeXhXeXeX<X<X<X,X3X4X;X:X,X,X3X3X,X;X|.,X,X8X3X,X8XqX<X,X,X1X:X-X,X,XtXgXeXeX<X:X9X4XrX8X8X,X-XgXrXjXgXxXgX8X<X;X;XdXwX|.aXdXaXdXkXzXsXvXvXlX,X",
"0X4X)._.I.Z.U.oXM.A O.>X8XOXsXtXlXvXlXkXjXjXdXwXwXwXjXkXlXgXtXkXwXS.C.Z.U.oXoXc.| _.m.R.o.o.U.P.8X8XrXrXlXlXlXlXkXrXrXrXwXwXsXdXwXrXlXyX-XjXtXgXrXjXtXzXjXrXrXsX,X}.;X;X:X:X:X,X<X<X1X<X<X<X<X8XqX8X,X:X;X;X{.-X-X-X;X-X-X-X;X,X0X0XqX0X<X,X<X;X:X,X-X-X;X:X0X8X8X8X8X,X;X:X,X<X0X4X<X4X:X;X:X,XqX8XqXqXeXeXeX8X4X8XeXeXeXeXwXqX4X8X,X:X,X,X,X3X8X3X:X:X,X<XqXeXtX8X,X-X:X,X8X4XyXeXtXqXqX8X,X<X,X8X,X;X}.;X:X8X8X,X:X,X:X,X4X8X,XqXrXqX<X,X,X:X:X-XeX<XhXrXrX<X3X9XdXaXlX8XjXwX,XjXqXlXxXqXgXgX<X4X}.}.dX9XsX5X5X9XwXsXxXcXxXlX",
"cX+X%X_.C...U.S R.i A M.O.tXxXlXxXmXmXlXjXsXrX9XwXdXsXrXjXtXrXwX_.A  XC.R.V.S.F.k F. XoXoXU.^.fXxXxXgXgXxXlXlXxXvXxXjXeXsXlXrX8XsXrXrXwXsXtX4X4XrXsX<XkXcX4XaXrX;X9X8X|.<XjXeX:X,X<X,X;X1X:X0X0X8XhX<X1X;X;X;X;X-X-X/.-X;X:X,X,X<X<X<X,X;X:X;X:X:X:X;X-X;X,X,X8XqX<X<X<X,X,X,X:X8XeX,X,X3X,X,X8XqXeXeX8X8X,X,X,X<X8X8X8XqX8X<X,X3X4X,X;X;X4X4X8X4X,X:X,X,X8XqXtXhX8X<X,X,X,X4X<X8XqXeXqX3X,X,X4X8X8X,X;X;X-X}.,X4X4X<X,X1X;X:X:X:X,X8X4X:X,X<X<X>X;X:XhX8XeX8X8X,X;X-X:X;X;X;XeXrXeXjXeXxXxX<XrXhXeX;X-X}.(.(.9X~.wXqXtXcXvXmXxX",
"{.O.6XoX&X_.$XR.)...M.U.M.A Y.lXvXxXmXxXlXkXrXrXwXwXrXsXjXjXkXlXW. X_.iXW.k.M..XX.X.m._.o.d I.lXmXxXmXmXlXxXvXlXxXjXhXkXlXlXaXrXsXsXwXwXsXlXsXrX|.rX4X8XcXzX4XrXrX:X:X:X,X<XjX<X;X;X-X-X1X1X<X<XeX8X,X-X-X;X;X;X-X-X~.-X-X:X,X:X;X,X;X-X}.-X;X-X-X:X,X;X-X;X,X0X<X,X<X,X:X,X,X:X,X<X8X<X4X<X8X8X8XqXqX8X4X-X;X:X>X<X<XqX8X3X:X:X:X|.;X:X;X:X;X:X,X-X}.-X,XqXtXeXrX8X<X,X8X3X8X<X1X,X,X<X<X,X<X4X8X,X;X,X;X;X,X,X,X<X8X,X:X;X;X;X;X,X4X4X,X<X8XqX8X,X1X<XeXeXqX<X:X,X:X:X:X:X:X,X>X8XjXjXlXjXjX<X,X3XaX;X[.(.5X;X9X3XrX,XjX,XjXkX",
"N.O._.M.R.#XR.6XoXC.C.R.C.B d E.rXlXxXxXzXsXwXrXwXwXwXrXgXlXlXlXC.W.W.M.&X$XM.C.%X#XW.#XS B F mXxXmXxXxXxXxXlXxXxXkXrXrXrXsXsXlXcXdXrXkXsXsXjXrXwX3X,XxXlXgXkXtXwX8XrX;X:X<XkX{.-X-X/.-X-X:X<X8X8X8X,X:X;X;X,X;X;X;X;X-X-X-X/.Y.-X-X-X-X-X-X}.-X;X:X,X,X-X;X,X,X<X,X:X,X:X,X,X<X8X8X8X8X8X<X<X<X8X8X8X,X,X}.|.-X:X<X<X8X8X4X:X|.{.,X,X,X:X,X:X:X:X:X1X<X<XeXeXrXqX8X8X8X8X<X8X:X:X:X8X,X3X:X3X8X8X,X<X,X-X;X3X3X,X8XeX8X,X}.}.[.[.}.:X:X<X,X8X8X0X,X:X8XhXgXeXqX8X,X;X}.4X8X,X;X:X,X<XtXtXgXjXeX;X}.}.{.[.[.(.(.[.(.-X;X8X<XjXxX",
"C.m.%XoX_.Z.S.uXC.N.m.'.M.o.d d T.lXjXlXsXaXdX9XwX9XrXtXjXxXlXjXoX_.C. XR.uX#XR.Z W. XN.m.B gXxXjXxXxXmXxXlXlXlXjXfXsXlXaXzXjXlXjXzXtXtXjXsXrXwXzXqX<XcXcXsXsXwX:X:X,XeXkXzXwXwXeX}.}.-X,X1X:X<X,X<X<X8X0X0X;X;X;X;X;X-X-X}.G @.(.;X-X-X,X-X}.-X,X<X,X,X;X-X;X;X,X:X;X;X:X,X,X<X8XqX8X4X8X8X,X,X3X,X,X:X;X|.{.:X8X<X<X<X,X,X;X;X;X4X8X,X,X;X,X,X:X,X8XqX8XqX8X8X<X8XeXrX8X8X8X8X,X,X8X<X:X;X:X:X,X,X<X8X-X;X,X8X,X<X8X8X,X-X(.{.}.;X:X<X8X<X<X<X<X8X<X8XrXeXeXeX8X,X;X-X:X,XrX,XlXrX<X:X:XrXjX,X:X:X;X-X{.~.[.{.9XsXrX8X8X8X,X-X",
"O.U.T.&X_.N.M.].'.O.o.].G o.S t I.kXjXjXjXgXwX4XwXrXaXkXjXjXqXlXE.$X&XW.'.).U.oXO.U.oXC._.A cXlXkXxXxXzXlXlXlXzXgXzXzXgXrXtXkXcXcXjXjXtXwXwXwX,X:XsXtXlXxXlXtXjX-X-X;X<XmXjXrXrXrX;X;X,X8X,X;X,X;X,X,X,X,X<X,X:X;X,X,XN.O...z x x Y.}.;X;X;X{.3X8X8X<X:X:X-X-X-X;X:X{.-X-X;X4XqXeXqX<X<X8X<X,X:X,X:X{.{.}.-X;X;X,X8X,X,X,X:X:X:X:X<XqX8X<X:X,X<X:X,X4X3X4X3X:X:X3X4XqXqXrXqXeX<X3X:X;X,X:X;X;X,X3X4X,X,X-X,X;X,X,X8XeX8X,X{.}.{.;X;X>X:X8XeX0X,X8X8X8X<X8X8XeXeXrX8X,X:X:X:X-XrXeX,X,X,X-X{.;XeX<X<X,X1X{.{.}.}.:XeX<XlXvXgXkXqX",
"@XZ.o._.).'.C.R.#X].].>X>X>XU.N ,XjXxXjXjXjXaXwXaXsXtXlXjX7XqX'.oXR.uX_.oXoX_.U.U.M._.B R.OXsXjXlXlXxXzXtXtXlXrXtXsXlXtXlXtXjXcXcXcXjXjXwXkX3XkXqX,XxXvXgXqXsXtXjX-X,X8XxXgX8X,XvX:X:X<XqX;X;X;X-X;X:X;X;X,X,X,X,X/.y ..M.m.M.B S n.}.:X:X:X;X,X:X,X<X,X;X-X~.}.{.-X}.}.{.:X8XqXeX8X,X,X:X:X:X:X:X}.[.{.}.:X:X;X,X<X:X:X:X:X>X,X8X8XeX8X,X:X:X,X,X,X,X,X3X;X|.;X,X8X8X8XeXtXeX<X:X:X,X;X,X:X,X:X,X;X;X3X,X;X-X;X,XqXeX8X,X}.{.{.;X:X;X:X-X:X,X,X>XqX8X8X8XeXeXgXgXeX<X,X;X;X}.-X:X8X<X,X;X;X1X,X0XqXqX:X-X-X-X,X,XeXxXxXmXmX,XlX",
"gXuX_.A ].%XuXR.oXuXxXmX8XS M.o.8XjXjXjXjXlXjXgXrXtXlXsXtX4X1XC.Z.m.C.C.N.oXT.O.oX..T.1XsXlXjXtXrXsXsXaXtXlXsXsXsXrXrXrXrXlXlXxXxXlXlXsXlXlXjXcXzXlXlXlXjX|.tXvXlX:X,XxXlXeX,X<XmX<X;X,X,X;X-X-X-X-X-X-X-X,X,XY./.I.o...B O.n b v S v }.-X,X:X-X}.-X;X:X;X;X-X/.~.(.(.(.-X,X4X8XeX<X,X,X:X:X,X:X|.}.{.{.:X:X:X:X8X8X:X;X;X3X,X,X,X<X8XeX<X,X<X<X3X4X,X}.}.}.}.,X,X8XrX8XeX8XqX4X;X:X,X,X8X,X,X:X;X;X;X8X;X}.~.;X,X<X8X8X<X-X{.-X;X;X-X{.|.:X<X,X,X:XqXrX8XeXeXhXhXeX<X1X8X;X}.;X:XqX8X<X,X:X,X<XjXqXeXrXeXtX>X8X8XtXjXlXsXsXtX8X",
"lXvXoXN.'.R.).....+XiXU.].O.B M.1XkXjXjXjXlXlXjXaXrXtXjXsXI.W._.$X>X'.#X_.uXT.N..._.lXrXkXsXrXrXsXsXaXrXqXtXrXrXwXrXzXsXjXlXtXlXjXcXlXtXlX<XjXlXtXcXlXgXjXlX:XrX<X:X<XjXxXrX:X8XcX<X,X:X,X;X{.{.(.}.}.-X-X:X!.B.E.m.oXR.Z.A.V.k b Z o.E.{.;X;X-X~.{.;X,X<X,X-X-X}.{.{.}.-X:X,X8X8X<X:X:X,X:X,X:X;X-X:X:X,X,X8X<XqX4X,X,X,X{.-X,X<X8X8X8X8XeX8X8X8X8X3X|.{.}.}.:X;X,X,X8XqX0X,X>X,X,X,X4X8X8X8X,X:X,X;X;X{.{.{.-X:X<X<XeX8X,X;X;X{.{.{.-X:X,X,X:X-X-XqXeXgXqXhXrXgX8X8X:X}.}.-X;X:XeX8X8X,XrX,X<XeXqX<X-X-X,XeX0X8X<X,X-X}.wX8XjX",
"lXxX2X..C.'.].C.'.C.U.#X>XN.d ..D zXjXrXtXjXlXsXsXwXwXwXaXP.R.Z.6XE.P.OXC.'._.R._.cXaX9XwXwXaXsXsXsXwXzXlXsXrXaX9X4XlXwXlXlXcXjXcXjXtXtXtXlXcXlXlXvXcXtXcXqXtXtX:X8XcXrX,X:X<X8XxX0XlX,X3X-X}.~.[.[.{.-X;X:X/./.T. X XS k.| | [ n o.A B.{.;X1X-X}.{.:X8XeX<X:X:X:X;X-X/.-X:X<X8X<X,X<X<X8X<X3X;X;X:X<X4X8X8X8X8X8X<X,X,X:X-X-X;X<X8X8X8XeXeXqXeXeXeX<X1X:X;X-X-X:X:X:X8X8X8X,X:X}.,X4X8X8XeX8X,X:X,X;X;X/.{.{.-X:X,X8X8X8X<X,X-X}.}.{.;X;X,X,X,X;X/.}.}.,X<XxXqXqX8X,X,X}.-X;X:X,X,XjXrX1X;X,X,X<X,X,X-X-XeX8X8XqX<X:X;X;X:X,XrX",
"zXcXlX+Xm.&X_._.uXO.'._._.N.I.d x cXjXkXaXkXrXaXdX4XwXwXwXD _.m.$X%X_.C._._.O.Q.lXsX4XaXaXsXqX9XsXsXwX3XlXsXaX3X9XlX8XjXzXrXsXbXlX<XjXrXlXzXxXvXvXvXlXzXcXzXvXsX;X,XeX;X1X:X8XxXgXgXqX;X-X,X}.-X-X{.-X:X:X;X;X{.8X<XT.Q.m.z.k j n D o.v -X-X;X:X-X-X:X0XeX8X8X:X,X;X;X-X:X8XqX8X8XqX8X8X<X,X;X-X:X,X4X8X8XqX8X<X:X<X,X,X3X,X,X:X<X<X<XeXeXeXrXeXrXgXeX,X:X,X:X:X,X,X,X4X8X<X,X-X-X}.,X3X8X8X3X,X:X,X,X3X;X-X-X;X<X,X,X<X8X8X;X{.~.{.{.-X;X:X,X,X;X{.{.}.-X,X,X<X,X:X,X~.}.-X,X;X;X;X;X0XjX:X8X:X<X;X-X,XrXrX0X8XeXeX<X,XwXsX8XwX",
">XeXkX7X..R.O.o.).).U.'.R._.).U.B z I.~.zXsXrXaXsXwXwXwXdX{.n.C.z _.%XS...C.@X1XcXjXaXrX9X,XaXdX,X8X8XsXqXsX4XsXlXrXzXlXrXtXzXtXgXcXcXrXtXcXlXcXgXcXtXqXlXcXcXcXtXwXwXjXjX:X<XlX,X<X,XzX;X;X;X;X-X:X:X,X,X-X;X:X0X<XS.oXR.V.D.l.B.o.m.B ;X;X:X-X-X{.,X8XeXqXeX8X,X:X:X,X<XqXeX8XeXeXqX0X<X:X-X-X;X,X,X,X,X8X8X,X,X,X<X8X8X<X4X8X8XqX<XqXeXeXqXrXrXgXeXeXeXeX<X<X<X,X:X:X4X<X:X:X}.,X:X;X,X8X,X:X:X8X4X:X:X:X:X,X,X8X<X8X<X,X-X{.{.{.}.{.;X;X,X,X-X}.{.}.;X:X,X,X;X:X-X}.-X:X<X<X;X-X-X{.-X-X-X;X,X-X-X;X-XeX8XrX8XeX8X,X;X,XwXkX",
";X:X:XkX_._.uX_._.6XM.].N.....V M.z m.A A ..O.aXrXdXdXaX>X$XM.oXW...T.>XS 1XlXvXlXrXwX3XqXwXwX,XjXtXtXsXlXyX4XkXlXzXlXtXlXzXqXwXlXzXvXjXkXvXvXtXcXvXlXjXcXsXtXrXlX;X-X8X8XgX:X<XsX>X,X<X,X:X;X;X-X;X,X,X;X-X-X-X,XE.M.R.C.+X#XT.N.B l F 3X;X;X-X}.-X,X8XqXeXqX8X<X:X,XqXqXeX8XeX<X8X8X8X,X;X-X;X;X:X:X,X8X<X,X,X,X,X8X8X8X0X4X3XqX8X<X8XqXqXqXeXgXgXrXeXeXeXeX,X,X:X,X,X,X:X,X:X,X:X:X,X,X:X;X:X:X,X,X:X:X,X,X,X<XeXeX<X:X1X,X{.-X-X,X;X;X;X,X8X-X-X{.-X;X;X:X;X{.-X-X-X:X,X<X0X:X-X{.-X}.-X;X:X;X,X-X;X,X;X3X8XhXeX8X,X|.}.}.-X",
",XgX;XjXQ.uXoX XT._.A ].N. Xx.F.N...o.S ..x M.Z dXsXkX3XN.@XR.>X_...OXlXlXxXxXkXkXjXsX4XwXwXqXrXxXvXrXtX8XlXrXlXkXrXfXrXxXcXjXcXcXlXvXmXjXkXjXkXgXxXcXsXsXlXlX|.lX8X;X,X0XmXtXtXcX;X,X,X,X;X;X1X,X;X,X{.|.[.[.[.W.R._.R.W.C.&X_.W.W.C.^.{.,X;X-X-X-X,X8XqX8X0X<X0X<X<X8XeXeX8X8X<X,X8X8X,X:X;X;X,X;X:X<X8X<X,X,X;X,X8XqXqX8X<X<X<X8X<X8X8X,X<XqXeXqX8XeXeX8X<X<X:X,X4X4X8X<X,X;X;X,X:X,X,X,X;X;X;X-X,X,X:X,X;X,XqXeXhX<X<X,X;X-X-X,X<X,X-X,X:X8X-X-X-X-X-X-X;X-X-X-X;X,X,X8X<X<X<X:X;X<X<X:X,X,X<X<X1X8XeXeXeXeXgXeX8X<X1X:XeXlX",
",X:X:X4X]. XoX_.].6XT.R.'.k.| | n S.S Z B B o.o.n.B.I.'.M.W.kXlX7X^.M.U.gXcXcXlXeXjXaX8XwXaXsX4XeXlXgXjX8XqXwXdXrXjXkXwXkXcXwX8X8XjXvXmXrXrXrXwXrXtXsXzXzXrXzXlX-X;X:X8XeXxXmXmXmX<X:X;X;X-X;X,X4X,X;X-X{.[.A W._.M. XW.I.m.).W.N.T.C.m.V !.-X}.-X1X<XqX8X<X,X,X,X,X,X8XeX<X,X,X,X,X<X,X,X,X,X8X4X1X:X,X8X<X:X:X:X,X8X8XeX8X,X:X8X8X8X:X:X:X,X8X3X8X<X,X:X<X8X8X4X,X,XqXrX8X<X:X:X;X:X-X;X-X;X}.}.;X:X8X-X-X:X,XqX8XeXeX<X,X,X,X;X:X<X<X0X<X,X:X-X-X}.{.;X1X:X;X4X4X:X,X,X<X,X0X<X,X,X<X,X,X,X<X0X8XeXgXrXeXeXgXhXeX<X<X<X1X;XjX",
"rX,X4XOXQ.N.oXo.O.uX_.U.O.| k V.k.Z.o.R.N.C.Z m.C.d T.D D M.&XOX'.I.N.C.o.^.cXxXjXeXkXsXsX8X3XbXlXxXrXxXsX4X4X4X;XaXrXaX4XqXvXvXrXlXlXcXxX8XwXkXrXrXwXkXcXlXlXlX,XjX;X8XeXNXeXxXlX<XvXqX;X-X-X:X,X8X3X;X3XY.c T._.U.oXM._.| F.V.| I.n.C.O.G {.-X-X,X<X<X<X<X,X1X:X1X,X<XqX<X,X,X:X:X<X<X;X:X,X,X<X<X<X8X<X:X:X:X;X:X<X8X8X8X<X:X,X<X8X:X,X,X,X,X,X;X-X;X-X:X<X<X<X,X,X8XeXqX4X:X:X}.-X{.}.}.{.;X;X,X,X,X;X:X<X,X8X8X8X8X<X,X:X:X3X,X<X<X8XeX8X,X:X-X{.-X;X,X,X8XeX<X,X,X,X,X<X,X<X,X<X,X:X:X,XgX8X8XeXgXgXeXeXxXvXeX8X<X,X:X,XeX",
":XlXtXP.$Xn.&XI.N.U.uX_.n z.l.X.b S.X.R.Z @Xn. X_.C.&X_.$Xn.C.m.'.B M.B N.S xXkXeX9X4XrXrXrX9X8XeXhXjXlXtXlX8XsXwX;X,X4XjXlXjXMXlXxXcXcXgXrXkXfXvXtXzXrXwXwXkXsXlXjX:X<XeXvX8XNXqX<XxX<X,XrX;X,X0XjX,X3X3XW.x m.S.$XI._.).X.D.X.....N.B C.v O.P.,X0X<X8X0X8X8X,X,X:X,X,X8X8X<X:X,X<X<X,X;X,X,X8X0XeXqX8X,X:X:X:X:X,X4X4X<X<X<X,X,X8X8X8X8X,X,X:X;X}.}.-X;X:X:X<X3X,X,X,X,X:X4X,X-X{.;X-X~.{.-X,X<X<X,X<X-X}.-X,X;X,X3X8X,X<X,X,X8X,X8X8XeXeX0X<X,X:X-X:X;X:X<X8XeX8X:X-X-X-X:X:X,X:X:X;X;X;X:X;X<X8XeXgXgXgX8X<XrX<XqX8X<X:X-XeX",
"8XrXkXjXOXC._.R._.@X_.6X%XF.c.A.l.| c.oXo.S _._.oXI.oXS fX#Xm.T.uXS...Z m.m.>XaX9XkXkXjXrX9X8XeXrXlXxXxXjXlXjX,X4X,XwXzXzXzXcXvXlXeXjXgXsXrXrXzXlXgXzXvXrXqXqXqXlXcXrX:X8XmXrX<XeX<XgX:X:X,X-X,X8XeX0X/.T.#XR.k..XW.'.v.F.k { { r.V.Z.D M.o.o.A -XeX0XeXeXeX8X<X,X:X;X,X,X0X4X<X0X<X<X,X,X:X<X8X8XqX0X<X:X:X;X:X:X,X4X<X8X,X8X4X,X,X3X,X8X,X,X<X:X:X}.:X:X:X:X,X,X:X;X;X:X:X,X:X:X;X:X;X}.}.:X:X,X,X>X<X-X}.[.|.-X-X-X,X3X,X-X{.-X1X8X<XeX8X<X<X,X;X<X8X<X,X<X8X8XeX<X;X-X-X;X;X-X;X;X;X:X:X{.-X1XeXhXgXgXeX8X<X<X<X8X8X4X<X,X:X",
"8XkXjXlX+X6X_.oXN.#X#XW.).Z.D.| y.t.X._.6Xm.W.R.m.$XW.C.D oXT.R.].].C.c D v /.9XrX8XsXkXjXjXzXlXgXgXmXvXjXgXjX8X0XwX3XsXzXwXrXvXcXjXkXrXsXsX9XsXwXlXlXlXzXMXmXrXvXlX:XcX0XjX<XeXcX,X,XrX;X1X:X<X8XqX!._.Q.S.t.k i.F.x.c.D.{ 9 0 { b k.n.B D S o.D D hXeXeX8X8X<X<X;X,X;X:X,X4X0XeX/.1X,X;X:X,X8X8X8XqX8X:X-X:X,X:X:X<X,X:X:X,X,X,X,X,X3X,X,X,X,X3X,X:X8X0X<X<X,X,X-X|.-X-X;X:X:X:X4X-X:X-X:X;X;X:X0X8X<X:X;X}.}.}.-X;X;X,X{.[.{.~.-X<X<X8XqX8X8X<X0X<X<X8X,X<X8XeX8X<X;X-X;X:X;X;X-X;X:X:X:X}.-X1X,X8XeXhXeX<X<X<XrX,X,X8X8X<X-X",
"}.{.jXjX@XS _.oXoXZ.F.S.n.A.c.{ y. Xv.C.I.U.).$XC.#XT.R.F Q.Q.m.'.o.O.U.S z /.dX:XwX3XwXjXzXwX8XtXrXcXjXmXcXrX8X8X8X8XaXzXzXnXsXrXlX9XkX3X4XsXzXqXqXjXvXNXtXtXlXcXjXqX,X<X:X,X,XeXvXxX;X;X-X,X0X8X>XM.6X@.c.i.8 9 V.j y.f./ { : g.r.C.| F m._.M.A ..d hXrX0X3X8X0X,X,X,X,X4X0XqXP.d M.Z /.;X;X,X<XqXeXqX<X;X:X:X:X,X{.|.:X,X,X,X,X,X:X4X<X<X,X:X:X:X4X8X<X<X,X,X,X:X,X,X,X,X:X,X:X;X,X,X,X<X:X:X<XhXhXeX8X,X:X:X-X[.{.{.{.{.{.(.~.-X>X8XqXeXeX8XqXqXeX8X<X:X:X8X8X,X:X:X;X:X<X8X8X;X;X;X;X-X;X:X1X<X8XeXeXrXeX<X,X;X8X,X8X8X:X}.",
"4X-X{.{.{._.`.W.x ..Z.R.S.j.} | | F.S. XS Z.`.6XU.W.iX_.k 8 @.Z O._.A R.R.N.{.dX3X5XwXrXE.P.9XrXrX8XeXeXmXlXtXwXrX9X3X3XdXwXwXzXaX,X:X:XrXlXtXlXzXgXmXmXmXxXlXqXcXjX;X1XqXtX:X4X3XvXzX-X{.{.,X8X<X..S U.i.1.P $.$.e.r.n i.u.d./ K u.y.{ | h b.| ! C.I.B !.8X:X,X/.D B o.m.B o.C.d O.B E.B.B.,X,X<X8XeX8X4X,X|.;X:X,X@.d /.G 1X,X,X1X;X:X4X4X<X,X<X8X8X8XqX<X,X<X4X,X8X<X8X<X:X-X-X:X8XeX,X8X,X:X8XrXgXhXeX8X<X,X;X{.(.(.(.[.(.{.;X8X<XeXeXhXqX0X<X8XqX8X:X1X:X,X1X;X:X;X;X<X<X8X,X;X-X-X;X-X-X-X1X8X8XeX0XeXqX<X:X:X:X8X8X<X:X{.",
"9X:X-X}.}.-X_.$XC.oX_.R. X| { F.x.S.R.#Xk.j.u.b.n b.t.d.8 0 i.i.{ | t.S.oXM.oXdX|.3XY.~.D E.4X8X8X9XjXgXqXwXgXgXjXjXrX8X:X;X;XsX8X3X;X4X4XdX:XvXmXgXlXbXlXgXcXgXrXrXlX3XlX:XcX:XgXvXtX,X3X{.:X,X<Xo.W.k.z.1.P T Y *.&./ e./ / > Y T 6 Y 8 k k 9 9 0 B.m.m.c D A A S x m.A i S T.S o.M.x ..^.3X,X,X0X8XqX8X,X,X;X,X3X1XD N M.Y.8X,X:XY.[.:X;X,X8X8X8X8XqXeX<X:X,X<X<X8X<X<X<X,X-X-X:X8X8X<X,X<X<XqXgXeXgXeX<X<X:X-X{.[.~.[.}.{.-X<X<X8XqXeXeXeX<X<X<XeX<X<X:X;X}.:X}.}.}.;X:X8X,X,X:X;X:X:X|.,XqXeX8X8X0X8X8X8X<X<X<X:X:X,X<X<X;X",
"{.{.}.:X4X,X3X$X_.R.$XR.F.X.r.v. X.._.$Xc.{ y.D.i.k $.P $.# 6 8 , 9 k l.B.A c n.^.P.N.D n.V 1XrXzXjXcXeXrX8XrXrXrXrX:XaXsXwX:X5XwXwXwX5X9XrXrXsXmXxXxXgXmXvXiXvXwX8X8X8XkXqXxX,X,XvXzX-X8X;X:X,XE.].W.j.&.3.Y 6 R E *.I R E 5 4 #.J P U J 4 8 > 9 k x n.Q.C.A P.T.W.v.).j ..l T.m.B U.S B G /.,X<X8XqX8X8X4X3X3X;X4XB...y Z ,X:X:X:XB./.,X;X,X8X4X,X<X8X8X,X:X:X,X8X,X8X8X8X,X;X-X-X<XeX<X<X:X<XeXeXhX8XeX8X;X;X-X-X-X-X9X;X-X;XeX8X8XeXeXgX8X1X,X<X0X1X:X;X-X-X}.}.{.,X,X,X,X,X3X:X;X:X|.3X4X8XeX8X<X<X8X8X<X<X<X,X;X,X8X,X8XeX",
":X{.:X,X8X,X4X7X XoXW.oXW.&XS.F.H.S.x.*XoX{ { { e.9 $.6 $.#.P # U ^ { m.v.A B n.o.>XV B O.M.z eXzX4XrXrXtXeXqXjXeXwX4X|.|.5X:X4XqXzX4XrX8XlXzXrXgXxXvXgXxXgXtXzXjXeXlXrXqXrXlX:XrXdX{.-X;X,X,X1X_...R.} U E E Y 4.-.R 5.T <.2.U #.$.%.*.I $.8 8 z.A.R.D  XC.N.n A.| b 9 r.j.i.r...I.C.o.x m.D n.S I.B U.n.Z ~.Y.B m.I.C.o.S 3X,X:X{.o.B./.:X3X8X<X<X<X<X,X:X;X:X,X<X,X,X<X<X,X,X-X-X,X0X8X<X,X,X8XeXeXeX0X<X,X;X-X-X-X,X,X,X,X,X<X8XqXeXgXeX8X<X;X,X1X1X,X3X,X-X{.{.}.}.:X,X;X:X8X,X:X;X:X3X,X4XeXzXeX,X8XeX8X<X:X-X1X,X4X3X8X,X",
"4X;XsX8X8X8X8X3XW.%X XoXN.fXW.F.k.A.n.n.#Xy.&.9 e.8 #.U U #.=.$.T ^ r.| k.S.I.o.m.C.v v B M...tXkX8X,XjXgXrXjXrXkX9X5XOX:X5X4X9XwX,X4X5XlX-XcXxXgXxXlXhXeXxXzX<XkXjXcXmXgXjX,XtX3XzX{.{.;X,X~.oX].C.d._ Y #.#.T T _ _ R Y 2.5.I T K #.<.6 4 T &.e.S.S N.m.S.R.T.| e.8 J 8 / e.{ 9 v.`.A N.M.I.n.O.d A o.C._.R._.G R.o.W.Z M.S ~./.Z G P.S F ;X,X<X<X8X:X-X-X,X,X:X8X,X,X,X:X:X,X1X-X,X<X:X,X:X,X1X<X8XeX4X,X,X;X;X-X:X3X8X8X,X,X<XqX8XeXeXeXqX<X<X:X,X<X8X,X-X{.{.}.:X}.;X:X|.3X8XwXrX9X,X4X4X,XqXhXgXeX8XqX8X4X:X8XrX8X,X,X4X8X",
"8X,X4X4XjX,XrX<X,XW.C._._.&XZ.c.| u.v S.F.J.$.6 1.&.U #.I I J 6 &.t.F.A.S.V. XQ.R.M.m.V N...S OXjX8XcX4XqXtX<X8X,X9X4X3X:X4X4X4X9X8X5X3X:X3XzXvXxXxXxXgXrXqXwX:XvXlXjXeXjXrXjXlXwX8X9X{.;XI._.].#Xb.f.;.P J _ U _ Q L < > L E R T E #.,.,.$.8 / i.S. XV.l.F.y.9 8 ) %.4 U q 4 U k 9 M.D S W.D T.o.M...Z o.W.Q.W.m._.m.S D M.x o.o.Y./.:XY.;X:X,X<X<X<X;X;X-X;X,X,X:X:X:X:X-X}.:X,X:X1X,X,X<X<X:X:X<X<X<X:X;X,X;X;X;X:X,X<X<X,X<XgXeXrXeX8X8XqX,X,X<XtXtXtXgX,X:X;X5X}.{.|.;X:X3XwXeX8XwX3X8X8X8XqXrXeXeXqX8XeX8XeX8XrXhXrXqXtX8X",
"<X,X,X:X:XjX,X,X8XOXm._.oX@X$XS.H.u.x..XF.D.4 >.s.h.=.=.$.U U $ 9 u.i.j.v.Z.j.k.N.I.C.l U.U.x x :XcXjXqXtX8XwX3X3X3X4X3X3X4X4X,X:XwXdX5X5X4X>XzXlXNXxXxXqXqXwXrXgX<XvXlX8XcXrX8X,XkX4X-XP.S I.| D.i.#.0.#.#.1.L Q L < , : > L ' I U =.I P $ &.&.r.k.S.z.z.D.<.=.6 & P #.E 4 $.4 & t.S. X'. X+X XO.E._.o.o.X.u.k 9 t.).).D t R.N.B.0X4X;X,X,X3X,X,X,X,X;X;X:X,X<X-X;X;X}.-X-X}.;X,X-X:X,X,X0X8X<X,X1X-X}.-X-X{.{.1X:X:X:X:X;X:X0XeXgXeXeXeXeX8X8X0X0XqXeXrXqX0X;X;X-X3X,X4X,X3X8X<X<X,X4X:X,X8XqXeXeXeXqXqXqX8XeX8XeXrXgXrXeXtX8X",
",X:X;X8X;X}.jX0XjX,X^.&XM.R.'.m.6X$X..N.S.H.g./ 9 4.T -.0.#.=.T 6 t.y.l.A.V.C.F.F.C.M._.C.o.O.B B D mXlX4X8X8X<X3X3X4X4XwX3X8X8X:X;X4X4X8X8X,XmXxXxXxXvXgXrXwXcXcX<XvXlXqXrXcXtXjXkX1X,XS D x.{ ;.R R < U U T ^ Q < : Q L > L _ %.%.#.,.-.-.9 { z.D.b.D.r.t./ <.E P 2.<.T 6 4 4 J / | | B.m.S. XF.l.F.Z.| { ) Y % # P e.i.{ h B y ,X:X3X;X,X,X,X8X:X;X;X;X;X,X;X{.{.}.{.-X}.;X,X:X-X-X;X<X8X8X8X,X,X:X:X/.~.{.{.-X-X-X{.;X}.,X,XeXeXqX8XeXrX<Xz Z B z A tXeX:X;X4X4X8X3X:X4X8X8X8X,XqX:X;X;X:X8XqXeX8X<X<X8X8X<X<XqXeXrXeXeXeX<X",
":X,X4X}.{.}.wXrXkX,X,XrXz &X$X_.N.Q.C.fX@XuXF.e.p.%.#.U 4.I -.6 I e.| F.F. Xn.*XoXuXC.S m.U.d A z t vXvXlXsX,XwX4X4XyXaXrX3XwX:X:X:X3X3X9X8X8XjXlXgXtXjXxXMXrXwX8XlXcXsXsXzX-XzXrXrX,X<X_.Z./ $.$.I _ 2.^ K ( 1.~ W O W ' Q W $ <.2.#.U U e.G.k S.A z.d.z.e.{ ,.5.=.U 5.2.) # $ E $.4 { | { | l.{ 0 ^ e.9 K J J U # # P 6 < 0 F.S r ,X4X4X;X,X3X8X,X:X,X,X,X<X;X-X;X}.-X{.-X-X;X,X;X-X-X;X1X0X0X,X,X<X:X-X-X-X-X-X;X-X-X1X{.,X<XqXeX0X0XqX<X).S o.Z ..Z d /.,X,X|.;X:XdXwX,XwX8XwX<X,X8XsX4X,X8XgX<X<XqX<X<X>X,X:X8XeXeXeX8X<X,X",
"-X-X:X:X}.:X9XwX8X:X:X8X>XS.C.S.m.D oXT.n.o.+XD.u.1.:.=.:.#.T %.&.p.r.A.V..X XoX$XW.W.W.R.m.n.N.S Z xXmXlXjX8X|.8X5X3X:X3X4X4X4X5X5X9X3X4X4XqXjXvXtXgXgXrXjXqX8X8XsXjXqXrX8X,X8XeXrXrXT.W.{ &.*.<.7 L ( Q W > : ~ W * : W ~ L L #.T #.5.I } D.c.'.+XR.XXz.r.b.e.6.4 E 4 %.<.#.6 # R < P Y Y J $.& Y 7 ` R -.] P R < > W Y $ ] ! T.o.Z l z A ^.,XqX8XqX8X8X<X8X<X-X-X;X:X:X:X1X,X<X-X-X-X{.;X,X4X<X<X<X:X;X-X,X:X-X-X,X;X,X-X,X,X8X8X8X0X8Xd C...| M.R.A S t :X:X4X;X5X:X4X8X4X4XrX8X,X3X8X4X4XeX8X,X,X3X<X,X3X:X:X8X8X8X8X,X:X-X",
",X}.}.4X8XqXjXsXeXrX,X;X}.>X@X2XnX{.I.%X).M.I.'.#XD.%.J 9.#.#.p.{ 8 / t.A.S.E.I.I.6X.._.M.R.N.N.eXgXeXgXvXjXsX:X:X:X5X4X8X8XwXsX8X4X8X8X3XqXwXwXlXlXxXtXrXsXqX4XsXrXsXsXjXeX8XzXjX0XMXR.OXD.%.R <.( 7 _ ~ ~ * O O : O 2 * ! ( _ <.<.=.<.# p.F.F.k.@XT.oXG.D.{ <.5.P >.8 ^ ^ E > 5 #.$.Y 6 $.*.& & R P J R 8.R W > - 2 : > J Y K V.Q.M.Z d D ~.8X0X0XqXeX0X8X<X<X:X;X1X-X:X,X,X;X;X-X{.[.{.;X,X,X8XeX<X,X;X,X<X,X;X-X;X;X,X,X,X;X,X8X<X<XI.S ..Z.c.Z._.z ..B B.;X;X5X4X3XwXrXsX8X,X3XeX9X3X4X9X8X,X,X4X3X,X,X3X4X8X:X,X,X,X;X}.,X",
"8X:X-X4XrX8XrXeXrXsX9X4XwXaXjXkXcXxXlXtX7X6XW._.@XV.f.e.4 ) e.{ i.{ / &.z.m.N.oXW.$XR.C.o.eXlX8XtXqXhXeXlXlXkXdX|.:X:XwXrX8X4XwXqX,X3XwXwXrXqX8XqXrXtXtXlXrXlX3X4XfXsX<XjXlX,XlXW.C.Q.R.%Xi._ :.,.E W W ' ~ * . . . . O W W W L L %.<.#.E < z.X.A.F.%XF.F.H.) 2.2.%._ L 9 ) L 7 I $ *.>.U E ,.P T $.R *.] R ~ 3 1 - p p : > 4 P 9 k.x.S.S n...T.eXeX8XqX<X0X8X8X<X,X,X,X;X,X,X;X;X;X~.~.-X-X-X0X8X8X8X,X,X,X,X;X-X-X;X;X,X,X-X:X,X,X:X4XW.).B z C._.C.M.A ..,XwX9X3XrXsXjXwX,X,X:X,X;X;X,X:X,X,X|.4XyX8X3X4X4X8X8XqXqX>X;X|.{.-X",
"4XdXdXsXqX8X8XgXjXrXeX4X8XkX8XkXgXzXzXsX8XoXI.oX6X.XF.f./ &.D.D.z.e.&./ { k.6XM.R.&X X_./.mXlXjX<XqXgXrXqXkXwX;X:X,X4X4X3XqXwX4XwXwXwX8XwXrX4X<XtXtXgX8XwXqXrX8X4X4XlXzX:X4XsXOXo.R.l ].v./ & 9.>.W W W ' W O         . . : O W 7 9 L 2.6.J J ~ d.d.z.D.b.u.f.& -.I L ! ( Q < 7 ,.E U *._ W K ( 7 I E E _ ( 3 s y y p a 1 3 , J U k { { S V D x 1XeXqX<X,X>X<X:X8X8X8X8X<X,X:X;X-X~.-X~.[.[.-X;X<X8X0X<X<X:X;X;X;X;X8X4X,X;X-X;X:X:X,XeXOXW.C.x ..M.oXW.B ,X4XeX:X3X3XeX<X4XwX8X9X3X}.;X}.;X,X;X:X-X4XwX4X4XqXqXeXeXqX<X5X:X:XrX",
"wXwX4X:XlXrXjXjXeXgXgX8X:XrX;XrXtX:XrXkX,X2X..D N.W..XXXD.| .XG.{ { &.e.k k.&XQ.R.M.M. X1XvXxXeXjXcXlX,XwXqX:XOX3X4X8X8X8X8X4X4X3XwX4XrXqXqXt C.>XjXrXwXwXqXaX4X3X3X3XdX;XkX..C.C.$XI.'.u.;.*.>.3 3 ! Q Q 3 O             o o . O O O W Y E ] ] 6.=.) t.t.e./ J I >.W Q I _ ( : W ( L < W 3 1 < ^ Q Q 7 Q W 1 a i y u y - - * J Y > 4 8 k ..V O.d <XeX0X<X<X,X<X<X<X8X<X0X,X,X,X<X1X-X}.-X1X<X<X<X0X<X<X-X-X;X:X:X,X,X,X:X-X,X3X:X:XwXrX<X#X_.).C.W.D C.E.8XrX3X,X,XrXjXrXrXrX8X:X;X3X3X3X5X-X-X;X5X:X,X<XqXqX<XtXjXrX4X:X|.{.sX",
"qX<XrX8XjXeXlXgXeXeXeX8XrXsX;XwXrX,XrXjXsXqX).uX#X+XI. XH.u.A.f.i.0 9 u.i.V.6XN.oXC.B ..7XrXxXxXlXlXaXqXwX:X:X4X,X8X8X8XqX4X4X,X,X4XwXwX4X4Xd z 1XlX:XeX4X3XwX8X0X9X8X3XaX^.o.oXT.$X.XH.u.U P I ! 2 W Q a.3 O   .               o . o O W W % % R Y <.s.3.4.#.0.<._ Q W 3 < Q _ < J L W 1 O 1 , ! Q 7 L W W W p d y i d d t - < P % % 6 /  .Z o.o.O.I.0X<X<X<X<X>X<X0X<X8X,X,X<X<X<X<X,X:X<X8XqX<X0X8X:X}.-X;X;X,X<X8X8X8X,X:X:X:X,X,X8XgX<Xo.oX_.m.z S OXsXwX:X;X3XtXtXlXrX8X;X8XwXdXaXdX9XaX9X3X3X:X,X4XwXwXtX8XtXjX8X3X3XsX4X",
"rXrX,XlXgXeXqXqXeXqX8XqXjX:X8XwXaXkXtXlXaXaXM.m.o._.o.S.D.H.{ D.f.t.9 { c.oXoX XS.$X_.B xXrXrXmXlXjX4X3X,X,X<X3X8X8X8XwX8X4X4X4X4X3X<X<XwX/.B.c rXsXwX9XwX>XzXkX4X3X0X8X0XS m._.Q.A.j d.e.8.5.Q < 3 W Q Q O O   o ' 8.              . . . : ] ] P <.R *.1.) #.6.:.L ( 3 3 < < ' ` 3 W s a - - - W ~ 2 2 a ~ +.s a t i i d d p : *.T J J L { ..S B V ..>X0X<XqX<X<X<X<X0X<X<X8X<X0XeX8X8X<X0X<X<X<X8X8X<X;X-X;X1X,XeXeX8X8X8X,X,X1X-X4X8XrX8X,XA  XM.M.S n.~.3X|.rX4XqXrXqXqX:XwX9XdXjXwXjXjXdXwXjXjXrX:X<XqXrXtXrXhXkX8X8X8X9XsX",
"eX4XwXqX8XeXqX<X8X<X<XjXrXjXlXrXjXrXlXqXlXkX@X$XoX_.M.S.n XXz.F.b.r.r.k.k.B.B...I.m.W.Q.jX0XrXxXgXrX,X8X3XwX:X4X4X4X9X8XrX4X4X8X4X4X8X3X4X:X/.(.3XzXwX4X3X,X9XwX9XwXaXrX8Xx _.T.Z.D.D.i./ # I ! W ` , ( a.* O     ( 6.' o             . . O ~ ' Y -.4.*.2.=.2.5.2.%.Q ! : W 3 _ ~ W > s d p p 1 3 2 a s s 3 2 s a d i d i p p < J T 5 J { v.W.O.....Y.eXqX<X<X<X<X0XqXqXqX0XqXeX8XqXeXeXeX<X<X1X<X<X<X0X<X:X:X;X:X,X8XqX,X<X,X;X{.tX,XeX8XtX8X8XQ.+X^.:XsX4X9X4XrXwXrXrXqX4X3X:X;X3XeXdX8X9X0XrXwXfXrXwXqXqXeXeXtXgXjX8X;X:XzXrX",
"rXeXqXeX8X8X4X4X,X,XrXjXeX4XjXfXlXlXjXeXjXjXaXM.uXoX_.uXo.X.A.`..X.X&X6X$X..W.C.M.t OXB.tXtXtXlXsX:X:X4X,X,X3X8X9X:X4XeX8X4X3X8XqX8X4X4X8X,X}.m.Y.5X9X9X5X5X:X9X<XjX@XOXE.S _.C.f.u.a.` 5.*._ 9 ! ' ` Q ! 1 X   o :.;.W L O               o 2 ( >.Y 8.R 7 *.*.*.T ) < W W ` < W <.' ! h z - = a a a a s j 2 a a g g i l i i p - ) #.# % | n T.z A v n.:X8X,X:X,X,X8X8XeX8XeX8X0XeXeXeXeX8X<X,X-X;X,X<XqXqX8X>X1X:X8X0X0X<X:X:X1X:X<X4X<X<X<XwXjX4X4XtX4XrX8XkXkXrXrXrX,X,X,X9X8X4X9X:XwXwXrX4X9X8XwXkXrXtXtXtXtXeXqXqX<X4X,X,XrX",
"8XqXtXrXeX8X4X|.jX,X,XjX<XhXjXjX,XsXtXjXsXwXsX9X_.#XU.uXuXoXC.M.N..X_.n.oXoX_.>X7X<XwXE.qXlXxXjXsXdXwX;X:X,X,X9XkX3X,X:X3X8X8X8XqX4X3X8X8X>Xx y F ;X{.5X3X5X4X4XsX^.C._._.C.I.Z.{ &.=.Y *.5.4.I ` 1.' ! W O X o 2 5.K Y R f.a.*.O : O       . * , < I q.$.R _ *.>.2.1.( W ! Q L E ' ! s v p X d y p p j j 2 a t i i i i i u a * 7 #.R Y 9 v.m.Q.T.A B.,X8X<X0X8X8X<X8X8X<X,X0X8XeXeXeX8X,X,X;X-X}.-X,X0X8XeX8X,X:XqX<X<X:X<X,X:X4X4X:X3X:X4X3X,X,XrXeXjXlXeXrXqXwXtXrX8X8X9X3XdXwX4X4XwX9X;X4X3X3X8XwXqXgXtXtXeXtXeXlXsX5X,XwX3X",
",XtXlXrX4X:X5X:XwXrXrXjXrXkXtXlX<XtXlXsXqXrXdXjX2X_.U.).U.uXoXM.M.D R.n.n.oX^.2XlX<XlXeXjXgXgX8XcXaXdX;X:X4X:X4X8XrXjX8X4X3X3X5XwX8X8XqX1XC.v v B.(.P.Y.3X3X8XwX>XS W. Xm._.T.I.D.) 6.& $.4.U =._ <.~ W 1 O . . ~ 6.oXF._._.Y.o.d.;.;.q..     . O : ! Q > ( Q Q ` ,.E L W Q E ' Q 1.' j A u e u u i u - h h h t u i i u y i a 3 W T T Y 8 i.A.S.S x B !.0X3X,X,X8X<X,X<X,X1X<X<XeXeXeX<X<X,X-X-X}.{.;X,XqXeXeX8XeX8X8X<X<X<X<X-X3X,X:X;X:X4X3XsXrXvXkXrXjXlXsX4XlXkX,X4X8XsXkXjXrX9X3XwX4X|.5X5XwX4XqXrXlX8XrXtXzXtXgXwX3X;X}.|.",
":XrXrXtXsX4X4X4XaXrXjXhX<XqXzXqXkXsXsXrX:XrXrXdX+X).A oX#X#XR.#XW._._.W._.$X^.~.tXrXjXsXlXlX8XlXlXlX9X|.:X5X:X8XeX8X8XwXwX:X;X;X8XwX,X:XT.oX..v !.|.;X:X3X3X3XE.M.M.oX&XC._.o.'.@XD.f.) <.*.$.> J ' 7.~ O O .   L R s._.1XiX,X;XU.G.f.1.E       O O 2 1 1 , ~ 1 2 W 1.( W Q _ E W ! j n v d r f M u e e c t r l g g c u p p p * > W J 5 K { k k.D B d x 4X,X,X,X:X<X,X:X:X:X<X<X8X8X8X<X,X1X-X/.{.}.1XrXgXeXeXqXeXhX0X>X,XgX<X:XwX3X-X3X|.sXnXaXlXlXgXtX8X8XrXrX>X,X;X8XsXdXwXzXkXkXjXrXcXwXzX9X:X4XeX8X8X8X8XqXeXtXqX8XwX:X,X4X",
"8X,X,XeXwXrXsXwXwXdXkXwXrX<XsXsX,X8XrXsXkXaXwXrXrXrXOXI.W.oXR.%XZ.B oX~.OXrXyX>Xo.1XlXlX4XlXqXcXsXwX4X,X,X;X3X4XrXqX<XrXrX|.|.5X8XrXE.N.B.'.P.:X9X3X4X,X8X3X3XC._.W.).M. X$X#Xo.6XW.pXD.D.u.4.#.-.J >.3.* . . O P 9 ^ M.;X;X;X<X'.u.D.F.g.E :   o o O * p ; - p - 3 ! ~ ~ ! Q ` ! - y A H M g V M u = f x y r z c z z d t y 1 O : < P $.$ 8 } x._.m.o.o.<X,X,X,X<X<X,X;X-X-X:X<X0X8X<X,X:X:X-X-X-X,X,X<XqXqXeXeXeX8X,X8X8X8X<X<X,X,X8X4XtXtXrXjXeXtXgX8XqXrX4X3X:X|.5XrXsXkXsXrXkXjXjXtXnXzXsXsXwX4XqXyXqX3X4XwXrX8X4X5X4X:X:XdX",
"4X,XeX,XwXwXwXwX4X,XrX:XqXsXsXwXjXsXaXtXwX3XrXrXjXjXaXW.).R.'._._.M.2XlXkXtXsXsXB rXjXjX8XrX,XrXrXlX4XqXwX3X,X,X<X8X8X,X:X|.5X;X4XqXB.I.P.rXqX8XwXwX8X8X8X8X3XE._.W.uXuX6X#X6XoXR.P...OX).D.e.K 9.6.E ~ O o o X Y l.U.A 0X;X0X0Xo.z.Z.O.F.!.I O     o X X X O + + O = * 1 ~ ( W - 2 t @.G t r l f M u g Z g 2 t h b j s j [ s W W 8 #.=.U 9 | C.m.O.M.o.,X1X,X3X<X<X;X-X-X-X:X,X<X<X,X:X<X:X;X;X;X:X,X<X0XqXeXhXeX,X,X,XeX8X<X<X<X,XrX:XqXjXlXlXxXcXgX,X:X8XwX5X4XzXdXzXaXzXvXnXaXeXeXkXsXtXrXzXsX4XwX3XwXwXqXwXwXcXdXwX:X:X9XdX",
"3X5XrXrXrX4XrXwX4XsXwXjXlXlXrXsXsXlXqXrXdX9XwXaXrXrXjXjX^.B m.B _.8XcXzXkXtXsXsXaXwXjXwX|.kX,X,XqXzXcXlX4X4X3XzX:X8X:X3X;X;X,X,X8XrXwX8X8XqXqX8XqXrXwX8XwXwX4X>X'.S $X_.$XW.o.$XoXuXuX'.XXG.e.p.p.*.E ~ O o o O T % 8 B 0X,X<X<XR.F.G.`.Q.<X_.6.W X o X + + X w = X = O 1 ~ ' ` 2 ; c G x ( [  .c CXH N H g y y h d b a 2 ~ ! W ) U 6 I } r.x.M.@Xm.m.A ;X;X;X;X;X<X,X;X}.-X-X,X<X,X:X:X,X,X,X;X:X<X,X;XrX8XeXeX8X<X>XqX<X<XhX8X,X8XqXtXsXlXlXgXrXjX<X8XzXwX<X4X4X9XrXsXkXrXjXjXjXjXjXkXzXlXlXsXzXsXsXaXsXvXaXwXeXkXsXsX4X9XsX:X",
"3X4X4X9X8X3X;XqXsXjXkXtXrXzXrXtXaXsXsXsXwXwXwXrXaXaXjXkXyXI.I.2XlXzXzXzXlXjXdXsXsX:XrXwXyXsXaXwX,X8XlXqX4X8XsXrX:X,X:XdX}.,X,X<X8XwXqX4X8XwXqX8XeXwXwX8X8X9X8X4X9XD _.S.W.uXT.%X&XuX_.oXv.L.i.l.p.*.( : .   o Q ;.e.| U.0XqX,X:XOXR.| uX].;X,X#X6.9 + X w w + + + X = - 2 2 ! 3 ; u u  .T Y E +.h @.H N G u r a h a s s 2 ~ Q E %.4.=./ { A.M.R.O...o.B ;X;X;X-X-X,X<X,X1X:X-X:X<X,X<X8X8X8X,X;X-X;X;XrX0XqXqX8X8X0X<X8X8XhX8X8X4XqXlX8XrXtXxX8XqXeXtXjXqXaX5X:XsXsXvXlXlXvXtX8XeXqXhXkXxXfXrXcXnXzXkXrXcXNXzXlXrXvXnXsXwXwX5X:X",
"5XdX9XrX9X,X:X{.rXjXwXlXsXrXwXjXfXkXcXjXjXgXaXrXlXtXlXgXjXlXjXxXjXkXlXlXjXjXjXrXrX5X3XlX4XsX5X5X;X,XkXwX4X,X4X3X,X,X4X,X,X4XeX8X8X8X8X4X8X8X8X9X9XqXwXqXqXqXwX8X8X9XE.n...fX`.oXR.R.$X'.o.`.v.} R 8.' O .   3 *.&.S.S B eXrXeX,X:Xo.B A.oX,X'.6X].;.3 ; + e + X X + + ; ; 0 = * @ + + 0 s.+XK._ h H f M @.g = y d b a [ , Q , ( J P 4.P f.c.U.U.I.U.o.t [.-X-X-X-X;X:X,X:X;X;X<X<X0XeXeX0X,X,X;X-X-X<X,X8X8X8X,X<XeX8XeXxXeX8X<XqXqX<XqXqXrXgXqXtXmXmXeXkXwX:XzXzXsXzXaXwX4X,X,X4XdXsXrXjXzXcXgXcXvXvXvXlXmXNXNXrXxXxXvXlXwXwX3X",
"4X9XrXwXwX4X5XaXkXsXlXrXlXsXrXlXkXxXxXxXjXkXkXrXtXlXzXlXlXlXjXlXkXxXlXlXjXlXtXtX3X:X3XzXsX4X:XdX:X3X:X4XrX|.:X,X<X8X8X:XqXqXrXeXqX8X8X4X8X4X4X3X4XqXqXwXrX4XqXqX8XeX8XC.c `.R._.$X2X_.oX6XR.).e.8.5.~ O X o # @Xo.o.x 8XeXeX8XhX,XOXM.W._.m.].8XC.:.1 O w w w + + + . * 0 ; ; = X @ = Q s.+X2X9.` H G M C g g r N a s s 3 2 W ( ) #.*.T 9 u.].W.C.C.B S [.-X-X-X-X;X,X<X<X,X:X<X,X<XeX0X,X;X,X;X{.-X-X<X0X,X:X;XeX8XqX8XeXeX8X<XrX,XqX,XwXqXrXjXcXvXlXxXqXkX;XkXwXdXjXwXzXrXdXsXsXwXwXlXtXjXjXrXvXtXeXtXxXvXlXxXgXNXlXcXsX4XwX4X",
"wXlXaXrXwXsXaXkXgXkXlXlXlXsXxXsXkXjXjXjXlXkXtXjXlXcXgXlXlXlXzXlXgXkXjXjXjXtXtXsXrX,XlXaXsX,XrXdX{.:X,XwXsX:X,X3X8X8X,X8XwXqXcX4X8X8X4X:X:X,X4X:X5XqXwXrXwXeXqXeX9XeX9X^.Q.wX2XOX<X>XuXOXS +Xm.g.P P W - o . R R.OXD I.,XeXqXqXqX,X:X<X<X,X<X0XqXeXI.-.1.[ W + X X X @ @ 0 = ; @ X - T T Y G.z.Y R | C 9 ` M g g i d s a s s 2 W Q U P R =./ ).$X_.C.I.@.(.-X;X-X-X;X,X<X<X,X,X<X<X<X<X8X;X;X;X-X-X-X-X;X,X,X:X,XrXqX8X8X8XeX<XlX8XrXrXrX,XjXsXtXvXmXvXtXqX,X:XwXaXzXqXsXcXsXbXsXrXwXrXwXzXrXsXqXlXlXgXqXgXxXgXlXgXvXcXgXrX3X9XrX",
"zXsXjXjX9X4XsXlXlXlXjXxXwXtXqXsXkXxXxXjXjXjXtXsXzXcXlXlXjXlXlXxXlXgXjXtXsXsXsXrX:XsXkXkX<XsXaX:X{.:X5X3X3X:X<X3X4X<X<XqXqXqXjX<X8X4X8X,X,X:X:X3X3X3X4X4XqXwXtXeXeX8X8XrX4XqXwXtXrXrXgXyX'.oXF.a.Y L ~ : o o ) R.0X0X;X,X<X8X8X<X,X8X0X:X<X<X0XeXgXtX].d.-.' = X @ @ @ @ 0 @ @ + r X = C s 8.:.8.3 B @.P.@.M u u l d c d a s 1 O * < L # P ^ k Q._.S ;X-X~.-X;X-X;X;X<X<X<X<X:X<X<X<X<X:X-X-X-X-X-X;X;X-X<X<X,X,XtXeXeX8X<X<X<XeX<XlXtXtX,XtXqXcXgXvXtXeXqX8XkXsXzXcXvXvXrXsXaXaXwXwXsXaXrXrXtXrXtXgXxXgXtXgXxXgXgXxXvXxXsXrXwXwX",
"gXxXcXgXsXlXsXsXjXjXjXlXhXjXsXsX,XsXsXjXqXsXsXjXxXxXxXxXlXlXwXzXkXsXsXsXsXsX:X4X<XjX1X8XsXsX5X9X-X-X;X;X;X:X,X:X,X4XwXrXrXqXqX,X3X5X3X3X5X,X,X,X:X,X:X,XqXtXhXrX8X4X4X9XeX4XwXrXeXtXrX1XoX'.F.%.6.< W s X   # X.0X:X:X,X<X0X<X<X<X<X,X:X<X0X8XqXhXeXhXI.4.' = X + @ @ @ c @ X r u . @ C M 2 _ P a N H P.@.c u u z a a a d a a 1 1 : W 6 Y ) t.).B W.-X}.[.-X-X-X;X:X;X,X<X<X,X:X<X,X-X-X/.-X-X{.}.-X-X}.3X,X,X,XrXlXeX8X<XeXlX8XqXwXtXtX,XqXtXzXqXzXlXqX3X>XwXcXnXvXvXsXsXlXcXaXdXsXnXcXkXzXvXcXwXtXtXtXtXlXrXxXlXjXxXvXsXtXrXrX",
"zXxXxXtXlXzXzXlXtXtXkXlX9XqXfXsXsXsXsXrXsXsXsXjXxXmXcXcXzXlXlXlXjXsXsXwXrX:XwX4XvXjX8X8X:XjX9X-XwX5X3X-XaX:X:X:X,X8XqXrXeXrX8X3X:X,X:X3X,X3X4X3X:X:X:X:XqXrXgXrXeX8X4X8X8X8X8X8XrXrX0X>XC.R.F.a.;.( [ O X   ;.O.U.o.0X8X<X:X:X,X<X,X;X;X,X<X<X0X0X<XeXhXA g.=.- + + + + r @ @ r @ e + C l r ! :.3 V G @.C @.M b s 2 e = t d d O - 7 I Y J 8 | v.o.B Y.;X-X[.-X-X-X;X:X,X<X,X<X<X0X,X1X}.-X~.{.{.}.}.{.{.{.|.-X9X0X8X8X<XeX<XzXqX0X8XgXqX>X,XvXjXgXvXgXrXdXdXzXzXnXvXcXtXvXcXsXrXfX9XkXkXjXkXcXnXzXqXtXcXrXvXtXtXgXgXeXrXjXwXrXjX",
"tXxXrXlXgXtXzXrXrXeXjX9XkXjXrXsXzXlXlXlXkXaXrXlXcXcXxXlXzXcXsXsXtXsXrXsX|.,XjX4XvXjXkXrX;XkX,X;X-X:XdX3X|.;XOX;X,X8XrXtXgXqX8X3X:X;X|.3X3X,X4XqXqX8X4X8X8XqXrXqXwX8X8X8XqXrXrXqXrXtXkX9X#X6XF.a.8.' 2 O X . P M...O.rXgX:X-X-X;X:X;X;X-X;X;X,X,X:X:X<XeXeX+X1.1.+ + @ + w M r + g @.M g z H D ` n @.@.CX@.f r t h a y = y - = a * ( *.Y *.e.X.C.R.z I.-X-X(.[.-X-X;X;X;X<X<X<X8X<X<X<X-X{.{.-X-X-X{.{.(.[.;X{.-X>X<X<XqXqXeX8X:XeX8XrX,X8XsXlXzXcXzXeX<X:XwXsXvXnXzXlXvXnXlXsXzXkXkXvXvXzXsXlXcXlX8XtXsXqXzXqXjXcXtXsXtXtXwX4XsX",
"lXrXzXvXxXzXeXrXkX9XjXgXjXjXwXsXzXlXlXlXlXsXsXsXzXxXvXzXzXtXaXrXaXrXsXdX4XjXrX8XtXzXkX,X,XaXdX3X3X3XwX;X5X;X5XsX;X,X,XeXjX8X8X4X,X3X|.:X3X4XqXqX4X8XqX8XqXrXeXwX4X3XtXqXrXtXgX8X4X4X{.4X1XoX Xf.;.Q p O X > $ [ F Z eXhX0X/.-X;X;X-X}.:X:X-X}.}.-X-X;X<XqXhX| Y J ;.5.a C + + g r @.r f @.r g @.C @.G @.@.f r g 2 j s 2 a a ! W ^ $.P Y 9 y.'.D m.l ,X;X-X~.[.[.-X<X<X,X0X<X0X8X8X<X<X:X-X-X-X;X-X{.(.[.~.}./.:XeX,XxX8X8X<X<X:XcXrXwX4XwXrXeXzXtXvXgXrXrXcXcXvXnXvXvXNXvXwXjXzXnXkXvXkXkXrXsXzXqXlXvXNXcXtX8XqXrXqXsXwXlXwXwX8X",
"lXlXxXxXlXlXhXzXlXtXyXrXrXqXsXfXjXxXxXvXkXkXjXsXrXxXvXlXlXsXlX:XaXaXaXrX:X9X4X8XgXcXlXjXwX,XlX:X;X3X8XdX8X|.;X4X|.:X4XwX8X8X,X,X5X,X;X;X4X4X8X4X4X4XqX8X8XwXeXqX4X,X,XrX:XwXqX3X:X|.[.|.-XI.U.g.R W s d p = O $ Z.>XhXeX8X[.[.{.-X{.-X;X;X-X~.-X-X;X<X0X0XeXhX<X].Q.L.w.p.[ ; f u F u G F r r H M G G C H C f l * 9 3 s [ 2 _ R 4.J ` u.k.o.D D U.,X;X,X;X-X/.[.1X<X0X,X<X<X<X<X<X,X<X:X;X:X;X:X}.{.[.{.{.{.|.{.zXkX<X4X8X,X:XjXzXjX<X:XjXqXnXcXtXlXjXtXlXzXvXvXvXcXvXvXzXsXcXcXnXcXkXnXcXjXjXcXlXdXsXlXsXsXzX4X9X4XwX4XzXlXrXrX",
"rXlXxXlXlXtXlXeXxXtXsX9XdXaXrXaXfXlXvXxXhXjXjXjXjXcXmXvXcXlXlXlXsXsXyX,X,X,X8XlX8XcXcXsX:X:XwXsX-X;XdX3X:X;X:X;X:X:X,X3X4X8X8X4X;X;X,X3X4X4X4X8X,X4X4X<X8X4X8X8X3X:X,X|.3X3X3X5X:X{.(.|.qX<XM.d.;.Q j d u O 3 W Z hXgXeXqX,X[./.{.~.-X,X;X;X-X-X-X;X,X,XqXqX0X0X0Xo.~ :.1.~ %.2 u E.G B.@.N g N @.P.P.M G Z x = - ! ~ I ' I 8.-.*.` y.C.R.N.:X,X;X;X;X,X;X-X-X-X;X,X:X,X<X<X0X<X0X:X;X-X-X;X-X1X}.{.[.8X3X3X5XsX1X:X8X8X,X1X;XaXqX<X,X;XwX8XkX8XcXgXxXzXrXzXvXzXjXvXBXNXcXnXnXMXnXnXcXnXcXjXdXaXzXvXzXrXnXcXcXsX9XwX3X9XrXdXwXaX",
"rXlXzXxXlXtXtXcXrXtXrX4XwXaXjXaXrXlXsXlXzXlXkXgXlXxXxXxXcXlXkXsXsXrXsX5XjXjXrX8X8XvXxXeXsX3X8XsX;X3X3X;X8X3X4X;X:X4X,X:X,X4X,X,X:X;X:X4X4X8X8X8X,X4X8XqXqXqX3X;X:X,X,X:X4X4X3X:X}.|.{.;XqX<X$Xv.R < [ d y e Y B D gXeX:X:X4X{.[./.-X:X,X<X,X:X:X;X:X,X<XeXeX8X0X].J.P Q W a h C Y.n.B.P.o.P.b P.@.@.H H - 2 2 W ! Q _ 1.<.=.P P ,.d.oX_.I.!.1X;X;X;X,X,X:X-X-X-X-X;X;X;X<X<X0X<X,X:X-X-X;X;X-X{.{.{.wX-X4X8X:X;X8X4X8XtX:X4X3XvXrX:X;X4X3XvXcXsXzXzXrXlXnXcXjXcXcXmXxXzXvXlXzXvXMXMXnXMXjXkXaXaXsXlXlXrXzXvXzXcXsXcXcXdXsXrXcXsX",
"zXrXlXgXgXcXkXsXqXlX4XqXdXwXaXaXsXlXcXlXkXlXlXkXlXxXjXlXlX8XrXsXaXaX9X3X8X8XvXtXjX8XcX8XtX4XsXsXjX;X;X,X3X4X4X8X8X9X8X,X:X8X4X,X:X,X:X5X4X8XwX8XqX<XqX8X8X8X3X:X:X,X,X:X,X4X4X3X5X3X-XwX<X_.'.H.8.' 3 s r = $ C.hXhX<X,X3X4X{.[.-X:X,X,X0X8X<X,X,X<X<X0XeXeXqX8XO.;.a d P.Y.@.P.Y.n.B.D o.B.V.A @.@.F c a s W W W _ _ T E <.T P ` d.Z.O.P.,X:X:X,X;X;X,X<X<X,X1X;X;X:X-X1X1X0X<X,X:X;X:X,X;X-X-X}.;X}.}.;XaX8X9X8XrXeX,X,X;XcXzX,X;X{.lXsXsXkXvXvXcXvXMXcXcXlXcXMXxXcXjXtXtXcXcXzXnXMXNXcXcXkXfXzXsXsXwXaXzXcXsXcXsXzXdX4XlXaXcX",
"MXtX0XkXzXgX8XsXsXrX5X9X0XdXsXsXsXlXzXlXlXjXlXcXlXjXrXkXjXrXdXsXaX3X:X4X8XlXxXxXsX8XjXrXjXsX8X9XrX|.|.3X:X8X;X>X8X,X3X,X4X8X<X:X:X:X;X:X3X4X8X4XqXqX8X8X8XqX8X4X,X,X8X,X,X,X3X3X;X;X3X;X0Xn._.F.w.R W a e o $ d qXrX8XP.3X4X}.;X1X<X<X8X0X8X8X,X<X0XeXeXeX]._.6Xu.3 t f @.@.f Y.G N.S S ..P.v G F b b j 2 ~ } W ^ 7 ,.5.*.J *.& d.S.uX_.;X<X,X,X,X<X,X<X0X8X<X<X0X<X<X<X:X:X<X8X8X8X<X<X,X:X-X<X;X:X;X4X:X:XkXjX8XtXhX8XsX,X4XwX9X;X5X9X4XrXzXzXvXMXcXNXcXtXlXvXvXrXjXtXdXdXjXvXcXnXzXnXnXnXzXzXfXrXkXrXwXsXvXcXqXvXvXvXzXzXlXvX",
"mXlX4XjXeX8X4XsXzXdXwXwXdXdXdXsXsXkXsXlXzXxXlXjXsXsXjXkXjXsXrXdX:XsX;X8XjXmXcXlXsX4XwXkXsX3X;X|.|.{.|.;X,X,X,X8X8XlX4X,X3X,XqX<X,X;X|.}.;X5X,X3X4X8X,X3XqXqXeXrXeX8X<X8X3X;X;X;X3X8X;X3X3X+XS F.Y R 2 a p o { hXrX4X,XP.Z :X4X;X:X<X0X<X8XeXqX8XeX8XeXhXhXhX_. X] 3 g c @.P.@.@.G G @...v o.O...A h j s : W ' 1.R E <.I *.7.Y R X.O.C.O.(.<X<X,X,X<X<X<X,X8XqX8X8X0X,X1X,X,X,X0XqXqX8X<X,X<X:X:X:X,X,X4XwX8XsXgXrXrX8X8X4X,X|.sX4XkX:X5XwXdXrXcXvXvXcXmXlXkXvXzXcXsXsXsXkXkXkXaXzXnXvXMXnXnXnXzXkXwXkXzXkXsXnXnXzXsXvXcXvXvXlXlX",
"lXtX9XrX8XsXsXkXsXzXrXrXsXsXdXsXsXsXrXsXlXlXzXsXjXsXsXrXjXsXsXaXOX3X3XtXcXcXjXjXzX,XwXkXdX|.|.{.:X;X[.-X,X3X8X8X8X8XjX:X:X8XwXrX8X;X|.-X}.;X3X3X4X5X;X:X4XqXtXtXeXrX8X,X,X,X-X>X3X3X8X,X8X$XT..X8.8., a r = ! jXhXeX/.,X;X3X:X:X<X,X<X<X0X8X0XqXeX8XeXhXgXhXt.` & j C f @.@.x C C G a X. . . .s j a 2 ~ W L ) T R <.9.,.9.T $ U z._.M.i i Y.<X:X;X,X<X<X<X8XeX8X<X0X<X-X;X;X-X1X,X8X<X<X<X0X<X,XqX8X<X8X<X,XlX8X8XeX8X8X<X:X|.rXaXaX3X}.0XdXdXzXMXxXvXBXlXvXzXMXzXlXlXzXkXkXcXcXvXvXnXvXnXnXzXzXzXjXkXdXlX9XlX8XvXMXvXzXlXcXcXrX",
"xXwXsXfXdXsXsXzXkXzXsXsXsX8XdXsXsXzXsXsXjXjXlXzXlXrXfXkXkXkX3XwX3X8XzX4XlXjXjX8X8X3X4XkX{.kX|.[.;X;X;X3X:X8XwX4X8X8X<X}.,X3X8X8X4X3X,X3X3X:X|.;X:X,X,X:X:X:X8X8XrXtXrX8X3X4XwXeX3X3X8XeXrXoXR.n 5.8.L s u i  .eX0X0X8X3Xt :X,X;X,X<X,X<X<X1X,X8X8X8XeX/.B.o.7.` j N f f Y.C + l a b ; [  .! j s 9 3 ` ~ ( ' _ >.7 I U $.I 2.e.} O._.W...p <X<X;X<X0X<X0X8XeXeX8X<X<X<X1X;X-X-X}.-X,X<X0X<X<X<X<XtXqXeX8X,X,X8X,X<X,XqX,X:X,X4XsXMXaX;X{.5X-XfXcXvXvXmXxXxXcXvXMXbXnXzXzXcXfXcXvXzXvXvXnXnXzXcXzXcXkX9XzXsXvXkXlXcXrXcXcXxXBXNXsX",
"3XwXkXsXjXjXzXkXzXcXlXlXlXsXsXsXzXzXjXjXsXaXsXlXsXqX<XxXjXjX>XeX8XtXqXvXzXqX,XsXrX4XcX,X|.3X|.{.,X4X8X<XeXqX8X4X:X,X,X,X,X,X,XeXeX8X,X8X8X3X:X;X<X8XqX:X{.-X:X4X4XwXrX8X8XwXrXqX8X8XgXgXgXI.'.x.( R Q W p e ] _.M.B.o.o.V ,X,X,X0X8X8X,X:X;X:X,X0XeXC.F.I...8.W c r r z b j a [ 2 +.[ ~ ` Q ! ! 7 W %.2.E 9.5.2.8.:.<.2.> &.t.k.o.R.U.I.o.eX<X,X>X<X8X<X8XeXeXeX8XqX<X:X;X;X-X}.}.-X,X<X<X<X8X8X8XeXeX8X<X8X,X:X:X<X0X:XrXrXwXzXMX8X;X3X3XsXzXcXnXnXMXcXsXnXzXnXvXnXnXkXkXzXzXkXcXvXnXMXnXnXcXnXkXkXkXfX3X3XzXcXnXlXlXzXxXmXvXlX",
"zXrXsX8XjXjXkXkXzXzXtXlXrXkXkXjXzXlXkXrXjXkXrXkXzXlXcXjXlXmXtX8XrXvXmXlXcXcX3XsX;X:XvX4X:X5X;X;X:X8XrXxXeX8X4X8X;X:X4X8X,X:X<X<X8X8X8X8X4X3X;X;X3XqXrX4X:X|.;X:X3X8X8X8X,X4X8XqXwXeX,XrXjXM.'.F.p.:.E W 1 y p _ 9 , k X.p ,X<X0X8XqXqX:X,X,X:XY.0XS [ W iXO.R d m g x s [ ! W [ ! ` ! _ R ' _ 1.>.4 :.T U #.4.#.U 4.q.%.e.e.z.S.Z I.d E.<X0X<X1X,X<X<XeXeXeXqX0X8X0X<X1X:X;X;X/.{.}.;X;X;X,X<X8XeX8XeXeX<X:X;X;X;X:X,XtXwXvXwXsXsX,X;XwX{.sXsXkXcXcXnXzXkXcXMXvXjXkXkXcXkXzXcXzXnXvXcXcXnXnXnXnXvXcXkXsXaXwXaXbXMXlXzXsXxXMXvXcX",
"zXzXrXkXjX8XfXrXlXcXjXjXlXlXlXzXlXzXjXkXrXrXlXlXzXqXlXhXmXmXrX8XmXmXvXqXwXlXcX:X:X4XsXsX:X4X5X{.3X,X8X4X,X<X,X4X,X<X,X,X;X;X8X8XeXeX8X,X}.:X;X:X,X4X4X8X,X}.:X:X:X:X:X;X,X;X3X3X8X8X4XwXeXC.I.c.e.;.:.W ~ p r O J : % # 2 S 8XqX8X9XwX5X,X:X,X/./.R.J J :.$ a H H S j !  .W ~ 3 [ 3 W <.8.8.P 6.=.$.:.9.Y 4 :.4.6 # #.3.e.9 u.F.W.N.M.<X,X<X<X,X1X<X<XeXeXeX8X0X8X0X<X1X,X;X;X-X;X-X-X{.-X0X8X0X8XhXqX8X8X;X;X,X3XgXeXzXrX,X4X8XrX:XjXeXkXdXdXcXcXnXcXzXnXnXjXkX8XvXlXfXdXkXkXcXkXaXnXkXzXnXnXnXnXvXzXzXsX5XsXzXnXzXzXzXlXcXlXvX",
"vXvXzX9XdXsXaXsXzXjXkXlXlXlXzXxXlXlXlXzXkXzXcXzXwXzXvXeXNXmXgXtXmXxXtXvXeXxXvX4X4X8X4XrX3X3X3X:X;X>X8X8X8X,X,X3X8X<X,X,X:X,X8X<XeXeXqX4X,X}.-X;X;X,X,X4X,X:X;X;X:X,X:X3X4X4X4X4X,X,X:X8XeXoXN.).( :.-.L ~ : r r : > > % * N eXqXeXZ b S R.0X0X,XI.4 : a - B N N G z [ Q  . .~ 3 ) Q T 5.8.8.$.5.#.$.e.s.t.&.8.8.:.P P ^ k / r.R.U.Z 0X<X,X:X:X:X,X0X8X<X<X8X0X<X:X1X<X<X;X,X,X,X,X1X-X;X;X;X,X<X<X8X8X8X8X,XP.D d jXkXwX,X,XaXwXsX4XkXnX8XwXzXbXnXvXzXvXzX0XjXkXzXsXsXzXzXsXzXzXkXkXvXvXcXcXnXMXMXnXzXcXsXzX4XsXvXsXqXwXtXtXqXwX",
"zXwXvXzXsXsXsXsXlXkXtXlXzXlXzXlXkXxXlXlXrXzXcXcXzXcXlXxXbXgXxXmXxXmXrXlXgXvXmXcX3X4X4XsX8X4X;X:X4X8X,X8X4X;X:X,XqX8XqX4X,X,X8X8X<X8X<X,X:X:X,X,X;X:X:X,X4X4X:X;X;X:X,X,X,X8X8X4X,X;X3X,X8XqXC.m.z.%.5.4.~ W e p - : L Y x !.9X0XeXB c j Z eXB ].t.L H G G P.@...[ ! _ >.W W ~ Q 8 :.Y -.3.3.) <.a.a.e.K.g.) ) 6.E p.f.A.S.k.D @.R.Q.0X<X,X,X,X1X0X0X<X<X<X<X,X,X:X1X,X<X<X<X0X0X8X,X;X;X;X:X4X3X<X<X<X<X/.B.S o.Z cXjX8X<X:XrXsX:XcXzXnXqXsXsXvXnXnXvXtXtXsXfXcXnXsXsXzXzXkXzXcXfXcXnXvXnXMXMXMXNXnXnXcXvXnXcXzXcXlXdXvXrXrXvXrX",
"aXzXvXcXaXsXzXsXtXjXlXcXlXtXkXlXxXvXxXkXlXzXcXcXjXcXlXcXmXMXMXmXmXmXxXxXqXvXcXlXkX:XjX5X4X|.{.3X8X,X3XwX,X;X,X,X,X4X8X<X8X<X<XqX8X8X,X,X:X4X:X:X;X|.;X:X8XqX4X>X:X4X,X:X8XqX8X8X4X3X,X3X,X8XuXW.R.{ Y -._ ~ a i t d O > 9 T.A eXE.o.D t U.OXO.D.Y > c P.H G H z W Q 4.<.E L ( ( 5.$.3.l.F.f.D.e.J.y.f.b.f.1.| t.k n @X6XT. XT.S.o.0X<X<X,X,X,X:X1X<X<X,X<X:X;X;X<X<X,X>X,X,X,XeXeX8X:X;X;X:X4X^.^.o.S...m.M.B y rXlXrXcX8X<XrXkXwXsXsXzXnXwXrXvXnXlXzXsXtXbXcXvXnXsXnXcXkXzXfXzXzXcXnXcXnXBXMXMXnXnXNXnXnXvXcXnXbXzXsXvXzXlXbXvX",
"sX9XsXcXsXlXzXsXsXkXzXlXcXzXcXzXkXxXzXlXzXzXvXvXxXxXMXzXgXeXMXrXcXgXvXxXcXlXrXwX:X3X3X4X3X;X{.;X4X4X:XqX4X8X3X:X,XeX8X<X8X<X<X<X8X<XqX<X,X,X8X,X,X:X;X,X<X8X,X3X-X|.4X,X,X4X8X8X8X;X|.|.8X,X+X+X$Xy.%.*.,.W d f u i t ; 5 ) & l.k / `.x.n U.e.] W B ....H C H  .W L Y =.;.Y _ ] Y 6.G.k.$XuXF.F.#XR.&X*XS.z.F.fXo.B.N.C.W._...A 0X0X<X0X<X<X,X;X-X-X1X;X;X:X1X,X<X<X<X0X,X<X0XqX8X8X,X;X:XF l x U.x U.o.....N.o.gXrXmXgX8X,XeXeXzXsXsXvXsXrXwXvXMXkXrXsXaXcXvXMXvXzXsXcXkXkXkXnXnXzXzXvXMXMXNXnXnXnXvXnXnXnXnXnXnXzXaXvXzXsXkXjX",
"sXsXsXbXsXsXsXsXlXjXcXxXvXvXxXlXjXfXxXzXzXxXgXvXvXcXvXcXqXeXvXMXvXxXtXeX4XzX;X4X3X;X8X9X:X}.{.5X4X,X,X3X4XqX,X-X,X<XeXeX8X8X8X8X8X8X8X8X<X4X:X,X,X4X,X,X,X8X,X,X:X-X4X4X<X8XqX4X8X3X:X-X1X,XOXoX$X+Xf.& _ ~ s d i f d d : P q J ] $ q Y R | Y b G CXG P.G G G s <.;.1.d.g.e.R Y P k Q. X6XS. XC..X.Xm.#X6XZ._.6X+X].T.R.W.OX^.8XeX0X0X<X<X<X:X-X{.-X-X;X1X,X<X,X,X0X0X<X:X<X8XeX8X8X:X3Xm.n.M.x ]...d ..R.I.B Q.tXqXgX8X<X,XvX<XcXnXcXlXcXrXsXcXbX4XwXzXlXvXcXcXNXsXcXcXcXvXkXvXcXcXzXcXkXnXnXNXnXnXnXnXnXNXNXnXnXcXcXzX4XrXsXzX",
"dXwXzXcXsXsXlXvXjXjXkXvXMXxXzXrXkXkXlXzXjX4XzXvXzXvXxXcXxXxXeXNXhXvXqXlX4XtX4XqX4X:X8XwX4X{.;X:X4X3X,X,X,X:X:X,X,X4X8XrXeXeXqX<X8X<X,X,X,X3X;X,X8X,X:X:X:X3X4X,X,X:X8X<X<X<X8X8X<X4X,X-X,X,X<XR.D '.u.-.Y ` : s c M m m m f = 1 H d * $ $.P b H @.@.CX@.@.@.b L 8.R b.V.).pXt./ t.6X+XR._.%X'.oX$XC. XF._.W.x _. X'._.^.,X,X-XqX0X<X8X,X,X:X:X:X1X;X}.;X,X:X<X<X,X,X,X,X;X0X0X<X0X<X,XU.W.C.W.C. Xk.S n.o.Z o.Q.m.O.Y.4XrXsXzXaXlXzXkXMXlXwXsXzXcXsXsXzXzXnXbXvXnXzXvXsXbXnXzXzXbXcXkXnXnXsXnXnXnXnXnXnXMXBXBXMXnXcXcXzXsXdXaXnX",
"cXsXrXsXkXcXcXzXqXfXkXvXnXxXkXjXsXkXjXcXsXjXcXcXxXvXcXvXcXtXeXMXcXmXvXlXsX,X,X:XwX8X8XqXsX,X;X3X,X4X<X<X,X<X}.}.:X,X8XeXeXeXrX<X8X<X,X,X3X,X;X3X,X3X:X:X:X<X8X3X,X,X8X8XqXeXeX8X<X,X,X:X3X4X,X%X$XW.j.4.;.J Q [  .N m N M C H H H H - a L V G H @.@.CXm.@.b q *.6.f.R.+XN.uXV.S.oXo._.-X:XA ..oX_.S _.W.m.fXC.I._.T.R.W.0X,X<X<X<X8X<X:X:X1X:X:X:X-X-X;X<X<X<X<X,X;X;X;X;X:X,X0X8X0XD d S.n.n.oXD ).D W.+XC.S D o...Z c E.aXkXsXqXzXvXNXjXjX8XcXnXwXzX9XzXcXcXvXnXnXNXsXkXzXzXsXkXkXkXkXnXkXkXkXkXnXsXBXNXBXBXBXvXzXzXsXfXaXdXaX",
"zXvXsXvXkXsXcXzXzX4XOXP.@.vXvXzXsXaXlXlXzXlXcXzXxXvXvXcXtXqXqXrXmXmXzXrXqX4X4X8XzX8X4X4XqXrX,X:X:X8XrX<XqX8X|.{.}.;X8XqXrXeXeXqX:X,X,X;X:X}.-X-X{.}.-X:X,X,X:X:X<X8XqX8XeXqXeXqX,X:X4X4X:X,X8X6X+XoXI.f.0.$.Y L s d v N N M C @.G G G G @.C C F @.@.CXD b j K Y *.F._.oXC.#XD W.$X{.:X-X;X^.&X_.N.I.W.$XU.R.).N.R.m.d P.8X,X<X<X,X8X<X<X1X,X1X<X<X;X;X,X,X0X0X<X,X;X:X;X:X8X,XqX>XN.'.R.W.W.V.S.S.`.S.F.m.6XN.T.M.N.A S C.B B.d I.zXcXMXgXmXeXcXzXfXdXsXcXnXnXnXNXnXNXzXnXfXsXnXbXkXkXkXnXkXnXnXnXsXnXnXBXMXBXBXvXkXzXdXkXaXkXkX",
"sXvXvXzXkXMXvXsXsXc S z d x zXcXsXkXjXzXrXvXcXvXzXzXlXzX8XzXqXeXgXjXMXvXcX9X4X:XrX4X<X4XrX8X3X-X,X4X8XqX8XrXwX,X{.}.:X,XeX<X<X,X1X-X;X;X,X3X;X{.{.{.-X,X4X,X:X4X4X<X4X4X<XeXqX8X,X:X:X|.:X<X8X8X+X XuX_.g.s.P :.~ 1 a t c F @.@.@.@.G G @.@.@.@.H @.G G h ! > & %.z.].O._.N.n.V OX;X,X:X,X:XW._.#XC.M.).M._.~./.^.oX;X,X<X,X8X<X<X<X8X<X<X8X0X0X,X;X:X,X,X<X0X<X,X:X;X;X,X<XqX].D U.#X_.Q.A.l.{ | u.u.y.k v.v.A N.N.n.C.M.o.Z x B n.qXMXzXjXkXlXnXkXzXsXcXnXnXnXvXnXnXnXkXsXcXcXkXkXnXcXbXkXkXbXbXsXcXnXBXnXBXnXnXsXdXkXkXnXkXcX",
"cXMXlXlXlXmXNXlXB.v O.B c N.d kXkXsXzXzXzXcXzXrXzXzXzXkX9X,XqX3XeXlXmXxX3X3X3X:XqX4XqX,XtXrXtX1X,X,X8X<X8XtXgX,X}.;X,X,X,X,X,X;X-X:X:X,X,X,X:X}.}.}.}.,X8X8X8X,X4X<X,X-X<X4X8X8X:X;X/.:X,X0XeX,X0X1X%X'.=Xv.i.P J ' W ! 1 B y @.@.@.@.H @.@.@.@.G @.F v [ Q 5 U _ I.+Xm.W.C.E.~.;X,X,X,X<X0X-XE.@X%XC.B R.R.{.}.}.{.,X;X8X0X0X,X:X<XqX0X<XeX0X,X-X:X;X,X:X<X8X0X,X;X;X;XrXqXqX@Xo.+XN.oXx.| b.i.* & U &.9 n y.{ X.k.n ..D T.D Z S I.^.mXtXvXkXvXnXcXnXnXvXbXnXnXnXnXNXnXnXnXnXnXcXkXnXnXsXnXcXnXcXsXcXnXBXnXdXnXnXzXsXrXkXvXcXkX",
"jXrXcXkXxXvXvXNXU.D oXB ..o.d Q.nXsXsXkXsXcXlXlXlXsXsXsXqXwX4X4XvXkXcX8X3X4X;X4XrX,X8X<XqXtXtXrX:X8X,X<XeX8XrX,X3X,X,X8X;X:X8X,X}.-X:X:X:X:X:X-X-X{.:X3X,X<X<X8X8X8X4X,X:X:X<X8X<X,X:X:X,X,X:X:X,X3X_.M.I..XF.a.8.~ ~ +.- a H @.@.Z b A @.C @.@.F v k [ , I =.$.r.+X$XW.(.>X;X-X;X:X,X4X,X4X,X@X,X,X|.S A _.~.}.|.}.}.;X,X8X,X,X,X<X8X<X<X8X<X1X}.;X,X:X1X:XqX/.B.OX/.0X8X}.S M._.).S.V.F.n.Z.u./ q $.#.q 9 { F.x.| 9 O.Z Z.m.m.x z S OXgXo.mXNXnXnXMXMXNXBXBXBXNXNXNXNXnXnXnXnXnXcXcXcXnXnXnXkXbXnXnXnX@.5XfXzXzXzXdXsXnXvXcXdX",
"zXjXvXkXlXcXvXMXI.d C.S O.S S c kXsXsXaXsXkXzXzXlX9XlXsX:XwX9XzXkXkX3X4XrX3X3X,XwX:X,XqXgXgXMXqX;X:X,X,X8X<X<X4X4X8X:X3X{.;X,X:X:X,X,X,X,X:X:X:X-X-X:X;X,X8X8X8X8X<X:X:X<X,XqXrXqX0X,X0X8X<X,X,X,X^.oXM._.B.*Xe.-.:.' ' ~ b B S C n | n n v @.@.V a ! < > & P / V.W.+XOX;X1X-X;X;X;X:X3X,XOXOX<X:X;X|.B.n.x {.}.-X{.{.-X,X:X,X;X,X,X,X,X<XeXqX<X:X:X;X-X-X,X<XB d U.M.o.W._.S S.X.f.k k i.=XXX9 U 6 P =.%.8 l.u.c.v._.).S.V.n n o.o.C.M.!.P.;XBXMXBXMXMXNXNXNXBXNXNXVXNXnXnXnXkXcXcXnXbXnXnXnXnXnXnXkXnX5XdXzXzXzXdXrXsXnXvXzXzX",
"zXkXcXjXzXcXcXo.Z..._.M.M.A z d sXdXdX:XsXsXaXlXlXsXzXzXsXsXsX1X4XfX4XrXlXzX:X4X4X:X,X8XeXgXtXeX<X:X,X<X8X8X8X<X8X8X,X}.{.:X:X:X,X<X,X,X:X:X;X;X,X,X:X,X8X<X0X<X4X8X:X,X8X8XeXhXeX<X8X8X8X,X<X0X3XoXfX6X%XN.S.t.' ;.:.,.~ [ a X.Z r.| b { j 0 9 s [ ( ^ K P *.u.V.B.C.v /.-X;X!.;X;X|.W.N.A A 4X;XoXoX>X^.;X;X-X;X{.{.{.:X:X1X-X-X:X-X:X<XeX8X<X0X<X:X;X1X<Xo.R...o.T.o.m.R.n { t.&.a.! 8 } g.#.#.& # $.K | D.k z.| Z.U.C.m.D k.h B ..C.M.S t ;XNXNXnXnXnXNXMXNXnXNXnXNXNXnXkXnXnXnXkXnXbXnXnXnXnXnXnXnX@XbXzXvXwXdXvXnXnXsXnXkX",
"cXwXrXsXzXzXcX.Xm.m.S. XW.C.o.E.sXsXsXaXsXlXjXjXlXtXzXlX8XlXlX:X:X5X:X5X3X3X,X4X8X,X8X,X8XtXcX4X,X:X8X,X8X8XeX8X8X<XeX:X|.;X,X;X:X,X,X:X,X,X-X:X:X4XqX8X8X<X<X<X<X<X<X<X8XeXrXhXhXeXeXhXeX8X<X<XQ.Z N.&XuX%X6XS.H._ Y 8.' ` a a Z n | k 3 [ 3 3 7 E ' J =.6 =.{ v.W.M.m.n.N.Y.^.{.E.A R.R.).C.OX:X..U.D E.~.:X:X;X;X;X-X:X,X:X-X;X;X-X-X:X<X8X<X<X<X,X,X<X1XP.O.M.B.R.j.l.e.P U 4 &.<.P I $.=.4.$.6 $.$.8 k .Xv.F. X X.X$X`.S.j.k h b Z D B d ..wXBXcXzXvXNXnXNXnXnXnXnXnXnXnXnXnXnXbXnXnXnXnXNXvXnXnXvXnXkXcXdXsXzXNXnXcXzXnXdX",
"vXrXcXaXnXnXsX7XC.T.!.OX!.P...yXzXzXsXlXsXrXlXjXcXzXcXzXjXsXfXsX:XdX:X5X3X4X4X-X:X8X,XwXrX4X8X8X8X<X;X-X,X8X8X8X8X8X<XrXqX3X|.|.-X:X-X:X<X<X4X{.-X,XqX8X<X<XqX;X<X<X<X0X8XrXeXhXeXeX8XeXeXqX1X2XR.Q.M. XR.+XW.@X*Xd.-.] 3.' 2 j h h n v 3 ! ( >.1.9.0.8.U & / { l._.o.S o.OX|.E.M.T.O.R.R.A ..OXOXoXR.M.B x A P.-X4X;X;X1X,X:X,X:X;X;X;X,X<X<X<X<X<X;X,X0X<X>XD N.W.n { 9 Y U 6 T T $.#.2.#.#.#.T -.i.2.f.A.j.k.k.$X`.S.A.r.| k l.| | m.T.S B z yXNXlXzXzXvXnXNXnXnXcXnXnXnXnXbXcXkXkXnXnXnXNXNXMXnXcXnXcXkXfXcXnXnXvXnXvXzXvXsX",
"NXsXjXlXNXzXkXsX>XdXsXcXcXNX4XaXrXwXsXrXqXlXtXcXcXcXcXzXkXjXkX;X9XdX4X:XwXdX9X3X4X8X8X8X8X,X|.,XwX;X;X/.-X;X:X,X,XeXeX8XqX,X-X}.-X|.;X,X<X8XrX-X;X8X8X<X0X8X<X,X<X<XqXqX8X<X<X0X8XqX<X<X8Xo.B M.oX+X#XT.#XR.oXC.'.).p.P 1.' ~ [ [ j [ a ~ _ %.J 4.-.=.2.U # 9 { ).U.m.B m.;X:XS o.C.C.Z o.M...2X!.^.'.o.R...A d P.Y.,X;X;X,X<X,X,X,X,X,X,X<XqX<X-X;X;X;X/.P.oX'.n. Xc.i.& U =.T ,.T <.K #.#.# T 6 2.#./ y.k.S.S.Z.A.S.Z.c.t./ &.{ t.z.S.A n.z D !.nXnXnXvXnXNXvXNXcXnXnXnXnXnXnXcXkXnXnXNXnXNXNXnXnXcXcXkXkX9XnXvXvXcXnXzXzXlXvX",
"NXzXmXvXnXcXsXdXzXcXdXsXzXzXfXsXsXsXsXwXzXzXcXxXvXvXzXwXjXjXwXjX:X9XsXrX9XrX,XtX4X8X:X3X4X;X3X:XeX3X3X}.;X;X8X4XqXeXeX8X4X8X{.}.-X:X-X,X,XqX8X8X:X8X8X<X4X<X,X3X8XeXeX8X<X1X<X:X,X,X<X<XOXW.o.R._.W.o.oXE.&XW.D I.B f.] R ' _ ~ W ~ [ 7 ^ *.=.Y J %.,.4.#.#.&.c._.W.R...oX{.[.@XU.oXoX'.m._.B OX-X/.U.T._.o.C.B F o.P.4X,X8X8X8X0X<X<X,X;X,X<X,X-X/.~.-XE.o.o.C.c T.b.p.*.-.#.P E %.%.<.>.5.*.Y P ,.$.8 f.r. X*XW..X`.S v.i.e.J 9 t.y.| m.C...n.E.MXcXnXcXnXvXNXnXnXcXkXnXkXkXkXnXcXsXcXnXnXNXnXvXvXnXvXnXnXnXnXnXaXaXnXnXgXjXzX",
"NXvXlXvXcXzXcXsXsXdXwXsXzXcXzXzXzXsXsXzXlXlXxXvXcXzXsX3X3X3XaXkXrX4X4XrXtXrX4XlXkXrX5X:X4X}.;X:X4X,X3X{.|.:X4X3X8XqXgXeX<X<X:X-X:X;X,X8X<X<X4X<X,X<X8X,X:X:X,X3X8XqX8X,X:X;X:X,X:X,X0X0XoXS.W.R.R.%XQ._.R.T._.uX@X`.f.6.=.*._ ( W ! ' >.T =.,.0.&.e.3.$.I &.{ F.W.$XW.o.#X~.|.|.I.N.oX$XR._.I.W.N._.W...C.D m.M.B d o.P.4XqX4X<X,X,X,X,X,X<X8X<X:X}.{.{.{.1X'._.#XX.y.#.$.2.7.U Y ) T I I ^ <.T $.6 $ &.e.A.A &Xj.A..X_.Z.y.{ | | | | | S.Z M.v OXnXbXsXzXcXcXcXnXcXnXnXnXbXcXcXkXnXnXsXsXBXNXnXzXvXcXvXnXkXcXcXvXaXvXvXcXgXvXcX",
"tXzXNXcXvXwXcX7XdXwXrXrXrXaXsXsXzXzXsXzXzXzXcXxXzXsXdX;X3XjXjXjXkXwXrX8XqXrXwXrXrX4X3X4X9X4X:X4X}.3X4X}.4X:X,X,X8XqXeXrXqX,X-X-X;X:X8XrX8X<X<X:X:X,X,X,X;X-X{.-X:X1X<X<X;X1X:X<X:X<XeX!..._._.R.R.$X6X%X$X6XT.&X6X].} 8.R J ( ^ < ' ( 2.=.2.*.5.s.d.t.&.a.{ { A._.R.n.O.M.~.E.:X'.$XD x o...C._.U.#XZ.o.oXA B ..C.M.d y P.,X:X:X-X:X<X<X,X<X8X<X,X:X;X}.-X+X].iXfXS.{ I 4.4.6.<.4 T 5.3.L Q L ( 5.I $ &.i.b.D *Xe.D.F.#XZ.).| F.| V._.m.M.A A ^.nXnXcXsXkXkXzXcXcXcXsXnXsXkXbXnXnXBXNXnXBXNXnXnXcXzXkXcXdXcXcXcXlXzXvXcXsXjXmXNX",
"cXlXlXcXzXsXaX9XdXsXkXlXkXaXsXsX4XkXzXzXlXgXkXsXsXkXsXwX-XrXkXkXaX>XrX8X4XqXsXwX3X3X:XrXwX8X4X>X3X:X}.;X4X5X:X,X,X<XeXqXqX8X,X8X4X:X,X,X:X;X-X:X,X1X-X{.;X-X{.{.-X-X,X,X,X,X:X:X,X8XrXM..._.M.C.I.R._.T.%XoXW.R.@XA.D.` -.8.4.5.*.R -.<.6.0.E 7.E ) a.<.f.i.t.F.+X&Xn.M...OXB.OXT.R. X&XR.oXW...>X_.oX_.'.Z.R.U.T...R.d y P.-X-X-X:X0X8X<X,X,X,X<X:X:X;XE._.x.U.2X6Xc.) E P q.<.J #.2.<.L < < W &.$ 6 U / f.k.r.{ u.} c.y.| D.H.R.'.I.oX_. Xo.E.rXMXcXzXsXsXjXkXkXvXcXsXnXkXbXnXnXnXnXNXnXBXnXkXcXsXzXvXnXcXzXcXsXvXcXtXjXvXNXNX",
"lXxXvXrXrXvXrX9XsXsXlXrXrXrXsXaXwXwXcXbXlXvXzXzXsXsX3XtX;X8XcXlXrX4X4XlX<X4XlXlX4X4XwXqXrXkXeXqX3X4X;X3X;X4X|.:X,X,XqX8X<X<X<X,X,X:X<X8X8X-X-X:X,X,X:X}.-X{.{.~.~.-X-X1X,X<X<X:X,X8X7XA C.6X#XU.Z  X_.6XM.m.R.oXW.D.A.f.s.4.P 4.9.4.#.J T Y 6 6.4.&.U 8 i.p.| | V.&X+XM._.&XW.>X+X_.C._.6Xo.M.o./.#X_._.I.*Xk._...o.o.U.o.B }.:X:X,X<X8X,X,X<X,X<X,X-X}.P.R.S R.R.H.r.D.3.U U <.4.#.E T W W 1 : / #.4.P &.z.f./ J ,./ D.u.v.l.+X_._.B C.I.U.>XqX|.nXdXcXkXzXkXkXvXsXsXnXnXnXnXcXnXnXNXnXnXfXsXkXsX5XdXbXzXcXzXbXcXcXwXjXlXMXNXlX",
"zXxXBXvXkXcX9XwXsXgXtXrXtXrXtXrXrXzXvXcXmXmXvXlXrXrXrXaXwXzXyXzXkX4X3XsX:X8XrXlXrX3X,XrX8XlX8XeX3XsX3X:X3X-X{.}.:X4X;X,X8X,X,X:X0X<X,X,X,X-X-X1X;X<X-X;X-X{.~./.}.{.;X:X<X0X,X:X:X<XeX/.M._.&XuX&X_._.&XoXuX_.o.M.oXZ.u.h.s.Y 6 2.0.#.4.0.5.,.%.#.4.2.P 8 { t.r.O.S ..B R.R.m.B 1X+XW.C.M.$Xm.+X4X@XC.#XR.W.uXoX_.C.C.B n.D -X,X:X:X<X<XqX<X,X,X,X:X;X{.N.$XuXN.b.e.G.u.) 5.#.%.8.<.' *.E , 2 1 4 8 2.#.J ^ *.$.4 Y &.9 { &.l.R.U.R.R.U.S P.yX7X8XcXjXkXcXvXzXfXzXzXcXcXcXsXbXvXvXMXzXNXnXNXnXvXnXcXkXdXnXnXcXbXcXzXdXnXcXcXkXkX",
"mXcXMXmXMXaXrXrXzXzXsXgXlXlXlXlXzXcXxXzXxXvXxXlXsXwXrXlX9XrXcXzXjXrXrXrXsXqXwXbXlXqX,X<XeXlXeX8X8XkXwX|.:X4X-X{.;X,X,X,X<X8X:X,X,X:X,X,X;X:X:X1X;X;X;X;X;X-X-X}.-X-X}.:X<X<X,X;X;X:X<X8X#XI.uXW.6XN.W.W.R.#X6X$XZ +Xc.e.f.G.p.J I 6.I <.:.K.&.&.6 & U =./ y.v.k.oX_.U.M.I._._.N.+XqX&X_.W. X_.^.8X1Xm.m.n.I.W.uXT.m.$XR.A x t /.:X,X0XeXqX0X:X:X:X;X;XW.U.N._.A.e.3.&.h.0.*.U I _ _ P ( 1.! s s 7 , 8 $.< P Y :.I #.e.d.K P / #XC.oXm._.N.O.G ].U.lXlXkXzXzXcXrXsXsXzXzXzXcXzXcXcXfXNXNXMXnXvXvXnXkXzXcXcXnXsXsXzXzXsXdXrXsXlXxX",
"BX1XOXo.wX<XjXsXsXlXlXxXxXcXcXcXcXcXcXcXzXzXjXsXlXzXlXkX8XqXlXlXjXxXlX>XzXqXlXtXrXlX,X4XqXjXrXeX:XwX3X}.8X|.}.-X8X;X8X3X,X8X4X;X;X;X;X1X<X,X:X:X,X;X;X-X;X;X;X-X}.{.}.;X<X4X:X-X:X:X<XE...I.N.).$XS.F.oXm.W.uX$XR.M.F.D.`.A.u.g.<.%.a.<.e.e.,.2.<.J #.:.| c.S.#XuX#Xm.W.m.6X&Xo.n.1X+X&XI.o._.>X7X@XR.oXE.B j.A @Xo.@.C...v x ~.:X,X<XqXeX0X,X-X-X{.:X].%X].&Xx.g.s.P =.5.4.4 U ' ( W 3 W [ [ : , Q ) K J J $ L P #.Y &.I T T F.+X_._.R.C.B ..o.OXcXlXcXcXcXsXsXsXnXcXzXzXzXzXzXeXaXnXNXNXMXvXvXkXsXzXnXzXsXsXwX9XsXdXdXtXlXcXBX",
"qXx t M.M.^.B jXgXlXgXlXlXlXxXxXjXlXlXlXlXcXlXzXlXzXlXsXsXrXqXvXvXcXxXtXzXcXtXqXsXzXwX<XtXqXgX<X4XwX8X3X,X3X-XwX:X4X,XeXgX,X:X}.;X:X,X;X<X0X8XqX<X,X;X;X,XrX,X1X{.;X~.;X,X<X,X;X,X<X,XP.R.C.'.o._.z.{ V.uXC._.uX_.#XX.r.S.H.l.t.-.&.u.e.a.5.E 9.9.#.T $.u.H.v.v.@X#Xm.6X.._.#X_. Xm._.$X&XC.N.U._.R.C.C.oXuXF. XC.T.n N.n.C.C...Y.-X;X,X<X<X<X:X-X-X1X_.6X'.#Xc.{ ` #.J 4.6.,.I : s [ [ s [ b 3 O W E ^ I _ R J T =.E J Y I 9 x._.'.).'.O.o.^.tXvXcXcXcXnXzXzXsXkXfXkXzXcXsXzXzXcXnXMXnXMXvXzXkXsXdXvXsXnXlXzXrXsXdXdXcXjXjXmXVX",
"O.S.d S m.E.Z yXlXzXlXlXzXzXzXlXlXrXrXwXdXsXlXlXzXsXlXrXkX8XrXrXvXcXcXvXmXvXlX<X4XcXrXrX4XlXrXyXwXwX4X8X4X,X;XwX:X8X,X8XrX,X3X|.:X:X,X,X8XeX8X<X,X;X;X<X8X8X<X:X-X;X{.:X:X1X;X,X,X,X>XN._.).'.m.R.{ { k.I.I.N._.$X_.v.D.| #XX.s.1.a.&.&.6.=.Y 6.=.#.<.6 / c.l.| `.$XI.M._...W.W.oXo.R.#XoX XR.S M.%X_. X_.%X#X%XV.oXR.S.D A N.T.Z M.A o.-X,X<X,X:X;XU.R._.o.v.y.a.#.6.*.< ( , ! 1 a d V z d s [ Q ~ W L L E I L 8 I 2.#.J T e.S.'.m.R.@XG I.qXvXvXmXxXkXjXlXsXzXkXsXcXcXcXcXkXzXjXMXMXnXvXMXvXzXdXvXcXsXkXsXsXsXzXwXrXgXkXY.O.o.",
"R.C.M.d Z S M.tXrXsXzXlXlXcXrXtXlXsXrXeXaXsXaXsXkXsXaXdX8XwXeXlXeXtXrXtXgXvXzXcXtXtXgXNXrXrXrXgXrX8X:X4X,X<X,X,XrX,X<X8X4X:X3X;X-X;X:X,X0XeXgX<X,X-X,X<X0X8X<X:X4X;X:X:X;X;X;X,X8X,XOX_.C.uXuX_.v.t.D.S.'.I.R.D $XfX`.l.z.Z.y.| a.h.i.6 0.=.6 <.2.J 4 U / i.c.b j. XW.I.'.R._.&X$XC.S W.D _.&XuX_.2XW.T.uX..x.b.k.C.C.b.T.I.S c d N.d A B <X<X:XE.G I.R.iXT..Xp.a.Y 4.E , s a a d d N N z d s s a 3 ! W < W < < ,.$.-.#.4 & &.c.'.I.I./.].fXNXMXmXmXvXxXcXlXsXsXkXsXkXvXmXlXkX8XcXnXMXvXmXmXzXkXdXsXsXsXsXzXlXnXlXvXrXxXNXD C.R.",
"R.M.O.D z N.c zXrXgXxXlXzXlXrXrXrXkXhXjXsXjXlXsXrXaX:XdXzXsX,XvXqXrXlXeXtXlXcXxXqXqXqXlXqXqXeXtX8XwX4X9XqX:X<X<X8X,XrXqXrX{.}.{.}.;X,X<XeXeXeX<X,X,XqX,X8XeX8X<X,X,X:X:X;X-X;X;X,X,XR.'._.R.M.@X{ { u..XfX_.6XW.I.'.fXv.H.iX6Xk.F.e.e.%.U =.%.5.U #.J 3.4 e.u.b.F.Z.uX'.M.Z.S.S.&X@X#X6X X'.T.R._.W.I.n.R.F.{ { k { k i.t.F.A.N.N Z m.B d G ,X/.o.U.U.oX&XuXF.f.1.#.#.' ! 2 1 d V V V z d z a p 2 2 s s 2 2 : < 6 ) #.I P & 4 { | T.N.o./.mXmXmXmXmXmXxXcXlXtXsXsXkXnXvXlXkXkXkXvXnXnXvXvXcXmXvXdXzXkXvXkXNXnXBXMXvXhXjXyXS.x x ",
"oXW.Q.S A t v sXsXtXlXzXlXlXsXrXrXfXkXlXjXjXlXwXrXwXdX4XsXsXwXrXrXqXrXtXeXlXxXeX8XqX8XeXlX<XgXvXrXrX4X:XrXrX,X8X8XtXrX4X:X4X5X~.~.;X,X,X<XeXeX8X<X,X0X0X,X8X<X<X0X<X,X:X-X}.-X-X:X<X^.>X).#X'.C.d.{ v.j.oXn. X..m._. Xv.F.#XoXoXR.b.{ h.9.2.) #.T P ,.e.&.T J { A.y.| j.v.| k A m.N.C._.R.P.#XC._.$X$XI..Xi.&.J $ 8 6 > , { i.z.O.U.N.R.'.O.o.'.R.O.N.oX'.2X| 5.6.#.J Q +.[ d r m H V ..d s d z a s s z a a 2 Q I %.%.#.&.&.9 z.n _.U.S o.jXMXmXMXmXxXcXlXlXrXsXsXkXkXcXvXlXrXkXkXvXMXMXmXlXkXmXcXnXsXNXNXMXnXnXkXlXxX].).].N.M.",
"_.`.6XI.A A qXrXtXkXjXjXjXlXjXrXgXkXcXlXkXjXsXrXwX9XwXjXjXjXaXaXwXqXsX3XsXlXxXzXjXlXrXwX8XqX8XeXtX,XwX,XrXrX:X4XeXjXxX4X}.:X[.[.~.-X<X<X;X4XeXqXeX<X8X,X8X<X,X<X8X,X,X:X{.{.}.;X,X<XqXQ.$XC.`.| n f.| D.#X6X_.W.S _.6X).$XR._.$X XH.u.h.9.2.5 %.0.T ) &.P #.4 # } { | j.r.b.F.C. XoX X6X6Xn.$X%Xo.k.F.z.t.J ;.T 6 *.P T $ 8 K i. .A D R.N.T.n.@X_.+XuXD z.} R *.8.6.W < 2 j x M C C f G V N m d a h h s p a - - L K I Y I K 8 y.o.o.o.C.Z rXNXNXNXmXjXlXxXkXrXdXsXsXzXzXcXnXcXzXcXnXcXxXxXMXvXkXvXcXnXMXnXnXMXsXcXmXmX!._.O.U.S ",
"n ..m.C.m.B sXrXsXsXcXlXxXlXjXtXrXsXlXlXrXrXfXtXsXdXwXwXjXaXaXwX4X3XzXrXtXvXvXzX8XcXrXjXrX8XjX8XcX4X-X:XrXqX<X8XgXeXjX8X[.{.[.[.4X;X<X<X<XeX0X0X<X<XqX8X<X<X<X:X;X;X-X;X}.{.}.{.,X4XqXE.6X6X_.F.| y.v.x.F.$X).$Xo.oXR.R.oXuX'.6X&XR.D.U P 9.4.5 7.5.T 8 P 2.#.# T 8 } { 9 k b.Z.C.C.Q.C.+X#X*X).C.| } Y ;.Y :.*.T P =.#.^ 9 9 D.D.z.k.j..XD D n R.).| l._ ;.8.*.Y ) ` ~ s b z H H u M G V V V V v d z z s p O O 7 ^ T #.$.^ r.V.].o.C.B tXvXmXNXmXlXlXlXkXkXfXsXkXzXsXnXnXcXzXcXcXxXvXkXMXnXvXzXMXnXcXcXzXnXnXzXNXMX].#XU.C.&XR.",
"_.%X_.R.n.n.sXsXrXsXjXlXlXjXtXrXrXsXrXsXjXrXsXsXfXrXjXaXjXsXjXdXwXwXsXzXsXtXhXmXtXrXcX-X3X8X0X8XrXrX<XrX:X<X8XtXkXrXwX;X[.[.[.}.;X;X4X8X<X8X,X:X,X,X8X8XqX<X8X,X8X4X;X{.{.}.}.{.,X<X<X>XoX_._.).m.b.c.X.F.n.S. XC.m.W._.$X&XoXM.7XV.e.2.:.3.%.U K 2.*.Y 4 #.U T #.%.T &.k i.x.y.S.m.dXx.C.S v.D.u.{ & $.] < L ( U U E #.Y e.{ n { } { { z.{ u.8 } t.e.J :.R ~ 3 ! : 3 ! j v v M H M H C V m B.H V N h h a s 2 3 I U I Y :.) A.Q.M.n.N.C.A <XvXxXlXxXkXjXkXrXzXsXsXzXcXzXcXnXnXzXkXcXcXnXvXnXnXnXcXcXcXkXzXsXrXnXMX3XE.oXoXN.N.$X",
"oXO.M...1XsXaXrXrXgXlXjXgXgXtXtXrXaXjXhXkXkXsXrXjXjXjXjXsXkXaX8XlXlXjX4XtXlXrXtXlXcXzXsX4XrX4X;XrX,XwXrX<X8XlX<X8X8XrXwX3X[.[.}.;X,XrXqXeX0X1X-X:X,X4XqXqX8X<XqX,X,X:X8X:X{.}.{.-X,X<X<X#XU.oX'.).S.oX..F.A..X X_.@X_.n.%XoXoX..S.=X%.6.4.%.%.5.Y <.4.#.%.2.6 $ =.P 8 / p.i.b.V.C.R.Q.&XQ. Xx.d.4 =.<.K < < W W I > 1.U P R E / 9 5 Y 4 Y 9 4 Y Y 6 -.=.E W , [ [ [ 2 j j v c c H M H G G H CXG V m d s s } ( ( 4.P R $.Y i.k.@Xo.S v _.B B >XvXjXcXzXzXjXsXaXaXzXzXzXzXzXnXnXnXvXnXnXfXcXxXnXvXsXcXkXfXcXwXzXzXzXN._._._.R.N._.",
"oXW.m.D dXaXsXaXtXgXgXsXdXdXrXwXwXwXaXaXsXkXlXjXjXsXsXjXkXtXjXjXkXsXsX:X0X4XaXjXtXzXtXcXrX3X4X>X8XtX4XeXeXqXhXgX8X,X,X9X3X(.{.{.1X<X8XeX8X8X,X1X:X,X,X4X8X8X8X8X:X:X8X:X:X3X,X}.:X,X<X4XW.N._._.U.$X`.oX).| j.Z.oXR.oXn.m.uX'. XA v.:.*.=.I ^ I <.^ 7 K %.5.<.# #.#.9 8 / / i.b.S.&Xm.G R.S.c.e.# 6 ^ < Q ( > W , < J I I *.J J I 4 P U 6 -.T <.-.& J _ > 1 p p s s a z h x M M N M G @.G CXCXG N V [ [ Q I _ *.:.J U / i.R.oX_.oXI.o.C.z d Y.kXzXjXkXtXsXaXaXdXaXrXzXcXcXcXcXcXvXnXzXzXcXnXcXrXkXkXdXkXwXrXwX9X<XA M.D oX].#X).",
"M.D B.Q.jXsXjXkXlXjXsXrXwXwX9XwX9XrXwXrXtXtXsXjXzXlXtXzXcXjXkXjXkXkXsXkX4X3X9XaXsX4X8X8XlXrXwXsX8XjXsXtXeXrXwXqX,X,XeXzX3X(.[.,X,XqXeXeX8X,X:X;X:X:X:X:X;X4X,X,X;X,X4X,X,X,X;X8X:X:X0X4X>XM._.&X#X$X#X#XS._. XX. XoXW.%XoXT. X].A.c.) 6.#.I ^ 7 L 2.K I #.#.5.#.,.$.U % $ Y P 8 z..X). Xm.{ e.:.=.T W > , , s O * 3 < I Y 9.5.E #.E R ) q 7 7 ^ L , < ! a d u r e e i i M C M m M M P.H G G G H V z [ 2 L 5.0.*./ D.D.C.oXM.6XR.R.C.M.C.C.F jXjXjXkXsXrXwXrXwXrXkXzXlXcXnXcXnXcXzXsXcXsXzXzXlXkXaXkXzXwXwXrXzXwX@XO.+X).S.'.@XO.",
"_.Q.N.M.C.OXjXkXlXjXkXwXwXwXdXwXwX9XaXaXtXtXtXzXxXlXtXsXlXlXrXwXdXdXsX|.kXsXfX0X4XwX9XwXqXrXwX8XxXmXeXvXqX:X>XrX,X8X9X3X{.[.3X;XeX8XeXxX0X<X,X:X:X;X}.{.}.}.|.|.3X4X,X:X:X,X,X:X:X;X3X8XOXM.N.C...C.6X+XuX`.pX`.'.n.n. XC.).n.fX#Xf.1.<.%.7 _ Q L 7 %.I ^ U 5.=.9.=.#.$.#.2.6 $ / t.z.F.y.f.%.#.2.>.7 3 1 [ W : - : 3 > E R 6.I %.3.K ( < : > 3 2 : 1 a i i u r + + y i r u N G M G P.G G G @.G v z [ : J Y 6.h.H.*Xo.U.m.I.N.S.n.S.W.S S S <XfXwXaXsXsXtXwXrXlXsXkXsXaXkXkXsXdXcXzXcXcXzXzXsXsXsXzXrXsXlXsXtXgX@XoX).&XR._._.6X",
"#XR.o.C...z eXgXjXjXjXaXdXwXwXwXwXyXaXzXjXgXzXlXlXlXkXjXzXtXsXtXwXdXdXsXrXsXsX9X:X,X,XrXqXrXtXqXgXMXrXrX4X:XrX:X3XwXsX5X[.-X-X:XrX8XqXeX8X8X8X,X:X4X}.,X:X{.:X;X4X8X:X4X:X;X:X8X8X:X,X4X>X>XQ.%XW.S A C.$XV.x.S.I.oXI.W._.$X+X_.F.i.<.I I I >._ _ W 7 , 2 , W #.-.5.I U % -.2.4 T I 8 e.e.%.:.=.,._ ! ! 2 3 [ [ * 1 2 < K R *.< ^ L 7 W Q ! 3 1 p a a d e u u r r p z b j u u m N G P.H H B.G G v 1 s ! ( 5 ,.g.F.oX$X$X6X_.#X,XsXqXQ.X.M...OXlXaXwXkXkXjXlXcXlXlXlXkXsXaXdXdXbXsXzXaX9XzXsXzXnXnXzXrXkXtXgXlXlX]...'._.#X6X.._.",
"D I...Z m.I.rXjXjXjXlXjXgXrXrXrXtXrXaXjXjXjXjXlXjXjXcXkXsXjXtXlXaXsXrXsXsXsXsXsX4X|.wXwX:XcXsX:X8XlXlXqX;X;X,X,X,X<XkXwX:X;X,XwX<X8X8XqX8X<XeX8X<X8X1X;X{.9X5X;X5X3X;X;X;X-X-X-X;X,X,X,X8XOX^.&X6X&XT.W.I._.R.uXR.iX'.R.U._.S.`.H.p.0.$.2.I L L Q > 3 1 * 3 Q : L 5.E <.,.6 #.U 6 #.%.%.&.U U 5 _ _ Q ' 3 p - a a a 2 3 : Q ` I W ( < L W ! [ b i d y u u i s y  .! } v  .m r u p m H CXH CXG @.X.d s W ( R J i._.U.W.U.m.R.2XtXdXzXsXOXD d >XjXrXdXaXkXvXcXxXxXxXvXcXlXkXsXsXlXkXjXwXwXaXkXwXsXkXaXaXzXrXkXlXjXrX_.].7X_.oXB S ",
"x n.v M.z jXtXjXxXlXlXjXjXjXsXsXtXsXsXfXjXgXlXcXjXgXjXtXrXjXrXwXcXzXwXlXkXlXaXsX9XwXrX9XtXwX8X8XrXcXrX8X-X:X,X<X8XgXrX9X-X:X9X,X<X<X8X8X<XqXeXeX8X<X:X<X:X;X3X5X;X-X|.{.;X5X{.:X{.8X-X:X,X;X:XE.+X2X#XC.).&X).+X X%XoX#X*X).l.G.D.{ P =.5.4.I L 3 * - [ - j ! 3 1 , E K >.<.4.5.6 $.E ) -.,.J 4.*.-.( ( W s a d ; p a 3 3 2 Q ( W < Q L ' W 1 a M u r + r i s < R 0.3 h h m m s s z H Y.B.P.G n.[  .s 1 L *.& / $X$XoXR.I.qXjX8XwXsXsXnX+XT.OXkXjXwXwXjXtXcXvXvXxXlXlXsXrXsXaXaXkXfXwXkXkXaXwXwXwXrXrXrXrXvXzXzXqXwX>X>XM.uXoXoX",
"R.N.v A tXjXjXlXjXlXvXjXsXaXsXsXrXlXlXlXjXhXkXcXlXjXrXlXsXkXrXzXlXrXaXyXxXkXzXaX:X9X9XwX3X8XwX,X8XsXsX:X8X1X,X,XgXrXrX}.4X8X<X8X<X<X8X0X<X0X<X8X,X:X;X;X;X4X:X:X-X}.3X[.3X3X8X}.;X,X3XeX,XqX,XeX1X{.N.M.C.oX6XR...+X#XS.A.XXJ.u.e.&.7.Y #.9.6.` 3 1 - s 2 ; h 0 a : ) Q J #.*.=.,.#.#.5.#.<.5.2.8.E ( ' ~ s y d O p a 3 1 ~ L W ~ W W ` 7.! s z M u u i u u -.8.Z.G.6.P j 2 Q 8.+.i G P.G B.G o. .d [ s W Y -.> ).o.o._.4XkXjXrX9XsXsXsXwX1XkXrXrXrXkXjXlXvXmXMXmXxXlXsXdXrXrXaXaXwXwXaXjXgXlXrXrXsXaXsXzXwXdXrXyX@XlX2XN.S._.#X",
">X@X^.wXjXlXjXtXgXrXrXrXrXrXwXrXrXtXzXlXrXrXjXkXlXsXrXsXjXkXkXzXzXsXsXsXzXxXfXrX(.,XzXzXwX}.tXsXwXwXwXvXgX:X:XrX,X8X,XeX:X<X8X,X<X<X8X<X<X:X,X:X;X;X8X8XwX;XOX3X-X{.;X;X;X;X3X;X,X8X3X,X,X,X,XqX4XqX:X`.B `.iXuX_.N.uXU...).D.a.e.&.e.#.5.1.( ' 2 [ 1 j t g ; t y ; 2 L >.R _ 8.4.T U 2.7.Y 2.#.w.0.R ' ! 2 e y X p p 3 3 1 W L ` W L ' 1.W s a f u p u 2 Q J uXiX].F.;.8.8.:.;.b u G @.@.o.P.P.o.[ p a < I 9.K c.V.I._.C.rXdX8X4XwXdXzXjXrXjXjXaXkXcXcXvXcXmXvXvXcXcXjXfXsXzXzXzXrXrXaXlXkXmXjXsXsXsXcXjXrXaXzXaXOXtXzX7X<XM.].",
"lXlXjXlXgXlXzXjXdXrXwXwXwXwXrXdXtXsXrXrXyXwXwXrXrXrXwXrXsXsXaXlXlXjXjXkXjXwXjXaX/.rXzXzXkX4XeX1XjX,X,XlXtX8X:X:X<XgX:X:X,X<X8X,X,X<X8X8X4X,X:X;X:X8XtXqX8X8XwX9X{.5X5X|.5X:X;X4X3X8X;X;X:X,X8XgX8XqXeX%XU.m.I.%X@XZ  X_.m.Z.G.g.e.p.g.^ P 1.~ Q 3 2 d l c g g t r e a a W L > , &.%.5.#.<.6 ,.2.5.0.P _ 7.3 O i O s a 1 1 3 ` Q ' >.K ` ' Q 2 p u e w e 1 1.).'.].+XW.R.2X'.].-.2 r G G @.B.m.B.o. .- 1 2 3 Y Y { x.I.m.N.wX9X4XwXwXsXzXlXlXgXjXlXsXjXsXcXvXlXlXkXkXjXjXkXjXjXkXsXkXrXaXlXlXcXlXlXcXkXxXjX9XcXaXfXOX<XkXxXlX>XxX",
"lXjXlXlXjXjXlXcXdXwXwXwXrXrXaXlXlXsXtXrXwXrXdXtXaXrXsXtXrXfXkXkXgXlXkXlXaXjXaXaXwXzXzXlXsXkXlXlXjXwXtXlX:XsX,X:XqXhX;X<X8X8X<X,X:X,X,X,X<X4X:X3X;X:X8X8X,XrXwX:X{.{.;X5X{.3X8X:X8XeX3X;X:X:X8X8XOX<X>XuXU.M.o.#XuX6X+XM.6XF.G.p.P P 6.=.5 ^ W ! j a g M M f f g u r = c s ! 3 , < 6 5.2.#.*.4.#.,.6.4.< ' [ O s O a 2 * - - 3 Q _ ( ' _ 1.' W  .h y e r J R V 0X).*X_._.'.XX@Xu.' M m CXD n.D D ....[ 2 , W $ P i.n T.N...>XdX4XwXdXsXkXxXcXxXgXfXsXkXkXkXcXcXxXlXwX9XjXjXkXwXjXsXrXrXrXjXcXmXlXcXzXjXfXzXwXwXjX4X4X].lXxXlXlXlX",
"lXlXlXxXgXtXrXaXaXaXrXrXrXtXsXlXlXsXsXrXrXrXrXsXkXtXtXsXaXwXkXkXcXsXgXkXrXcXkXkXzXgXmXcX<XvXzXvXlXgXtXjX:X8X,XgX<X:X,X,X<XqXlX<X,X:X:X;X:X:X:X3X8XwXjX<X8X4X:X4XwXdX9X9X4X|.9X;XrXrX;X;X:X:X8XE.X.^.>X'.uX^._.$XuXoX`.x.x.F.` 6.Y 0.4.7.W ! 3 j j f M N M M f f g r r l s - 1 1 - > 8 <.2.I 8.*.4.R E R ( _ ~ [ 2 ; - 1 1 2 * 2 3 > W _ 1.' >  .b r e m : $ oX'.$Xd.a.C.F.;.7.Y ~ c G H v S B X.V [ [ W Q -.] # / l c D N.Z :X9XaXsXjXlXkXlXvXgXeXaXsXaXkXjXlXcXzXjXwXkXjXjXwXjXkXdXwXrXgXMXMXnXmXcXzXrXwXkXaXrX/.^.1XlXrXtXjXlX",
"lXxXxXxXlXgXrXrXrXrXrXsXlXsXgXlXlXsXsXaXrXdXtXlXlXsXsXzXjXaXrXjXlXsXcXcXrXvXmXcXhXlXlXxX<XmXxXmXmXcX:XrX:XjXrX,X<X,X,X:X<X8X<X8X8X:X-X}.}.;X:X,XtXwXqX8XqX3XqX4XwXwXdXwX4X4X;X:X8X3X3XeX;X,X>X].^.>X2XM.Q.,X,X@XR.Q.c.H.i./ Y :.=.J ,.Q 2 s h h j N N H C C M f g g r b h a 2 2 > _ Q T E I <.=.9.=.J 6.4.<.( ( [ 3 2 1 s s 2 2 2 3 ~ Q 3 } 3 a a g r m > $ 6X].O.p.R <.5.$.I ~ + e w B.d D b s 1 1 [ W ' :.] L | &XM.Z B Z.A x ~.rXrXkXlXxXxXjXhXaXsXjXjXlXlXlXzXjXE.jXaXaXaX9XsXrXtXlXcXvXcXzXzXtXsX9X9XwXwXwX9X9XwXwXwXrXjXxX",
"lXlXxXcXzXrXdXwXrXdXjXhXjXjXjXjXlXtXrXrXrXsXtXlXlXjXtXkXjXrXaXwXlXzXcXzXcXaXzXcXrXkXeXkX0XeXjXlXvXjXjX4XeX,XjXqX8XrX4X|.:X4X8XsX,XrXwX,X,X8X4X4X,X9X8X,X;X3X-X:X8X9XjXwX8X:X,XaXaX,X8X8X/.-X^.:X4X8X$X_.'.B.,X$X6XW.z.u.e.=.5 4.5.T ( ! d y t g c M M @.@.C g g g u u b t ; h 0 > > _ _ Q P Y P *.0.=.# 5.0._ ` Q ~ 2 O 2 3 s s 1 1 ~ ( W [ s [ z u X m > P oX'.2X].& Y R ' W d t u w M v | j  .! < 7 #.<.$.#.P k x.M.n.z z z x S wXdXrXkXvXvXxXrXrXrXqXrXlXxXlXjXP.P.sXsXrXwXrXrXaXaXjXrXrXrXwXdXsXsX4X9XrXgXtXsXwXwXdXwXdXsXjX",
"jXtXgXjXtXsXaXrXrXrXjXjXjXjXjXrXsXlXsXjXsXlXlXlXlXjXjXkXjXjXjXrXrXwXjXcXcXeXkXjX8XzX8XrXhXrXmXgXrXjXkXeX8X1X,XgXlXrXrX{.4X,X<XrX,X,X:X;X4X3X:X4X9XrX;X5X-X5X4X;X3XwXeXrXqXsX,XB.B o.E.o.n.B.E./.B.!._.$XuXC.R.T.E.j.e.e.Y *.I 7 ) K a l i f g f g M M M M M c g g u g k b h a 3 3 < L I P 6.s.u.} a.s.&.%.-.<.` ~ +.[ s 2 - 1 - - 1 [ [ ~ 3 ! s x N + ! J ) Z.T.'..XI W h m + + u w u t | 9 3 3 7 ^ %.<.5 & U &.e.j r.A T.D n.n.z 4XsXfXxXxXxXlXjXjXkXtXjXvXvXxXtXv z rXlXjXsXjXkXsXcXzXvXsXdXwXrXsX9XwXwXlXlXlXjXsXrXrXrXsXjXlX",
"gXtXsXlXsXsXrXrXwXwXaXfXlXkXrXwXjXtXtXsXlXlXlXlXgXjXjXrXjXkXfXjXaXdXrXsXrXaX9XkXzXrXwX;XrX;XvX3XeXtXzXjX:X-X:X<XcX8X|.,X:X4XtX8X<XeX:X8X8XwX8XrX:X4X;X3X|.3X8XwX}.qXkXrXsXrX4Xo.Z ..C.R.C.o.M.E.W.o.W.R.+XoXW.@Xc.%.J *.P R Q 2 0 t y u g f f f M @.M M @.M M M M f c @.h 2 ! [ ~ Q 8.R :.3.f.z.D.z.y.a.s.0.4._ ( Q 1 1 1 O - p - 1 - ! ` ~ ' 2 c r r t Y p.#X_.O.| ;.m M r w N r r c a n  .[ W ~ I E >.%.J 6 U # 9 i.r.R.m.C.A D ~.aXsXxXxXlXlXlXjXjXjXxXmXxXxX>XB n.rXcXxXcXlX1X>XS OXlXkXrX9XrX9XyXrXtXlXcXcXlXjXeXrXrXgXjXjX",
"sXrXtXlXlXtXrXwXwXdXaXlXxXjXaX9XrXjXlXjXlXzXxXgXtXtXjXjXaXrXrXsXsXrXsXzXjXdXdXaX4XsXsXsXfXaXzXrX,X,XaXcXdX|.;X,XtX:X:X8XqX<XjXtXeX8XqX8XwX8XwX,X8X8X3X5X4X4X8XaX:X8XjXjXrXrXS C._.R...W.C.m._.'.W.'.D B.I. XF.F.{ J :.$.< ! 2 a h u u u f f M f g g M g @.C M M f c t @.h a a 3 W _ >.*.<.D.*X)..XF.).F.y.-.4._ ' ( [ 2 1 1 a a a [ s ! ( _ ` 3 z f u i > Y 1.XXg.Y : V H C @ i h h j s a b  .3 L ( %.%.%.U 6 $.P ^ n S.`.R.B ..n.rXjXjXvXkXcXcXxXlXxXxXvXmXxX....O.C.tXtX>XO...F x A ^.}.dXwXwXwXwXwXtXtXgXxXzXmXjXwXdXrXtXjXtX",
"sXjXlXlXlXrXwXwXwXrXsXlXjXgX9X9XrXsXlXlXxXxXlXjXtXsXsXrXaXrXsXrXaXsXsXlXtXrXwXwX[.kXjXsXrXlXsXwX:XjXcXzXtX{.:X,X<XeX<XrX8X<XlXhXgX8X<X<X,X,X,X,X,X3X,X8X;X5X;X,XlXrXxXqXqX,XZ R.$XC.T.o.c._.o.o._.&XuX].).D.k e.Y *.I Q 2 1 t u h c g M M f M M M M @.g M M B M v c a G b a c * < L R & d.t.&XR.6X$X*X XJ.P & =.,.3.' +.2 1 s a 1 [ [ W } ! Q W [ N r u a t : 5 < [ H C H @.H @ - ; a  .| s s 3 7 W >.T %.,.6 J ) ` { A k.m.x v aXaXkXgXlXlXlXlXlXxXlXlXI.4XI.O.S OX1Xo.P.>XS n.m.......B W.E.tXdXsXaXtXlXsXlXzXbXrXrXrXrXrXaXsX",
"jXzXxXxXlXaXwXyXrXrXsXsXgXtXrXaXrXjXlXlXlXlXjXkXjXrXrXrXrXdXdXlXsXsXtXlXsXrXfXsX3XrXsXzXrXlXsXwX-X,XzXlXlX<X,X,X8X<X<XeX8XjXtXeXtXjX8X<X:X;X|.3X4XwX8X3X3XwXwX9X0XvXlX1X0X,XS I.C.x 2Xx.t.{ x.P.C.E..Xu.` ] %.#.-.2.Q W a r i g c c c @.C M M M M M M M c C v h v b z Z d y l a 2 < *.:.t.O.Q.+X&X$X'.W.fX<.Y 6 J R 1.~ [ W [ s s 2 W ~ W ! [ 1 j v u g i C M C S @.H C C M C t a 1 2  .s [ s 2 > ! W ( U #.6 U 9 D.k.x V.Z...c rXkXsXrXrXtXlXgXjXcX].<XM.C.M.C.D wXkX|.I.x o.Z ..P.A B o.D A /.zXlXsXlXlXsXtXwXrXrXrXwXwXwXrXsX",
"xXxXmXmXlXsX9X9X9XwXrXrXsXrXsXrXrXaXtXlXlXgXdXdXdXwXwXwXrXdXdXwXcXlXlXlXlXtXrXrXsXsXwXvXrXzXsXqX-X,XcX<XzX<XrX<X8X<XlXgX8XqXeXeXqX8X<X:X;X-X4X8XtXsXwXdX8XwX:X<X8XxXB.C.>Xm.o.W.6X..X.{ &.} { { c.F.| I R Y & =.L W , - g f i u g M M g g M v M k M M M M N C C z h d X.d a n j 2 < Y 8.{ Z._.m.m.iX$XW.R.pXg.;.8.P _ 4.+.! } s a 1 ! ~ ~ s [ 1 2 z g u f C x N Z G C C M M f n  .[ W 3  .' ` W 7 _ #.0.-.:.U U / G.`.x.V.C.R.C.wXsXsXsXsXjXjXjXjXlX].P.B A S.4XjX9XaXjXOXC.R.z OXU.T.z t D S B.jXlXlXlXaXsXrXwXwXrXsXrXwXyXrXaX",
"lXxXxXxXkXaX9X9X4X9XwXrXsXtXjXkXrXtXsXjXsXwXsXdXrXrX9XwXwXwXwXsXsXcXzXlXlXsXsXsXsXrX;XaXsXwXlXsX,XlXvX:X<XeX0X<XxX<X<XqX8X8X8X<X<XwX<X,X;X8XwXsXjXlXlX8X9XeX>XlXgX>X..C. XOXN.C.fX| f.5 4 6 $ U &.e.) $ P < W W : s j y t f m M g g M M M @.C n k x M g M N M x c t s h a a b s : I R p.| Z. XC.R._._._.W.&XH.T 9.5.J _ ' Q ( ~ ~ [ W ! s W  .! j x u g C N c z Z G @.C C M M n  .' ~ ! ` ' ^ 5.2.E #.0.8.Y &.f.i.c.Z.| .Xo.R.m.m.jXjXsXsXlXlXcXgXlXcXeXB./.lXrXwXjXjXaXkX2XC.A 2XOX_.U.m.B B /.gXjXjXsXsXsXrXaXsXlXkXaXaXrXrXtX",
"lXgXsXlXtXtXrXyX9X9XwXrXaXsXlXsXrXsXtXtXrX9X9XyXrXrXwXrXwXwXrXaXlXxXxXxXcXcXlXlXkXrXkXtX,XjX<XzXlX<XxXxX4X4X<X<X8X<X8X8XgXrX,X,X,X8X9X,X;X:XwXtXrXgXgX8X3XwXwX4XkX].m.V.oX&XN.m._.XXe.) -.T $ P =.$.I I ~ : 1 - 2 y h t g f M M g M M M H M / z 1.[ M i M m m f b j < 3 2 1 d s 3 < J &.G.z.#XM._._.fXoXR.M.F.u.Y 0.8.*.*.>.^ _ ~ ' +.' W 3 ! ! [ s i M H Z x F Z o.@.G H V N h 3 _ _ ( Q I 7 <.5.R Y Y T >.f.u.u. .A.x.E...O...I.gXjXlXkXlXlXjXxXxXjXxXlXcXkXrXrXwXrXsXjXsXsXwXrX>X+X).M.m.n.dXjXsXjXlXaXaXsXjXjXkXjXrXrXjXrXgX",
"gXgXlXsXsXtXrXwXwXwXdXrXwXrXsXsXaXrXsXrXwX9XwXdXsXtXwXdXdXdXrXtXxXxXbXcXmXxXxXxXjXsXjX,X<XkXjXcXlXrXtXlXlX,X,XjX<X,X,X0X8XjXE.-X,XwXeX8XrX3X8XeXsXjXtX8X8XwX4X:XqXjX@XC.o.$XR.+X..F.D.I P Y $.L U Q < < ! a p a 2 h h l g M M l g g f g M 9 0.-.6.8.s b m i m f h | ' ' W W ~ < I 4.5 9 a v.F.V._.W.+XuX XG.G.f.J R $.8.4.9.0.J ' ,.' +.! 1.} ~ W j  .z i v F S G CXG H G G B d 3 ( R _ %.#.6 5.*.3.6 6 # 4 | v.A.U._.M.I.d ..C.P.jXlXjXjXjXlXxXlXlXlXlXjXjXjXjXsXwXrXaXjXtXjXlXkXn.D n.N.D W.wXtXsXtXrXaXdXtXfXjXxXxXlXvXkXsXjX",
"sXsXsXsXsXsXwXwXrXdXrXrX9XwXrXaXtXsXsXtXrXrXaXsXsXtXrXwXdXsXsXlXlXiXlXxXvXxXcXcXlXrXrX{.jXgXjXlXlX,XjXrXqXqXY.:X:X<XlX,X:X;XS o.3XrXeXjXrX<X8X,XwXgXeXqX:X3XrXwX;XgXkXqXB uXW.oX$XF.y.1.=.R Y L > 2 s - p s t t y g g l f f M g g g f g c L h.a.g.3.0.' } M f i a 3 ` ' Q < 9 >.I Y 5 ^ | h b j.b `.C. XoXH.y.f.a.%.p.4.,.5.9.P =.L ~ Q Q _ _ ` [ 1 s h t y n Z O.o.G V V G H d j < K ,.1.:.5.I &.a.f.) } u.j.W.).M.C.'.....t @XjXjXgXrXrXgXlXxXxXxXlXlXrXjXjXsXdXwXwXwXrXtXgXxXzX_._.C.D n E.aXsXdXrXrXrXwXaXaXjXlXlXxXxXlXtXsX",
"rXrXrXsXtXrXdXdXrXjXlXtXdXsXsXdXsXrXsXsXsXdXsXsXlXsXrXtXsXlXcXcXvXjXxXxXcXcXxXxXzXjXjXlXcXkXrXqXlXqXsX8X!.d B.!.8XrXvX;X;X-XE.d ,X4X,XjXjXrX,XtXwXrXrX,X5XrXrXrXrXjXrXoXZ C.$XR.@XC.b.*.5.T <.Q 3 - a - a d d u u t t c f x v b b g g } ' L 6.=.< I -.0.! d u i j , E _ 1.L L >.*.J Y a.l.k._.R.V.S.o.R.XXD.y.D.d.h.e.e.&.e.E 6.=.Y ;.6.Y Y I *.' W s s b j a b X.X.F G N M m i  .( 1.E 4.<.<.1.f.u.e.g.t.j.| R.oX].oXU.>X7X!.rXjXrXjX8XjXlXlXgXxXlXlXjXkXsXsXtXaXwXsXwXtXsXzXzXzXQ.W.S I.o.E.4XsXrXrXrXwXwXrXrXhXlXxXxXxXjXjXjX",
"rXrXrXwXwXrXaXaXsXlXlXsXrXtXjXjXgXjXjXkXsXaXjXjXjXtXlXlXlXlXxXmXxXxXjXjXxXvXxXvXcXxXxXxXlXsXrX;XjXlXlX8XN.Z }.tXtXlXcXY.,X;XkX,X9X8X9XwX4X,X8X8XrXwXsX4XrXsXtXtXgXjX4XoXR.oX&XoXR.H.t.J 8.R Q 3 2 y t l i l l r g t t u g f c h d u p d L < Q _ s a  . .9 h u t [ ( ( L >.=.T $.3.#.% &.b.x.&X6X@X&XS.k.).F.v.b.i.H.D.e.u.D.G.6.9.;.8.7.5.=.> =.>._ ! W ~ +.! < [ [ b  .A v d t a ! ~ W *.<.$.4./ 3./ u.F.R.$XQ.o._.T.U.jXzXjXjXtXlXrXrXaXsXjXjXsXlXlXzXsXsXsXwXwX9X4XdXrXtXlXzXrX_.).A D Z.P.sXwXwXrXdX9X9X9XwXrXgXlXjXxXlXjXgX",
"dXrXdXdXwXwXsXsXgXlXxXlXjXgXjXjXjXxXjXxXlXfXjXjXsXjXlXzXlXlXlXcXmXxXxXxXzXzXvXcXzXxXcXcXlXsXfX,X:X8XlXzXOXZ 7XqXZ B D Q.,X8XkXjX;X|.3XdX3X,XwXrXtXtXrXsXjXsXjXtXhX8XwXN.%XC.R.#XX.f.J *.6.;.>.W 2 t F l d z t l t r r r g g g r p r i d W s m N H c i u u u g s 2 ' Q ` 2.R 4.U U $.$ K z.oXn.6X6XuXXXR.uX&X6X#Xx.S.A.D.z.F.G.G.u.! g.d.s.2.T $.$.5._ < ) Q _ L , [  .~ [ a j a [ ! W W > <.4.0.6 :.Y 0 oX$XN.M.1X1XE.7XkXrXrXrXtXsXtXtXlXkXlXjXsXsXlXlXrXsXdXwXwX4X9XdXrXsXlX>Xn.m.o...Z M.wXwXrXwX9XwX9XwXwXwXtXtXlXsXkXjXgXrX",
"9XwXwXwXrXwXrXjXjXjXjXsXgXsXgXxXkXjXxXjXjXjXjXjXlXsXzXlXxXlXlXxXxXlXxXjXxXzXxXlXvXxXcXxXlXaXrXaX-X3X8X,Xn.S 9X......n...!.hXjXcX:X}.wXwXeXwX8X:XjXrXqXsXwXjXlXgX4XwXeXR._.oXF.f.&.1.:.Y E ' ( Q 9 z x z l h h t t r r e r r r + e y i m z m m f m m M f u r y a s Q W I 7.R E P =.&.4 h y.T. XN N. X XN.`. X XfX#X`.%X#X`.Q.Q.Q.].n F..XH.a.a.%.4.R *.4.=.5.7.' W Q W ,.( > 3 j 3 ! 3 3 Q I J 7.P 6 U { _.o.C.7XvXkXjXrXjX8XrX8XsXsXrXjXlXjXtXsXrXsXsXsXzXlXsXrX4X9X9X9XtXlXcXvXm.Z ^.wXwXjXwX9XdXrX9XwXwXwX9XdXsXrXsXsXlXlXgXwX",
"wX9X9XrXrXsXrXkXkXjXrXrXrXjXkXkXlXlXxXxXxXjXkXkXgXtXlXjXlXxXxXlXxXxXjXjXlXzXzXgXvXlXmXcXkXdXwXaXsX~.;X(.C.v M.N.C.B C.o.o.S hXlXkX;X4X4X8XsX8XjXrXrX8X8XsXrXtXlX,XdXwXM._.C.F.e.U =.<.E L ( Q W s [ b v h c x j h r e = u w u 0 a [ t d z i f f u m u + e t a 3 : W ( W _ 8.E T ) e.e.r.k.@X XN.T.T.Q.#XT.+XoXoXC. XoXN.N.$X_.$X$XB.G R.F.XXD.e.K.4.<.*.*.6.7.4.<._ E 7.9.L 7 ~ : W 3 : _ *.5 $.9.#.U } F.m.R.MXmXjXcXcXkXcXrXjXkXkXrXjXlXjXtXtXjXlXsXsXlXlXjXaXdXwXdXdXtXlXxXcXlXaXlXrXaXsXdXyXwXrXdXwX9X9XdXdXaXrXtXsXtXlXsXsX",
"dXsXrX9XwXaXkXjXtXrXsXaXaXsXlXkXxXjXxXcXxXlXlXzXlXjXgXtXkXjXkXlXkXjXjXgXkXkXlXjXxXlXlXxXjXgXrXrXrX9X{.W.C.R.B ..B o.z S o./.8X8X;XkX8X-XwXwX9XjX8XwXwXwXwXtXqXeXsXrXwX$X$XW.oXf.$.6.K < Q ( ~  .[ a B N m C c h a r r = r = r r 2 i i i i m d m i i f i e p 3 [ ! Q W Q _ R 6.Y 1.i.t.i.k.oX#X7XoX+X).&XF n.T.oXR.C.'.uX_._.).<XyX$X#X'.oX X*Xk s.;.-.4.Y I <.7.2.4.T ,.5.E 7 Q W Q 3 7 _ -.R > & %.%.e.o.'.Z.NXmXNXNXgXmXvXvXjXlXrXsXsXcXsXtXsXlXlXjXjXjXlXlXrXsXsXsXrXsXlXlXvXcXcXxXtXtXjXrXrXsXsXwX9X9XwXrXdXaXsXsXtXtXjXsXrX",
"sXdXwX4X0XwXrXsXrXrXtXsXdXrXrXfXjXxXmXmXvXxXlXgXtXlXlXaXrXsXjXjXjXxXjXlXgXsXsXjXkXcXlXlXkXsXsXkXdX4X;X|.@XS O.M._.C.B ..o.B E.rX3X,X,X-XwX9XdXsXkX,XwXwXrXtXlXgXrXsXjXdX$XR._.f.J P E ` ! ~ [  .b c N M f m H f g u f = r = w r p u r u m m m d m d d t d a [ 3 ! 7 < < ( I <.U 9 i.z.k.Z.7XoXR.V.r.k x.XXR.oX+XM.uX..U.%XU.'.hXqX<X{._.$X X.X=XG.d.&.T U #._ 4.^ 5.7.#.,.I J ,.*.#._ I P :.-./ / e.{ r...R.U.P.xXxXgXlXxXxXlXtXzXqXrXlXtXlXlXsXjXjXlXxXlXcXzXlXsXsXaXrXsXsXlXlXxXxXlXlXlXtXtXsXrXsXdXyXsXsXaXsXrXrXsXdXrXsXtXkX",
"jXaXwXdXaXaXrXaXsXrXrXsXrXrXsXtXlXxXxXmXmXlXtXjXsXlXtXsXrXjXjXjXjXlXjXlXjXsXlXlXlXlXxXjXjXzXzXkXdXdXsX5X8X_._.o.W.U.Z.D N.c B E.eX3X9X4XrX:XwXwXjXeX>XwXwXwXlXrXsXrXjXqXuXC.R.XX) *._ I W ! a [ l f C m { c N N u u f r r r r r u a t u m i d f z b d t 1 - 3 3 3 W Q ` %.#.2.4.#.6 &.k i.y.F.j.z.&.&.9 t.n.k. X%X_.].&XN.).1XeXeX8X4XE._.W.| M.XXpXF.} J P 2.-.6.9.T T I #.U =.$.0.5.=.6.1.d.t.e.e.i.b m.S O.,XxXlXgXlXvXxXgXvXcXwXaXsXjXjXlXlXsXlXrXlXjXlXlXxXsXsXaXrXtXjXlXxXcXcXxXlXlXsXjXtXkXlXsXzXzXdXdXrXaXrXyXrXrXtXsXjX",
"kXaXkXfXkXjXfXcXcXzXcXzXsXlXlXsXlXxXxXxXcXlXsXtXtXrXrXsXgXjXjXkXxXjXlXlXjXjXlXlXlXjXeXjXlXlXgXlXsXsXaXaXsXyX_.C..._.m.o.M.S x B /.wX:X:X-X3X9XwXsXjX4XsXsXrXsXtXlXtXeXaX_.$Xo.C.H.7.R I Q s p d u c  .a [ M x f g g g t u g g u u b s f m i m f f a h a 2 2 W W 2 Q I ^ Q U >.4.2.#.Y $.& &.{ 0 0 4 %.I 0 r.r.Q.uX..o.m.A m.8XeXqX8X8X$X&XoXoXo.W.W. XpX9 J 5.4.4.4.2.0.#.<.5.:.U 5.&.1.%.z.Z.l.i.r.S.C.o.x B gXtXtXrXtXlXlXxXmXrXsXzXlXsXlXtXrXrXsXjXsXjXgXjXjXdXdXrXdXtXtXlXxXcXzXlXlXjXtXsXrXlXjXlXsXaXrXwXrXrXsXzXzXrXzXcXlX",
"jXrXrXkXzXvXxXxXzXkXtXsXlXzXlXsXjXlXlXzXzXzXlXzXaXrXdXaXfXkXjXjXlXjXlXjXlXlXcXcXxXjXjXjXsXrXjXkXlXsXzXrX;X{.C._._.).R.B M.o.B z B.4X3X4X|.:XwXrXsXjXsXjXrXjXlXlXrXeXdXrXaXqXuXR.).d.3.6.~  .B i N b +.j c m N u u y u g g g M f a ~ +.l f m z m i a  .! W ( L Q _ I Q < L 7 ,.T $.6 =.I & =.:.Y J % 9 I { D.y.C.o._.W.C.D :X8XeXqX<X,XOXW.W.oX_._.6XB. Xj./ Y R #.4.2.2.U U h.t.z.F.f.r.H.S.'.F.Z.C.W.R.T.m.<XrX8XsXrXzXsXlXvXxXlXzXlXjXtXlXyXkXaXrXtXrXaXfXlXkXsXsXsXsXkXtXlXzXxXlXzXsXjXtXtXvXmXxXjXtXrXrXzXrXwXjXsXrXrXaXlXlX",
"jXwXeXsXlXcXlXcXjXsXlXcXlXlXsXrXgXgXlXzXlXlXzXlXaXrXdXrXjXjXjXjXjXlXlXjXjXlXcXxXxXkXkXjXsXrXkXsX:XkXkXsXeX3XoXZ.6XoXN.d O.S.A x (.-X4X9X{.5XwXrXeX3XtXjXlXlXtXgXrXsXaXdX8XaX&XW.`.z.p.8.E ~ s z C a ~ d e e e = r r g = ; t f g m s j i m i m m t a 3 +.~ ' R 7.Q I ( ( < ) L _ 5 < < I 6 U Y 2.#.e.i.k u.b c.'._..._.R.C.,X,X8X<X1X;XOXR. Xo._.B $XW.uXc.e.s.4.#.$.0.%.a.u.J.y.M.#Xz.F.C.T.&XfX Xm._.R.M.E.jX8X8X9X9XlXlXzXxXxXtXzXcXcXlXjXlXzXsXlXaXlXkXkXlXjXrXsXjXsXjXjXlXlXcXsXgXtXtXtXlXlXcXvXcXjXrXsXsXzXzXsXjXsXzXrXtXsX",
"rXaXsXjXcXzXmXxXzXcXzXzXzXlXtXjXsXsXsXlXxXlXlXrXsXdXrXdXrXjXjXjXjXjXlXxXlXlXlXlXkXjXjXjXlXsXlXlX,XzXjXsXrX>X'.I.o.].)...d C.M.E.5X3X3X9X|.dX3XwX3X9XrX9XjXjXlXrXaXrXrXrXrXjX..+X@XH./ #.;.' Q | m e + i u = e = u r g = = = f g d i i m M i m d s ! 3 ( ( R P 3.<.>.< 7 W W Q _ K 7 > , K U > #.T e.d.e.z.x.).W.#X....C.T.;X,X,X,X-X}.:X1X2XoX$XB C.#X'.%X..v.z.f.} e.%.a.r.F.XX@XQ.S F.| @XC.C.6X XB.o.E.Q.!.Y.aXsXkXzXzXcXcXgXvXvXcXtXzXcXxXcXzXlXzXzXkXlXcXjXsXsXlXsXsXsXgXjXlXtXlXlXsXsXjXlXxXvXxXlXsXsXtXlXlXcXvXlXtXzXjXtX",
"aXaXkXzXlXlXcXlXvXzXcXcXlXgXlXtXrXrXrXsXlXgXjXlXbXlXrXwXaXjXjXjXjXjXlXcXxXlXlXlXjXjXjXjXfXlXtXlXjXlXlXtXlX:X8X>XiX%XuX]..._.Z zXdXwXwX3X3XwX8X,XwX3XwXwXrXtXrXsXkX8XaXsXeXgXZ.#XoXA.| u.Y 8.5.W d r r r M r r u r = g = + u r r M m u m i M [ ~ 3 ( _ Q <._ 5 6.4.#.$.K ) ~ , 7 Q 9 : * > ) #.$.I e.e.D.V.I.$XI.).M.^.z D -X-X;X-X;X-X-X,X8X<X:X,X<XC.C.uXuX'.$XfXA.y./ e.J.).#X_..X#X.XO.&X_.uXm.$XT.B n.P.>XsXzXzXzXcXsXlXvXjXvXlXvXxXcXvXvXMXzXcXzXcXcXmXxXjXlXzXsXlXlXtXsXgXsXtXlXjXjXtXtXgXlXxXlXtXrXtXsXzXcXcXxXzXlXsXsXsX",
"jXzXcXcXlXjXkXxXxXxXxXzXkXsXsXsXjXwX9XjXjXkXmXvXzXaXaXdXrXrXsXlXjXjXlXcXlXlXlXjXsXlXsXsX9XsXkXeXlXlXjXtX4X>X,XgX0XrXR.`.C.U.rXlXwX:XrXsXqX4XwXrX3X:XwXwX9XdXwX9XjXaXtXrX8XtX7XM.$XW.).d.p.5.0.<.[ a u r N u r e g r f r e r e w + + r z a a ~ _ I 7.#.U U ,.5.4.4.,.2.I ( Q ) _ ( ! 3 * 3 T 2.2.Y t.S.`.uX_.oX_...4X8X,X:X-X~.~.}.;X-XwXjX,X:X:X,X0X@XR._.R.U.S.M._.c.t.j F.)._.iX).&X].C.B +Xn.m...W.I.o.rX8XkXcXcXvXtXcXxXxXvXgXcXcXvXcXxXmXmXMXmXzXxXvXvXzXzXjXlXjXlXlXrXsXsXsXkXjXjXtXrXrXrXrXsXsXrXrXrXdXlXlXlXkXjXgXjXjXzX",
"zXlXmXlXcXxXjXjXgXzXlXcXlXcXzXzXsXaXwXaXcXvXvXvXvXlXzXsXlXlXsXlXkXlXlXlXjXjXlXtXdXdXdXrXrXaXeXlXlXkXsXtXsXsXrX,XqX4X..@X]./.jXzX9X4XwXsX4X,X<XsXwX1X3X3XOX:XdXsXjXsXjXwXqXjXlXoXR.6X.XH.F.s.*.0.' s b r g u ; - a p i r e e e e + + X 1 - ! ( &.#.2.6.-.2.#.I 5.<.,.5.0.<._ L ( ^ L 7 < < < 5 <.J r.k.n.6X_.T.m./.<X8X,X;X-X3X-X:X<XwXtXqX,X:X,X,XzX8X>XqXrXOXE.N._._.).| Z.W...T.N.A $XU.)...C.C.N.C.Q./.eX8XzXlXtXtXrXcXcXcXvXgXcXcXzXcXxXvXmXxXlXlXlXcXcXlXsXsXtXlXlXlXlXsXrXtXjXsXjXrXrXrXwXsXaXaXfXzXzXsXtXtXrXjXkXjXjXzXkX",
"vXmXcXmXmXcXjXjXfXkXcXvXzXlXsXrXkXkXjXrXzXvXmXxXvXzXcXcXsXsXsXlXgXlXlXjXsXtXlXjXsXwXwXaXsXjXjXkXcXjXkXjXlXgXlXjX1X8X8X{.>XcX8XrX<X4X8XtX4XwXrXwX3X9X4XdX4X9XwXsXrXjXjXjXjXlXkXE.R.oXx.F.v.p.Y 5.7.3 a a y h s j a p d r X r e e e p = 2 3 W ) #.#.%.q.4.%.T 6 #.1.2.U U I ) ^ Y Q ) K ) W L K J # e.{ M.W._.W.OXqX1X,X:X;X;X;XwXsX,X,X,X,X:X:X8XeXzX8XcXeXeXrXgXeXU.'.U.uX_.oXC.U.B '.U.$Xm.+X2X^.W...7XdXzXzXzXzXlX8XjXcXvXxXvXcXvXcXzXjXxXmXmXNXxXlXlXzXzXzXdXaXrXlXlXkXfXsXrXeXsXsXjXdXlXlXzXlXrXkXkXrXrXrXjXrXwXdXfXlXxXlXmX",
"zXzXlXjXgXjXkXkXjXjXlXlXlXzXzXsXdXsXjXjXxXvXcXxXzXnXnXcXrXzXlXcXlXsXlXjXjXjXjXsXsXwXdXdXsXfXkXxXcXjXjXlXzXlXsXlXwX:XeXeXE.cXgXzXkXqXtXtXaXsXzXqX,XwX|.rXrXrXrXsXjXjXgXsXtX8XlXOXM.T.I.C.D.e.P Y I 1 h h 2 [ s 2 ; r r + X e e e - p * 3 ( I 6.#.0.U #.4.9.<.6 <.$.4.2.<.K E T <.E K K &.^ E -.*.U ) e.| +XN._.gX8X,X-X;X;X;X;X;X,X,X:X-X}.}.,X3XwX8XqXeX8X8X8XmXlXeXfXM.U.#X..C.O.+XlXmXvXeXcXcXvX7XwXcXkXcXzXzXcXsXjXlXlXvXvXbXcXmXrXlXsXvXmXmXvXzXzXlXsXlXzXsXrXaXsXsXkXsXrXsXkXzXkXaXaXsXaXaXtXkXkXvXzXzXsXrXrXrXsXzXkXkXcXjX",
"jXlXkXcXsXaXlXfXxXvXlXkXzXkXkXrXdXwXdXkXzXcXE.W.y v z O.P.rXMXvXcXkXhXkXkXtXsXrXzXaXrX{.lXgXvXvXlXlXjXxXlXlXtXsXsX|.9X3XeX8X8X8X<XrXrXqXgXxXcXqXqXrXwX4XwXqXaXsXsXrXwXsXwXjXtXlXZ.C.oXW..Xp.#.P '  .1 3 s j [ p r r = + X e w w X - 1 Q ) -.2.9.P $.%.Y q.9.*.#.#.I E 7.0.%.<.J =.#.=.2.=.6 6 ;.8 { { v.S N.Z >X~.~.-X-X;X-X;X;X:X,XwX-X{.aX:X3X,XtXjXeX8X8XcXrX8XtXvXjXgX'.I.M.MXjXxXgXvXcXjXrXcXlXcXkXkXcXzXlXwXlXlXlXcXcXcXxXvXgXcXbXzXcXmXmXxXrXtXsXsXrXsXsXaXrXlXjXkXkXjXjXjXjXkXkXsXaXsXdXjXrXlXxXcXsXlXrX9XwXdXaXgXjXjXkX",
"eXrXkXgXrXlXzXvXkXxXxXjXkXsXwXwXsXdX9Xn...B A _.x o.O.y c z vXvXlXzXrXkXsXsXkXsXzXzXsXwX4XxXxXvXlXlXlXtXlXlXvXrXjXsXdX4X:X4X8X8X<X8XjXjXxXlX8XqXsXsXlXqXrXwXrXwXwX4XwXwXrXrX:XlX4XoXm.$XXXs.#.4.>.~ [ 2 s s a = r r r e X e w w + a 2 Q ^ #.6 -.#.a.e./ f.s.%.%.5.<.J I 0.0.2.K 4.5.P 5.*.2.&.u.e.) k c.V.Q.n.p Y.rX8X9X;XeXaX8X4X,X:X:X:X{.wXaXsXqXeXlXvX<XqXtXgXeX8XtXqXeXeXlXcXmXxXxXtXcXcXcXzXkXjXlXcXxXkXjXlXkXzXzXcXcXvXcXxXcXcXlXlXlXxXxXxXlXjXfXsXsXsXzXfXlXzXkXjXkXjXwXjXfXhXjXsXlXkXzXrXzXvXvXcXzXzXkXdXsXwXsXkXlXtXtX",
"aXzXtXtXtXlXjXvXzXcXcXxXsXsXsXjXsXzX<XA x B.B A x d M.D o.l MXmXkXlXkXaXrXsXlXaXnXcXqXrXlXzXvXxXjXlXjXjXgXvXxXzXsX4XsX;X8X8X8XsXlX<XgXgXgXrXqX8XrXjXsXqX8XwXrXdXwX9X4XsXaXwX8XaXaX1XN.n..Xh.5.=.~ ` +.3 j s 2 r g r = r X e r + X O : W %.$.2.6.I D.D..XXXe.0.8.4.9.5.T 4 ,.2.J 5.9.$.@.u.f.b.c.| { y.A.x.N.n.N.P.<X,X,X;X,X3XjXrXaXwX|.|.3X4XwX,XwXvXeX8X,XtX8X,X<X4X3X4X8XlXcXvXjXgXgXvXtXvXcXcXlXcXvXxXjXkX4XlXlXzXzXcXcXxXmXcXcXcXjXjXlXlXzXcXkXkXxXlXsXlXcXxXkXkXrXsXlXsXaXaXsXaXaXzXsXzXsXaXzXnXvXvXcXlXsXsXdXsXsXlXsXsXwX",
"zXsXwXsXkXkXlXkXvXmXvXcXzXzXkXjXkX>XA M.o.S.k r.v.b m._.o.m.D vXkXjXcXkXfXrXtXsXvXnXrXlXlXxXlXlXlXjXjXxXcXcXxXtXkXdX{.:X4X4XjX8XtXtXzXlXeXvXqXlX9XaXjXrXsXrXrXwXrXwXrXaXdX8X3XrXdX$XW.N.).D.1.P E ' 8.1.! k h e r r e r X + w w p 1 W Q T 5.-.K.e.F.+X6X_.v.s.8.-.<.0.$.,.0.5.#.9 d.s.y.e.x.F. XM.j.{ F.k.B D OX8X,X,XaXeXsX,X8X8X<X:X,X:XrXrX;X4XlXjX8X<X,XrX,XjX:X3X:X3X4X4XrXqXeXvXgXrXxXcXvXcXvXvXvXxXjXkXkXfXjXlXzXcXcXzXtXcXzXlXjXjXkXlXhXjXkXzXvXxXlXbXcXlXkXtXjXkXlXkXjXrXwXrXrXsXaXsXzXlXcXMXvXMXcXcXkXfXsXsXsXsXrXwXkX",
"sXaXdXkXzXzXcXnXmXmXcXcXcXzXkXzX^.m.M.@Xl.| 9 H.v.k h S B x /.vXlXjXkXzXcXrXsXNXnXlXzXlXlXlXjXcXjXgXhXlXkXjXaXsXdXdX,XrXwX4XrX8X<XzXtXxXeXlXrXzX-XwXaX8XsXwXaX8XdXdX8XsXaX,X4XsXsX_.W.m.V.G.e.Y 8.Y =.:.%.p.[ a i u e r X + X X ; 2 ( E >.P J ) f.c.Q.$XF.`.{ P =.#.5.#.#.Y =.#.e.i.z.u.u.F.V.>X&X XF.).Z.Z W./.4X8X,XjX8X,XtXjX<X<X,XwX,X-X|.kXlXtXkX,XrXsX8XrXkXtXlX4X3X:XkX3XaXzXvXlXcXvXvXzXgXvXvXvXcXlXjXkXkXkXsXzXcXcXcXcXcXcXfXjXaXkXjXaXkXjXlXxXvXvXMXvXxXkXaXjXtXzXlXkXaXwXaXaXaXcXnXvXzXmXcXxXMXcXzXzXkXkXjXjXkXkXkXsX",
"aXsXjXjXsXcXcXcXmXxXvXcXvXcXkXkXW.W.N.C.| e.9 X.k.k.T.N.x Z o.<XwXnXsXlXsXsXlXvXcXxXzXrXsXlXkXlXkXlXlXxXxXjXfXaXwXeXaXaX9XsX8XkXlXsXeXeX8XlXqXlX9X4X3XrXrX8XjXjXrXrXtXwXrX4X,XlXsXfXfX_.A.L.g.1.7.*.=.5.9.~ 1 s s e + e + + X O 2 Q ' E *.Y J Y / x.E.n.H.D.f.=.$.%.5.3.6.# #.#.&.k d.H.k D.c.k.'.C.m.$X_.B t W.,X,X,XsX,X,X8XrX:X:XeXsX4XwXrX,XlXcX8X:XqX,XzXsXsXlXkXsXrXsXsXzXlXzXvXrXwXvXcXcXcXcXvXvXvXcXlXsXkXlXzXzXvXvXcXvXzXjXzXsXaXjXkXjXlXlXcXmXmXvXcXcXxXzXkXkXlXcXzXzXkXkXzXzXsX<XnXnXMXMXmXmXcXzXnXcXcXkXzXvXzXkXsXsX",
"fXaXaXjXzXcXcXzXkXcXkXvXMXvXkXI._.oXC.{ { e./ l.F.k.oXoXx S S C.B 1XvXsXlXrXjXlXzXlXlXkXlXaXwXlXjXjXkXxXkXjXsXrXdXjXaXdXrX4XqXrXzXrXzX<X,XtXlXrX-X3XwX9XwXjXjXaXrXjXjXwXrX9X:X8XeXxXlX#X@XA.g.a.1.5.$.-.I ! 2 [ 3 a - ; + = X 2 3 L L *.#.I $ / i.S.W.+XF.f.e.8.6 4.=.#.q.#.5.a.a.t.r.J.c.A.l.F.W.R.B S oXW.d x :X9X8X,XgX8X<X,X:XjX,XeXwXjXsXkXlXqX8XwX1XzXlXlXrX4X:XlXkXjXsXkXlXzXjXtXtXlXcXrXqXzXlXgXkXzXrXlXkXzXlXlXcXvXvXwXlXlXlXlXsXkXaXkXlXcXvXmXmXvXcXcXcXcXkXkXzXjXzXzXcXcXOXE.v S o.E.wXxXMXvXcXkXsXbXcXjXkXcXcXcXnXsX",
"kXkXkXkXsXsXkXsXkXkXvXMXmXvX!...W.V.H.e.0 { ` { c.| _.#XC.o.x d d OXnXzXsXjXlXcXbXlXsXtXrXsXaXaXjXjX,XxXxXjXlXrX,XdXsXwX,XwXkX8X4XqX<XqX8XtX8XtXwXwXdX8X8XsXhXkXjXrXsXrXrXrXwXqX8XjXxXzXm._.).D.d.>.*.=.<.3 ! ~ 3 3 [ 1 = O X 3 ~ Q L _ 6.#.Y ) c..Xj.A.F.f.4.q.<.#.$.U 6.&.e.t.b.c.r.r.b.i.z.F.#XC.M.O.y m.l A -X3X;XzX8X8XgX:X:X3XkXrXzXcXrXzXsXjX,XrXkXkXrX4XzXaXlXzXcXzXkXwXsXsXcXlXlXzXwX8X4XsXsXrXzXlXzXlXlXzXzXlXzXlXtXlXkXrXsXzXlXkXkXkXlXlXxXvXmXvXxXzXcXlXzXqXtXvXo.O.V.d Z z x x B d ..d >XcXlXkXsXsXjXjXkXcXnXvXcXnX",
"zXcXzXzXzXsXzXzXkXaXkXMXNXMXQ.N.k.n &.$.P $ k { r.r.b oXS.F R.C...c ^.cXzXrXkXcXvXlXdXsXdXrXyXrXtXrXsXlXlXjXlXrXaXrXrXrXrX9X:XwXrX3X3XlXwXdXjXtXwXjXrXjXrXsXsXfXrXjXdXsXrXrXjX4X8XeXxXlXqX).oXk.J.d.&.R 0.' W ~ ' ( ! 2 - 2 2 : < ) < 7 *.$.1.f.6Xm.F.e.D.e.&.#.0.4.=.$ #.e.c.F.F..X.XF.z.v.y.n $X@X'._.A A A F ,XwXsXtX8X8X<X,XwX4X0X9XcXeXqX4XqXsXjXkXsXlXlXjXfXwXkXjXvXcXjXrXsXlXkXkXkXjXlX9XsXsXkX8XlXsXzXzXzXcXcXcXkXzXkXjXlXaXjXkXzXlXfXkXzXcXcXvXvXvXcXlXcXcXrXM.O.A Z N.m.N.R.N.A B m.D S x z <XnXzXkXsXrXlXzXzXnXMXnXnX",
"nXcXzXkXzXsXkXzXkXkXkXjXzXQ.T. XF.4 6 Y I 2.&.k D.z.j.G  XD Z m...D ..F rXzXrXsXnXcXzXsXwXrXrXvXrXwXrXsXlXlXjXsXrX<XlXrXrXwXsX4XsXsXsX4XrX4XrXrXsXjXgXrXsXrXrXrXsXrXeXgXsXrXrX4XtXrXxXrXzXqXM.I.'.uXv.` <.6.6.< Q 1.1.W W ( ' L L ) 5.8 #.6 e.e.H. XF.G.b.u.&.=.$.,.9.T p.a.t.c.V..XXXD.A.Z.A.j.).*XuXoXR.n.B.[.aXwX8X:X:X,X,X,X-XfXrXkXcXlX<XrXsXzXrXsXlXsXlXkXaXjXkXkXcXeX,XjXsXsXkXkXlXkXlXsXsXsXkXjXsXsXlXzXxXvXvXvXlXzXkXkXsXaXsXjXzXkXkXkXcXcXvXvXxXcXvXbXcXvX..m.M.R.U.N.n.T.C.oXm.F n.o.x m.z O.E.cXzXsXcXcXkXcXbXnXvXMX",
"MXMXnXcXkXcXzXsXzXfXzXcXcXC.n.$Xz.3.P 6 > U #.8 / { v.S.'.T.T.T.....m.!.^.wXaXsXzXvXzXwXwXsXsXnXrXvXlXlXsXjXlXaXdXaXsXjXsXsXaXsXlXqXkXsXaX,XrXsXjXjXzXeXrXaXwXwXsXwXsXjXjXqXwXqXlXrXrXtXqXlXsXo.oX].S.u.f.h.;.R $.=.<.=.5 E 0.:.Y 2.,.J E 4 { r.z.| G.c.b.e.U :.#.#.6 #.6 &.i.z.j.i.2 i.j.F.k.y.X.).O.C.T.B.:X5XsXwX:XwX,X:X8X,X9XrXqXzXxX<XrXrXlXlXrXtXzXcXsXzX;XkXkXvXcXlXgXkXrXjXkXxXxXlXlXkXsXzXjXjXkXjXfXkXcXcXvXmXcXzXkXjXlXsXkXjXzXcXxXkXlXcXvXmXvXcXcXvXmX<X..o.U.N.A M._.D S._._.S.| S.z m.....S M.cXcXcXnXcXvXvXMXvXMX",
"MXMXMXcXkXkXkXfXsXzXzXcXnX4XC.oXb.&.P 5.U $.6 6 U P 6 k ).$XC.N.C.m...A C.rXzXnXsXvXcXqXwXsXkXlXjXlXcXcXlXsXrXsXsXsXrXjXjXlXsXsXzXsX3XsX3XrX8XtXjXtXlXlX4XrXqX3XrX9XwXrXgXjXrXjXlXrX-X8XgXgXjXrX_.oXR...O.F.f.s.>.I 6.6.;.*.T -.<.T 2.P <.#./ | r.z.y.G.f.&.:.#.,.%.I 6 e.b.r.b.z.f.e.k 9 ).k..XH.X.W.C.C.B.:X4XrX9XwX3X3X;X{.8XwXyXrXrXtXrXrXqXrXtXzXlXlXzXjX:XjXwXkXzXmXjXrXaXsXfXkXkXcXcXcXlXsXzXkXjXkXjXkXkXcXvXcXcXcXlXkXfXsXzXkXkXzXxXxXjXcXcXvXvXcXxXvXNXlXZ ..O.C.@XN.U. XD.y.x.X.j.F.S.M.I...m.z A cXcXcXzXcXvXvXmXvXvX",
"MXMXMXvXvXcXkXkXkXcXzXvXnXnX).oX*X/ & & 2.5.-.U U U U & i.x.T.S M.M.M.z {.>XMXMXsXvXzX9XjXlXzXcXcXxXlXkXsXkXkXjXjXjXzXlXtXtXlXlXfXjXrXwXjX0X8XsXrXjXtXgXeXrXrXrXwX3X,XrXcXqXwXsXsXwX3X;X8XgXlXjXtXP.%XC.A R.o.2X=XF.F.p.` p.p.%.1.4.9.:.6 Y 3.b.k.r.g.%.3.3.9.6 4 Y #.#.| | ).`.c.i.i.i.| r.j V.A.V.U._.T.;X4X9X4XsXwX8X4X,XwX9XwXtXsXzXtXwXlXtXqXzXzXcXcXxXsXrXyXsXlXzXzXrXlXrXsXsXlXcXvXvXvXlXzXzXlXzXzXfXkXjXkXvXcXzXzXzXzXkXsXsXzXzXzXzXcXzXzXcXvXvXvXcXNXcXA C.T.C.oX+XF.j.r.k u.u.{ t.{ | l.j...d A ..zXsXzXzXzXzXcXbXvXnX",
"MXnXMXMXMXvXcXcXzXcXkXyXnXyXN.n.6XG.P P Y #.=.#.U 6 & & { i.V.E.v _.o.S o.OXcXNXMXMXvXlXsXlXlXnXlXjXtXtXsXsX}.sXtXjXlXlXzXlXzXgXrXwX4XjXdX,X8X9XkX9XjXcXrXtXsXrX4XwX3X,XlXwXdXwX4X3X3X,XhXhXjXrXlXwX:X_.R.+X].o.).uXW.iXb G.J.u.) 3.3.7.#.U &.G.z.r.%.5.#.-.q.9.T P U # G.+X_.o. X=XG.{ | e.d.{ y.b m.m.o.P.wX9X;X8XsXrXqXwX3XsXsXtXzXlXjXtXrXtXlXsXlX8XtXeXwXeXaXsXlXcXcXzXzXlXzXsXlXzXxXvXcXxXcXzXfXkXlXkXkXjXzXxXcXzXzXzXzXlXsXlXzXzXzXzXzXcXvXcXvXMX>XB.^.N.W.R.W. XS. Xj.{ { i.0 / e./ % / u.| ).o.C.Z zXvXzXzXsXzXwXdXkXnX",
"zXvXcXvXMXMXMXzXcXcX+X5XOXQ.&XW.+Xh.0.-.#.5.E #.T 4 6 P 9 r.S.$XD Z o.B o.D P.].OXvXMXnXwXjXaXnXwXdXrXaXwX9XwXdX<XlXqXsXxXlXlXgXrXwXrXjXjXdXwXrXjXwXrXjXlXgXwXaXwXwXwXwXsXrXrXwX:X:X3X8X4X8XlXjXjX8X:X4XqX0XqXhX>XQ.T.'.M.'.R.D.8 ,.f.f.z.t.r.n z.i./ 5.P $ :.:.8.=.L } k.I.R.C.D +XD.d.k { D.| l.X.n C.D ~.8XwXwXsXrXgXtXrXrXsXrXzXcXlXlXrXgXlXsXzXrXzXkX<XeXsXfXkXlXzXcXcXxXzXzXlXlXlXzXvXvXvXxXzXkXkXzXzXlXlXzXkXjXkXzXzXcXkXsXkXkXzXzXcXzXcXMXMXsXMX@XC.I.C.oXA oXoXr.e.} &.i.&.8 9 5 6 & 8 } l...m.m.A nXzXlXzXsXsXjXkXsXcX",
"cXcXcXMXvXMXvXMXcXOX5XN.7XoXW._.N.J.g.3.<.6.3.5.#.P 4 J &.i. XN.R.'.W.m.M.S o.A D BXMXvXtXlXsXcXcXrXlX9XkX5X9X9XwX4XwXaXxXzXzXlXrXrXtXlXjXrX5XdX9XrXeXrXjXtXjXsXwXdXsXrX8XwX8X9X9X|.,X,X3X<XgXkXsX,X,X<X8XrXrXgXeXgX,X<X_.oXuXpX/ #.s.f.x.r.J..XH.b.9 6 -.U 3.p.e.a.u.S.F.].%XM._.T.#Xt.{ k v.F.).m.n B A dX8XeXrXsXtXrXtXsXtXcXgXcXlXqXlXlXxXtXwXlXqXtXkX8XkXjXkXkXzXcXvXvXcXvXzXzXzXzXcXvXvXvXxXzXkXkXsXlXzXcXcXkXsXsXsXlXlXkXkXsXsXkXzX1XE.m.N.B B Y.m._.C.#XW.W.n.).f.Y $.*.<.#.P #.4.J $ ^ f.D.X.m.N...F vXcXlXsXzXkXfXzXcX",
"vXcXMXMXMXMXMXMX7XO.S.M.R.n.oX_.oXF.D.d.) =.$.T 5.#.T J 6 8 XXn..._.n.n...v B D ^.cXMXvXcXrXsXdXvXzXsX9X9X9X0XdXrXsXtXzXlXjXlXsXtXjXlXwXdXwXwXwX,XwXwXdXdXjXkX8X8XwXrXkXrXrXeXwX9X9X4XOX:X:X8XzXtX;X;X3X3X3XeXjXqX8X0X,X).N.R.XX{ &.i.G.F.A.c.Z..XXXt.b.e.e.e.F.c.S.XX)._._._.fXD N._.#Xb.j.r.x.F.`.v A M.}.wXwXrXsXtXrXlXtXlXgXxXxXgXrXcX8XlXtXzXzX8XkXsXlXlXcXxXkXlXcXvXxXvXvXvXcXcXcXvXvXmXvXvXcXzXkXjXjXlXvXcXsXsXsXkXlXzXzXkXkXsXjX@Xm.S A m.o.S.S M.R.Q.+X@X_.X.t.%.U P R U >.4 $ J 4.# q { c.V.F m.S c sXvXzXzXzXkXkXkXcX",
"zXvXMXvXMXnXvXnXqXC.C.R.T.R.B `.l.u.z.g.h.i.0.I <.U -.6 6 8 t.l.v.V.C.n.S R.z N.B.NXlXMXcXrXcX9XrXcXcXsX9X9XdXdXwXrXqXwXgXlXrXrXwXjXlXrXwXaX9X5X4XwX3X3XwX9X4XaXdXrXaXqXlXjXsXrXrXrX9X:X5X5XdXwX4X}.;X}.:X8X8XgX0X8X8X,X'.o.C.XXz.j z.A.c.*XF..Xb.H.S.k.k.l.y.V.S.N._.E.&X'.W.#XoX_._.+XoXS k.S.Z.V.m.M.B D 8X8X4XwX<X3X,X<XeXtXxXtX<XtXlXcXxXgXlXgXwXlXsXzXxXvXjXkXzXcXmXmXMXmXvXvXvXvXvXmXmXvXvXvXkXkXsXkXcXvXcXzXsXsXlXzXzXvXvXzXkXdXC.n.M._._.I.M.W.D m.c _.uX X| / 5.:.K R 8 7 ) T E -.T 6 4 0 y.l.N...l cXcXcXzXcXcXvXzXcX",
"zXcXnXnXMXMXvXMXMXW.U.oXuX6XT.S.J.k | e.h.3.<.<.2.,.#.4 Y U e.i.b.F.R.oXM._.M.P.kXvXjXMXvXzXwXwXwXbXcX9X9X0X5XdXwXwXwXtXrXsXqXwXzXjXwXsXzXwXwX9X9X5XdX5X9X4XwXwX4XwXqX,X8XlXsXrXwXsXdX9X4X|.[.rX9X|.|.-X;X3XeXeXgXqX,X,X,X&Xm.&Xc.c.j.X.u.Z.R.S.r.j.*X.XA.j.D.v.A._.M._._.&XW.6X^.@XC.C._.'.#XE.R.`.C.v N.gXqXqX4XwXwXwXqXwXsXjXlXeXtXlXgXlXvXlXlXyXtXsXzXkXcXxXlXkXzXxXvXMXvXMXmXmXvXvXmXmXmXmXxXzXkXzXlXzXcXcXzXfXkXlXlXzXzXvXvXvXcX4Xm.m.S _.M.m.Z.). XV.n.h k.z.t.K J U L W 2 , L ( Q L > P P E j k.A n.n.>XnXNXnXnXcXzXzXkX",
"fXkXkXvXvXnXMXNXBXW.A I.$X'.I.n J.g.&.) 9.#.#.4 > #.#.#.Y : 6 i.k.S._.I.C.n.S wXjXsXjXsXcX9XrXsXrXzXnXzX9XfXdX3XwX9XsXsX3XsXwXwXrXjXsXsXaXrX8X9X4X4X5X5X8X4XdXwXwXrXwXwXtXjXrXsXrXsXdXwXwXwXwX,XrX{.}.;X;X4X,X8XeXlX,X,X8X,X+Xm._..XXX| J.| A.).D.A.x.XXv.D.F.F.k.#XuXoXM.{.3X8X8X8XOXC._.#X_.C.W.D C.M.P.tXrX8X3X,XaX,XwXqXtXlXcXqXcXlXtXlXcXgXeXwXlXlXfXkXvXkXjXrXlXcXcXcXvXmXMXNXvXMXmXmXmXmXvXkXzXcXzXlXzXzXkXjXkXsXzXzXcXvXMXnXQ.T.m._.n oXD W.F.j.j.t.D.e.{ / a.U <.E I W s 1 , : < W , R $ $.t.k.Q.N.k.sXNXNXNXMXnXnXzXzX",
"zXkXkXfXcXvXnXMXNXBXOXR.W.uXR.Z.t.) %.2.4.q.0.L , > E <.$.6 q k x.)._.'.Z C.].vXkX0XcXcXcXzX9XaXkXkXcXcX4XrX4XzXfX9X9XdXwXwX9X9XjXgXcXlXtXqXwX8X4X3X4XwXjXrXsXrXwXrXrXwXrXlXtXtX,X4XsXtXrXqXtX4XwX{.|.:X,X4X:X,XqXxXjXrX-X:X,X,X].%X.X| D.l.F.c.F.G.c.D.{ u.k x.).M.T.C.E.;X,XwXrXrXrX1X_.m.R.R.#Xt ^.rXrXqXrXqX4XwXwX4XwX9XsXsXzXtXlXsXtXzXzXzXtXlXkXlXsXzXzXsXjXrXfXkXkXcXmXvXmXMXmXvXmXmXmXvXcXzXzXzXlXlXkXkXkXjXsXsXzXcXcXvXnXM.D C.S. Xl S.T.k.u./ i.9 &.P $.> %.^ 2.4.%.Q s 1 a - 2 W L I & %.r.@XS o.v ^.NXnXnXnXnXcXnXkX",
"kXkXkXzXzXvXNXnXsXBX7X_.uX%X_.z.e.J T T =.%.8 W I 9 K #.4 T U r.).R.M.).Z ].vXvXkXdXsXdXvXdXnXnX0XaXaXcXsXwX9XrXjXcX9X4X9X9XwX3X8XrXlXzXlXrXrXrXdX9XwXwXjXjXrXaXsXsXwXwXsXrXrXqX,X8XsXrX4XjXrXwX;X-XwXrX-X4X8X8XqXeXgXjX8X:X<X0XoXR.oXl.f.v.x.v.c.D.{ e.%.7 ^ | X.6XR.B 8X,X,X9XeXrXhXO.U.D D OXqX9XeX8XtXgXtXeX4X4X4X4X9X4XsXsXlXgXtXtXtXzXxXcXlXcXjXjXlXbXsXlXjXkXlXzXkXxXvXvXmXmXvXvXvXvXvXvXcXzXzXlXlXlXkXzXkXjXsXsXsXcXzXnXn.D D m._. X$X@XoX| ) 8 Y $.#.#.=.#.#.=.6 $.<.> W 3 2 W O , < J 5 9 { C.M.x o.P.BXnXnXnXMXvXvXzX",
"kXzXzXcXvXnXnXNXMXMXOXoXR._.R.D.& =.=.I 7 ( _ ( W 8 I *.T $.&.V. XF m.o.sX5XcXzXkXdXzXwXvXcXvXcXzXzXfXrXzXrXrXtXkX9X9X4XzX4X5X9XjXrXrXhXtXjXsXwX9XwXwXaXjXtXsXeXsXrXrXsXwXwXwX9XrX8XtXtXwXwXrX|.4XwX,XjX8X:X:X8X<XeXeXgX0X<X<X8X8X#XN.v.| F.H.b r.i.8 ) / & e.V.Z _.C.M./.3X4X0X8XeX@XoXoXR.@X8XqXqX<XwXtXtXgXqX4X3X4XwX4XaXsXsXtXlXlXtXjXzXcXlXlXxXjXlXvXzXzXaXsXrXkXsXkXcXvXvXcXvXcXcXzXcXvXmXzXzXlXlXlXzXzXzXkXsXdXsXkXzXvX!.N.#X$Xl.F.). XW.S.i.$.Y Y #.P $.#.9.Y %.I ,.w.8 L Q ` 2 , L 4._ ^ 0 | W._.S o.B Z Y.vXnXcXcXzXkX",
"kXkXzXcXnXnXNXnXNXMXOXoXoXoXC.F.e.8.*.,.E > , Q ) K 8 #.U #.9 n 6XW.oX^.aXcXcXzXfXsXsXwXwXMXnXvXwXrXcXnXcXnXvXvXjXkX9X8XdX9X3X5XrXlXjXkXqXlXwXwX8XwXwXwX8XtXaXwXsXrXaXrXwXyXwXrXrXwXjXrXsXrXrX;X,XrXqXwXwX:X8XqX:X8XeXrX,X8XeX8X8X&X%X`.a H.F.F.c.f.J U ) 4 x.%XS W.I.o.x :X8X8X8X<XI.M.v v +X,XwX0X8XrXlXgXtXqXwX4X4XwXzXsXsXwXlXxXrXlXgXzXlXtXxXjXlXvXcXjXsXrXjXkXsXzXzXxXxXvXcXcXcXlXxXcXvXcXkXfXjXkXkXzXvXkXkXsXsXkXzXcXnXR.N.T.Q.v.D.x X.$XS.p.$.#.2.P #.9.T 4.#.#.2.2.0.2.( < >.Q Q I T J T 9 K { R.D o.S.Z n nXkXzXnXzXkX",
"zXzXnXcXcXnXBXBXNXzX].o.N.oXT.X.e.3.4.:.5.( L ) 7.>.4.Y 4.T i.h C.D W.zXnXnXnXcXzXsXvXvXlXnXnXvXcXwXsXcXtXtXlXNXkXcX9X4X5XsX9XaXfXrXjXaXwXrX8XsX9X9X9XzX5XwXdXrXrXrXdXrXsXwXrXrXwXtXsX8XsXwXdXOX,X8XjXeXeX:X8XqX;X<X8X,X,X8X<X0X8X0XuX_.X.x..XZ.b.G.&./ Y u.V.'.O.N.N.N.~.8X<X:X,X>XOX].@X/.eXeX8XwX8XjXtXeXeX8XwXqXrXrXcXtXlXjXtXsXtXtXsXrXrXlXlXxXcXvXzXrXrXaXjXkXaXlXvXzXkXkXcXcXlXkXvXvXxXkXkXjXjXjXjXjXzXzXlXsXlXzXcXMX^.T.W.F.A..XF.V.k.#Xk.g.$.#.#.#.E %.#.<.,.#.#.> #.2.2.I &.L %.U ,.5.#.U U &.k X.N.W.j.@.cXvXcXcXnXcX",
"zXcXcXcXcXvXnXzXZ.M.+X#XuXoXR.'.t.=.Y Y q.8.7 4 4.4.*.>.1.e.d.| 6XD C.~.MXnXcXcXvXzXnXzXvXvXNXvXcXwXrXrXlXlXgXNXnXcX9X5X4XdX9X9XrXwXhX9X4X8XwXzXsXzX9XwXdXdXwX9X9XrXwXwX9XdXwXwXwXwX:XjXjXwX3XrX,X,XtXjXrX:X,X4X;X:X,X3X<X,X8X:X,X0XN.oXI.S.A.m.Z.J.f.r.v.S.+X#XU...Z S B.8X8XE.W.>X|.<X,XsXrXrX8XeXtXhXtXrXqX8X4X3XrXwXsXsXzXqXlXrXgX4XaXsXlXzXzXjXcXzXkX8XsXsXjXkXfXzXzXkXlXlXzXcXcXcXcXvXcXkXkXkXkXjXkXjXkXvXzXkXzXcXnXMXM. Xl.t.e.k k.b.r.H.t.a.&.1.#.5.J T 5.,.2.2.=.$.$.#.4.L _ _ 1.4.U #.9.4 $ J U { h G ..[.nXcXcXzXvXcX",
"zXzXnXcXcXcXcXvXvXvX.. X$XuXuX6X.Xu.t.{ a.6.Y P P #.I I 8 e.l.W.T.N.m.c cXsXcXwXvXzXvXMXnXlXNXvXvXvXwXzXrXjXjXnXMXnXsX5X3X8XrX9XwXaXsXcXzXwXqXrXjXrXsXrX9X4X5X9X3XwXwX9X3XwX4XwXqX4X4XjXwXrXwX4X4X,XgXrX,X;X;X4X,X:X,X8XjX;X/.1X-X,XM.C.oXoXM. XQ.#XA..XU.R.U.R.R._.O.d !.8X<X,X:X3X8X{.:XwXeXqXqXrXrXrXwX8X4X4X9X4XwXwXsXsXxXlXjXlXrXrXrXrXlXvXcXlXcXlXcX9XzXaXjXjXlXlXzXcXcXzXzXvXzXcXzXxXzXfXlXkXkXjXkXkXzXzXzXzXvXvXMX2Xx  X9 / &.k t.D.n D.u.G.f.1.4.5.2.J #.T 0.5.4.<.5.I %.K 7 _ I E 8 J T T 6 6 $ 8 k n n.z dXnXcXnXvXvX",
"cXnXMXMXcXcXcXnXNXBX+XC.o.B 6X_.T.oXF.H.D.&.6.=.J :.=.I ^ z.c.T.C.d n OXcXzXzX9XzXvXMXNXvXMXvXnXvXlXwXrXzXvXcXzXMXcXzXzXsXnXvXaXwXzXzXcXcXvXjXlXtXsXaXrX4X4X5X:X4X9X9X9X:X:X8XjXtXsXrXsXrXrXrX4XrX{.:XrX,X-X;X,X;X8X8XrXhX;X}.-X;X,X%X XoXfXF oX#XN._.$X_.uXR.R.N...{.B.:X8X8X,X;X;X3X:X,X9XqX8XqXqXrXgXwXyX3X4X3X4XrX8XwXsXsXgXcXtXsXrXrXaXlXlXxXcXvXlXjXdXaXsXaXkXzXlXlXlXzXcXvXvXzXzXkXkXsXlXsXsXkXjXfXaXsXsXlXzXvXMXzX$X_.V k.t.&.& &.d.f.D.d.f.d.a.&.2.0.E J 8 8 %.T 8 9.w.5.E L >.I < 6 %.E %.U 6 J # / 9 v l dXnXvXvXzXbX"
};
