/* XPM */
static char *result[] = {
/* columns rows colors chars-per-pixel */
"256 256 201 2 ",
"   c #030102",
".  c #0B0405",
"X  c #060A06",
"o  c #080C07",
"O  c #070709",
"+  c #0A070A",
"@  c #070B09",
"#  c #0A0C0B",
"$  c #100707",
"%  c #120708",
"&  c #150909",
"*  c #1C0B0B",
"=  c #120807",
"-  c #0D140B",
";  c #0F180D",
":  c #081408",
">  c #10170D",
",  c #121B0E",
"<  c #0E0D11",
"1  c #100F12",
"2  c #131214",
"3  c #1A1515",
"4  c #141E10",
"5  c #191C16",
"6  c #15141B",
"7  c #18171A",
"8  c #1C1B1C",
"9  c #161818",
"0  c #0F1010",
"q  c #200D0D",
"w  c #270F10",
"e  c #261212",
"r  c #291110",
"t  c #211E1F",
"y  c #2B1E1D",
"u  c #21100F",
"i  c #15200F",
"p  c #162111",
"a  c #192512",
"s  c #1C2B14",
"d  c #1E221C",
"f  c #1F3015",
"g  c #202F16",
"h  c #21251E",
"j  c #213216",
"k  c #243618",
"l  c #263A19",
"z  c #293E1B",
"x  c #28371E",
"c  c #171621",
"v  c #181722",
"b  c #1B1A24",
"n  c #1F1E28",
"m  c #201F21",
"M  c #201F29",
"N  c #222122",
"B  c #2B2626",
"V  c #252924",
"C  c #24232C",
"Z  c #28262E",
"A  c #2C2B2C",
"S  c #282A27",
"D  c #2F312D",
"F  c #2B3A21",
"G  c #31322E",
"H  c #3B322F",
"J  c #272630",
"K  c #292730",
"L  c #2C2B33",
"P  c #302E36",
"I  c #312F38",
"U  c #343533",
"Y  c #363834",
"T  c #383A36",
"R  c #35333B",
"E  c #39363D",
"W  c #3C3B3D",
"Q  c #3B3533",
"!  c #342B2B",
"~  c #413C3C",
"^  c #413935",
"/  c #2C431C",
"(  c #2F481E",
")  c #314A1F",
"_  c #30471E",
"`  c #334D20",
"'  c #354A27",
"]  c #365222",
"[  c #395623",
"{  c #3C5C25",
"}  c #3D512D",
"|  c #3E4339",
" . c #3F5232",
".. c #3F6027",
"X. c #415E27",
"o. c #41433E",
"O. c #47493F",
"+. c #455738",
"@. c #416227",
"#. c #426428",
"$. c #4A6D2C",
"%. c #47692A",
"&. c #4D712D",
"*. c #4E653B",
"=. c #3D3B42",
"-. c #3A3740",
";. c #413E44",
":. c #423F48",
">. c #444245",
",. c #494546",
"<. c #464944",
"1. c #494B46",
"2. c #464349",
"3. c #49464B",
"4. c #4C4A4C",
"5. c #474848",
"6. c #504D4E",
"7. c #4E514B",
"8. c #4B5B41",
"9. c #51544D",
"0. c #545B4E",
"q. c #4E4B51",
"w. c #514E53",
"e. c #555255",
"r. c #585557",
"t. c #565953",
"y. c #595C56",
"u. c #575358",
"i. c #59565A",
"p. c #5D5A5C",
"a. c #605C5E",
"s. c #5E615A",
"d. c #5B6552",
"f. c #536445",
"g. c #61645D",
"h. c #636959",
"j. c #69725F",
"k. c #5F5B60",
"l. c #625E61",
"z. c #656264",
"x. c #696467",
"c. c #666962",
"v. c #6A6D65",
"b. c #6B6669",
"n. c #6E696C",
"m. c #676368",
"M. c #716C6E",
"N. c #6E716A",
"B. c #6B7265",
"V. c #71756D",
"C. c #74786F",
"Z. c #78786F",
"A. c #736E71",
"S. c #757173",
"D. c #797377",
"F. c #767A71",
"G. c #7A7D75",
"H. c #7B7679",
"J. c #7E7A7B",
"K. c #3F4142",
"L. c #807B7E",
"P. c #7C8177",
"I. c #7E8279",
"U. c #82857C",
"Y. c #84897E",
"T. c #827D81",
"R. c #868A81",
"E. c #898D84",
"W. c #8C9186",
"Q. c #8E9389",
"!. c #91968C",
"~. c #94998E",
"^. c #969B91",
"/. c #999E94",
"(. c #929790",
"). c #9CA196",
"_. c #9EA399",
"`. c #A2A69C",
"'. c #A4A99E",
"]. c #A6ABA1",
"[. c #A9AEA3",
"{. c #ACB2A6",
"}. c #AEB4A8",
"|. c #B0B3A7",
" X c #B1B6AA",
".X c #B4BAAD",
"XX c #B8BDAF",
"oX c #B7BDB0",
"OX c #B9BEB1",
"+X c #BBC1B3",
"@X c #BFC6B8",
"#X c #C0C5B7",
"$X c #C1C6B9",
"%X c #C4CBBC",
"&X c #C8CEBF",
"*X c #C9CFC0",
"=X c #C7CEC0",
"-X c #CBD2C3",
";X c #C7D0C1",
":X c #D2D9C9",
">X c #D9E1CF",
/* pixels */
".X.X}.XX X X.XOXoX.X.X{.+X{.}.}..X XoX.X[.OX|. X.X|.'.[.XXOXXXOX'. X.X X{.].+X+XOXoX{. X X[.[.].}. X`.oX X`._._.'.'.}.{.{.[.'.].].[.'.{.].}.{.+X X X+X[.'..X}.{.{..X[.]. X.X+XC.#.#.q q q * q q q * * = = . . . ^. X X XE.* * & * = $   a p 4 b E W P K J s.{.{.}.].)._. X.X.X.X+XXX.XXX}.|. X{..X.X.X+X}.+X{. X].'.'.{.'.'.{.{.].'.{. X X[. X X@X'.}.oX X+X.X.X].{.{.oX+X.X.X.X XXX+X.X XXX].{.OX.XXX X X{..X{..XoX.X.X}. XXX+X+X.XXX+X.X X%XC.M.n.n.b.n.n.M.m.x.i.i.3.E L Z L ^.{.}.}.Q.n.b.b.b.n.b.n.n.b.l.e.w.;.I K K s..X+X",
" X.X X}..X.X+X X X`.].{.oX.XoX X XOX.X{. XOXXX.X.X[.XX[. X X.X|.|.|.}.{.}. X+X XoX+XoXoX[. X[./.Q.I.F.G.G.N.N.n.N.v.V.N.V.N.F.v.N.N.V.F.F.F.F.P.G.N.V.P.F.P.I.~.].{.XXXX X+X+XN.#.#.q q q q * q * * * = = . . . ^. XXX[.E.* * * & & =   a p 4 m E W L Z J h.oXXX X{./.{.{. XoX.X X{. X.X+X.X X{.|. X|.|.+X.X}.`..X[. X X^.'.|.`.].].{..X X X}. X+X+X.X X{.}.'._.R.P.P.G.F.F.F.G.C.G.F.C.C.F.F.F.G.G.P.V.C.F.C.G.F.v.V.I.P.U.W.`..X+XXX.X+X X@XF.M.n.n.z.m.b.b.n.x.a.p.3.R J C L /.OX{.}.R.M.b.b.n.n.b.x.n.x.a.i.q.W I C K s.+X+X",
".X`. X'.|.[.|.[..XoX.XoX X+X X X{.{.oX.X.X XOX@XXX|.|.]. XOX+X.X.X]..X X+X.X}. XOX X[..X.XQ.U U U Y U U G Y A U U Y U Y U U I U Y U U G G U U T Y Y Y U U U U U D <.}. X.X+X+XN.@.#.q q q q q q u * * = = . . . `.'. X|.Y.q * * & & .   s p 4 N W ;.I K Z c..X[.[.).].].].oXoX XXX+X.X X.X X{.+X+X}. X+X}.+X.X.X[.].{./.'..X.X X{.'.}.'. X.X XXX+X+X].].}.Q.G U Y Y Y Y U Y U Y U Y U Y U Y U Y T U T U U T U T Y U U U T U U T U 6.|..X X}.+XN.n.M.n.n.b.b.b.b.n.l.i.3.E K Z L ^. X.X|.Q.n.b.b.n.n.z.c.x.b.m.e.q.=.I K J s.oX+X",
"{.).`.[..X.X/.{._.[.].{.'.'.).{.{.[.|.[.'.{.{.{.{.'.`.[.{.[.]. X[.`.{.}.}..X+X}. XOX X[.OXs.2.2.2.2.q.q.q.q.q.2.q.3.q.3.w.q.q.5.3.3.4.4.q.q.4.E L f f p , , ,   X T I..X+X X+XN.#.#.q q q q q q q * * = = = . . ).'. XXX!.* * & * & $   s p 9 N =.=.I C Z b.[.}.].]._.@X.XoX]..X.X'.}.[.{.'.'.[.{.'.'.'.'.{.'.'.).)._.^.`.'.'.'.'.).`. X}.XX X+XoX+X[._.XXs.9 2 9 9 9 2 9 6 7 9 7 7 7 q.q.w.3.3.w.w.q.e.U 8 9 3 6 2 0 # # # @ @ # T G.+X X X@XN.N N N N t t t h t 8 7 7 < < < # /.OXOX[.Q.m m m t h m t m m 8 7 2 1 < J J s.].{.",
"}.].{.]..XR.v.<.W Y Y Y U U Y T Y Y T U U U Y T Q U Y E Q T Y U Y T <.d.Y..X.X+X XOX[.`.^.9.P R E R -.R R =.=.W =.K.=.=.=.=.E =.E R =.;.=.E =.P V a p p ; 0 2 . . . O.+X}..X.XN.@.#.q q q q q q q * & & = . . = /.|.[.'.E.q * * & & &   s a 5 N W =.I M J b.+X{.).).'.XXOX!.v.7.| Y E T T T Y Y T T T T Y Y U T G D A Y H T Y G Y T <.t.Y.XXXX.X}. X}.`._.t.  - -               < 6 2 7 =.=.=.=.;.;.:.:.7 2 2 + . i , . .   : -     <.@X+X}.+XV.& * * * & * * & & & & = O . . . _. XOXoXQ.* * & & & & & $ $ $ p 2 2 < < C c.[.}.",
"}.'.[. X|.R.O.U Y 5.q.p.r.w.i.u.i.i.p.i.p.p.p.i.i.t.i.i.i.i.i.w.<.U U U 7.^.+X+XOXOX.X XJ.C C C K K L L L L L C L K K L I L L L L K L L P L L C b p 4 ; ; ; 4 . . . U .X X}.@XC.#.#.q q q q q q q * * = = . . . !..XXX.XE.* * * & & $   a p 5 N ;.=.L J C v.XX}.'.`.{. X|.R.1.U Y h 4 , .   .   , , , , , > , , , > > .   , , p 5 U U Y 9._.+X X+X{.oX}.W.    X @                   O < P I I I I P I C 7 4 , . . > >       - #   X T +X@X}.{.v.& & & & & & & & & = $ . . . .   ~.].@X[.E.& & * & & & & $ $ . 4 4   # + C c.[.oX",
"{.].`.{.'.F.:.3.2.=.E U U R U I U R U I I R R U I U I U U R U P L C C b | I.+X XXX.XOX{.U.6 6 6 7 c c c 7 n b n C C M C M C C C M M C M M C M v 2 ; ; ; ; ; ;     . Y  X.X.X+XC.@.#.q q q q q * * * * & = . . . /.|..X].E.* * & & & $   s p 5 N ;.=.L J C n.+X}._.[..X|.'.G.> - - - - - - - ;     - : - - - - - - - -     - - > .   o o T Y.+X+X{.[.}.oXY.    . X                     < C M M J C J M b 6 : > .   - :       @ # - - Y +X+X{..XN.z z z z / z z l l z = . .     . (.oXoX XQ.& & $ & $ $ $ $ $ . 4 -     < n c.].].",
"[.`.[. X/.V.R I n 9 1 1 1 0 1 1 2 1 1 2 2 1 0 2 1 1 2 1 1 1 < < # # # # U V.+X+X X XXXoXI.@ # + @ # # @ @ # # 6 b b b n b b b b n v n v n n b c 6 - - ; - - 4   . o U .X{.}.+XC.@.#.q q q q q q q * * & . . = . `..X.X{.R.* * * * % $   s p 8 N ;.W L M n h.+X}.{.{.'.[.`.g.@ @ : o o o o o o o     : o o o o o : o -     o o #     X X T F. X}..X].XX+XY.    X .                     O n b n n b b b 6   X #     @ #       o # @ : U +X.X{.].v.l k l k k k k l k j j . . . .   !.}.OXoXR.% $ $ $ $ $ $ . . . 4 >     # n c.{.[.",
"].{. X{.).M.K M 7 < < # < < # < # < < # < < # < # < < # < # # # # # + # 9 v.|.+XOXOXOX XU.O @ O O O O @ O O O < c v b 8 b v b b v v b b b v b 6 < - - - - - - - ; , T @X.X}.XXV.#.#.* q q q q q q * * & $ $ . $ ).].OX}.R.* * & * & %       2 N =.=.L M b B..X[.{.}.).[./.n.                  X X     X X X X X @ @ X     X X X       X 0 N. X@XXX+X X XE.                            O b b b b b b c 6   X o     @ @         .   . U  XXX}..Xv.$ $ $ $ . = = = $   a p . .   . !.}.XX+XR.$ $ $ . = . . . . . ; -     # b c..X`.",
"].{.[.{.~.E M v 2 < O     X @     X @       X @     X X @ @ @ X     @ O   B. X.X.X+XOXOXE.    @ @ X X X O O O < v b v b b b n b M v b M n b M c 6                   Y  X+X X XV.#.#.q q q q q * * * & & $ . . . ~.[.{.|.R.* * * & & $ . . . 3 h -.-.L C n N.XXoX'._.[.oX/.S                     X X     X X   X . . X     X X X     X X   N. X@X}.@X X XY.    . X                     # n b n b b n b 7   X o     @ @               Y  X X'.}.N.. . $ . $ = . + $ .   , >       ~.{.].[.R.$ . $ = . . . . . . ; - .   < b z.{.{.",
"].].'.].!.N n 6 6 O       X X     X X       X X     X X X X X X     X X   v. X}.OX+X+X.XE.    @ @ X X X X X # < b M M M n C C C M M M M M M C v 7   . . X   .   . . U .X.X+X+XV.#.#.q q q q q q q * * & $ . $ . !..XoX|.Q.* * * * $ * & = . 3 b =.=.L C b N.oX X|.].[.OX^.+                         X     X   X   X X       X       X     v. XXX+XXXXX.XU.    X X                     # C M J M J n Z 7   X #     o o o X o X X @ @ Y  X[.]..XV.s s a s a s s a s = .   - -     ^.{..X[.Y.. . = . . . . . . . ; :     # b c.{.].",
"{.].].{.Q.b n 6 1 X       X X     X           X     X   X X X X     X     v..X{.XX+X XOXU.    # o X X @ X @ # 2 Z L L P L L I I I I L L I I I C M . $ = = . . . . . Y +XXXXX+XF.#.#.q q q q q q q * * & $ . . . ~.|.OXOX!.* * & & z x j s p 8 N W =.L C c N.XX+X.X]..X#X^.X X O X X X   X X X       X X     X X X         X X X     X X   v.{. X+X}.{..XI..   @ X                     < L I I P L I L M   : -   . o : # o o @ @ @ @ U [.}.}.XXN.s a s a s a a a a p .     # -   ^.{.]..XE.. . . . . . . . . . - #     < b N.}.OX",
"].].|.oX!.n M 7 6 X         X     X .       X X     X X     X       X X   c. X[.OXOXoXOXR.    # # # o o # o 2 3 R =.=.=.K.=.=.:.=.:.=.=.=.:.=.U A k j g s a p 4 , p Y }.XX.X+XC.#.#.q q q q q * q * * $ $ $ . . ^..X XOX~.* * * ( z l g s p 5 N W -.L Z b N.+X X XOXOX@XE.@ @ @ X X @ @ @ o X X       X o     X X X X     X X @     X     v.}.{.+X}.{..XR.  . - -         .         . 2 =.>.=.;.=.=.=.K   - , .                     U  X{.oX.XV.                    , . .   o - _. X+X+XR.@ . . . . = . . . . ; #   O + n n..X X",
" X{.[.oX!.C C b 7 @       X X     @ X       X o     X X . X X X       X   v.XX+X.XOXOX XE.    - - : - - # : 9 t ;.q.q.q.q.e.q.e.w.e.q.q.q.w.w.=.R z z z l s a p p p U XX.X X+XC.#.#.q q q q q q q * * & $ . . . /.{.[..XQ.* * ` ` & $ . . . 7 N W -.L C b N.XXXXoX.X+XOX!.                    o :       # :     : o :     @ X #     X X   c.XX X+X+X{. XR.. . , , . . .   . .   .   . 7 q.e.w.q.q.u.u.-.  i i . . . . . .           A {.`.}.+XN.. . . . % . . . . .   , .     : _. X.X+XU.. . = = . . . + . . > -     # n c..X X",
"|.|.[.[.^.P I Z C @       @ :     o #       # o     X @ o o @ o           v..XoX.X X.X}.!..   - - - - - - - 7 N q.k.k.k.k.k.k.k.k.l.k.i.i.i.l.4.W * * & & = = . . . <.XXXX X+XF.q q q q q q q q * * * $ $ . . . ].|..X.XE.* [ ` & & $ $ . . 9 N -.-.L C b c..X X X X X X!.  .   .   . . . . .   > , .     ; , .   > ; . . - - -     @ @   h.{..X{. X{..XR.. . s s . . . . . . .     . 8 k.l.k.k.p.l.k.=.  a g $ = $ = + = . . . X   W [.{.}.+XF.& & * & & & & & & = .   , . .   '.+X}..XE.= = . = . = . + . . ; -     # b v._.).",
"{.{.{.|.E.;.;.R A -       - >     - -       - - .   : # - o o o     X X   v.oX{.+XoX[..X!.  . - > - - - - - 7 S u.z.z.b.m.n.b.b.b.b.l.x.m.l.b.e.>.* * * * % = . . . t. XoX.X+XE.* q q q q q q * q * * & & . . = [..X.X.XR.* [ ` * & $ $ $ . 7 N =.-.L n b N.oX.X.X.XoX+X~.. . . . . . . . . . . a a . .   a s . . . . . . i , ,     : @   v.}.{.XXXX{. X!.$ $ j j = = . . . . . . . . b b.n.n.l.x.n.b.3.  j j l j j j j s a , - - - t.}.{.+XoXE.l l l l l l l l l l = .   - .   .X+X+X.X!.& = = $ = = = + . . 4 0     # b h.}.[.",
" X{.|.].W.:.w.=.E > .     > 4 .   , 2 . .   ; , . . - > , - - -     X X X s.+X{.+X+X.X.X[.Q.. , , , > - - > 8 A i.M.b.M.x.n.b.M.n.M.n.n.n.m.x.i.>.* * * * % + = . O F.+XOX XOX!.q q q q q q q * * * & & $ . . e.OXXX[. X!.* [ ) * = & $ . . 7 N E -.L M b B.XXoX{.oX X#X^.$ $ % $ $ $ $ . = = = k j = =   f z . = = . = = s a s .   : #   c. X{.oX X+X X`.R.# z l = = $ % . . . . . . h n.n.n.n.n.A.M.3.  l z z / z z z k g p , > , F.+X+X+X|.)./ / z / / / z / z l z . .   - d.OXXXXX.X!.& = = & & $ $ $ . . , - .   + b c.{.}.",
"[.{. X[.(.w.i.q.;.4 . .   i a . . p p . .   p a . . p i , , , ,     X @   h. X}..X+X{.}.+X{.. 4 4 , , , > > 8 S i.M.M.M.M.M.n.M.n.b.b.n.n.n.n.y.,.* * q * % % + . v. X{. X}.oXoX^.q q q q q u q q * * & $ . . Y.{. X{.].E.* [ ] & & $ . . . 8 N E E L M b N.{.XXOX[.].oX).% % & % & & & & & & & / z & &   / / / / z / / z l k j .   - - . g.oX.X{.+X+X X+X).&   _ * = = & = % + . . . N M.A.M.M.A.n.A.4.& & * & & & & & & $ . . . V..X.X.XXX.XXX!.* * & & & * & *   l l . X ; R..XXXXX|.Q.& * & & & & & $ $ $ 5 ;     # b c.`.{.",
"`. X.X].R.a.l.w.;.a . .   a j . . s s . .   s s . . s s s a a p .   # @   s.XX X{.OXOX.XXX%X$XXX[.E.A 2 @ @ 7 A e.x.n.n.M.M.M.M.S.A.n.z.c.b.n.p.e.^ O.9.c./._._.`. X}.}.OX[.].[.&X%X XP.q q * * q * * 3 E.Q.'.XX.X.X{.].E.q [ ) * & = = . . 8 m E E L M b N.{.}..X.X.X.X).& & & * & & * & * * & ) ) * *   ) ) ) ) ) ) ) ) / / l j .   - - c. X}.{.+X X+X+X@X+X+X`.!.H t 3 * & & % + + N A.n.v.A.A.A.M.4.B H Q ^ T ~ o.7.h.)././.'.XXXXXX XXXXX X#XOX[.G.* * * * &   z F ^.~.].}. XOX{..XQ.{ * * * & & & & $ = p ;     # n v.{.}.",
"{.|.|. XW.b.l.w.<.  =   f j l $ $ j j $ =   j z = = g j j g s s .   : @ X s. X}.oX X.X XXX X X{..X}.|..X+X+X@X X+XXX+X+XXX+XOX X+X.X.X X{.{. X X X/.|.+X+X{.oX}. X@XOX}.oXoX X XXX|.XXXX X.X@X.XoX].{.].[.[..X|.OX{.|..XE.* ] ` & = $ = . . m N =.E J M c v..XoXoXoX+XXX^.* * * * * * * * * * * [ ] * *   [ [ [ [ ] [ [ [ ] / z j s .   - h.}.{.{.{..X+X.X X{.[.{. X+X+XXX@XXX.X@X X.X@X+X.X+X+X@XOXoX{. X+X{. X{. X X XXX#XXXXXXXOX+X+XXX+X+X}..X XXX X X[.{.+X@X.X XOX{.{.+X.X}.{. XXXU.] @.* * * * & & $ = p , .   @ b c.[.}.",
"oX.X|..XR.l.a.w.>.=   k l z / & & l l = =   l / & = l l l l j j .   - :   s.oX.X XoXoX].|..X X{.'..X].[.XXXX XXX.X.X+X+XXX+X{.+X.X@X.X+X{.[.{.}..XOX`.'.`.{.{.{.OX|.OX{. XOX}.].}..X}..XoX.X@X.X}.}.{.`.|.`.XXXX.XXX.X{.E.* [ ) & & = = = . N A =.E L M b v. X@XoX X+X+XQ.* * * q * q * * * q * [ { * *   { { { { { { { { ] ` / l s p .   g.{.]. X.X{..XoX.X}.+X{..X XOX{.{.XXXX X XoX.X+X+X].+X+X+X+X.X}..X}.}.].}.}..X.X.X+X XoXXX X X+X+X.X{.}.OX{.XX X}..X{.}.}. X X.X+X X}.}.XXXXXXR.  [ #.* * & & & & $ p 4 .   + v v.].[.",
"|..X|.[.!.l.x.w.>.  z / & & & & & / / & &   / ` & & / z / z l l .   - - X y.XX{..XoXXX.X XXX{. XOX[. X{.|.|..X}.}..X X+XXX.X.X+XXXoXXX X X}.{..X.X|. X|.}. X XoX.X{.OX{.{.oXoX X'.'..X'..XXX+X X.X{.].[.|.XX[. XXX{..X.XY.* [ ] & & = & . . I U 2.E L n v c.oX+X}.OXoX+XQ.* * * * q * q * q q q ....q *   { { ..{ { { { { { ] ` z f p 4 O s.{.]. X.X].}.}.}.{. X|.|.|.[.{.{.|.XX+X.XXX+X+X+X.X+X+X+X+X{.{.{. X'.{.[..X{..XXX+XXXOX.X.XOX+X}.+X X}.[.+X[.`.XXXX.X}.}. X X XoX X.X.X{.XX.XW.*   { #.* * * & & $ s 4     # b v.{. X",
"oX|.`..X/.b.M.r.>./ / & * & & & * ) ( & &   ) [ * & ) ) ) _ / / .   , -   y..X+X.XoX+X XXXOX{.[. X X|. X[.[.{..X X X+X{.+X+X.X+X.X X+X{.}.{.}. XXXXX.XXXoX.X[. X X{.oX].]./.[.`.oX[..X.X X.X+X.XoX X{.`.{.`.{. X.X.X.XXXE.W 1.O.~ ~ w.i.6.6.3.;.3.-.J n b z.oX X[.OX.X[.!.q * * q * q q * q q q @...* q   ......@.@.......{ [ ) l f p 4 ; y.{.[..X.X_.{.].}.+X{.{.XXXX{.[./. X.XXX.XoXoXXX.X.X+X+X+X+X X.X}. X}. X}.].{.XX X.X+X.X.XOX+X XoX+X X X[..X{.{.{. X X+X'.}.}.{.]..X+X.XXXoXXXR.r *   X.#.* * & & & s ,     + b c.}.XX",
"OX X].|.!.x.n.w.>.) * * ] ] ] ] ] ] ] * *   ] { * * ] ] ` ` ) _ %   , >   s..X XoX+X.X.XXX.Xc.Y T T U Q Y U Q Y Y U G | ^. X X.X@X X.XXXXX X{..X.X.X.X X.X{.oX+XoX].{.E./.[.`.{.oX{.].{.}..XXX.XXX'.'.!.{.{.{.XX.X.X+X+XU.x.n.n.M.M.b.b.l.l.i.w.2.E Z n b c.oX}. XOXoX+X!.* q q q q q q q q q q #.@.q q   ..#.#.#.#.#.#.@.{ { ) / f p 4 ; p.oX[.}.{.[.+X}.{.c.Y U T U Q A Y Y Y U U Y | `.+X.X+X.X+X+X X}.+X}.{.{. X{. X.X.X X+XOXOXOX|.oX.X X X[.|.XX].'.{.{. X{.{.+X X).[..X.X{.}.}..XU.&.*   { { * * ` z k s 4 - @ # b N.].{.",
"oX]..X X^.m.n.p.3.* * ] [ [ [ [ [ [ [ * *   [ @.* * { [ [ ] ` ` %   4 - X p.+X|..XXX X X[.P.Y & & % % . . . 8 Z e.b.b.Y U }.}..X X+X.X X+X.X{. X.XoX}.{.+X XoXoX.X X[.(.!.'.).{.{.]. X}..X+X}.oX}..X`.].].}. X{..X X+X XI.D.J.T.L.L.D.D.D.A.l.w.:.R J M v c.{.].[.}.}.oX/.* q q q q q r r r r q   #.&.q   @.#.@.#.#.#.#...{ { ` / f p 4 ; s.+XoX}.+X'.XX XV.Y %.*   [ ] ) ( l k j s a G T  X X+X+X.X+X.X+X.X.X.X X[.].}. X.X{.XX|.XX{. X X X X+X[. X X}.[.{.{.OX X{.].}.{.].{.[. X{._.}.P.$.*   ..{ * * ) / k s , - # @ n c.[.XX",
"OXoX|.OX~.b.n.t.3.* [ [               * *   { %.* * { { { [ ] ] =   p ,   g.XXXX}. X+X}.@Xh.* & * & & = $ . 3 N 4.b.m.n.Y E. X}..X X X.X X X^.P.z.c.s.s.s.s.s.s.p.p.t.e.t.t.9.s.s.c.b.v.c.V.N.V.N.F.J.^._.{.{.{.[.}.}.}.U.b.M.b.b.b.b.A.M.b.l.l.:.;.K M b c.].].oX[.]. X^.* q q q q #.#.#.#.#.r *   #.&.*   #.@.#.#...#.#.{ { ` z f a , , s.oX{.}. X X X%Xc.  { #.*   ` ) / z j f s a L U U.+X X+X+X+X X X+X~.P.c.c.s.d.t.t.s.s.s.s.p.y.s.g.s.B.v.c.v.v.B.B.V.V.C.C.U./. X.X+X X_.{..X].I.&.*   ..{ * * ) / k s p - @ - n g.|.[.",
"}.oXoXOX).n.n.u.,.[ { * * * q * * * * * *   { $.* q { { { { ] [ =   i , X h.{. X X+X XXX'.t./ / l j s a p , 5 N 5.p.z.p.p.v..X}. X.X X+X.XW.t.Y Y Y T T T T R T U U U U D D L D U U U Y Y Y U Y U G Y o.s.].{.}.]. X{.).U.n.m.n.M.M.n.M.l.b.l.i.:.-.J M c c._.{.`.].}. X(.! * q q #.#.#.#.#.#.#.r q   @.&.q   #.#.#.#.#.#.{ { ` / f p ; - y.[.}.{..X.X.X[.t.*   [ { * & & & = . . . U K.z.v. X.X}.+X+X+X.XQ.s.Y Y Y P U G U Y Y Y U U Y U G U U Y U U Y U U U Q U U U o.N.[.}.{.{.{. X XI.&.*   ..{ * * ] / k s , - 7 6 b v.[. X",
"[.{. XOX).z.b.e.<.{ * q r r r r r r r r w   @.&.q * #.#.X.X.[ [ $   p ,   s..X+XXX X+X|.).                  # 8 >.u.u.e.i.y.{.{. X+X.X+X+XR.T e.e.q.w.2.:.R K C C n N Z L R K.;.3.u.u.q.e.4.q.q.4.;.R U <.R.}.{. X{.[.}.R.m.n.m.b.M.M.M.M.b.l.l.3.R J M b c.[.{.oXoX{. X!.n.x.l.a.a.p.w.g.l.a.a.l.p.l.a.a.p.p.l.a.a.g.l.l.i.e.3.=.L C c 6 t.{..XoX.XXX.XE.>.2.3.3.4.3.3.>.3.,.3.3.2.3.i.e.e..X}. X.X+X+X}.R.| 3.2.>.E U R L C b 7 7 b C J R E >.;.>.4.5.4.3.3.;.~ E U U <.Q.oX.X{.].}..XY.u.p.p.e.z.i.p.p.e.e.3.=.L C n b v.[.[.",
"+X}.}.}._.m.n.u.;.* *   ..@.@.@.#.#.#.#.#.@.#.&.q * #.#.{ X.[ X.=   a 4 . s.OX.X{..X X.X!.= = = . . . .   . O 7 R 2.3.2.2.9..XoX.XXX+X.X}.I.=.2.;.;.-.-.I K J n b b b n L L U E =.;.:.2.2.;.2.;.E U K M U G. X[. X{.{.{.Y.c.M.S.b.b.M.M.x.n.l.l.q.-.L M M x..X{.].].[. X(.n.x.b.x.g.x.M.n.A.A.M.M.A.M.n.M.n.A.A.M.M.m.n.A.n.l.e.2.-.J n b s.`.{.]..X}..XQ.;.2.2.;.:.:.2.;.3.;.2.2.2.2.2.3.7. X].+X}.+X@X{.Y.>.;.=.=.=.R L L M n b b n M Z L R =.=.;.:.;.2.3.:.:.-.I I C U P.+X X X}.[.[.R.n.k.b.l.b.z.z.m.z.e.e.:.-.L n b c..X X",
"oX.X}.}.(.N.b.t.,.*   ..: : : : : : : : : : : %.q q #.#.#.{ [ { $   a ,   g..X.X}. X.X}.!.. . = . . .   .   . 2 C R E E E 7.{.oX}..X.X+X].v.P P I P L L J n b v c b b b M C J L L -.E R E R L L K J C M U b.{.{.+X X{.+XY.z.M.S.A.b.x.n.n.b.l.i.3.E K M b b.XX X.XOX{.#X!.m.x.n.b.a.b.b.M.A.A.b.b.M.b.n.b.M.n.A.b.A.M.n.M.b.l.i.2.-.J n c y.`.].}.{.].XX!.L R R E E R R E E R R -.R -.I R 7. X}.+X.X+X}.].C.P P I I L C C b n b c 7 c b b Z Z L I R R R I R I P I L C C Y C.oX.X[.].}. XE.n.x.S.M.b.x.l.b.m.p.w.2.-.J n b v.{.oX",
"}.].].].Q.M.n.e.,.  {   * q q q q q q q q q q q q q #.#.#.#.{ { &   p , ; s.{..X.X.X.X.X!., , 4 , , - - : o @ < n Z Z K J 7. X.X.X X+XoX'.N.C C C C n n M n n v b c b b b n C n K J Z C J J C M M n n b b v.{.}.}.{.+X+XR.z.n.M.A.n.b.l.b.l.x.a.q.-.L M n V.OX]. X.X XoX).b.n.x.n.z.p.n.M.n.M.n.M.b.z.n.m.n.A.A.A.A.n.A.n.x.l.e.2.-.L n b s._.[.[..X}..XQ.Z K K L K L L K L K L L L L K K 1.+X.X+X.X}.+X`.P.V C C M C b b b b b c c c c c b n C Z K C K K C J C n n n b b N..XoX}.}..X`.R.n.n.b.A.n.M.n.z.m.k.e.3.-.L n b v.`.oX",
"[.{.[.}.(.k.b.u.;.{   * q q q q q q q q q q q q q q #.#.@.{ [ [ $   p 4 ; g. X XXX{.XX.XQ., , , , > - : # @ @ < 7 n n n n 7.}..X.XXXoX+X).c.b b b b n b v v v v b c c c b b b b b n b n b b v n b v c 6 b v.XX}._.}.{. XE.n.S.S.b.x.x.x.l.x.l.a.:.;.L M b v.XX[.}..X.XOX!.l.n.b.m.m.m.n.n.n.n.M.M.n.z.x.M.M.n.A.b.A.A.A.n.b.p.u.3.I J b c t.[.].[.{.}..X!.J J K Z K K Z C C C C M M n M M 7.+X.X X+X{.+X`.P.b b b b b b c c 7 c c c c c c b b n b M n M M n n n b b b c c v.+X{..X.X.X}.I.b.n.n.b.b.M.n.b.b.z.u.3.-.L M b c.`._.",
"_.'.'. X`.a.M.6.>.  * q @.#.#.#.#.#.#.#.#.#.#.#.#.#.#.#.#.X.[ { & . . . . c..X.X X.X.X+XW.. . . . . .         < 7 b b b b 1. X+X}.[.oX X(.l.b b b b b b b b v b b b c v v v b n b b c b b c v v c c c c v v.}.}.[.OX XOXR.n.m.M.n.b.n.M.M.x.l.i.3.-.L C b v.+X.X}..XoXoX).s.S.M.n.n.n.n.n.x.x.n.z.n.M.n.n.n.M.A.M.A.M.b.n.z.z.u.3.R C b 9 y.{..X.X[..X X!.L L L L L L K K L Z C M n n b b 4.+X X XoX.XoX'.c.b v b b c b b c b c c c b b c b b b b b 7 b c c c c c c c b v c.}.oX[.+X X.XE.z.c.b.n.n.A.A.M.b.l.i.3.-.J M b b.].'.",
"{.].{.+X`.F.n.w.~ * q @.#.#.#.#.#.#.#.#.#.#.#.#.#.#.#.#.@.@.[ { & % . . . N.}..X+X X+X{.!.. . $ . . . . .   X < b b b c c 4.}.}.oX{.{.}.Q.e.b b b n b b b n b b n b b n n v b b b n b c b b c c c c 7 c b g.`.].'.[..XXXR.M.n.n.M.M.b.M.n.l.p.i.q.-.L n b N.+X.X.X.XoXOX'.U.n.n.n.M.x.b.b.n.z.z.k.z.M.b.n.b.M.b.M.b.A.M.b.b.p.e.;.R Z b b b.]..X X X+X{.W.E I E E R E T U P P L C M b v b 7. X+XOX.X X@X).t.n b b b b b b b b b b b b b b c b b c c c b v c b b c c c c b v.oX{.{..X|.XXW.n.m.n.n.n.n.A.M.M.l.l.3.=.L M v S.].{.",
"}..X{.XX[.G.x.6.,.* { @.q q q q q q q q q q q q * u q   ....[ { * & . . Y F.oX.XXX X X[.!.& & & & & . . . . . 1 b C n 7 7 1. X+XoXoX}.[.(.7.n M C C C C C C C C C C n M n n n n n n n n b b b c c 6 c v c g.}.{.[. X}. XY.b.n.n.M.M.M.A.b.b.l.i.2.-.L C b F.+X[.oX+X.XOX XP.b.n.n.b.M.n.M.b.z.n.b.b.z.z.n.b.x.b.n.M.A.M.n.x.z.u.2.E C n ~ D.|.]..X X XoXE.;.3.3.3.2.2.3.=.W =.R K M M b c 1.oX+XoXOX X.X/.y.M C C C C C M M Z C J M C n C n n n n n n n n b 7 c c c c c c c.{.{. X{.|.|.I.z.n.z.n.m.A.n.b.M.l.i.3.-.L M b V.{..X",
"{.].{.+X{.).M.i.<.{ @.q q q q q q q q q q q q q q q q *   ..{ ` / f a , G.^.[.[.XX|.{.+XQ.( ( z l j s s i , 2 6 Z Z n b c 1.XX{.}.[.].[.Q.<.< < < < < < 1 < < # < < < < < < < < < < # @ # # + # + O O O O s.oX{..X[.[. XE.t t h h N m t m m m 8 2 < 0 M b I.XX}.}.XXXX+X@X[.N n N N N N N m 8 h N N d 8 N h m m m m N N N b 5 7 6 < # # F.Q..X~.[.{.{. XI.9 8 9 8 7 8 2 6 6 2 2 1 < < b b 1.+XXX.XoXoX[._.y.L L L L L P L L L L P L L L L L J K Z Z Z C C C n n b b c c c c.{.`.|.`.XX|.E.b.A.n.b.n.b.n.M.b.b.u.3.-.L M n P. X.X",
"{.}.XX{.+X%XoX|.4.{ q q q q q q q * q q * u q q q q q q *   [ ) / l ~.'.`.[.XXOX X X X XW.` ) ( / l j s a i 4 8 L I C b c 7. X[..X{.].{.!.4.> - - - - - ; . .   > > . .   - X     - - . .   .             c.{.}.{.'.|..X!.@ i a . . . . O .     1 1 < < n ). X}.}.oX.X+X%X:X+X.X+.`   * * & *   ` * &   ` { & &   ) * *   ( ] %   s Q._.^.].].].)._.}.].Q./ / / / z / = = . . . < 1 # < n 4.oX+X.X.XoX X).p.=.=.=.=.-.=.=.=.;.=.=.=.=.-.E R R E E R R R P R L C C n c b c v. X+X.X{.|.XX~.n.n.n.n.n.n.x.M.b.l.p.3.E L M b Q.].}.",
"}.].{.{.`.OX:X%X%X#X*X=X*X#X$X-X&X&X%X@X@X%X%X@X$X&X&X X@X$X&X%XOX$X&X-X+XXX.X.X{.}.}.+XE.[ ] ( ( z j s a i 5 t Y R J b c 1..X].}.].{.[.!.1.- - - - ; , ; ,   . > ,       0 , . . - ; .   - - : @ @ X @ @ s.{.{.[..X[.{.).Q.i , . .   .   . .       O # n {.XX X]. X.X X+X%X:X:X%X%XOX#X&XoXOX#X@X+X.XoX+X&X@X@X&X#X%X@X%X&X@X@XoX@XOX%XoX.X{.].{.{.[.'.R./ / / / z z l j s a i > : + # b 7.oXoXoXXX.X}.^.g.w.q.q.e.q.e.w.w.q.q.w.4.4.2.2.3.3.3.2.3.2.2.>.;.E R J n n c v b.{.{. X{.'.+X'.Q.b.M.M.n.n.x.x.b.l.i.3.-.K C b }.].}.",
"}.}.'.OX|.`.|.'..X|.OX{.|. X{.+X.X+X.X+X}..X X X X X[.[.{.{..XXX.X X}.+X+X[..X.X X XXX XY.                  0 8 W -.K C v <.{.{.}.[.'.[.!.1.- ; ; ; ; ; , 4 . X > ,   .   > , . . - - . . - - # @ X X X X t.`.oX}.{. X}. X`.4 ,   . . . .   .         # F.+X+X.X[.{. X X{.{.oXoX.X.X.X.X].[. XOX+X+X X}..X X+X X.XOX X}..XoX.X X[..X.X.XXX X.X{.).[. X XQ.z l z l l l j f s p , > - @ @ n 7.OXXXoXoX X{.^.c.p.i.i.q.3.>.>.>.>.;.;.>.-.;.>.W ~ >.W >.=.W W E R A C b c 6 6 c.[. X.X X}.+X+X_.6.6.4.6.6.4.4.e.e.u.q.-.L M G.[. X{.",
".X{. X}.].[.`.]..X XXX'. X{.[. X+X+X{.{.}.{. X{.|..X'. X.X[.+X.X.X X+X.X X}.{.XX.X XXX{.Y.* * * & = = . . . 2 m E =.L C b <.}.{. X{.]..X^.<.; ; ; ; ; , ; ,   . , ; .     > 4     , ,   . - - -           p.].{.[.{..X[.XX%X@X XJ..       .       >.Q.^..X+X+X X{.}.oX.X X.X+X X.X.X.X.X|.|.XX.X].{..X{. X].].+X.X XXX[..X.X.X.X]..X+X+X.XoX X[.}.}. X XW.k k f k j s s s a p , - # @ + b 7.oXXXoXoX X{.^.b.m.t.W A m 7 8 8 t 8 8 8 8 b 8 8 8 b 8 m 8 8 8 8 7 2 2 # # O O v.{.oX.X+X{.+X'.+X$X|.P.N N N 8 8 S Y 2.e.!.^.#X}.{.[.",
"[.`. X'.+X}.}.^.[.{. X|.[. X{.[.}.+X+X X X[.}.[. X.X.X{.].{.}.}..X X+X X.X+X.X.X.X}..XoXQ.* * * & & & . = + 6 m E =.L M b 5..X X.X}.{.}.^.5.; > ; ; , - > 4 . . - ,   .   ; ,   . ; ,     , - -           p.}.}. X{.[. X'.{. X X@XXX;XOX$X+X+X@X+X.X+X}.}.+XOX X X}. X X}.'.}.}.[. X.X XXX X X`.}.+X X}..X X}.+X{.+X+X}._.[..X}. X}..X X{.OXXX.X}.[.]..XW.f s f s s s a a p , , - @ @ # b 7..X+X X X{.}._.v.b.p.>.h t t N 8 N 8 8 t N h m m t N N h m m 8 8 7 9 2 1 # # @ g..XOX{.[. X{.{.|. X+X@X@X#X@X@X|..XOX.X X].oX[..X].|.",
"'.{.{.{.|.[.}.XX[.[.|.}.{..X{.XX.X.X+X}.+X+X+X+X{.XX X+X}.}.{.}.OX'.[.OX[.OX{.oX{..XOXOXW.{ ] ` _ / l j a p 5 N E W L n b <..X}.oX}.{. X_.4.; ; ; , ; , 2 4     , ,   .   , , . . ; , . . - - , X         g.{.}. X+X]..X{..X X.X+X XXX.X X{..XXX.XXXXX[.+X+X+X+X}. X.X.X{.{. X}.]..X[.].{..X'.XX.X X}..X.X.X].{.}.}..X].{. X X}.'.[. XXX[.+X X X X}.{.+XE.                          @ < b 7.+X.XoX.X].+X].N.n.i.3.B d a a s a a a a a a a a a a a a a a g .   , ,         c.oX.X}. X.X.X}.{..X.XoX[.|.{.{.|.|.'.[.{.{. X.XoX X.X",
"[.'. X X`.{. X[.[.{.`.{.].[. X|..X+X.X+X X}.{.{.{.}..X.XXX}.}. X+X XOX.X.X[..X{.OX'..X{.Q.[ [ ` ) z l g s p 8 N W ;.L C b 1. X}.}.oX].oX'.7., , 4 4 , , , p . . 4 , . .   , 4 . X , , . . , , , .   X X X s. X}.+X X.X{..XXX XXX X}.}.'.}..X.X{.XX.X+X}..X}.+XXX+X[.+XXX{.}.}.'.{. X XXX X.X|..X+X{. X X+X+X X_.].].{.].[._. X}.}.XX.X.X X.X+X X[.'.{..XR.. . . . . . . . .   .     X # n 7..X.XoX].{.+X].v.A.p.3.h p p p p p a a a i p p p p p p p p 4 a .   , - .       g.+X XXX|.[.`.|..X+X X.X|.|.[.[.oX X`.{.[.].oX.XOX.X|.",
"}.[..X[.+X X{.{.|.OX X.X X[.XX+X+X{.+X X+X+X}.}.XX X X{..X X{.]. XXX{. X XOX{.oX.X+XOXoX!.* * * & & & = . @ 3 m ;.=.I C b 5.}.+X}.{.{.{.'.7.i i 4 4 p p p p . . 4 4 . .   4 p . . p 4 . . , , ,     X X   h.'.+X.X+X{.XX|.+X.X{.}.XX X}. X X+X.X.X X@XXX}..X X+X+X XXX+X$X X.X{.'. XXX].|.|.{.{. X+X+X+X X X}.}.].}.{._..X.X].{..X X+X X X+XOXXX X X{..X!.. . . . . . . . . X       @ # b 7.+X+XoX X]..X`.N.M.i.>.4 4 , 4 , 4 , , , , p p , p , , 4 4 4 p .   - -         c.XX+X X.X]..X}..X}.+XOXoXOXOX[.oX.X}.[.[.{.}.oX].OXoX",
"Y Y Y U U U U U U Y U U U U U U t.]. X'.}.}.+X+X}.B.T Y U Y Y U Y U Y U U Y I..XoXOX+XOX!.* * * * & = = . . 7 V K.K.L C b 1.].[.]._.}.{._.t.p a p p p s p s . . p p . .   a s . . p a . . p 4 p     o @   g.{..X X X.X X.XOXF.T G U G T Y T T T U Y Y Y R U U R U Y Y | U U Y T U A G U Q Y D Y t.].+X.X.X.X X X{.c.U U U U U U Y Y U U T W P.XX{.{.oX.XE.s a s s a a a p 4 4 .     X @ b 7..X.XOX.X X X`.N.M.i.W 4 , , 4 ; ; 4 > 4 , , , , , , , , , , , .   - #         v.oXXXXX X{.+X XXXP.W T T T Y T T U T Y G Y G I Y Q U ",
"C L -.2.5.e.t.3.E ( * & * * * * Y Y )..X].+X+X+Xy.Y * & *   z l = . 4 , , N Y t.XX'.oX[.!.w q u * * * $ % . 3 N =.K.L C b <._.'.{..X+X}.^.7.s s s s s s s k $ $ s s = +   a j . . s s . . s a a .   : o   s.XXOX+XXX].|..XF.Y F . $ . . o , > >     X # b b c n M P =.A , . o p a s . . . . .   Y Y _.+X].{.{. Xd.D p @ . i i , .   : X   N T t.oX].[.[.~.g s s s s s a p 4 ,   .   @ # n 7.+X+X.XOXXXOX_.g.c.e.,., , > ; ; 4 ; , > , , , , , ; , , , , 4     - -         v.+XoX.XXXXXOX.XF.U 9 2 , , - - - 7 8 U R C b 6 v v n ",
"n C L E E =.2.R U l = = = & & & = 9 s.+X].{.+XW.<.% & & =   j s . . ; - ,     Y [.OX XoX^.[ [ ) ( z l g a p d d =.=.L n b <.{.]..XoX XXX).0.f f j j f j j l . $ j j . %   f l = $ j j $ $ g s g .   - o   g.|.+X+XXX|.+X.Xg.  s k = . . . i , ,     O # b b v b n J L Z , . . i i a . . . . .   p d d. X+X}. XQ.<.p p O . , , ,     X X     # Y ]. X X.XQ.$ = = $ . $ . . a 4 .     X # b 7.oX X+XOX X+X`.g.n.w.3., , ; 4 ; ; , ; 4 , ; 4 ; , , , , , , 4 X   - :         c.}. X{.XX.X+X#Xh..   - - - - : - 9 t I I C n v v v v ",
"v n C L P I R K N s = = = + = . = = ' +X+X+X+XI.= = . . .   a p . . - > , .   h Q.[..XOX!.                  5 b =.=.L n b <.'.[.}.'.{.{._.0.k l l l l l l z & & z l % &   l / = & l l & & l k j .   - -   g.[.+X XXX|..X!.S .   j k & $ . a , >     O O b c c b b b C v - . . , , p . . .   .   , ; | +X+X}..XR.  ; ; X . > > >     # :     : d ^. X[.}.U.& % = % % % $ . s a .     @ # n 4..X+X.X XXXXX`.c.M.i.W , , , , 4 , 4 ; 4 , , , ; 4 4 , , , , , .   - -         c.].}.{. XXX.X).S                 2 7 L K M v v v 6 v ",
"v b n M C C J n 7 p . . . . . . . . T #X[. XOXG.. . . . .   , ,   . ; - ,     p U.|. X X!.* * * & & $ = .   8 m ~ -.K M n 1.[.oX'.{.XX.X).0.z / / / / / z ` & & / / & =   / ) & & / / & & z z l .   - -   g. X+X|.[.|.|.E.j . = f f s . . a ;       X O v v v b v b n 6 -     4 ; ,   .   . .   - ; T  X{.[.XXP.  - , .   > - >     # # .   - > U.`.].{.R.& & * * & & $ $ g a . .   X # n 4.oXOXXX+X X+X^.g.b.u.3.p 4 4 p 4 i p , i p , p i p 4 p 4 i 4 a .   ; -         g.|. X X X.X+XQ., .   X     .     1 3 Z C n b c c c c ",
"c v v n n b n c 6 , . . . . .   . . U +X{. X.XV.. . . .     , , . X - - , X   p G./.{. XQ.* * * & & & . .   8 h W -.L M b <.{.[.].XX}.{.).0.( ( / ) ) ) ` [ * & ( ( * *   ) [ * & ) ) & & _ / / .   > -   a.XXXX.X[.[.XXY.  = . s s + . a ,       X X @ v c v v c b b 2 : O   - - , .   .       - - U XX X.X{.F.  - -   . - # >     : #     - , P.[.'.!.E.* & ( / / ' % $ j s .     X # n 7.OXoX{.+X+X X`.c.M.w.<.p a a a                                 .   , > .       c. X.X+X X X{.U.- . .   . .   .   1 1 b n b b c 7 c c ",
"v v v v b b v c 2 -       . .   .   T OX].oXOXV..     . .   > - .   - 2 > .   p F.`.{. XQ.[ [ ` / z l l .   t N W W L C b 7.oX X X{.{.{.`.d.) ` ` ] ` ] ] { * * ] ] * &   ) X.* * ) ] * * ) ) ) .   , ;   c.XX.X[.{.].[.U.. . a a . . i ,       @ X   O c b v v v v b 1 -     - - -         .   - : T }.[.|.XXV.  : - .   - : -     : #   . > , G.[.[.^.E.& * ` ` ` ] & & l s . .   @ < n 7..X{..X.X{.}.(.g.b.y.3.s s s . $ . . . $ $ . . . = . $ . . . . .   a , . .     c.|. X+X.X{.[.G.- - : : o @ # @ X # < 7 n b b c c c 6 ",
"v v b v v b b 6 6 - . O .   . .   . Y OX{.oX+XF.  . .       > >   . - > ,     a G.|.|..X~.[ [ ) ) z l k .   8 C ;.;.P C n 7.[.oX XXX{.[.`.d.[ [ [ [ [ [ [ #.* * [ [ * *   [ #.* * { ] * q ] ` ) =   i , . c.OX.X|.{.[.|.U.. i 5 . . , ,   .   X X     O b b b b b b c 6 -   . - - 2 . .   .     - - U XX X[..XV.  - -   . - - > .   - - . . > i F.|.[.'.R.* * ] ] ` [ * & l j . .   @ # b 7..X X[.+X}.].^.v.m.u.>.s j . $ . = = = $ $ $ = . $ $ $ = = $ = .   s p         c.OXOX XOX X XG.                  O < b b b b c b c c ",
"n b n n n n M b 7 > . . O   .       U |. X X+XN.. . . . .   4 4 .   > > 4 .   p G.|.|.[.Q.%.* * * z k k .   N A K.=.L C b 9.}..X.X{.{. X_.B.{ { { { { { { #.* * { { * *   [ %.* q { { * * [ ` ] &   4 , - c.OX.X X{.[.{.Y., i . . , ,       : : X     # M M b M n n n 6 > .   > , 4 .     .     - - Y .X X|.XXV.  ; ; X . , , ,     ; -     , p n.).'.{.~.* * * * * * & & z j .     X # n 7..XOX.X X.X.X^.v.b.u.<.j % % z l l z l z z z l z l l l z l l l l j s a . .     v.OXXXXXXX|.|.U..         .       O < b n n n n n n n ",
"Z Z K K Z Z K C C M . . . .   . . O U |.{.oX}.v.. . $ . .   a p . . , 4 4 .   p F..X X|.^.#.* & & z l k .   U Q 3.=.L C n 4..X}. XXX{.}.).I.{ { { { @.{ X.$.q * ..{ q *   { $.* * X.{ q q { [ [ =         c.{. X|. X|.|.Y.a . . p i   .   , - .   # # # J K J C Z Z Z b 4 . . p p a . . .   .   - - Y [..XXX.XN.  p p . . i p a .   , ; .   , p F.[. X[.R.q * * * * * * & z l $ .   : # v 9. X X+X.X.X[.).P.b.e.>.& & / / / / / / / / / ( / / / / / / / / / l l s . .     V..XXXXX+X.X[.Y.. .   .           O 1 n K C Z n J J J ",
"R R R R R R -.-.-.E P K C v 6 1 < < U oX[.].`.c.b m 8 m b b V V b 7 8 7 7 1 1 8 G.XX X X~.O.W Q ~ o.9.i.e.w.,.>.q.-.L Z n 9.XX'.XX{. XXX'.I.{ { @.@.@.@.@.$.q * @.@.* q   ..&.q q @.@.q * { [ { = = .     c..X.XOX X X.XU.. = s s   .   a i . . > -   - R -.R -.R R R C s . $ s g j $ . . .     > - T {. X'.).N.  s s = . g g j .   p p . . , a V. X{.[.!.q w r w w q q * / j . .   # + n 9.XX].{.{.{.+X_.P.m.t.3.& / (   & * & & & & * & & > * * * & & & & & % . . .     V.XXOXOXXX.XXXU., , > , > - - o o > 2 L E R I R R -.E ",
"2.2.3.2.2.2.3.q.e.4.:.;.R I M b b b U }.]._.{.c.;.;.:.:.,.>.;.;.;.-.I L M M M Z G.XX[.|./.x.x.x.m.a.a.x.b.z.a.e.q.=.Z C b 9. X.X[..X+X.X].P.{ #.@.#.@...#.&.q q #.@.q u   ..&.q q @.#.* * ..[ [ $ = . . A F.{.{..X X.XXXE.= / z   &   j j . . p ,   . 2 3.4.=.2.2.2.3.U l & & z z _ & $ $ . .   , > Y  X{.].{.n.  z z & & z z _ =   f p . . , a V.).}.|.!.@.@...{ { { ` ` / l $ .   # @ n 9.{. X{.{..X X].P.S.u.,.) )   & * * * * * * & * * & - * & * * * & * % = . . . ! F..XoXXXOX X#XQ.s g s p p , , > - 2 8 U 3.2.2.>.:.2.3.",
"u.k.u.i.i.e.u.k.k.k.u.u.q.=.-.J M M W {. X.X{.v.k.k.u.k.l.l.k.l.p.w.2.-.I J J L G.[.|.{.~.D.H.H.D.A.n.A.D.D.b.i.3.=.Z M b t.[. X].[.+X|.|.^.X.X.#.#.#.#.#.&.q q @.#.q q   @.&.q * #.#.* q @.[ ` / f a 4 g.W.{.{.oX{.}..XR.) `   *   / / = = s s   . . 7 u.u.u.i.u.i.i.;.G * * ) ) [ * & & $ .   , , W XX{.].[.c.  ` ` & * ) ) { &   j s . . p a F.'.[.`.!.                    = .   o # n y.+X X+X}.}..X}._.S.u.,.]   *   [ [ [ [ [ [ [ [ { [ [ [ [ [ [ [ [ ) / l s i , c.!..X|.OX.XoXOXR.& & = = . . . . . 2 M ;.w.e.w.e.i.i.i.",
"l.l.l.l.l.l.l.l.l.l.i.w.q.=.K J C M 1.oX`.XX#XN.l.l.i.l.b.l.l.l.p.i.3.=.I C J K F.}..XOX'.l.b.x.n.x.x.x.b.b.l.l.5.=.L C b v.{. X.X{. X[.OX X|.#.#.#.#.#.#.&.q q #.#.q q   @.&.q 3 ..#.u *   { ` / f a I.R.]..X X.XoX XOX~.[   *   ] ` & & z l   .   p V z.l.u.z.l.l.l.4.~ * * [ [ #.* * & % $   4 4 <.OX{.[. XN.  [ { * * [ [ #.*   / k . . p a F.`.[. X/.e * * * * * * * & = . .   # < n v.oXoX{.].}..X@X@X}.t.,.  *   [ { { { { ....{ { { { ....{ ....[ [ [ ( l s p U.E.{. X{.oXoX{.OX!.* & & = = = . . . 2 N q.l.a.i.l.x.l.x.",
"n.n.b.n.b.l.n.b.l.m.b.k.u.2.-.K C M h.{.}.OX.XN.l.l.l.b.n.b.x.x.l.k.q.:.I K C J V.{._..X`.Y.n.n.A.n.l.l.l.l.l.i.q.-.L M n U.]..X|.[. X].XX-X*X+X+X XoXoX]. X.X|.{.XX|.}.[.[.{. X].{.+X}.}.}. X}..X{._.}..X.X X+XOXoX X.X'.9 *   { [ * * ( /   $   a T 3.b.k.m.m.b.x.b.l.p.B *   { $.* * * $ =   p , g.XX}._.}.N.  { ..* * X.{   *   ( z + . i a V._.`..X[.Y.q q * * * * & % % . .   7 7 n U.{.oX.X].].].+X:X;X+XOXXX.X X]._.].[.].].'.}.].{.+X}.}.{.}._.}.}. X).{.]. X X X{..X.X].oX{.OX`.m q & & & = . . . 2 V 4.x.m.x.l.n.M.M.",
"n.n.M.b.M.A.n.n.A.b.b.k.k.q.=.I K C ^..X{.'.#XN.n.l.b.b.n.M.x.n.l.l.e.:.-.K J J I.XX X}.XXE.b.l.n.x.x.x.b.x.l.p.q.-.L Z <.}..XXX'.].].OX|. XoX$XoX#X*X=X$X-X=X%X+X%X%XOX+X#X;X;X@X;X;X;X%X&X%X%X;X%X@X{..X X{. XOXOXXX+X+XU.i.i.i.i.i.p.p.p.p.a.i.i.e.k.b.z.M.n.b.l.b.A.H.n.m.k.p.p.i.q.q.:.U Z C C ^.XX+X'.}.N.i.i.i.t.p.i.e.e.i.w.>.R V C m n F.{.{.].OXE.p.i.a.p.l.p.a.a.i.6.>.E J C >.[..X X}.}.].].}.+X+X+X#X%X@X+X@X@X+X}.+X+X@X@X@X@X;X+X@X&X@X+X@X&X%X@X%XOX+XOX|.}.}.|.{.oX XOX+XF.* & & = = . . . * Z 6.b.b.M.n.n.A.M.",
"n.n.n.n.n.n.A.A.n.n.n.x.k.4.=.L U.!.XXXX}. XXXV.b.b.M.b.n.A.n.n.b.l.u.>.I K J L P. X{..X XOX[.z.l.b.b.b.b.x.x.l.w.;.L <.E.}.}.'.OX{._.OX}.[..X{. X{.OX{. X X|.|..XoXXX X{..XOX#X.X.X.X+X+X.X.X.X+X.X X}. X.X}.}. X.X X+X.X&X XV.n.n.b.M.b.M.M.b.c.m.x.b.b.n.A.n.M.x.l.n.n.A.n.n.n.n.b.c.i.3.E P U.^.+X+X}.{.}.C.n.M.M.M.x.c.x.p.m.e.3.=.R Z J L F.|.[.[.'.XX'.x.x.M.b.b.M.b.b.a.3.=.L 5.R. XOX.X}._.].}.}.+X{.}.+X}. X.X}..X{.`.].].].{.+X}.+X+X}.+X}.{.}. X+X[..X}.XX XXX.X[.{. X XoXoX.XOX`.* & & $ $ $ . & N 6.x.M.A.n.l.D.n.",
"=X$X*X#XOX%XOX*XOX=XoX#X=X$X@X@X+X}.+X.X.X.XXXV.x.b.M.b.n.n.M.x.b.l.u.3.-.K J K U. X+X}. X XOX;XoX X[./.oX[.[.XX|.]..X[.].{..X.X.X[.]. X.X|.{.OX].|.].]. X|.oXoX[.|.|.[..X+X XXX+X.X.X.X+X+X.X}..X}..X.X].].]. X X{.+X.X.X}.%X-X:X-X%X+X#X%X$X&XOX%X+X%X;X@X;X%XoX%X+X@X=X%X%X%X%X#X$X@X%X@X@X%X+X+X+X X.X{.+XN.M.M.n.M.x.b.z.p.a.i.q.>.P C M K H.].'.{.'.|.].%X%XXX{.`.XX'.]..X{. X.X X{.{.|.{.}.}.}.}.].]._.}.}.{.].].].}..X.X]._.}.+X}.+X[.].+X].].}.'.}..X.X.X{..XXX.X.X[.{. X XoX[.].].|.&X%X#X=XOXOX*X*X=XOX&XoXOX@XoX*X-X",
"OXOX#XOXOXOXoXoX.XOXoX XoX XoX X}.XX+X.X.XXX XM.l.n.n.n.n.n.x.b.m.l.e.2.R L J K Y.+X+XXXXX{.'.'.[.|.{.[.[. X X|..X|.[..X'.|.{. XoX.X[..X X.X.X[.[.oX{. X|. X.X[.|.oX[.OXXXOX XOX+X.X.X+X+X.X.X.X}..X+X.X X+X[.{..X+X.XXX X}.XXXX+X.X.X X.X{.'.|.}. XXX.X X{.oX[.[. X}.oX.XoXoX X X]. X}.[.XX.XXX|.@XXX.X+X'.}.N.n.M.x.b.n.M.x.m.p.a.i.2.P J C A G.'.'.'.OX[.|.`.XX}. X.X|.|. X|..X`.{.{.].OX X[.].{.]..X+X}.}.].{..X X+X{. X{.`._.].}.+X+X}.'.}.}.].{..X}..X[.+X X{.XX X{.XX{..X[. X X|. X.X]..X X XoX[.[..X|.[. X].oX.X{.oXOX@X",
"OXOXOX.XoX{. XoXOX{.{.{.oXoX X X.X.X.X}.XX.XXXZ.l.M.b.M.n.A.b.n.x.l.u.;.P K K K U. X+X.X}.XX X}. X X|..XXXoX X[.XX.X.X'.`.].[.OX.XoX.XOX XOXOX[..X{..X[.|..X.X[.].|.[..XXXOX|.#X}..X+X+X+X.X+X.X+X+X+X].}.}.{.[.{.|.+X#X+X+XXX XXXXXXX.X.X.X.X.X X[. X{.}.].oX X{.{._.].[..XoX.XXX'.{.{..X.X.X}.}. X{.+X.X X.XV.x.M.M.M.M.b.M.n.b.a.u.3.E J J C Y.'.[.[.|.OXoX'. XXX.X XXX+X XXX{..X^. X|.oX{..XoX}.].}.}.}.}.{.{.}.{. X.X.X{.{.]._.}.].+X].+X{.[..X.X.X X+X.X+X X+XXX.XXX X.XXX].[.{.|..XoX|.OX+XXX[..XOX.XoX[.oXoXoXoXoXoXOX@X",
"OX#X X XOX.XOXOX+X}..X.X+X}.[.+X+X+X+X'.|..X+XV.v.M.b.b.M.n.b.b.m.l.w.;.R Z K I ^.OX.XOX X{.}.}. X+X[.'.XX|. X|. X X.X].].OX`.#X|..X XOX.X+XXX}.}.[..X'.}..XXX}..X). XXX|.#X+X+X+XOX|.+X+XXX X+XoX X X/.oX[. X[..X{.OX@X+XXXXXOXXX].].{..X{.[.{..X|.XX+X}.'..X XoX].}.}.].}.}.oX.X.XXX{.|.{. X.X+X[. X+X+X[..XV.b.x.b.x.A.n.M.x.l.k.i.2.E K Z K !..X[.'.XX X XoX X.X{..XOX.X{.[.{.)..X{.].].}.}..X+X].].].].[.{.{.{.}.].]. X}..X[._..X}.[..X}..X}. X{.{.XX+X{.{.{.[.{.[..X[..X X_.}.+X}.+X'.}.+X+X+X[.+XXX X.X+XXX X+X.X X[. X+X",
".XOXOXoXOXoX@X+XXX+X.X}.}.+X[.+X+X}. X].{.+X+XB.b.c.M.M.M.x.M.x.a.l.e.3.R L K K ~.OX.XOX}.+X}.).W.N.v.g.c.v.v.M.B.c.c.c.y.g.g.c.h.b.V.F.G.G.I.G.F.F.F.G.G.U.P.U.P.F.G.G.U.U.U.G.G.U.U.U.U.I.I.P.R.I.I.R./.}. X}.].oXOXOX.XXX.X{..X'.[.].[.oX XoX.X{. X{.XX X+X+XoX}.{. X[.].}.oX}.[.|.'.{..X.X{.+X X.X+X X{..XN.n.b.M.M.n.M.A.b.x.l.e.3.-.K M J E.OX{.XX].{..X!.E.V.c.v.c.v.z.g.h.g.b.c.c.c.c.c.g.c.N.V.G.F.P.F.P.F.N.F.N.F.F.C.V.F.F.F.C.P.I.F.P.I.I.G.I.P.G.I.U.U.U.R.`. X{.|.]. X X+X X.X}.{.+X].|..XXXXXXX.XXX XXX.X X+X X+X",
"OXoX XOX.X`.OX+X+X.XXXXX.X.X+X+X+X+X+X X`.{.+Xj.n.x.b.b.M.M.M.M.l.i.u.3.E L C K ~.[.OX+X.X).<.U G U Y Y G T G U U U U U U U Y Y T U U U U T U U G Y Y U U T T Y U U U U Y U T T Q T U U T U T Y U G T U R Y T {.{..X.X+X.X.X XoXoX`. X_.'.XX[.@X+X X X X.X}.{.XX@X{.].{.oX].[.{..X XXX X|.|..X.X[..X.XOXoX{. Xv.x.M.M.M.M.A.S.n.l.k.i.3.-.K J K !..X.X.X].`.<.G Y T Y G U G U U Y Y Y Y A Y R U -.' I I U D D U I Y D Y U Y P U Y Y U U U U T Y U Y Y Y Y U T T U Y Y G U U T {.}.+X.X+X+X[.+X+X+X+X}.}. X|. X.XXXXX X+X+X X.X+X",
"].].].{.).[.{.[.{.'.{.[.]..X.X.X+X{.+X X{.+X+XP.h t m t N t 8 t 8 8 7 2 < # # < !.OX X.XXXc.U N d N b h h t 8 9 2 2 < b v v c n C K I ;.U 6 9 2 7 9 2 2 2 7 7 7 7 7 7 9 7 2 3 2 3 2 9 7 9 9 2 0 < + # + O # Y t..XOX X.X.X.X XOXoX`.[.`.].[.[.'.[.'.{.`.[.).).).{._.).{.].).'.{.'.'.'.`.'..X.X.X+XOX+XOX X.X{.B.M.M.A.M.M.M.A.b.b.l.i.3.=.L J K `.+XXX.X{.N.U b.l.a.l.l.b.a.i.e.3.I K M v c v b b J L -.K.K.5.W U / ` < & & & # & & & * & & & & & & & & & & % . . . .   . . U e.[..X+X X.X+X.X.X X+X{.{.{.{.'.].'.[.}.{.{.{._._.",
"Y U Y T U Y T T Y Y T T T 1.c./.+X{.+X+X[.+X|.V.. . . . a a   .   p i . . : @ X ).|..X'.|.g.i , , , , - > .     < < # < v c c c n M Z P 6 2 2 a s s = . $ . . $ = . . . . s s = .   s g . . . . . .       . . Y +X.X.X.X.X X X{.U.t.<.U G Y G Q U Y D U U U U U Y U Y U U U Y Y U U U U Y 1.g.^.+XOXOXXX.X'.|.V.b.V.A.M.M.M.M.n.n.l.k.:.E L C K ).+XXX|. Xp.z.k.a.l.x.l.z.l.i.3.;.P C n c c c b b n J I -.I R L C   j / % % % % & = = $ $ & $ & & % = $ = = = . . . .   .   . U }.{. X X.X.X.X|.Y.h.1.T U Y Y Y Y Y U U U T T T ",
"k.i.i.;.A - - , - , p V T Y Y c.{.{. X{.{.+X+XV.p p a p a   .   p , .   : X     ~.{..X{.^.9 .   X   .   - -       O O O v c c b b n M b 2 . . . , , . . . . . . . . . . . , , . .   , p . . . .   .           T  XOX.X{..X.X X`.B.D D S h s . .   , 4 7 u.i.i.e.u.e.u.u.w.i.i.e.t.w.3.| Y Y U c.{.+XOXXX.X.X+XV.b.M.A.M.n.A.M.M.b.l.w.:.E Z M M /.OXXX.X!.<.i.p.i.p.u.i.p.e.3.;.R L n b 6 c c v b n n J J J L C m .   a j % % % % + $ $ $ $ $ . % % = + . = . . . . . X X   . U  X.X X+X.X{.+X'.B.Y Q G 4 = & m ;.u.u.e.9.r.i.k.",
"3.4.3.U C                 X d 1.`.+X+X{.[. X+XC.p 4 , i   .   , , . . - o       ^.[.XX}.~.. . .       .   o #       O O c c c c c v b 6 2     X - - . .   . .   .   X . . - -       - > .           .         m .X.X[.[..X X@X!.c.s . . i , . .   - - 6 3.2.2.2.2.2.2.;.2.2.2.2.2.=.R L Z C A 4.).XX+X[.'.|. Xn.,.6.6.6.5.6.6.4.4.,.=.R Z n v 7 ^.+X.XoX!.P U R W W R R R E E R L C n v c c c c c b b n n n M c 6 . .   i , p p , i p , p 4 4 p p 4 p , 4 , , ; - - - - - - , S +X.X{..X+X XXX~.v.$ p 4 .   # 8 R 3.3.3.2.2.3.3.",
"-.-.R Z X                   X | !.+X{.+X+X X+Xj.  . . .     , ,   . - :       X ~..XXX X~.o o o # # #       @ @       O v c c c c 7 v 6 @ #     o #                       o : .     # :                         {. X{..X{.oXXXE.d , . . - -       o o 1 E E E R R R R E E R R R m 2 2 # < # @ T !.@X+X X{.{.{.V.t t t t m d d N m m 7 2 < < # # /..XOX XR.2 1 9 1 2 1 2 2 1 6 7 Z M v v c c 6 6 c c c b b b n c 6 , .                                                           [.+X X X X+X#XQ.> . , , .   # 7 L R -.-.-.-.-.=.",
"K K K b                   X   T Q.+X X{.{.|.}.N.. . X .   , ;     > -         X _.}.+X XQ.X X @ o X X X     X   X     O b c c c v v v 6 @ o     o o           .     .     o @       o o                     .   }.].{. X.X{..XE.: :     X #       X X # L K J K L J J J K K L M 2 < # # # # @ U E.XX{.oX.X.X XN.8 m N N N t N N t t 8 2 2 # # + ^.}.}.[.U.< < < & < < # < < # 2 b n 7 c v v 7 c v v v v v v n 6 <   - .     .     . . .     .     .   . . . X .   .   .   . .   {.oX}..X XXXXXQ..   - -     O < b K J K K K L K ",
"M M M v X   X X   X   X   X X U E. X{.}.+X.XXXN., , , ; ; , . . , -       X     ^.}.}.oXQ.          X X     X . X     O b b b b b b c 6 o o     o o .                     o @       X o                         {.[.}.}.}.].+XY.X #     X X         X # b n M n n n n n M n M b 6 < # O @     U Y.{.[.#XoX|. XN.a a g .   a a . . p , ,     @ @ ^. X].].Y.@ # @ : # X # # # < < b n b b b b b b n b 7 b v b M 7 6     , . . . . . .   . . .   . .   . .     .   .   .     .     {.oX.X}.XX[.OXE.  . : o     O < v M C b C M C M ",
"b b b 6 X X . O   X X X   X   Y E.+X{.}.|.XX+XN., , , , , X . , ,       X       ^. X+X.XW.          X X     X X X     # J C C n C C M c @ #     o o         .     .       o o       X #   .                     {.[.]./.}._..XR.X X     X X       X X O v b b b b b b c b c b c 6 O X X O     U I..X.X X}.XX.XN.p p a .   p p . . , , >     X X (.}.[./.R.              @ @ # < M C M C C C C C M M M M M M M b 7 . .   , 4 p 4 4 4 p p , p i 4 4 4 4 4 4 4 p 4 4 , , - > >     [.XX}..X{.OX+XY.    # #     O O 6 b b b b n b b ",
"b v b 6                 X X   Y I..X+X}..X X+Xv.4 4     . . 4 4       -         )..XXX.XW..   X     o o     X X X     < L L L L K L L n # -   . - o   . .       .     .   - -       : - -     . .               [. X`.}. X}.}.U.X X .               X O b b n b b b b b b b b 6 1   X         U F.'.|..XoXoXoXN.4 4 p .   , , . . , , >     X X (.}.[.`.S.X           . X @ < 1 C I L L L L L L K L K A L P P C n s . .   s s s s s s s s s s s s s s s s s s a p p 4 4 > ,     [..X}.}..XXX#XE.  . # @     O < c n n n b b b n ",
"M n n 7               X X   X A Y.@X|..X X XOXV.a s . . . p a   .   ,       X X ~..X.X+XQ.: - -     - -     - o #     2 =.=.-.E -.E =.Z - , .   > > . .   . .     .   . . ; - .     > > > ,   .   .             oX{. X].}.`.}.Y.  X X       X         + n M n n M M M n n n b c 2           X D U. X.X XOX XXXN., ; 4 .   , > . . > - -     X X ^.[.}.^.D.              @ # 2 2 P =.;.;.-.=.E =.=.=.W =.=.E ;.I Z j z = % % % = % % % % $ $ $ = $ $ $ $ = $ $ % + = . p 4 4 .   }..XXX.XXX X#XR..   - @ .   O < b n n n n n n C ",
"K K Z b               X X X X G Y.}.+X+X[..X+Xv.s j $ . s s   .   a a . . : : X ).}.+X XQ.4 4 p     , , . . - - -     7 q.q.q.q.4.3.q.U , p . . i i . . . . . . . . . . . 5 i . . . . .   4 a . . . .     .      X X].oX[.`.oXP.    o #       X       # J K C J K J K J J J Z n 6             G P.].XX+X+X].@XN., , 4     , ; X   > - -     X X ).[.(.(.R.  .   .   .   # : 2 8 ;.3.w.q.3.q.q.3.3.>.2.3.4.4.w.;.P   / ` & & & * * & & & & * & * * & & * * & & & & % . s 4 4     {.{.{..X.X{.+XR.  . - -     # < n L J L L J J J ",
"R I R C .   .         # X o X D Y.+X+X{. X{. XV.g x = . j j . =   s s .   - # . ). X X}.Q.s s f .   p p . . , , , .   7 p.p.u.p.k.u.e.~ s g . . s s + . . . = . = . . . . s s . $ . . . .   s g . . . . .     7 OXOX{.|.[.[.].P.  .   : - .     o     1 R -.R R E R R R E L R Z b .           A I.{.XX.X.X}.@XC., , 4 .   ; , . . , - -       X (.}.{.Q.E..   .       . - - 7 V 4.i.l.p.k.p.i.u.i.w.i.p.e.e.i.3.W &   ] #.q q w w u w q q w q e q q q w e q q q q & = s p p   3 _. X.X}.{. X.XY.. . , -     # 7 L E -.-.-.R I -.",
"3.4.:.P . . . . . .   : : # : A Y.[.+X{. X.XOXV.l / = & l l & $   j j .   - : X Q..X}.[._.F j l =   f s . . a i p .   8 l.b.l.k.x.x.m.;.g l $ $ k k & = = = = = = = = = = l j l k l l l & $   j l . . . .     >.{.OX|.OX}.].].I.. . .   , , . .   : - 2 3.2.2.2.2.2.2.2.2.2.2.R C X X X       D G. XXXXX+X}.+XV., , p     , , . . - - -     X X W.{.[.].).& .   . . .   - > 7 N w.m.m.l.m.l.z.z.a.i.l.l.l.l.x.9.>.* *   { { { { { { { { { { { { X.{ { { { { { { [ * & j a a . <._..X@X.XXX+X+XE.. . a , .   2 7 E 3.3.3.2.2.:.2.",
"e.i.w.Y $ + = + $ .   , - - : D U.{..X.X[. X.XN./ ` & & z z & &   l l .   ; ; . ~. X{.XX{.I./ ( =   k k . o s s p .   8 m.n.n.c.x.M.M.1.x / & & / z $ & & & & & & & & & & / z z / z z / z * =   l z . . .     c..XoXoXoX X).[.I.= . . .   p p .     - 7 i.i.e.w.e.e.e.u.e.e.u.;.P - #         A Y.'.XX XOX X+XN.p 4 a .   , i . . , , >     X o ~.XX`.[.[.G.O . .   . . - - 8 A e.b.x.n.m.m.m.z.m.z.l.x.x.x.M.e.>.q * *                                       { { * & l s a   d..X.X+X|.{.}.+XW.& . s a . . 2 m 3.u.e.u.u.i.i.i.",
"l.l.l.>.& & = = = +   i , - : D P.{.].}.oXoX.Xv.( [ * & ` ` & &   / / =   , ; . ~.[.[.}.+X].( ] &   / l = o f f s .   m m.M.M.N.n.x.x.,.z ` & * _ _ & * & & * & & & & & &                 ( * &   z / = . . y./.}. X{.[._.).[.I.= & & = .   s a . . . 8 k.x.l.l.k.p.k.k.i.a.k.4.E   .         S G.|.[.[.#XOX XV.a a g .   a p + . i , ,     o # Q.)._.]. X[.1 . . . .   ; ; 5 A e.m.n.n.n.M.p.x.x.x.b.M.b.M.M.e.o.* q q q * q q * * q q * q q * q q q q q *   ..{ * & z g a s.~.`.}.}.[.+X+X+XE.& = j s . . 2 S w.m.l.m.l.x.b.l.",
"l.x.x.,.& & & * & &   a , > - A P..X}.}..X}.[.c.` { * * ] ` * *   / ` $   , , . E. X X X+X+X-X+X`.'.).`.!.Y.I.I.I.P.G.I.Q.Q.R.E.U.Q.Y.U.U.Y.S.F.U.P.V.F.V.V.G.v.a.,.! e * * * e t B ! H H S +.^ T 1.P./.^.(.{.+X.X{.}. X[.].[.R.* & = & & =   a a . . 8 n.n.x.x.l.z.x.m.a.z.l.6.W . .         A F.`.[.{.|. X|.V.s s g =   s s . . a a p     o - E./.{.[..XoX*X{._.'._.).E.U.U.C.U.E.Q.R.Q.E.I.I.R.U.R.E.R.E.Q.E.U.C.B.U.U.U.U.Z.h.,.! r e * q e h ! H H H H A *.*.6.L.Q.~.^.|.[.[.{..X[.+X.X+XE.& = k g = . 8 A 6.n.b.n.b.b.M.m.",
"l.b.n.6.& * * * * &   s p , ; D U.}.`..X.X.X Xc.[ #.* * [ [ * *   ` ` $   i i . !.[. XoX X}.}..X}. X.X+X+X#X}.{.+X.X.X.X{.oX[.[.XX|.|.'.|.|.].{.'.'.'.{.{.'.}.]..X XOX X X}..X|.|.{..X{. X}..X.X[..X[..X`.{.{.+X+XoX.X+X+X[. XE.& * * & & = .   s s . m n.M.b.M.x.m.n.l.z.z.x.4.~ . . . . .   A Y.[.[.`. X|. Xb.j j l =   j k $ $ s s a .   - - Q.[..XoX{.{.|.{.XX[.XX}. X+X.X}. X{.XX|.oXoX{.{..X].OX].oXoX.X[..X.X[.}.|.XX.X.XOX X.X X+XoXoX X.X+X@X.X.X X.X.X X[.`.[.].].+X{.|.{.{..X.X+X+XW.& & l s . . m A i.M.A.n.b.n.n.x.",
"M.n.M.4.* * * * * &   j a , , G Y.'..X[.`. X).s.{ #.* * { { * *   ] ` $   i i a E..X.X.X.X}.}.}.{.oX XXX+X+X+X+X}.{. X X+X+X].+XXXOX X.X.X[.OX].[.{./.`._.].+X}..X X|. X|. X X|. X_.[..X}..X X[.{. X.X X'..XOXOX.X+X+X.X+X_.{.E.* * * & * & $   s s . m M.M.n.M.M.b.M.M.a.x.z.w.~ . . .       D G.{.}.{.]. X.XN.l l _ &   l l = & k g s .   ; ; U.}. X X.X.X].oXXX.X X].XXXX.X|.{. X.X+XXXXX].oXoXOX#XOX[. X.X`. X}.[.}.{. X+X{..X}..XXX XoX}.+X@X X X.X.XXXOXOXXX.X XXX}.+X'. X'.+X[.[. X X+XE.& & k f . . N ! k.n.n.n.n.A.b.n.",
"M.A.b.4.* * q * * *   j s , ; G Y.{.|..X{.`.`.B.{ $.q q { #.q *   ] [ =   a i a ^.{.[.{..X.X X}.XXXXoXXX}. X{._.}..X{.+X+X X}.}.XX XXXXX{..XXX{.'.].].].'.[.+X.X[.|..X|. X|.|..X{.].]._.]..XXX X}..X].{.{..X X X.X+X{.+X+X}..XR.* * * * & & &   s s . m c.b.n.M.b.M.b.i.a.z.x.6.;.$ = . . .   G E..X X@X X_.).V./ / ) &   / / = & l j j .   > , Q. X X[..X}. X XXX.X}.}.[..X.X{..XOX XXX.X}.}..XOXOXoXOXOXXX[.|. X{.}.+X{.+X.X.X}.}. X+X.X X{.XXXX}.XX}.+XXX.X XXX XOX|.'.+X|.+X].].}..X+X.X@XW.& & k g $ . Y ~ l.A.A.M.A.M.A.n.",
"n.M.M.6.* * * * * *   j s i , D U.XX|.{..X'._.g.@.$.q q @.@.* q   [ [ &         `. X{..XXX.X X.XXX+X+XXX{. X+X X}.+X}.+X X+X}. X.X.X[.{..X XoX.X[. X`. X}.}.}. XXX|.XX XXX|.|.|.{.]. X}. X). X'._.{.}.}.|. X X|..X}.+X.X+X[.+XW.* * * & & & =   s s . m x.n.x.M.n.x.z.y.x.b.x.,.W = $ . .     D E..X.X.X+X.X{.V.) ) { &   ) ) * * / l k .   ; , ~.).[..X.X[. X.X X+X X.XXX XXX+XXXOX+X.X X/. XoX X.X|. XoX.X.XoX+X X].+X+X X}.}.[. XXX'..X`. X{.{.'.].XXXX.X X{. X.X.X.X X[. X}.{. X|..X+X].@X!.~ ;.e.a.r.e.6.6.A.A.A.A.A.n.n.M.",
"M.M.M.4.* * q * * *   l a p , D Y.+X.X X+X.X'.B.#.&.q * @.@.q q   [ { & . . . . )..X.X.X.X.X}. X+X+X+X.X+X+X X}. X X].}. X X+X X}.+XOX'.OX].oX{.{.|..X].{.{.{. X+XXXXXXX.X#X'.XX].7.Y G Y Y D D U Y Y U Y D c..X}..XoX+X{._..XI.* * * * & & =   g s . m b.n.M.M.b.M.z.a.a.x.M.6.~ & = = . . . D U.+X}..X}. X].N.] ] X.&   ) [ * * ( z l .   , , ).}. X{..X[.+XXXXX.X.XXXXX.XXX.XXX.X|..XXX{.[.}..XOXoX|.|.|..XOX+X}.+X[.+X+X+X X X+X XXX X X.X X^.4.U U U Y U U U Y Y Y G U B..X}.].].{.{. X@XQ.n.M.n.M.x.x.b.x.A.n.A.A.b.b.n.A.",
"n.n.S.9.H w w w w q   l s 4 , G I..X+X X[. XXXN.@.&.q q @.#.q q   [ { & % % + + ).+X+X+X+X X{.+XoX+XOXXX X}. X[.XX X X.X+XXX X{.|.XX+X{.{.{..X.X+XoX}. X_. X.X+XXX.XOXoXoX.XOXOXy.U #.@.$.q   { { q *   a . Y c.OX|.OXXX.X].|.R.q * * * & * &   s g . m M.b.M.n.a.p.b.x.b.x.x.e.;.& & = . .   D I.+X].[.+X{.}.B.[ [ #.*   [ [ * * ` / z .       '. X|.XX X_.|.XX+X|..X+X.X X+X.X XoXOX.XXX.X_. X].XX+X.X.XXX+X+X+X X X].'.+X+X+X}.}.}.].[..X].+X9.U F.S.A.S.D.A.n.m.u.3.R J Y c.{. X].[..X{.@XQ.L.H.L.L.L.L.M.M.M.M.n.A.A.x.A.M.",
"b.x.M.i.,.X.X.X.{ [ ( l s i , G P..X}. X.X+X.XC.#.&.q q #.#.q q   [ ` / f s p i '.}.].{.}.{.}.+X}.W.F.c.g.p.y.s.s.y.s.s.s.y.s.t.y.y.g.y.t.s.y.g.s.s.s.c.v.F.~.+XXXXXXX XOX[.oX/.U { { { { %.*   [ ) * =   p O U .X|..XXX|.].].R.* q * * & & =   s g . D n.M.b.l.g.z.M.M.x.x.b.9.W * & . . . . G P.+X}.+X+X[..XC.{ { %.*   { { * * ] ) _ . X . . ]. XXX X X{.}.}.'.W.C.B.s.s.g.g.s.s.c.g.s.s.s.e.p.y.g.g.y.s.s.s.s.s.s.s.c.F.)..X+X}.+X}.}. X[.(.Y m.z.z.m.m.x.x.p.i.3.-.L C n U +X}..X{.+X}.@XR.A.M.b.A.x.M.M.M.n.n.n.A.n.m.b.b.",
"b.b.M.a.a.} X.{ { [ / l s , , G I..X[.}.}.}..XC.#.&.q q   #.r q   [ ` / f a p i ^.+X+X+X+X].{.'.C.1.T Y Y G G U Y Y Y U Y U U U D G Y G U Y U Y U G Y Y U Y <.F. XXXOX|.OX|..XR.* * * *   [ @.*   / x * .   ; G ]..X[.].|.[..XE.* q * * * & =   s g ~ 4.A.n.a.x.a.M.A.b.M.M.x.e.~ & & = . .   G P.+X{.].{.).{.B.{ @.$.*   ..{ q * ] ) / = . . . `.+X+X+X+X{. X XF.4.T T Y U T U T Y T U U Y U Y Y U U U T Y T T U U Y T U T <.C.}. X+X}.+X[. XP.p.u.i.k.k.i.k.k.i.w.:.I Z n b G }..X{.`.{. X+XQ.b.A.M.S.n.M.M.M.A.n.A.A.x.b.b.b.",
"b.b.b.n.S.b.a.p.i.w.>.R K n 7 U U. X X+X.X.X XV.p.l.l.e.p.a.a.i.k.e.q.=.L C n b _.+X+X+X{.'. X].N.T <.2.>.>.>.=.>.>.=.q.q.>.q.3.3.q.3.4.i.w.3.3.5.>.2.:.3.<.Y e.'..XXX|.XX XOXF.5.3.>.>.>.>.;.=.~ R L M n 7 6 6 `.[.].].[.[.|.R.i.a.e.i.p.i.i.p.p.i.a.b.M.z.M.M.M.b.M.M.M.x.z.i.>.* & = . . . G I.+X X{.{.}.+XB.X.@.&.*   ..@.* * { ) z j p i , `.XX}.+X X{.+X{.N.T a 4 , > > 8 =.w.u.e.q.4.w.q.q.w.4.4.q.3.3.q.5.4.q.3.q.q.Y t._.+X+X+X].+XoXF.3.q.q.q.q.q.w.q.2.=.E L M b b c ].[.{.].{.].+XR.M.A.b.M.M.M.M.M.n.A.n.n.x.x.b.M.",
"M.M.x.M.x.M.x.x.l.p.w.;.I J b U P.+X.X+X+XXX.XC.n.A.n.M.M.n.M.M.n.m.u.3.-.J n n _.+X+X]. X.X+X_.n.=.=.=.=.;.=.=.;.T -.;.=.W E =.=.=.E E =.-.=.=.K.=.K.:.>.>.2.o.!. X.X{. X{.oXF.2.;.=.=.;.;.=.=.-.L K J M v v v W.].[.].[./.|.R.m.a.a.b.x.z.z.b.b.M.M.n.M.M.n.M.M.n.n.M.A.M.b.e.~ & & = . . . U I. X X X{..X+XV.@.@.&.q   ....q q { ) z j i i ; ). X+X+X X{.+X`.c.p 4 , - - - 6 L =.:.:.:.;.;.=.=.;.-.=.=.:.=.-.E E K.=.W ;.2.o.). X+X+X}.+X+XN.2.2.>.-.;.2.2.=.-.R K C n b c c {..X'.|.[. XOX!.M.A.x.n.M.V.S.M.M.b.b.M.x.x.b.z.",
"b.M.M.M.x.x.x.x.m.p.q.=.I C b U E.}..X+X X+X.XC.M.A.n.S.M.n.n.n.m.z.u.3.R D n b ].+X+X+X[.}.@X).I P P P L P P L L Z L P L L L L L L L L R L L R I I I L I P I T E. X}.[.{.{. XV.R R R R R I R I J C M M b v v v _.`._./.^._.|.E.a.z.x.z.b.x.n.p.m.x.M.S.M.M.M.M.M.A.n.M.n.b.x.w.;.* & = . . . G Y.}.+X{.[.}. XN.@.#.&.q   @.#.* * * * & = . . . ). X X+X].}.+X^.1 . .     .   1 C U L P I I I P P I R L P P L L L L L K L R U U E.+X}.+X).+X].c.L R R L R I L P L J J n b c c c `.'.{..XOXOXOX^.x.b.A.n.M.M.M.M.M.M.M.M.b.z.x.x.",
"b.n.M.S.M.M.M.x.m.p.q.;.I C N Y Y..X].+X{.+X+XV.n.A.A.n.A.n.b.n.m.z.u.:.R D n b ).{.].+X X{.+X!.C C C C N n C C C M C C C C C C Z C C C C C C C C M C C M J K T E..X X}._. X}.F.K L J K L C J C M M b v b v v 6 [.`.].`.`.{. XY.a.x.M.x.b.M.x.x.x.b.S.A.M.x.M.M.A.S.M.M.n.b.x.w.>.* & & . .   U Y.+X{..X'. XXXN.#.#.&.q   @.#.q q * * = + . . . _.+X}.+X}.{.'.E.    .   .     < b J J Z M M M J C M C C C C C n C b N M M C C U E.+X+X+X}.+X+Xj.J L Z J Z J J J C M n b v c c c '.{.|..X+X.X#X!.M.b.n.M.M.b.M.M.M.M.b.x.a.g.M.x.",
"M.M.M.M.n.b.M.b.m.k.w.;.P C b | Y..X{. X X+XoXN.A.A.A.S.A.n.n.b.n.k.u.K.-.J n d ].+X+X{..X{.oX!.b n b b n n b b b v n b b b b b c b b c b b b b b b b b b b b T Y..X[.{.{.].}.c.C J J C J Z C C M b M M v v v 6 '.[.[.[.{.]. XG.x.n.b.c.M.n.p.n.z.x.n.n.z.M.m.n.M.M.S.l.z.x.n.e.T * & & . . . W I.+X X}.}..X[.N.#.#.&.q   #.#.r w q q * = . . X ]. X+X+X X{.+XW.. .           # 6 b n b M M b b b b b n b b b b b b b b b b b U I.+X{. X}.{.{.B.J J C J Z C J C M n b b b c c c [.|.XX|.OX#X$X~.M.b.x.n.b.b.M.M.M.b.b.x.x.b.n.b.",
"n.M.M.M.b.M.n.x.x.l.w.:.P M M o.W.|.].OXoX.XOXV.M.A.M.D.A.n.n.m.x.z.i.3.R K M b [.{. XOX.X|.OXQ.b b b b b b b c b b c b b 7 b c 7 b b c b 7 v v b c v v v v b T R.oX+XoX.X[.oXC.K L K L L L K J C C n M v v v c (.{. X X X].}.E.z.n.b.z.m.n.z.b.x.a.b.x.b.n.n.n.x.n.M.b.M.n.M.r.;.* * = . . . | R.}..XoX+X}.+XB.....&.u   #.#...{ [ ] z f p , - ].}..XOX X]..XE.: # # X X X X O 6 v b n v n b v v b v v v v v v b v c b c c b U R.}.].}.{..X{.N.L L L L L J L L C C M n v v c v '.+X X.X+X+X#X^.M.M.N.b.b.M.b.M.M.M.b.b.b.b.M.M.",
"n.n.x.x.M.M.M.n.x.l.w.:.P M M 6.R.|.|..X.XoXoXF.M.M.b.M.A.n.n.n.n.l.i.3.E K b v ].]..X.X[.oX@XQ.b b b b b b b b b n b b n b b c b b b b v b b b b v v c c v c U R.+X+X[.{.{.+XV.E R E E -.R E R I L Z C n c c v /.[.`.]. X}.].E.b.n.M.S.b.n.n.x.l.n.z.n.m.n.M.n.S.M.b.A.M.b.n.r.o.& & = . . . 1.!.+X}.oX X[.}.B...%.&.q                         `.}.XXOX}.}.}.R.              O 6 n n v v n M b b n b b b b 7 v c c b v c c 7 D V.'.'.].].}. Xv.R E R E E E E R I P L M b b b c {.'.+X X X+X&X`.M.b.M.b.x.M.M.M.M.b.x.l.x.n.b.M.",
"M.b.n.n.x.M.M.b.x.a.w.:.R C n a.!.|.|.|. XOXOXV.M.A.A.A.n.n.A.n.b.l.i.3.-.J M v ].[..XoX.X.X+XQ.C M C C C C C C M C n C C n C C C M C C M n n n n b v 7 c c c U I.+X{. X.X X+Xc.2.:.5.2.q.3.3.:.=.E I L n b b c _.{./.|.{.].[./.N.b.b.M.b.n.A.b.x.b.z.b.n.b.n.n.M.M.A.M.M.M.n.i.>.* & + . . . g._. X}.}.+X+X XB.....&.q q q * q * * * & . . . . [. XOX.X X[.}.!.  .           < b M M M C Z M M C C Z M C n M n b b v v c c c U U.}.}.{.{.}..XN.2.>.q.>.3.2.5.2.2.E U K C c b c `. X+X X+X+X%X'.F.M.M.b.M.M.A.M.M.n.x.x.b.a.n.b.",
"x.g.n.n.4.h N b t t 7 1 < # & P.'.[..X X|..X XG.m N N N m m N d t m 7 6 1 < # +  X.X|..X{. X+XE.0 & # # < < # < < < < L L L L L Z I L L L K K J C n n b v c c U R..X X.X}.{. XN.w.q.i.e.i.u.i.e.3.2.=.I J n b c ].|.'./.{.}.[.].'.b.n.A.n.b.n.n.c.x.z.z.n.n.n.z.b.M.M.A.A.n.A.a.,.u * 2 & . % I. X.X{.@X+X+X XC.%...  3 q q q * * * * % $ . X   .X[.OX.X].[.+XR.O   .   .   O 1 M I I P I I I I P P L L n < 1 # < < < O + O O D U.}.{..X{.}.`.v.9 7 7 7 5 7 7 7 6 6 2 1 < < O O '.XX}.[.XX.X%X+X[.t m h h N N M t t N a.a.x.b.c.",
"M.M.M.M.! N m * * & & . U ^.~.'.'. XOX|.[..XoXE.) ` [ *   ) ] * & / z j a , - 4  X|.XX|. XOXOXU.a a a a i 5   . 0 9 1 7 =.E -.E -.=.:.=.E E -.R R K Z M b c v U I..X+X+X[.}.oXv.u.r.p.p.l.p.a.p.u.4.2.=.L M b b _.}.}.}..X[.[.oX+XoXoXb.n.m.m.n.z.x.n.k.z.b.z.n.A.A.A.A.M.M.S.r.<.] ( f | ^.)._.+X}..X+X}.+X{.P.#.  q q q q * q q * * & = O . &  X|.OX]._.oX@XQ.. . . . .   + 7 P ;.;.=.:.:.-.;.=.:.:.=.7 2 2 .     .       X D I..X.X.X}.}.[.N.p p a a p p a p p p     # @     [.XX[.XX+X#XXX-X:X#XXX% . X .   3 N 8 S b.x.b.b.",
"+X.X%X+X#X&X&X#X+X#XOX%X%X@X.XoX X|..X[.].OXoX/.( / ] &   _ / & & z l s i > - 9.[.].[. X'..X.XU.s s s a a s . . ; - > 6 6.3.3.q.3.3.q.3.3.3.3.2.;.=.P Z n v v U U..X X{..X}.{.v.p.z.x.b.m.b.x.l.p.q.4.;.I C b v `.}.}.}.{.].]..X@X-X=X=X@XoX=X+XoX#X+X{. X+X@X#X%X$X%X%X&X$X#X$X@X+X.X@X;X+X+X.X+X}. X+X}.+X+X).  q q q q q q q q * * % = . . t.OXOXOX{.]..X%XE.$ . . . .   1 8 ~ 3.q.q.e.w.q.q.w.q.q.E C .                 X A U.{.[.].`.{.{.N.p p p p p p p p 5 , , .   @ X   {.{.'.XXXX+XXXXX-X:X:X-X*X#X%X%X+X@X.X+X+X#X#X X",
"XX XXX X|..X XXX[. X X}.{.}..X}.|..X[.OXXX XoX.X~.z _ &   z z % & l s a i - - Y.OX|.{._.|.[.OXE.s j f s a a @ .   ; , 7 e.w.i.i.i.k.u.u.p.p.e.u.q.W K M c 6 6 G U.oX[.}..X}.{.v.>.3.4.q.4.3.4.4.5.~ E U C b 6 6 _.[.OX[.].}.].{..X X{.}. X.X.X[.[.{.}.}.].{.oX+X+X+XOX.X|.oX|. X+X{.]. X+X+X+X X.X.X.X+X+X+X+X XQ.* q q q q q q * * * & . . . U..X#X+X{._.{..XQ.& = = . . . 1 t :.a.w.l.l.l.a.l.k.l.p.=.P   .     .         X D R. X_.}.}. X.XN.4 , , p 4 , , 4 , , > -     X X ). X.X.XXXOXXX+XXXXXOXXX.X.X|.OXoX X{..X}.'.|.+X",
"#X X.X|.[.XXXXXXOX X.X X}.].}.{.].[..X X X`..X|.#X.X[.Y   j k = % j s a ~.Q.~. X|..X[.|./.'.[.E.f f s s a a p . X   , 8 l.p.l.l.b.n.n.z.z.l.l.q.U M 6 < # < O G E..X[.{.oX{.{.v.d N N N N N h t t 8 7 2 1 # + + `.[.oX}.}.{.{.].}.}.}.}.{.].{.oXOX X}.[.].}. X+XOXOXOX+XoX.X.X.X X}.+X+X+X+X+X+X{.+X+X.X X+X+X+X@X+X.X^ q q * q * * * & !.!.'.OX+X#XoXoX_.].{.G.& $ = = . . 3 N q.l.l.l.l.l.b.l.x.n.b.,.+ .   . .     .     X D R. X[.].]._.}.B.; , ; 4 , 4 , , , > - : o     X ^.{.{. XXX+XOX.XOXXX#XXX.X].+XOX{..X.X X}.}. X|.",
"+X+X.X+X}.XX XXX.XOX+X.XXX X.X X[. XXX.X.X X|..XoX{.[.+X|.+X}.#XOX|.#X#XXX|.XX[.oX.X`.[.].].|.L.s s s s p p p , . .   8 x.x.l.b.b.M.b.x.b.M.x.w.~ 8 2 > # # + U I.+X{.+X[.[.+Xv.m N N h N t N t 8 8 7 2 2 # # @ _. XoXoXoX X].}..X].}.{.].+X}.+X+XXX}. X}.}.].}.{.}.oXoX_.+X].+X}.+X[.+X+XoX+XoX}..X.X.XXX.XoX.X{..X+X.X.XoX{..XoXoXoXOXOXoX.X.X@X+XoX}.].].].E.& & $ $ .   8 V w.x.l.x.n.b.b.M.n.n.b.>..   .   .             D R.}. X]._.{.}.A., ; 4 , ; 4 , ; > ; - : o o     Q.]..XXX X+X XXX X{.+XOX.X X X+X X{.[. X{.+X]..X",
".X+X X.X{.[. XXX}.@XXX{.XX.X.X X X X X].|..X|.OX{.].[.].{.'.`.}..X X[. XXX#X[.[.|. X X[.`.[..XE.a s a a p p i 4 , .   t b.x.M.l.b.M.M.b.M.a.b.i.;.N 2 .     @ L I.[.}.+X[.+X[.N.a a a a a   . . a i . .   @     _.oXoX.X}..X[.}.{. X{.].]..X}.}..X+X{.[..X}..X.X{.}.oX{. X}.}.[.[. X+X].{.oX+X+X.X+X}..XXX.X+X+X}.}.+X+X X}.].].}.]..XoXOXoX.X+X+X+X+XoX}.`.oXQ.& & $ $   p d V e.n.M.x.M.M.A.A.b.A.n.,.  . . .   . .       X U R.oX{.'.`.[.}.N.; ; ; , , ; , ; , ; - - @ X X   ^.]..XXXXX+X.XXX{.|. X}.|.[..X XoX.X X}. X.XoXoX",
"{. X+X.X.XXX+X+XXX+XXX}.+X+X{. XXX XXX.X X|.OX.X X X{.{..X X+X X.X.XXX.XOX#X|.^.].|..X`.].].|.U.a a a p p 4 4 ; > , . t M.b.M.x.M.n.n.b.M.b.M.e.3.2 > -       A I.].[..X{.}.+XN.p p i p   . . p p .     :       _.oXoX[.}.}.].[.[.{.]._.{.+X{.{. X.X}.[..X.X+X}.oX.XoX[. X.X.X.X}.].+X{.}.}..XoX.X.XoX.X{.oX+XoX X.XXX}.oX_.}._.{..XOXoXoXoX X+X+XoXoX}..X}.}.R.& & $   a   3 S e.A.M.x.n.b.n.A.A.n.A.3.  .   .   . .       X D R. X{.[.[.{.}.V.; 4 4 , 4 , , 4 , > - - : X X   ^.].{.oX.X X+X}.XX{.XXXX|.XX.X X}.{..X.X.XoX+X{.",
" X.X}..X+X.X+X X.X+X X X+X}..X X'.#X+X.X{.|.|..X XOX.X{. X+XXX+X.X|.XX X X|.'.XX.X[.|. X X|.[.U.a a p a p 4 ; 4 4 > , t M.b.x.M.n.M.M.x.M.n.M.6.>..   - o     D I.}.}.].]. X XB.. . . . . . , , . .   :       X _. X X}.].oX]./.[.}._.]..X{.{.[.+X X+X X X.X.X+X+XoX.X X+X.X.X.X+X].+X}.oX}..XoX.X.X+XXXXX}.oXoX XXX.X}.{.].Q.]. X{. X[. XOX X@X+X}..X}..X+X{.R.* =   j   . 7 N e.A.M.M.b.x.M.S.A.M.A.4.. . . . . .         X A R.oXoX[.[.}.[.V.4 4 p 4 4 4 p , , > > - : X X . Q.{. X{.}.+XXX_.}.}.|.}.{.[.}.}. X.XXXXX.X.X+X+X",
"+X+X.X).9.Y Y Y U Y Y Y D T G T Y T T T Y Y Y Y U Y Y Y U T T T Y U U Y T O.E.]..X+X+X X[.[..XU.s a a a p 4 4 , - - 4 m M.n.n.M.n.x.g.M.n.b.M.6.>.>     o X   A P.{.}.{. X{.[.v.. X .   . , , . .   -       X X _.{.oX X{.].R.K.G U U D Y U U Y U Y U v..X}.'.+X.X+X@X_.9.T U T U U Y Y Y Y Y T U Y T Y Y Y Y U U T U U U U U D U U U Y Y | E.{.oX.X X+X+X X{.U.&   l   . . 9 S i.M.M.n.n.M.n.h.A.A.M.4.a . . . . . . .     X D E.+X}.].[.oX}.c.a a a a a a a p a i i ; - o X X )..X.X+X}.].I.o.U G U U U T G U U U Y N.+X+XoX.X",
".X.X`.| T . . . . .   .             .     p $ .   s k . .   s & $ $ . . . T U R.XXXX.X|.{.XX|.R.$ . . . . . . . . .   N M.M.b.M.n.x.x.b.c.n.M.e.,.> >     X   D I.{.[.[.].].].N.; , , > , ;   .   -     . X     _.].{. X}.F.U I             2 m K.u.q.U 1. XXX}..XoX'.W U u.u.;.D l . .   , , ; ; i a l % * * * * q * q * * * * * * * $ + U U P.+X X.X+XoX+X.XD.  z   $ . p 8 A 6.M.M.M.M.n.x.M.M.M.M.4.a g . . . . .       : L E.+X{.+X}..X+Xc.s s s s s s s s s a i > - : o o ).{.+X_.+XP.U U , . . o   . . . . X # U | .XoX.X",
".X+XP.G . . . . . .                     . a s $ .   j x . = g j & . . .     . T .XXX|.XX X|.`.L.. $ $ . . . O . . . . m n.A.M.M.b.M.x.x.x.b.M.6.>.  - :     X D Y.+X.X X{.{. XN., ; , , ; .     ;   .   X X     _..XoX{.oXc.:   X           2 7 E >.3.3.U _..X+X{. XG.2.5.3.3.R J f X X   ; - - ; 4 p k % * * * q * q q * q * q * * & $ O . X Y .X@X+X X+XoXoXU./   = . s p d Z i.n.n.M.n.x.x.n.M.M.n.5.  s x $ $ $ . .     : D E.}.{.}.oX{.oXv.f f j j j j f f j s a i > - o @ _.+X.X.X+Xs.  , i . . . . . . .   . O 6 U ).oXoX",
"XX@XB.C   .   . .   .         X     . . . a s l $   j j = = j j k $ . . .   . Q XX|. X|. X|.|.L.& % $ $ . . . . . .   N A.b.b.M.M.M.M.b.b.n.M.e.>.    : X     D I. X X{.[.{..Xn.        . .   ,   .   : X     X ).+X XoX/.s.              . # 1 L I E E E U.}.+XoX+Xv.-.E E E Z b p X X   - - ; - ; p f % & * * * * * * * * * * * * & $ . . O Y {.+X+X{.}.+X.XI.  = = f s . 8 B i.M.M.M.n.v.a.b.M.n.M.3.$   l z $ $ . .     : L R.oX{.+X}.+XoXv.z k z l l l l l k j j a , > - o ).+X+X+X_.s.X   > > > > - - - : # # : < I C.{..X",
" X.XN.v X .   . .         .   O       . . p s l =   j j + = j j k . . .       T OXOX+XXX|.|..XR.% % % % % $ $ . . . . m M.M.M.M.M.M.M.n.n.b.A.6.>..     X o . D I.}.}..X[.}.}.N.. . . . .   i   .   ; -     X X ^.+X X XE.    X X X X X X X @ < M J K K K F.XX+X.X}.N.J K K K n 7 4   .   ; - - ; 4 4 a $ $ & & & * * * * & * & & & $ = . . . U }. X XoX.X+X{.R.& & l j . . 8 S i.n.n.M.M.M.n.n.x.M.M.4.* %   z / = = . .   : G I.}.+X+X.X+X}.v./ / / / / / / / z l j s 4 > - # ~..X|.oX~.: .     - - - - o o # o o @ # K N.oX[.",
"}.].V.6     .   .   .         .   . .   . 4 a s .   s f = = s s g . .   .   . . .X|..X`._..XoXR.& & & & % % $ . . . . t l.M.b.M.A.b.M.M.M.n.n.r.>.. . .   o X D I.[.{. X]. X XV.= + = .   a   . . p , . . X X   ~.+X.X{.Q.  X X X   X   X   O < c n b M n z. X.X.X XF.n M M M v 6 - .     ; 0 - - ; 4 p . $ $ $ & & & & % & % & $ $ . . .   . +  X].].oX{.oX+XR.* z l = .   t Z i.A.n.n.M.n.x.x.l.M.b.,./ * &   / ) = . .   - D I.}.+X+X+X.X+XN.( ( ( ( ( ( ( ( ( / l j a , - : /..XoXoX!.  - . .     .   .     .     @ n c.}.oX",
"}.'.t.6         O   .                 . . , p s .   s a . . a a a . . . .       .X X].[.{.|.|.T.* & & % % % $ $ . . . t b.x.M.M.A.M.n.n.n.b.b.r.;.. . .     X D I.}. X X.X}. XB.a s s s s   . . s a . . - o     _.+X}.}.W.X X               O O 6 v b v b g.XXXX{.[.y.b b b b c 6 - . .   - - ; - ; ; 4 . . . $ $ $ $ % $ $ $ . . . . . .   .   ].[.].[.}.`..XU./ z = .   p t A i.M.b.b.M.A.z.x.g.z.z.4./ ) * *   / / . .   - D R..X+X+X+X.X+XB.` ] ] ] ] ] ] ` ) _ z j a , - - /.OX.XoX!..   : .     .       .       @ c c. X.X",
".X'.<.6 . .   .   .     . . .   . . .     , 4 p .   p p . . i 4 5 .   .   .   .  X[.[.[..X.X|.T.* * * & & $ $ $ . . . 8 M.n.n.b.n.A.A.n.n.n.n.a.>.. . . .     D E.+X]. X}.}.[.N.          . = j j $ . p ;       _..XXX XQ.:                 O < c v c c c s.{.+X{.'.2.b b b b c 6 -       ; ; ; 4 ; ; 4 . . . . . . . . . $ . . . . .     .   . ].].}.{.}.}.{.U./ & =   a   N ! p.M.b.M.S.n.n.x.n.M.x.>.  ] [ q *   z l .   - U R. X+X+X}.+X+Xv.[ [ [ [ [ [ [ [ [ ) / l s i , - /..X.XoX!.      - - : : - o o @ X X . O v g..XoX",
" X'.| 6   . .   . .   . . .   .   . . . . , 4 a .   , p . . p i 4 .   . .     . [.|./.[.|.|.XXE.* * & * * % % % $ . . t b.b.M.A.x.M.M.b.A.A.Z.r.>.= . . .   X T Y.[..X X X}.+Xv.% & = & % % l l = = s a       X _.}. X+XQ.          .       O + 6 c c c c y.}.]. X/.W n n M M v c ;   .   , , 4 , 4 4 p . . . . . . . . . . . . . . . .   . .   [.[.}. X}.[..XQ.& %   f   . S P a.n.M.M.A.n.n.M.n.M.b.3.*   [ [ q *   j s .   Y R..X+X.X.X}.oXN.{ { { { { { { { [ ` ( l s p , > ^.XX.X.X~., . . , - - - - - o @ X X X @ c s. X.X",
" X'.>.b . . . . . . . . . . . . . . . . . p p s .   a p . . p p a . .     . .   [.XX|.|. XXX+XU.* * * & % & % % $ . . t k.l.M.l.A.A.S.M.A.A.A.r.>.= . . . .   T E. X[.[.{.[.oXc.& & & & & / / & = z k   .   - - ). X+XXX!.. . . .           O # 6 b 7 c v y..X X+X_.K.Z K J L J n C . .   a p p p p a s . . . . . . $ $ . . . . . . . . .   O    XoXoXoX.X.X+XW.*   k   $ $ Y ~ x.M.M.M.n.n.n.n.A.A.S.3.X.*   [ [ q &   a p   | R..X+X.X}. X Xv.{ ..{ ..#.{ X.{ { [ ) z g p , - ).+XXXXX~.a . . p i i , , - - : X @ X O c p..X.X",
"}._.4.C . . $ $ . $ $ . . = . = = . = . . f j l =   f j = + s s j . . . . .   . |. X[.|.{.].#X!.q * * * * & % % . . . b M.b.n.l.M.b.b.n.n.n.b.a.>.& $ $ .   . o.!.[. X{. X'.].c.) ( ) ) ) ) * & / /   .   , - . )..X.X.X!.X . . .       .   # < b n b c 7 y.{.].[._.5.R -.R -.-.R E P P L Z V C S h V V M m m m t t t m t m M t 7 7 6 6 1 1 < < .XoXoXoX.X@X+XW.Y 1.e.p.i.e.6.6.M.M.M.n.n.n.M.A.M.M.M.4.{ %.q   { ] * &   4 4 <.Q.+X}.}.oX.X{.N...{ ..#.....@.{ [ [ ) / j a , - ).+X+XXX!.j = . s s s a p , , - # X X O b s.OX X",
" X'.p.P & & $ & & & & & & & & = & & & & & z z _ =   z / & & / z / % . . .   .   .XXX|.[.|.|.|.).q * q * & & & % $ $ . m b.b.n.M.n.M.M.A.n.n.x.e.3.& $ . . .   e.!.{. X|.`.`..Xn.` ] ] ] [ * * ] )   %   a , X   ~. XXXOX!.. . . . . . .     # 6 n C b b b s.[.}. X_.s.;.:.2.2.4.w.q.3.3.2.2.2.3.2.2.2.=.2.;.;.:.:.:.:.:.:.:.;.:.=.I K C M v c b  XoX[.OX+X@X+X).n.n.n.M.M.b.b.b.M.M.M.M.z.b.b.A.M.S.S.6.{ { * q   ] ] $ . 4 , 9.(.oX}.]. X+X+XC.3 * * q q q * q * * * = . . . X ).@X+X.XQ.( = = z l l j g a i , - # X @ b p..X.X",
"}._.P.W S & * * & * & * * * & * * * * & * ` ` { *   ) ` * * ) ) ` & $ . . . . . .XOX.XXX`.XXXX[.R.* * * * & % % $ . . m n.A.n.M.b.b.A.A.n.n.n.u.:.& % % $ . O V.).[..X'.}. XOXn.* * * * * * [ [   *   k s . . , ^.XX+XXXQ.= = = = . . . . . # 7 A J n v M s.].].{.`.U.e.e.u.i.i.p.l.l.l.l.l.l.m.i.k.l.l.l.k.i.k.l.l.i.l.l.l.l.l.e.3.:.I K C n b }.+X X+X+X+X+X{.E.T.L.L.H.H.M.M.M.M.x.n.b.n.A.n.M.M.D.e.| { q *   ] [ $ . p , V._..X X}.{.+X.Xv.q q q q q q q * * * * = . . . . ).+X.X}.W.[ * * ) ) ( / l j s , ; : X # n s.}. X",
"].].P.4.~ * * * * * * * * * * * * * * * * { [ #.*   [ { * * [ [ X.& & $ . .   T .X.XOX X{..X.X#XOX^ * * * & & % $ . . A l.A.l.n.n.n.n.A.M.b.n.i.~ q % % + + L.U.'.|.|..X XoX+XN.* * q * *   { #.* * ( l = .   , ~. X X X!.& & % & $ $ . . . 1 7 A P M M N t.{.+X.X].U.p.i.p.m.l.p.a.m.l.l.l.l.l.l.k.l.l.l.l.l.l.b.l.l.a.l.k.l.u.i.3.;.I K M n T }.{. X X X+X+X+X#XM.S.A.M.M.M.M.M.M.b.x.M.M.x.b.A.M.M.p.1.X.* *   [ ] $ $ 4 R.E. X[.}.+X X.X+XN.#.#.#.#.#.#.#.#.@.{ ` / j a 4 p ).+X+X{.!.@.* * ] ] ) ) ( l f a > - o < C s. X].",
"}.@XP.r.p.B * * q q q q * q u * q q q * * { X.%.*   ..{ * q { { #.* * $ . . . 4. X.X XXX[.OX|.&X&X=XOX|.oX.X|..X.X].].|.]. X{.|. X[.[.|.XX[.].`.[.`.].'./.}.[./.].[.{.{.{.}.oXV.* q q * u   { %.* * ( z = .   p ^.+X.X+XW.& & * & $ $ . . . 1 8 P I K M C e.'..X{. XP.i.m.m.b.b.b.m.x.m.b.b.n.l.m.x.l.l.k.l.b.n.l.b.b.M.l.l.l.k.l.w.q.E I M n 9.+X].+X+X+X X X%X-X:X&X%XXX X[.{.{..X].'.{..X{.{..X.X.XXX|.{.{.{.[.`.`.[.`.[.{..X_.[.}..XoX+X{.C.#.#.@.#.#.#.X.#...[ ` / j a p a ).@X+X X!.$.* * { { ] ` ( z j       2 6 N e.].{.",
"+X@X_.A.D.A.x.z.a.i.a.i.a.g.p.p.a.i.a.i.i.p.p.i.p.a.a.a.p.a.l.i.i.w.:.R L C 7 G.#X.X.X|.OX|..X[.{.+X#X$X#X*X$X-X$X&X&X=X=XOX#XXX$X#X#X#X$X*X$X+X#X$X%XXX.XoX]./. X.X{..X}.].+Xv.q * q q *   ..$.* * ) z + .   p )..X.X XE.* * & & & $ $ $ . 1 8 U E Z M C s.{.+X.X.X_.b.b.m.b.n.n.m.n.b.n.n.b.n.A.x.n.b.x.l.A.l.M.M.M.l.b.l.l.l.x.w.3.:.L J v n.+X.X+X+X+X+X.X.XOX#X-X*X%X+XOXOX:X;X@X%X#X$X#X%X&X&X;X-X&X#X%X%X+X XOX X+XOX.X|.{.]. X+X{.].+Xv.p.a.a.i.p.l.k.u.p.6.4.=.P C M C ~.+X.X XW.y.p.p.p.e.r.e.i.w.e.3.E L C Z C y.{.[.",
".X X+X+XN.v.M.M.b.M.n.b.b.n.b.b.M.M.M.b.z.M.n.A.M.S.n.V.A.A.A.m.x.i.w.2.R L E.#XXX X[.OX[.OX|.|.|.OXOX.XXX|..XOX X.XXX].XX[. X X|.[.|.[.|.[.[.`.{.|.[.[.].]._.`.].].].{. X.X}.N.q q q q q   #.$.* * ) / + .   p _. X X+XU.* * & & & $ $ . . 1 t R E L J J i. XXXoX XoXoXV.l.n.n.M.M.n.n.A.n.b.m.b.A.m.m.b.b.M.M.n.M.A.l.b.l.l.x.l.u.w.;.U A Y..X X X+X+X X@X.X X.X.X+X+X+XXX X{.{.+X`.'..X}. X.X.XXX|.+XXX}.{.{.XX[.[.[.`.{.[..X+X+X].{. X{..XN.n.b.M.n.x.n.l.n.b.l.w.3.E L Z L ).XXXX}.Y.M.M.b.x.b.M.b.b.z.p.u.;.E L C J y.}. X",
"}.+X+X+X=X-X:X;X%X#X%X%X@X%X%X%X%X#X%X%XOX%XOXOX%X;X&X&X#X%X-X#X%XOX%X%X#X+XOXOX.X.XXXOXXX.X.X|.{.+X.X|.OX.X|.OXOX XXX].+X X X|.'.|.[./.[.|.].[.{.].].|.|.[.].{.[._.`.].}..XoXN.q q q q *   #.$.q * ) / $ $   a ~.}.XX].Q.* * * & & $ $ . . . t U -.L C L y.XX}. XOXOX XOX%X%X=X@X%X#X*X=X#X&X=XOX$X-X$X=X%X#X%X=X=X$X=XOX|..X XOXOX#X%X+X'.{.|.+X+X+X+X+XXX X{.|..XXX+X X{. X.XXXXX X X.X].+X X.X+XXXXX XXX[..X.X X'.[.{.{..X.X.X].{.].{. X@XV.M.n.M.M.b.A.A.b.l.l.u.3.E L J L ^.'.+X}.Y.n.b.b.M.M.b.b.z.m.l.w.3.-.L C L t.{.oX",
" X+X].+X}.{.+X}. XOX X{..X.X}.XX]. X{. X{.{.oX`.{.}.}.+XXXOXOX{..X|.OXOX.XXXXX.X+XOXXXXX|.`.|.|. XXXXXOX.XOX.X.X.X.X].{.|.|. X|. X[.|.XX|.|.|.|.`.|.|.].].{./.].].]._.{.}.{.oXV.q q q q q   @.&.* * ` / = .   a ~.}. X}.U.* * & * & $ $ . . $ 8 I W P J Z s.XXXXOX X X|. X.X[.[. XXXOX X X.X+X X[.{.OXoX.X.X|.oXOX XOX|.[.|./.].].|.OXOXoX[.^.|.+X+X}.+X+X X{. X.X.XXX+X}.|. X'.+X{..X{.{. X.X X.XXX+X#X+X XXX[.'.[.|. X[.{.{..X X+X X XoX+XXXN.M.n.M.n.b.A.n.M.l.l.i.3.-.L Z L `.{. XXXU.x.b.x.n.b.n.x.z.l.z.e.q.-.L L L y..XOX",
"+X X+X X.X+X}.}. X{. X`.XX{.XX X[.XX|.|.|..X|.oX'.'..X.X.X}.|.oX.X.X.X.X+XOXOXOXOX.XOX X'.[..XOX+X+XOXXXOX+X|..X|..X[._.].[.XX[.|.[.[.XX|.|.[.|.].`.].[.|. X{./.[.[.{.}.{..X@XV.q * q q q   ..&.u * ` / = .   a !. X}.'.E.* & * & % % $ . . . M R =.L K C y.+XXX{..XoX|.OX.XOX.X}.[.OX.X+X[.{..X].{. X{.oXoXoX{.oXoX.X{.OX].].]..X]..X[. X.X X'.[. X X}.+XXX X.X.X.X.X+X X.X[.{.|.+X{.{.}..X X.X.XXX#X+X XXX.XXXXX[.'.|.+XXX X X.X XoX}..X.X+XV.n.M.M.n.M.A.M.A.b.l.i.:.=.L K K /. XOX'.E.a.a.M.M.b.x.c.b.m.z.u.q.=.L C L y.XXXX",
".X.X.X+X+XoX.X+X}.XX{.XX X X X{. X|..X{.|..X|..X.X[.[.XX{.OXOX XXX.XXX+XXXXX@XOX.X|..X X{..X.XXX+X+X+XoX.X{.XXoX{.}. X X X X_. X}. X|.'.|.XX[..X{.[.|.].}.{.[.[. X[.]..X{..X+XN.q q q q *   @.&.q * ) / = .   a ^.}. X[.U.* * * & & $ $ . . X d E =.I J L y. XOXoXoX X+X.XoX.X+X}..X+X X+X X.X+X.X`.+X XXX.X X+X X+X|.{.{. X].[.{.|..X.X+X.X.X{.+XXXXX|. XXX.XXX}.XXXXXX X'..X[. X+X X XXX X}.XX X+X+X+XXXXX XXXXX+X+XXX+XXX|.XX+X.XoXoXoXOX+XN.M.M.n.M.M.M.M.x.n.l.u.2.-.L L L ^.[.+X[.P.l.z.c.z.b.z.z.b.b.x.p.3.=.I K K y.[.oX",
".X.X+XoX+X.X.X.X X+X X+X|.OX[.|..X.X X|.[..XoX[.XX). X}.{..X.X.XXX|.XXXX+X|.+XXXOXoXXX{. X XXX}.~.E.I.I.F.F.F.F.F.F.F.F.N.F.N.N.V.M.F.V.G.F.V.N.N.F.F.G.G.I.I./.[.).{.{. XoX+XF.q q q q q   @.&.* q ` z = @   a Q.'.}._.G.* * = * & & $ .   4 n R -.P J J s. X.X.X[. X[.OXOXoXOX.X{.+X.X+X.X{.}. X X.X.X}..X+X}.XX|..X X X X X'. X X X X.X[..X|.+X.X|. X X XOX[.Q.U.U.P.F.C.V.V.G.C.F.F.G.F.P.F.F.C.P.P.C.P.G.F.F.C.G.I.I.U.R.^.{.{. X.X XOX%XN.n.x.M.n.M.M.M.b.b.m.e.3.E L J L ).oX}.].U.c.b.n.b.z.z.z.m.M.l.p.q.=.P K K g.+XOX",
"+X].+X.X+X.X+X+X+X@X}..X|. X.X#X.X`. X.X|.]..XOX.X{.XX'.[. XXX.XXX{.#XXX#X.X.X.X+X.X X.XXX_.T T Y T U Y U U Y Y T U U U U G G U G Y U Y Y Y Y Y U Y U Y U U U Y P 1.[.[.{.}.oXF.q q q * q   #.&.q * ] / = .   a ).}.{._.Q.* * * & & $ .   p 4 N E =.L J J g.|..X{.}..XOX.XOX.X+XXXXX+X.XXX+X{..X.X.X X+X}.XXOX.XXX}.+X X X+X}..X.X{. X+X+X X|.XX+X|.{.+X+X!.Y Y U Y T T G Y Y U U Y Y T U Y Y U U Y T Y T T T T Y U U Y U T T T T 7.XX X+X[.+XV.b.M.M.M.M.A.n.A.n.l.i.3.-.L J L )..X_.].R.n.n.n.m.z.b.x.b.b.l.p.q.-.L C K g. X X",
"+X.X X.X+X.X+X X[.[.{.].[.{.].{.'.'.[.'.`.].[.|._._.'.'.'.[.'.{.'.`.XX|.+X+XXX+X+X.X|..X@Xh.=.2.q.w.q.q.e.q.w.q.w.w.3.q.4.4.3.3.3.>.2.4.2.3.4.W L . . . .   .   X U F.{.[.}..XN.* q q q *   #.$.q * ) z = .   a !.[.{.`.!.* * * & & $   a p & N W E L Z Z s..X|.[.[. XoX.X.X X{. X{.[.}.[._.'.{.[.[.{.'.'.}.{.[.}.'.[.`.{.'.).).[.'.}..X+XXX.X.X.X.X'..XOXg.2 2 9 2 2 7 7 9 7 2 6 9 7 q.w.q.q.3.q.q.q.e.E 7 2 7 9 2 2 # # # # @ # U G.+XXX X@XN.h N t N N m N N m 8 7 7 2 < # < ). X{.].E.b m m t N N N N N 8 8 2 1 1 C J s.|.{.",
"]..X+X+XoXW.v.7.| T U U U U Y U Q Y Y Y Y U Y Y Y U Y U H Y Y Y T T <.p.!.+XXX|. X.X+XXX'.e.R -.=.-.=.=.=.=.=.;.-.=.-.=.E E E =.=.R =.W =.=.=.P C + . . .   . . X . | ].{.}.+XF.q q q q q   #.&.q * ] / % .   a Q.oX.X{.Y.{ [ ` ( z l g s . 1 N W =.L C C c.`.'._..X{.[. XQ.v.7.| Y Y Y Y Y Y Y Y Y T T G T Y Y Y U G U U Y G U U U 1.s.Q.XX.X#X.X.X|.|.'.t.    - :     o o o o < 1 2 7 =.E -.=.=.;.=.>.7 9 2 .   i 5     - - .     <.oXOX.X+XN.& & ` ` ` ` ` ) & &   j   . . , ^.{.oX_.!.  &   ( ( & & z j   . 1 2 < < C v. X}.",
"{..X}.oX[.I.o.U U <.t.i.i.p.p.i.w.i.i.i.p.w.u.p.e.w.i.p.i.w.e.q.1.T T T t.).@XXX X{.oXoXQ.C Z J L L L L L L L L L R L L L L R L A Z K L L L L C 7 . . . O     .   O U `.)./.[.V.q q q q *   #.&.* * ) z % .   a ~.{.}.+XU.[ [ ` ( / l j = . 3 N W =.K Z M v.`.]. X[.{.+X.XI.<.G U 8 & @   , , , ; i , , .   , , , , , , , , , p h U U U e.).XX+XXX X X XQ.@     @ X     o @ X X X X # < U L L L L L L C 7 ,   .   ; > .   # #       U XXOX.X+XV.& * _ / / / / & &   k   .   > , !._.oX[.E.&   / / & % l j   . . .   @ # C z.XXXX",
".X.X X.X}.G.>.>.>.=.E R P U R R I Q P I U I E R I U R U U I L P L Z V b T U.[.+XXX[.oXXXR.6 7 7 b 7 b b c b n M C C C C C C C C n n M n M n C v 6 . .     .   . X . U {.}. X}.N.q q * q q   #.&.q * ) / % . . . /.[.[.}.Q.* * * * & $ . . p 5 N E E L C n c.{.{.}..X.X X'.G.      . . .   : - - : - - > .   - : - - : - - : - - : # o X U Y.XX+XXX.XXXXXY.o     X X       X X . X X O # C C n C C C C 7 6 :   .   : :   . # #       Y XX+XXX@Xv.& & l z / z & =   l   . . ; ; . ^.]. X}.!.  z z = % l j   .   , > # # # n c.}. X",
".X+X[..X_.N.E P n 9 & 2 2 1 1 2 1 3 1 1 2 1 1 2 1 1 1 1 2 1 1 < 1 1 # + U F.|.{. XOXOX.XR.O O O O + # @ O O < 6 b n b b b b b b b 7 b n n v b 6 6   .   .   .   . . U {.OXOX}.N.q q q q u #.#.* q   )   $ . . . ^. X.X}.W.* & * & & $ $ s p 2 m W =.L C n z.].].].{.'.'.).v.# # X : X o o # : X : o o -                                 T G.XX+XOX.X#XXXW..       .     X X     X   O # b b b b b b c 6 @ @       X :     X #       U +XXX}.oXN.& $ l l l = $   j   . . , - .   ).]. XXXQ.j l $ = j s   .   i , - - @ # n v..X X",
"{.{.[.#X`.C.L C c < # # < < # < # < < < < # < # # # < < # < # < # # O + 6 c.|. X XOX X.XR.O . @ O O @ @ + O O < b b v v b b v v c c c c b b b 6 < - 0 ; - - ; ; - 4 U .X X+X+Xv.#.#.#.#.#.#.u q   [   = + . . = )..X X|.Y.* * & & & = j a   2 N E =.L M b g.]././.].{.oX_.N.@ X X X X X X X X X X X X X                                 2 N..X+X}.}..X+XW.              X X X X   X   @ b b c b 7 v v 1 @ o       X #     @ @ .     U oXoXXX.Xv.= % % % = .   s   . . i >   . - ~.{.}.[.E.j $ $ s s   .   p , . .     < b v.{..X",
"}..X[..X^.W n b 6 < O                     @ + @     @ @     @ X X @ X X X c.|.+X.X.X X.XY.@ X o X @ X X @ + O < c n n b b b b b b b b c b b n 6 6 - ; ; ; ; - - , p U XX.X X.Xn.@...#.#.#.q *   ..  * & = . . . `.XX.X+XR.q * * * & l f   . 2 N W ;.L C b c.{.`.}.}.[.oX/.V                   X X X X X                                   N.XX.XOXXXXX+XR.X     X X             X   X # b n b b v n b 6 @ @       X @     @ X       U XX X{.+XC.. . . . .   s   . . a , .   o - ).'.{.}.E.. . s s   .   p , . X .     + b z. X{.",
"oX.X.X}./.M b 7 < # X                     X @ @     X X     X X X X X X X v..X.X.X.X.X{.Y.X @ @ @ X X X X O < < n C C C M C C n N C n n n C C c 7                   Y .X}.+X+Xv.        q q   ..  * * & = . . . ).+X.X[.!.* * * & / l   .   8 N ;.=.L M b c..X[.[. X{.[.Q.#                   .   X   X X X   X X   X   X   O X   X   . X N. XXX.XXXXX XE.X     X X     X . X X   X X O C C C M M C M 6 o o       X #     o X       Y XX+X+X+XN.% % % %   a   . + p i .   - o   _..XoX.XQ.. s a   .   p i . . .       # v g. XOX",
"oX.X}.{./.b b c 6   X                       . X       X     X   X     X . n.[.oX X.X X.XY.@ @ o @ X o X O @ < 1 C I L I L P L L L L L L L L L C 8 . . . . .   .   . U OXXX.XXXv.q q * q *   ..  * * * = = . . = !.+X.X+XQ.* * * / /   .   i d N =.=.L C v c..X X X/.].oXE.                                                                v.+X@X+X X X XI.X     X X     X @ X X X X O < L L L L K L P 8 o -       : :     @ @       U XX.XXX+XN.s s s a a   . . a i . . - :     ^. X}.oXQ.a a   .   p p . X , - - @ @ # b c.oXoX",
"{.}..X@X).b M c 7   X X                   X         X                     v. XXX}.XX}..XR.  .       .       2 6 R =.;.;.:.=.=.=.=.=.;.=.=.=.=.L Z & & & & . = . . . T .X X.X+XC.r r r r   #.  * * * * $ = = . . _.+X.X.XR.* * ] (   =   a p 9 N =.=.L M b N.}.}.{. X|.OX(.+ @ X X X X X X o                                               v.XX+X@X{.XX}.Y.> .   - -   . : : : o @ : # 2 -.E =.=.R =.-.Z - ;   .   > ,   . o o       T +X X.X+XN.a s a s s . =   s s . . - o .   _..XOX+X!.s s . . a a s .   ; ; : o O # M n..X.X",
"+X X+X+X).C Z n b   X X                 X X     X X       X               c.oX+X[. X].{.G.X     . .       X 2 8 =.q.w.q.q.w.e.3.q.w.w.w.3.3.5.E U / z z l j a i i a U XX+XXX@XC.#...#.#.#.  q q q * * & . . . . ).}.+X XQ.* [ )   $   j s . 3 N T E L C b v.}.].].{.OX X!.                : : .           .   . .     .                   v..X+X+X+XXX XY.4 .   i , . . > > ; - - : - 9 q.q.3.3.q.q.w.U i i . .   p p .   > - .     U XX+X[.@XF.s g f f j . .   s j . . > -     ).OX.X|.E.s s . . s s s .   , ; - # . # v V. X.X",
"+X.XoX{.Q.R R K N   @ @       X X # X @ @   . : X       X         X   X X B. XXX.X{. X[.E.> - - - - - - - - 7 V q.k.l.l.k.l.p.i.i.i.p.i.i.4.p.>.;.) ) _ / l s a i p W |..X[.+XP.          * q q * * & & $ . . = `..XXX{.W.[ [   &   l j . . 5 M =.E K n v v.}.{.{.OX].oX^..   .   . .   .   - - > , , > ; ; ; ; ; ; > ; ; - - # o o @ @ @ h.OX+X+X.XXX|.E.g . .   a = .   , , ; , - - 8 a.i.e.e.i.k.u.E a a = + s a   .   i >     : |  X X}.XXF.j j j j j % .   j j . . > > .   `.[.{. XE.j j = $ g s j .   , , - # X O v V. XXX",
"@X}..X X/.;.2.E L . - : .     : -       .   : :       :       X X X X   X N.+X]..X{. X[.^.> > > - - - - - - 8 N w.n.b.b.b.m.z.k.x.l.x.x.x.z.m.e.>.* * * & & = . . . 9.{. X.X}.W.q q * q q q q * q * * * $ . . .  X.X XXXW.[   &   z l $ . a 8 8 E E L n b c.[.].}.{.{.|.!.. . . . . . . . .   a p a a a a a a a a i a i i i , , > - o : o b. X.XXXXX'.`.!.k l = .   f % .             8 m.z.p.z.l.l.x.;.f = = j j   .   s i . . - ; 7.}.}..X+XW.z k z z l = &   k z = . , > . . |. X[.[.R.x l = $ l j l =   p , - : @ O b v.XX|.",
".X+X.X+X^.q.i.>.E   > > . .   - 4 . . .   , -   .   ;   . . - :           v.+X.X.X.XXX.X`.E.      ; ; ; - ; 8 S e.M.n.n.n.M.n.b.x.l.n.M.b.x.b.e.4.* q * * % % $ . . V..X|..X X`.q * q q q q q q q * * & $ . . i.%XXX.X[.!.  *   ) / = = s p 2 N E E K M c c..X.X`.{.}..XQ.s f f j j j j j * +   k j j j j j j j j j j j f f a a i ; : # : c..XXX.X X}.}.{.Y./ ( $ =   j & . . . . . X b z.l.m.b.x.b.x.3.& & z z   =   l j + . , ; . F.+X}..X}.~.z / / z z & $   z / $ $ i > . y.OX.X X|.U./ / % & z l z .   a , , # @ @ n v.|.XX",
"+X+X X[.^.i.k.w.>.. p , . .   i a . . . 4 p   .   i   . . , , .           v..XXX.X.X{. X+X_..   . , , ; , - 8 S e.n.M.M.A.n.m.b.b.l.b.M.M.n.M.i.,.q q q * % % $ $ h.|..X{.{.[.|.^.q q q q * q q q * * $ $ . . R.@XOX|.[.Q.*   ) / & = s a   7 N U R K n n v.}.{.[.[. X{.R.k z / z / / / / / * &   / / / / / / / / / / / l l j s p 4 - - # c. X+X+X{.XX|.+X'.( ( ] & =   x & & + = + + N m.b.c.A.n.x.n.3.& & ( ( & *   / _ = . p , N. X+X.X+X X X~.` ` ` ( * &   _ ) & $ a , . Y. X|.|. XQ./ ) & & / z / =   a p , : @ O v b.|.XX",
"+X+X+X.XQ.p.m.w.,.. s s = .   a g $ . s s   .   s g . . a a . . . .       v.XX.XOX|..X X X+X+XOX'.!.T s a 4 b A e.b.M.n.A.n.b.b.l.b.l.l.b.c.m.g.y.O.O.6.v././.~.`.|. X X.XOX].{.*X+X[.F.q q q * q * * 3 W.R.`.oXXX+X|.[.W.  [ ) & & k g   . 2 N R I Z C n v.{. X].{. X{.!.& & * & * & & &   ) * &   ) ) ) ` ) ) ) ) ` ) ) ( / l s p 4 - - g.XXXX}. XXX}. X$X;X+X/.E.Q t F z k f s s a b n.M.b.M.M.A.b.3.B H +.8.W T Y d.j.^.^./.`.}.XX+X.X}.[.}.+X#X].Y.` * *   ) ] & 3 !.R./. X{..X[.[.U.` ` * * ) ` ' %   f i , o o # n v..X+X",
" X X X{.!.m.n.u.3.. g j . .   j l . = j j = =   j l . = j g . . , - - # @ g.+XXXOX.X.X X.X}.XX[.+X X+X+XoXoX.X X+XXX+X#X.X+X{.{..X X]..X{.|..X.XXXOX XXXXX XXX|.XXXXXX+XOXoX.X|. X[.[.].].{.oXoX X]. X{.{.[. X{. X). X XR.[ [ & & / l   .   7 N E E Z n b v..X{. X{.[.XXU.* * * * * * * * *   [ q *   [ [ [ [ [ [ ] [ ] ] ) ( / j p 4 - - g. X+XXX XXX XXX.X{.XX[.[. X XoX.X.X{. XOX{.`.oXoX.X+X.X|.].].{.}. X{.].]._.[. X X X]. X.X.X X]..X{.+X XXX.X{..X XoX.X.X|.[.'. X[. X{..X[.{. XE.[ [ * * ` ) ` =   f a > - o @ 7 v. XOX",
"+X X.X X~.b.M.i.<.$ l l & &   z / & = z l & =   l / & % x k $ . a , - : # g.OX#X+X{..X}.]. X}.XX+X X|. X.X'.'.XXXXXXXX XXX.X{.{. XOXoX].]..X XXX+XXX]. X|. XXX|..X X+XXX+XXX+X.X[.[.`._.[.[.[.}. XoX]. X.XoX X|.].[.XX|.E.[ * & _ /   .   p m C W E J n b N.].{.{.oX[.oXQ.] [ [ { { { [ #.q *   { q *   [ { { { { [ { [ [ [ ` ) l s p , - s.+X.X+X X.X XXX}.{. X|.[.|.[. X[.}.oX X X[.]. XoX{..X}.+X X].}. X X}.[.{.].oX].{.]._.}.}.[.{.).}. X X X].].].}.]..X'.'.{.{.+X XXX.X|.[.oX|.|.E.{ { * * ] ] [ *   j a , : @ + n N.{.XX",
"+X{..X XQ.m.n.e.>.$ z / & &   / ) & & / / $ &   / ` & & / z & $ s i ,     s.OX+X X+X].].{. X.X]..X|..X X{. X.X{. X.XXXXX+X}..X X{..X}._.}.oX X].{.{. X+XXXXXXX X.X.XXX+XXX{.XXXXoX[.|.{.}. XoX[.].{.oX`. X XOX'.[.{.'.XXE.* * ` _   =   a p ! A =.R Z M b c..X}.{.[.}.].!.[ [ { { X.@.{ ..%.q q   X.r *   ..{ ............[ ] ) z s p , ; d.+X.X.X+X}.}.'.XX{.'.[.[.|.oX_.oX X XOXOX{.{.}.{.oX X{.+X X}. X{.[.{.{._.[.{. X].].[.}.{.}.].{._.].]. X{. X[.oXoX X.X|.|. X|.XX.X X{.[.oX|.XXR.{ { * * [ ] { &   j s , - # # v V.|.+X",
"+X[.[. XW.k.c.e.3.& ( ( & &   ( [ * & ) ) * &   ) [ * & ) ) & & j a i . . y.|.+X X].{.{._.{..X].+X X+X.X'._.}.{.|..XXXXX+X{.OX.XoX{.].}.].oX[.}.[.XXXXXXOX.X X[.{..XXXXXXXXX|.XXOX].[. X[.}.}._.[.OX X].[.].[.|..X[.'.[.Y.T O.1.Y ;.e.p.u.q.;.;.3.E J n b v..X[.{.].]. X!.                ..$.* q   @.w *   ....@.@.......{ [ ) z f p 4 ; s.+X X.X.X.X X|.}.}.`.[.}..X[. X]. X.XoX}. X X{.{.oXoX+X}.}.+X+X X}. X X+X{. X X{.{.].}. X{.{. X[.'. X.X|..X.X.X.X@X.X X{.|..X|.'.|.].oX.X|.oXU.{ #.* * { [ { &   j a , > o @ n v.|.[.",
"}._._. XP.z.b.e.4.& ) ` * *   ] { * * ] ` * *   ] X.* & ) ) * & j a i .   y.[. X X'._.].}.].B.U U U U T U U G Y H U U T '.oX XoX+X}. X[.{.}..X].|.+XOX XXXOX X X.XXXXX.X.X[.[.+X.X.X].{.[..X XoXoXoX].}.`. X[.|.XX].{. XY.n.n.c.b.n.n.n.b.p.i.q.K.R Z n b c.].}.{.[.].`.~.* * * * q q * q   #.&.q *   ..r q   ..@.@.@.#.....[ ` z f p 4 ; y. X+XXX+X.X+X+XXXs.G U H U U U U Y T G Y U | ).]._.{.+X{. X+X}.}.[.+X+X+X+X X+X[.`.+X X X{.'.'.}.].}.{.].`.].].OX.X}.|.'..X{.]..X|..X|..X{.oXR.{ #.q q { [ { *   j s , - o O b n..XXX",
"|.|. X'.Q.x.M.i.4.& ] [ * *   [ #.* * [ { * *   [ #.* * ] [ * & l s p     t.OXOX.X}.].}.}.V.U # = k s s a , 8 B w.b.l.Y U }.{. X.X}.].[.{.}.}..XXX.X+X.X.XoX+X X XXX{. X{.|.{.XX X'.}.'.|.XX|..X.X.X`.^.`.{.+X}.OX|.[.[.F.D.H.H.H.H.H.D.D.l.l.u.>.L N n v c.[.[._.[.].`.E.w r w r r r r r q   @.&.q q   #.w *   #.#.#.#...{ [ ` l f a , - s.+X X.X+X.X.XXXG.Y { { { * * ) / z j s s s G Y '.}..X{.].+X+X{.}.+X+X.X+X.X.X[.oX{.{. X{.`.]._._.{..X{._.}.].}..X X{.XXXX].[.].{.+XXX+X X`.].I.....* q { [ X.&   j s i - # @ n B.+X+X",
"|.'.`.`.Q.M.b.i.,.* [ [ * *   { %.* q { { * *   { %.* * { [ * & l s s .   g.XX#X+X].{..X+Xc.( & & k j a a , 8 S 6.l.x.b.U W..X XoX`.[. X{.}.Q.F.V.g.g.g.s.y.s.g.g.p.s.0.y.y.p.c.v.v.v.n.v.V.V.V.v.F.F.E.{.'.}.}.OX X`.[.U.b.n.n.n.A.n.M.x.b.l.e.;.R J n v g.{._.]. X`.|.E.} { #.#.#.#.#.#.r q   #.&.q q   #.r q   #.#.#.#...[ ] / f a 4 ; g..X+XXX.X+XXX+Xc.{ { { [ * * ( / z j s s a Z U R.{.{.}.{.+X+X{.+X(.F.v.g.s.d.d.t.p.y.s.9.9.t.t.7.s.g.c.v.v.V.v.B.V.V.V.F.P.).[.|..X.X X X_.}.I...#.* q { [ X.*   l s , - @ < b n..X.X",
"].].[.`.E.n.A.i.,.  {   * * { ..* *   ..  q * X.X.* *   ..  * * l g . . > y.XXOX+X X.X}.'.e./ # & j g s a , 5 m ,.l.k.p.y.v.}.}.[.}.{. X}.E.y.T Q T T T T U Y Y R T U U G G U U U Y T T Y Y U E U U A W h.].[.[.|..X`.'.F.M.M.l.n.M.A.A.n.l.k.i.3.R Z n b b._.{.].].|.{.Q. .#.#.#.#.#.#.#.#.w q   @.&.q q   #.r *   #.#.@...{ ) / f p , ; s.oX.X.X+X+XXX'.y.] [ ] ] * & / z j j s a U E p.s.[.oX{.}.].}..XQ.9.Y U Y U P Y Y U U U U U D U D D A G Y Y Y Y Y Y Y T T Y o.N.}.{._.{.{.}.[.P.X ..&.*   [ [ * &   s i - 7 7 b v.OX X",
"|. X'. X^.x.b.i.,.[   * q @.#.* *   ..  q * @.@.q q   ..  * * ) z $ . , > y.XXXX+X+X{.{.Q./ l % $ g a p , , 4 8 ;.e.u.e.e.9. X X}.[.].{..XI.T u.q.4.q.2.;.E K C M b M J L E ;.3.4.w.w.i.e.e.q.e.w.;.R G <.E.'.}..X{.].[.F.l.b.b.n.n.n.A.n.l.l.e.>.E C n b c.[.].oXOX{.{.!.n.m.l.p.p.p.i.a.g.l.a.i.i.i.6.e.p.k.i.a.p.p.i.a.i.e.,.W L C b c s.+X.X.X+X XXX^.>.2.2.3.>.3.3.3.;.<.>.2.<.3.e.e.t..X].+X}.+X+X.XR.K.2.2.K.=.E R A C b c c b n Z L Y E ;.2.2.2.3.>.2.2.;.E P Q <.Q.{.{.{. X[..XI.u.r.p.p.z.a.i.p.i.w.3.;.A C C b N.OX`.",
"].[.`.OX!.b.A.i.,.  q * @.@.q q   ..  q q @.@.q *   @.  q * { ) & $ p 4   y..X.XXX+X.X X~.f f = . s p i > > - 6 U 2.3.;.3.9.+X XoX{.].].[.F.2.=.;.=.=.-.I L C M b b M C K P P =.;.2.;.2.3.:.3.:.=.-.L n U F..X.X.X X{.}.E.l.A.n.x.n.n.x.x.x.i.u.2.R J n c v..X].OX X].oX~.b.n.n.n.b.n.A.M.n.n.b.x.z.n.n.x.n.M.n.x.x.x.x.x.b.l.e.2.-.J b c s. X+X.X+X.X'.!.;.;.2.2.2.=.=.W ;.>.;.3.3.2.2.3.0..X+X+X}.{.+X].P.K.K.K.=.E E P K M n b b b C C L Y E =.=.;.:.2.2.2.;.-.R L J Y I. X]._._.`.}.R.M.x.A.x.A.M.n.b.b.z.u.5.-.L M b v.+X}.",
"}.{.}..X~.x.A.i.3.* * ..@.q *   @.  * q #.#.q *   #.  * q { [ * & g p   . a.XX+X.X X[.|.W.a a @ . , > > - - # 2 K I R E R 9.|.+X[.{.{.{.[.V.L R I L L K C M n b v v b b n C Z L P R R R I I I I P L C M U N. X+X X}.]. XU.x.A.n.A.l.A.A.n.l.l.p.4.R J n b N.}.[.oX{.].oX/.n.b.M.M.M.b.A.S.x.M.x.n.x.M.n.l.M.x.n.A.n.x.x.x.x.l.u.2.-.J n v d.+X X.X+X X XE.I R R L R R R R R R E R E R R E 1.{.{.].}.+X+X'.P.D L L I K K Z M M v c c b n M C Z L P I R R R R R L L K J C U C..X X_.]._.[.J.M.A.b.n.M.x.b.n.b.z.p.3.E L M n b.+X[.",
"[.{._.].!.z.M.r.,.* @.@.* *   @.  q q #.#.q *   #.  * q #.X.* * z j       g..X[.}. XXX XR.i , . . > - - o o @ < n K K C Z 4.+XXX}.'.{. X`.G.J C M M M M b n v v v v v v b n M C C K J C J J J J C M b b b B.}.[. X{.]. XH.x.A.A.x.A.n.n.n.m.l.i.3.-.J M b c.].[.}.].|.OX/.n.M.M.A.M.n.n.A.n.M.x.x.n.b.n.l.M.M.A.n.b.n.A.n.m.l.i.4.R J n v s.}.+X X X+X X!.K K K L L J L J K J L Z Z J J L 4. X X+X+X{.+X'.P.V C n M n b b v c c c c c b b n M M C Z Z C J J J C C C n b b N. X X'./._.`.Y.b.b.c.z.S.M.M.n.m.m.i.2.=.L M v c.}..X",
".XoX{.].!.p.x.i.>.{ { q q   #.  q q #.#.q q   #.  q q #.#.* * ` z   . . . g..X[.XX.XXXXX~.i , . . > - - : o @ < 7 M M M M 7.}.}..X X[. X/.G.b M b b b b v b v v c c v 7 v v v n M b M M M M b b n b b b c v.+X'.}.{.}.}.E.x.A.n.m.A.n.x.x.x.l.e.3.-.K b b c.[._.[. XOXOX/.b.b.M.n.x.n.A.M.A.m.x.m.n.n.z.M.x.b.l.A.n.n.n.n.x.p.i.3.E K b v c.+X X+X X+X+XQ.J J Z C Z Z C Z Z C C C n n n n 7..X}.+X+X{.+X_.P.n n b b c b c c c c b c 6 c c c v v b n n n b M n n b b c c b c.}.}.{.{..X`.G.x.M.x.n.M.b.S.m.m.k.i.3.-.K b b N.+X+X",
"OX+X.X{._.a.n.i.,.{ q q   @.  * q #.#.q *   #.  * q #.#.* * { )   . . . . c.OXOX].XX.X|.~.p p . . , ; - : o o % 7 n b b b 4.XXXX}.}.}.]._.c.b b v b v v v v v v v v b v v b v b v b b b b v v b c c v c v b. X.X]..X X+XW.b.b.S.A.n.n.x.n.n.a.i.:.E K M b g.'.].]..X.XOX`.g.M.M.A.M.M.M.b.b.A.b.z.x.n.M.b.M.b.x.M.b.M.M.n.b.l.u.>.R J n b v..X.X.X+X+X+XW.K L L L P P L L Z Z C M b b b b 4.+X}. XXX.X+X`.v.b b v v b c v c v c c c c v b v v v b b b v b b b v b c c c c m..X}.}._..X.XY.b.b.n.b.M.M.b.n.M.l.i.3.-.J M v V..X.X",
"oXOX{..X`.U.n.i.<.* *   ..  q * #.#.q q   #.  * q #.#.q q ..{   & % . . . c.].OXXX.X.X[.Q.s s + . p , ; > : # 2 b n n v c 7.+X}. X}.{..X).s.b b b n n b n n n b b b b b v n b n b v b v b b b v v c v c b c. X{..X.X.X{.E.n.b.S.A.n.M.x.m.b.z.i.3.E K M v c.).}.oXoXOXOX'.Y.S.M.M.M.b.A.M.M.A.b.m.m.n.z.a.z.M.b.b.M.M.M.n.b.l.i.2.E C n b N.}.+X}. X X}.Q.W E K.=.E E E E R P L C n b b c 1.XX}.|..XXX%X'.p.b b b n b b b b b n b b n b b b n n v v b n v v b v c c b c b c.{.+X}.}.{.].Y.n.n.n.n.n.M.M.b.n.l.k.3.-.L M v F.oXOX",
"OX+X.XoX'.U.c.w.>.*   ..  q q #.#.q q   #.  q q #.#.u q #.{   & & % . . Y I. X{. X X`.].R.l l % = s a a , - - 2 N C n b c 1..XOX{.}.{.+X).w.n C C C M C M C M C M M n n M M M M n n M b n n b b b c c 7 c l.{. X}.].{. XI.b.S.n.A.x.M.b.b.l.a.i.4.R C n v b.].XXOX#XOXOX XU.n.M.A.M.n.M.M.M.b.M.p.n.z.b.b.M.x.b.M.M.M.S.M.n.m.t.3.R Z n | I.+X.X+X{. X}.W.2.2.2.,.>.3.3.2.3.=.E L J n b 7 7. X[. XXX.X#X`.t.C M C C C n C C C C C M n M M M M M M n n n n n n b b c c c b g.}.]. X{.}.}.Y.m.v.n.M.n.n.n.n.x.l.i.3.=.J M n V.XXOX",
"oXOXoX[.XX'.M.i.<.* ....* q   #.&.*   #.@.q q #.#.&.q   #...* * & . . . V.^. X{.].]._._.U./ / & & j s a , , > 7 Z Z n b c 7.+X X].{..X+X_.7.< < 1 # < # < < 1 < < < < # < < < < < # < < < O < O # O O O O g.]..X.X].}.}.R.m m N N N N 8 N t 8 7 2 1 < n v F. X[..XOXOX@X#X'.m M m t t t N t N 8 m t t b h m m t t t N m m N 8 9 6 < # + V.Q.+X}.+X X}.+XW.7 9 9 8 7 7 7 7 7 6 2 < < # b b 4.OX{.{.XX+X%X).t.L L I L L L L L L I P L L L L L K K K Z K C Z C C M n b c c c B.}.}..X}.[.].R.n.A.n.M.n.S.m.x.n.l.i.3.I J M b G.#X[.",
".X XOXOX%X$X&X X4.* ..#.* *   #.&.u   #.#.q q #.#.&.*   @...* * & & ).^.~.|.}.{.].]./.].R.` ) & % z j s a , 4 b P P C b v 4.[.OX[.]..X+X_.7.; O   - - > - - - - > - - - - - - - - - - - 0   X # o :     O c.`.oX X.X].{.(.a a . . , , . .   : - 1 1 # < b ~..XoX.XOX XoX*X-X$XOX+.` ` ` )   * * ` ` * *   `   & * ) ` * * ( / l j s ~.^.^. X X+XXX X}.].Q.` &   / / & & j s a p 2 < < < c 5.|.XX`.XX#X.X).p.R =.;.;.=.=.;.=.=.=.=.=.;.=.-.=.R R E E R E R P P C C n b b c g.{.{.|.{.}.}.~.x.n.M.n.n.M.M.M.M.x.i.3.E K M v Q.OX X",
"|..XXX]. XXX:X:X@X@X%X&X&X&X+X@X$X$X&X&X$X&X&X#X*X#X%X#X+X+X%X+XOX%X#X+X+X.X}..X{.{.`.|.E.' ` * & / j s a p 3 t R R Z n b 1.[.XX'.{. X{.).7.  O   ; ,   . X . .   . .   X . .     X   - -     # X o     O g.[.].[.].{.}.].Q.p X . 4 > . .   - - O   O # n }..X+XoX X X XoX%X>X:X$X{.oXOX#X%X#X@XOX|.oX|.|.OX#X%X%X+X+X%X@X%X&X%X%X%X@X+X X}.}.{. X|.'.{.W.( %   z l $ $ j s a , > : # + b 4..X|.{.XX X|.).g.4.4.w.w.4.u.q.6.q.w.w.q.q.q.q.4.3.3.3.3.3.2.;.:.=.I J n b c c v.{..X+X].]..X[.Y.M.b.M.V.M.M.M.x.l.i.3.R K M n |. X X",
".X{. X[.'.OX{. X}.}.XX+X+X+X+X|..X.X.X#X+X+X+X.XoX.X[.OX].}.].{.{.+X+X.X X.X}. XoX|.oX.XE.[ ] * & / l s s p 5 N E R Z n b o.}.OX[..X[..X^.9.X     - , . .     . .   . . .     . .     - >   . : # @     X t.}.{.}..X}.`.+X).4 X   4 4       - -       # N.oX.X.XoXOXoX{.OXoX[.].{.].{.|.|.[.{.|. X|.[. X]. X|..X XXX[.OX X.X X.X|..XOX.X.X[..X+X.X}.}.XXQ./ &   l l = = j s p 4 > : @ # b 1. X X X+X'.XXQ.i.i.p.p.w.3.2.>.;.>.>.>.>.;.;.>.;.W ;.E >.=.=.W W U L M v c 6 6 s.+X X|.{.{..X+X`.4.1.4.w.w.6.w.i.a.u.3.I A M M.|.|. X",
"|.[. X[.].|. X.X X X+XXXXX+X+X@X.X.X.X+X X+X.X.X X+X{.}.XX XXX'.'..XXXOX.X.X.X.X X X{..XE.{ ] * & z l f s p 5 8 W W L C b <..X]..X].[..X_.9.O     > , . . O . . . . . . . . . . . .   > > .   - : X     X g.].}..X.X].{.+X@X@X{.V.- - .     - -   | !.).}.XX+X.XoXOX|.oX{..X[.[..X.X|.`..X|.[. XXX X[.'. X).`.[.|..X.X'.XX{. X}.+X}.OX.XXX_.+X XXX{. X XR.z .   l j . . s a p , - # @ # b 1.+X{.}.OXOX+X^.p.l.p.~ A b m 8 8 m 8 b t 8 t 8 8 t 8 8 8 8 8 8 8 7 2 0 0 @ O O v.}. X{.}.{.{.{.+X X}.G.N N t t t S Q >.e.~.~.[.|.'.`.",
"|. X[.|.|.oX|..X X XoXOXXX{.+X X}..X.XXX.X|.XX.X+X+X+X{.+X{. X'. X'.XX.X X}.+X}.{. X|.{.W.[ ] & * z l g s p 7 N =.=.L C b 1..X}. X X[.+X_.7.X .   ; , . . , > > ; - 4 ; , - , > 4 .   ; -   . # o o       s.{.{. X X{.}.[.+X'.{.oXoX+XOX{.+X+X X@X+X.X+XoX.X.X+X{..X+X}. X X]. X X{.[.oX{.].[.oX|..X.X[.'.`.|.XX{.+X.X.X X{.XX.X}.[.XX XXX]..X{.{.XX[. XY.l $   s s + . a p , , - # O # n 4..X].).{.`.OX/.z.l.i.,.m m t N t m N h t m N t t t t m N d b 8 t 5 7 9 < # # @ c..X{. X.X}..X X'.'.}.+X+X+X+X@X+X+XoX[.+X]..XoXoX[.}.",
" X.X.X{.OX].[.|.|.{..XOXXX@X X X X+X X X}.XX.XXX X.XXX X.X|.[.{.'.{. X+X}..X}. X|.+X'.XXY.{ [ * & / l j s p d N ;.=.L C b 7.XX}.|.{.[.{.).7.  .   ; 4     , , ,             , , 4     , , X . - - #     O h.[.}.}. XXXXX|.|.XX|.{.[.oX[._._.].].{.+X+X+X.XoXoX.X.X+X+X.X+XXXXX X[.{.oXoX[.{. XOXXXXXXX`.[.|.].|.'.}. X X|.}.|.+X X{.}. X{.}.{.{. XXX].OXE.j .   s s . = a i , , - # X # b 1.{._. X{.[.[.(.s.n.a.4.S 2 a s . . a s s a s a s a a a a s a a a i , - - @ @ X s.). XoX.X.X.XXXXX.X{..X.X}.+X+X X].]..X[.[.[.}.+X X}.",
"oX[.oX.X.X{.[. X].{.|.OX}.|.@X XXX.XXX}.{.}. X+X.XXXXX+X{.{.[.}.}..X.X.XXX X[.[.XXXX|..XQ.[ [ & & / l s s p d N ;.=.L C n 4..X].|.'.[.OX/.1.. .   4 p . . , 4 p X .   .   . 4 , 4 .   , ,     > # :     X c.{.]..X X X.X.X.XXX.X}..X`.`.}.{.].].}.+X+X+XoXoX.X+X.X.X.X+X X+X}.'.[.{.{.].[.{. X X+X}.XX{.].|. X[.'.+X+X X X X X X+X.X.X}.[.'.`.{.XX{. XXX!.s .   a a . . p i , ; : o X # b <.{.].oX{.].[.Q.y.M.i.3.7   p a . . p 4 p p 4 p p p p p p p p i i i , - # @ X X d.}.}..X}.+X X+X+XXX|.}.{.}. XoX X{.{.{.{.}.]. X X XoX",
"oX.X|.|.OX[. X].].|.{.|.{.XX X.X.X.X X.X{.'.{.XXXXXX.X.XXX X X{.{. X{.XX'.XX}. X X+X[.XXQ.{ [ * & / l j s a 5 N ;.=.I C n 7.+XoX[.[.].{.Q.<.. .   4 p . . 4 4 p . . . . . . p 4 p .   , 4 . . , - :     X s.).oX+X.XXX.X+XXX X.X X}.].}.XX+X'.]. X{.+X+X.X.X.X+X}.+X X.X+X+X+X[.`.{.[.{. X]. X X.XXX|..X[. X[.|.'.{.XX}.}..X]. X}.{.}.{. X].[. X X X X#XE.s .   a a . . 4 , , - - # X @ b 7..XoX.X[.}.`.!.g.z.i.<..   i p . . 4 , , 4 4 , p , 4 , 4 4 4 , , , ; - : X X X s.+X+X+X.X X.X+X+X.X.X+X.X{.{.+X X{.{.].}.oX}.].oX}.OX",
"U U U U T Y U U I Y U U U T U T 0.[..X.X.X+X+X.X{.B.U U U Y U U U U T U Y Y F.'.{.+X X+XW.* * * * z l g s p 8 N =.;.I C n 7.oX[.].|.].`./.1.. .   p s . . p p s .   p p . . p p s .   p p . . , > -     X c.}.XX.X.X+X.XXX[.V.T P G U T T T Y Y U Y T T T U R Y U Y Y Y T Y U G G Y U U R U A U 9.'.+X.X|.+X|.[.'.v.T G Y U G U U G D U Y Y N.'. X.X.XXXE.j = .   a . .   , , 0 - X X # n 1.[.}.|.].].~.!.c.b.i.>.. ; ;       ; , , , , , , , 4 , , , , , , > - : # X   X v.+X.X X+X X+X+X}.F.W U Y U Y T U U U U Y T U R U Y U ",
"Z I -.;.q.e.i.>.E & ` ` & *   ) U Y _. X X X.XXXy.U * * * & & = . . .     h U 9.XX X}.}.~.* * * & / l j a p 8 m =.;.L C b 4.oX).{..XXX[.^.9.= .   s k . . g s j .   s s = . g s j .   s s . . p , > .   X c..X}.oX{.oX.XOXF.Y 8 @ a a . .   , -   X   # b v b n V I E U . . o   i a a a p . . a Y Y '. X|. X'. Xy.T . .   i i . .         t Y 7. X|.|.OX^.s j = .   s $ .             # n 1.{.{.].|.[.'.!.x.n.e.,.> >       ; 4 > , ; , , , , ; , , , ; ; , ; - : o X X X s. X.X.X X.X{..XP.Y s ; ; X O - - 7 8 L R K n c v v n ",
"n K L E =.:.3.R ! $ l z & &   z ` 3 d.OX X+X+X).<./ z z z z j f p 4 4 - > - , U '.XX}.@X~.[ [ ` _ / l j s p 8 N ;.;.L C b 1.}.}.[.oXoXoX`.0.= $   f l % $   j j & $     = . j j l =   f f = = s i ,     X v.@X{.}.oX}.+X+Xh.j = . s s $ .   , ,       O b v b b M J P Z . . +   i i a i p . . p p h d.|.{..X.X).o.i . .   , 4   .             U `..X{. X).  j l $ $   s + . . . .     # b 1._.].[.].|.].Y.c.A.e.>.>   .   , , ; 4 ; , , ; , , ; , , , , , ; ; - - o X   X c.{.+X+X+X{.+X$Xg.; ; 2 -     - - 9 8 U I C n v v b b ",
"b b J L I I R L M = g g $ $   f l $ | +XOXXXXXU.f f j f s s a p 4 4 - > - , i h ~.XX}.+XQ.[ [ ) ) z l s s p 8 V ;.;.P C b 1..X.X X XoX|.~.9.= $   k / % & &   l l & = = & & l l / $   l l = = s a p     : c..XXXoX+X.X.X).D l . % j s . O   , , X     O v v c b b M J b > > , , , i , , , . . , , p T +X X.X XU.i , . .   , , .       X   .   2 ^. X X{.^.$   l z = .   g = . . .     # n <.`.}.|.`.[.|.~.a.M.w.;.      , , ; 4 , 4 , , 4 ; 4 4 , , , , , , , - - @ @ .   c.}.+X.X+X}.+X_.V ; ; ; >     - - 2 7 L L C b b v c v ",
"b c n n C C C n 7 . p p . .   p s . U OX|..XXXU.                                R. X'.+X!.            f s p 8 N ;.=.L C b 1.}.XX{.{..X+X).0.= &   / ) & & & &   / / * * * * / / ) &   / / = % j s a .   X c.OX XoX.X{.OX~.j l = = s g + .   > >     O O b v c c b b n c - - - - - , ; ; ; .   > > 4 U XX]..XOXI.> > . .   - >     .     .   . . Y.{.{.{./.) &   l ( % $   s a i - - @ # n <._.{.|.|. XOX!.x.M.i.>.$   4 4 p p p p p p p p , p p p p p 4 i i , , > o @ @ X c..X X{.XX X.X~.> > - - -   X - o 2 6 C Z n b c c v c ",
"c 7 b b b n M c 6 . , 4 . .   , 4 . U |..X|.XXZ.. . . X   . .   .           . . U. X].[.Q.* * * & % =   s a 8 N =.:.L C b 4. X}.].{.+X X).d.* &   ) _ ) ) ) [ &   ( ) ) _ ) ) ) ] *   ( / & & z s s .   : v.oXOXoX.X|..XE.s j = . s s . .   > -       O c v c c c b b 6       X   - - - -   . - - - D .X{.{. XF.- -       - >         .     .   I. X[._.Q.( ] %   / ` % =             # n 5.}.`.{..XOX|.^.g.x.w.,.  p a p a p p a a a a a a a a p a s p a p p , > - @ @ X v. XOXXX.XXXXX!.- - - - -     # @ > 1 M C n b c c v c ",
"c c c v b v n 6 1   - ; .     - > . Y ].|..X.XN.. . . . . O .   . . X . . . . . Y. X{. XQ.w q q * * & %   i t m K.-.P M b 7.{.]. X+X.X+X'.d.& *   ` ] ] ] ] ] { *   ] ] ] ] ] ]   *   ) ) & & / j s .   : v.OX[..X X X].Y.a s . . a i . .   - -       O v b v c c v b 1     .       - - - .   : - - U [.].[.OXN.- -   X   - -   .         O   . I..X].].E.  ` { *   / ` $ = . . .     < n 7. X XoX.XoX.X`.c.n.e.,.s a s s f f s s s s s s s s s s s s s s s a p , > : o X s.OXOXOXXX|.+XR.- - - - # .   @ @ # < 8 M n v b v v v ",
"b v c b b b v c 6 O ; ;   .   - > > U  X'. X.XV.- - ; ; > - , > > - - ; > , 4 p I. X XOX!.[ [ ` / / j & .   t M =.>.P M b <.'.{.+X.X+X@X_.s.* * * * * * * *   [ @.* * * * * * * * * [ [   * * / l s .   - c.OX.X.X.X.XXXY., a . . i , .     - #       O b b b b b c b 6 - - - > .     - -   . - - - Y }.[.`..XV.- - .     : > .   . .   .   . . F.{._.[.R.*   [ { *   / ` $ = . .     # v 4..X XoXoXOX X~.V.M.e.,.g j j j j j j j j j j k j l j j j j j j f f s i > - o # s..XOX[. X.X#XR..             @ @ + < v n b v v v b b ",
"b b M n n M M v 7 . - , .     2 - > U |.[.|. XV., > , > , 4 , 4 2 ; ; - > > , p G. X]. XQ.{ ] ` ( / l s $ . S A =.E L C b 7..X X+X.X+X+X_.B.* * * * * * * * *   { #.* * * q * * * { { * * *   ( l = . > - v..X}.oX[.oX.XE.4 . .   ,   .   > -       @ # b b b n M n n 6 > - , , , . X   - >     - - Y .X{.[. XV.  ; 4 .     ; .     .       . . F. X/.].~.* *   [ @.*   / z j s 4 - # # n 7.+X XXX.X+X+X).V.M.a.2.f l l l l l l z l l l l z l l z z l l l l j f a i > : @ v. X.X'..X XOXR.  .     .     @ o # < b n n n n n n b ",
"K K J Z J J K J C n p 4 . . .     . U [. X|.|.N.. . $ . . . . . . . . . . . . . F.[.|.OX~.* * * & & =   s $ P U >.=.L n n 1.].XX+X}.+X+X_.F.e e w w r r w w r *   ....{ @.{ @.{ ....q * *   [ ) & . p , X B..X}.].].oX{.E.. .   i   . . , ,   .   #   # J J K K K J K b         p p . .   , 4     - U [..X[..XN..   i a . .   p . . . . . . . . G.'.'.}._.q * *   [ { *   z j s 4 - # @ b 5. X}..XoX.X|.`.P.M.i.5./ l / / / / ( / / ( / ( / / / / / / / / / z j s i > -   c.|.|..XOX.XOXR.. . . .   .   @ X # 1 n J J Z J J J J ",
"R I R R -.-.-.-.E R R L J c 6 1 1 1 U ]. XOXOXM.t m t m m m m 8 8 7 2 6 1 1 6 6 U..X{./.!.H W ~ ~ ;.6.i.w.6.>.>.5.=.L C b 4.XX X+X}.+X+X'.P.{ { { ..@.@.....@.w *   @.@.@.@...@.@.q * @...{ [ & & g p     F..X}. X].].OXE..   s   . . a a . .   -     < -.-.-.R R R R C . . . .   s s $ .   , ,     U |..X{.[.V.& .   g l . $   s % . . . . . . P. X X.X^.* * q *   [ { * & % . .     # n 7..XoX[.oX.X.X`.U.M.p.<./ / ( ) ( ) ) ) ) ) ) ) ) ` ` ` ( ` ` ( / / l j i >     V.OXXX.XOX+X.XR.i , , > - - : o o - 2 Z E -.R -.R R P ",
"2.3.2.3.2.2.4.4.q.q.2.-.-.J J n v n U .XoX].OXV.:.;.:.:.:.3.:.;.;.E L J M n M K G..X{..X!.a.b.b.x.x.x.c.x.l.y.w.q.=.L C b 0. X@X+X X+X+X[.F.                @.@.r * q q q q q * q q #.....{ * * z j . . S U. X}.|. X[.{.E.  z   & = l k . .   i   . . 6 2.3.:.:.2.3.3.U * * * * $   l l & .   4 ,   Y .XXX_.{.V.l * =   z _ $ $   k $ . .   . . G.}.'..X~.q u * * *   ` [ & & + . O   # n 7..X X|.OX.XOX{.G.A.p.3.` ) ] ] ] ] ] ] ] ] ] ] ] ] ] ] ] ] ` ` ` ( / j a   . S U..XXX'.OXXX+XR.                  1 7 R 3.2.2.2.2.2.:.",
"w.i.w.i.u.i.k.e.k.k.k.e.q.=.I K C C T .X.X|..XV.i.l.l.l.l.l.k.k.u.q.2.E L J K I I.OX}.{.Q.A.A.D.S.S.A.H.D.n.b.p.q.=.I C b p..X+X X+X+X+X{.).& * q q q q q q   @.#.r q q q q q q q #.#.  * q * ) F @ .   v.Q..X}.}.{. X XW.(   * * ( ( & =   s   . . a 8 i.i.i.e.u.e.u.;.D ) ) ) { &   ( z & .   , 4 W }..X`.].N.  ` * *   ) { * &   l $ . . . . U.[.OX{.).* * q * * *   ( ) * % + . . @ n d.oX{.[.XX X.XXX`.M.a.3.` ] ] [ [ [ [ [ [ { [ [ [ [ [ { [ [ [ [ [ ` z l   . . h.!.[.{.|. XXX#XE.& = = = . . . . . 2 m >.i.u.u.e.i.w.w.",
"l.i.l.l.k.l.l.l.l.l.k.u.q.:.-.J C C 1..X.X.X+XC.l.l.l.l.l.i.k.k.e.w.2.E L J J K I.oX].{./.m.M.n.b.n.M.b.M.n.x.l.q.=.P C n v. XoX{.+X+X+X+X+X{.3 q q q q q q q   #.#.r r r r r r #.#.  * * q [ ] & O   G.Q.{.}.{.{..X{.].Q.  * * ] ` * &   l   + . a a Z l.l.l.l.l.l.m.w.;.] [ [ [ #.*   / l & .   4 O..X X].[.c.*   { w *   [ @.* &   j & . . . G..X[.OX).e * u q * * *   / k s a - o < b c..XoX X.X.XXXOX$X'.r.3.] [ { { { { { [ X.X.{ { { { { { { { { [ [ ] '   . . U.E.[.[.].'.[. XOXQ.& & * $ = = + . . 2 N 3.k.l.l.m.m.p.l.",
"n.n.l.x.l.b.n.b.m.x.x.l.k.3.-.I C C v..X{.XX XC.l.b.b.b.l.l.k.l.i.w.q.:.R J J L J.+X].}.].U.n.b.M.b.M.M.b.b.l.p.w.=.L C b I.{.+X}.+X+X[.+X&X&X&X+X.XOXOX X X+X X{..X[. XOX X XOX X{.{.{.[.'.[. XoXoXoX}.{.OX X{.+X X'.}.^.t * { { #.*   ) / & = s s E 2.x.l.l.x.n.x.b.l.k.A * * { { * *   z l .   , c..X{.]._.v.*   { { * q X.{ #.*   l s . . . G.[.[. X}.I.q * q * * * *           7 7 n R..X+X.X.X.X|.XX*X%X+XXX X|.'.`.{.[.'.`.[.`.[.'.[.|. X].{..X].].].]./.'.{.{. X[.[.[.'./.'.{.+X/.} ) _ z l j s p p 8 V 6.m.a.x.l.m.m.m.",
"n.M.M.M.A.b.M.l.n.m.n.k.k.3.=.I J Z !.XX|.XXXXV.M.b.M.n.b.M.l.l.m.u.q.2.-.K J L I. X}.+X+XQ.A.b.b.x.M.b.b.b.b.l.q.;.L C <..X{.+X].+X+X+X+X+X#X&X#X&X-X&X;X%X-X+X-X%X-X-X#X%X;X-X+X@X@X+X%XXX+X%X;X@X+XoX XXXoXXX.X X{.{..XG.p.u.p.a.p.a.p.r.i.p.i.i.e.b.b.b.n.n.n.A.M.A.D.S.m.k.y.i.i.w.w.:.U Z N n Q. X{.{..Xc.i.i.p.p.p.p.a.p.i.w.3.=.L C M C U.XX[..X XW.p.i.p.l.a.p.i.t.e.4.>.R Z C | '.+X X|.[. X.X.X XXX$X#X;X%X%XOX+XOX+X=X[.#X+X#X%X-XOX$X%X%X|.oX-XOX$X%X%X X+X|.oXoX X.X X[.+XXXG.) ) / z j s a p 5 N 6.n.n.m.x.x.n.x.",
"n.b.M.A.A.b.D.M.n.n.n.n.l.4.=.P J.~. X X X+X+XC.b.A.A.n.M.b.b.b.m.u.e.2.R L C L G. X X+X XOX'.b.b.M.x.M.b.l.l.l.4.| P 5.Y.+X+X.X X.X[.+X+X{..X{..XOX+XoX XoX|.|.XX.XOX.X{.}.OX.X.X.X.X{.|.'.{.[.}.{.{.].{.{.].+X].{._. X{. X[.n.z.S.n.A.M.n.n.M.b.b.l.b.n.k.n.M.M.n.m.A.A.n.M.b.l.M.x.l.i.q.=.L I.!.OXOXOX[.{.N.z.A.S.M.n.n.M.M.b.l.w.3.R L J L G.[.{..X.X+X{.n.n.n.n.m.n.b.k.p.q.=.L >.E.}.+X XXX{. X{..X|. XOXOX[. X[.{.`./.].`.|.].|.{..X{..XOX.X X X}.|.{. X X X.X]..X.X|..X+XXX X.X X#XXX& * & $ . O . & V 4.b.b.m.M.n.m.a.",
"*X=X=X=X=XOXOX=X%X@X;X%X%X@X%X@X+X{.{.{.+X+X+XN.M.A.b.A.M.b.n.b.b.k.e.2.E K J L I.{.{.+XoX|.#X$XOX|..X X XoXOXOX{..X+XOX[.].{.}.|.+X X|.[.}..X+X{..X]. X X|..X.XOX|.OXOX}. X{.XX{. XoX X'.'.|.|.oX}..X.X{.{.}.{._._.].{..X[. X%X;X-X%X%X&X%X+X@XoXoXoXOX@XoX[.OX.X@X@X=X%XOX+X=X+X&XOX#X#X+X%X@XOX XOXoX[.OX XB.n.n.M.S.M.M.n.n.n.l.u.3.R K K L R..X{. X}.XX%X;X%XXX X'.+X{..X.XoXoX+X.X X X X+XXX.X{.|.[. X.XOX X.X_.`.|.]..X].'.'..X.X X+XoX XoX.X{.}.].oXoX{..X{.OX+XoXOX|.OX.X XXXXX{.OXOX&X-X*X*X#X%X;X@X+XoX%X+X.X%XOXoX@X",
"oXoX XOXOXoXOXOXXXXXXXXXXXXX+X+X{. X}.XX X XXXn.M.A.A.A.A.A.b.b.z.k.e.2.R L J L R.oX].oXoX|.|.oX{._.|.].OXOXOXOX+X.X+X X{.|.[.|..X+X+X+X{..X+X.XoX.X}.oX X}. X|.[.|.OX#X[. X].oX+X+X[.[..X.X].OXoX}.oX.X.X].{._.].{.{.}.}._.'. XXXoX+X.X{..X}.'.`.[. X].].].].]. X{.{.{.{.[.[.[.[.|.|. X XoX|.[. X.XOX.X].{..Xn.n.n.M.n.n.n.x.b.x.m.i.2.-.L C K Y.|. X XXXXX+XXXOX}.}. X}..X X}.+X{.XXXX X+X+X}.+X X X}.+X|.OX.X|.{..X.X.X[.[.[.].XX].[. X XoX.XoX{.OXoX{.].{..X X XOXOXOXOXoXoX XOX.X+X+X|.XX[.OX.X.XoXoX+X X}.}.].{. X].].}.}.",
"oXOX.X{.OX}.OXOXoX X.X+X+X X.X+X}.+X}.}.}.+X+XS.n.A.A.A.A.M.n.n.z.k.e.2.-.L L L I.{.oX}.oXOXOXOX|.|.|..XOXOXOXoX+X.X[..X'.|..X}.+X}..X+X|..X.X.XoX X.X}.{.}. X[.[..X[.oX].[. XoXoX.X X{.XXXXXXOXoX}.}.{.{.{.}.].'.}.].^..X{.].OX XXXXX X+XoX_.'.[.[.`.].].[.{.[.oX X.XoX].].[.oX X X.X XoXoX{.|..X X[.[.[.`.].n.x.b.M.M.M.x.n.b.b.l.i.2.-.L K L !.{.XX^.}. X+X+XXX}..XXX.XoX.X.XoX}.+X X[. X}. XXX X|.[. X+X+X+X.X{.}.[.}.|. X/. X|.|.[. X.XoXoX.X.XoX.XoX{.{.+X}..X.X X[..XOXOX.XXX.XOXOXOXoX.X+X X.X.X+XoX X}.}.[.{.[.].].oX X",
" XoXoXoX.X+X X.X}..X}.+X+X+X{. X+X}. X X X XXXV.A.A.n.S.M.A.b.b.l.a.e.3.E Z Z K !.+X.X}.}.+X X.X{.+X.X.X+XOX.X.XXXXXXXOX|.XX{.XX[.{. XXX}.}..X X.X+X X}.}.}. X+XXX[..XOX[. X.X.X.X.X'..X.XXXXX+X X X.X{.}.].OX].oX].].}.]./.`. X|..X.XXX.X[./.].[.|.[.].{.`.].oX+X.X.X.X.X]. X{.{.+X X}. X.X[.[. X|.[.XX{.'.{.M.n.b.m.A.b.M.c.b.b.l.u.2.E K C L Q.[.OX{. X}.[.+X X.X X+X.XXX.XOX}.XXoXXX'.}.'. X{.{.{.[. X+X+XXX+X.X X{.].{.[.^. X|.[.[.{.oXoX.XXX.X X X X X}..X[. X.X.X}..X.X X+X}.+X+X+X'.+X+X[.[.].+X|.OX|.].XX'.oX{.[.{.].].",
" X].oXoX+X+X X.X{.{.{.+X X+X{.+XXX X+X.X+XXX@XV.M.M.M.M.M.M.M.x.a.l.w.3.R L J K ^..X.X}.].{. X'.E.F.v.B.N.B.v.v.b.v.g.c.c.c.g.v.g.b.V.C.P.F.F.U.G.I.F.C.F.F.I.I.P.P.U.P.U.G.U.P.U.F.P.P.U.I.U.U.I.P.P.E.).{.oX[.}. X}.[.].}.}.[. X{.|.OX X].[.|.].|.[.|..X.X.X X+X].+X+X.X{. X+X{. X+X+X+X X XoX].|..X.X{.XX.Xv.m.l.M.b.M.x.b.x.l.l.e.4.-.L C K ^.XXXX'.`. XXX`.U.F.c.v.c.v.v.c.c.g.c.c.g.c.c.c.c.v.C.F.G.I.U.U.I.P.G.G.F.P.v.F.V.G.I.G.I.I.I.I.I.I.Y.P.P.P.P.P.P.I.U.Q._.XX.X.X+X+X}.+X+X X{.}. X}.'.+X{.|.[. X.X[.[.'.].{. X X",
"}.}.].}.}.}.}..X{.+X{.+X{.+X+X+X.X.X X X XXX+XC.A.A.A.n.M.M.A.b.l.p.i.3.E K J L ).}. XXX X'.o.Y U Y Y T Y U T T T Y Y U U U Y Y Y Y U G U U Y T U U U U U U T U U U U U Y Y U T Y G Y U Y T T Y U G Y Y U U T `. X}.{.].].}.}. X X X X[.[. X'.XX|.oX|.|..X X.XoX+X}.+X[. X{.{.{.+X+X X X{. X{.}. X].XX.XXXXX.XC.p.x.M.b.x.n.x.z.l.k.e.3.E K C L ~.}.{.'.{.`.<.U U Y Y U U Y U Y U U U U Y G U R T U U U R U T T Y Y T U Y G A G U G Y U Y U T T U Y T Y U T U T Y Y U U Y T | XX+X}. X+X+X X X+X[.+X}.}.{.'.[.[..X X{. X{..X X X",
"{.].].{.{.[.'.{.].{._._.{. X+X+XoX.X+XXX X@X+XN.N N N N N N 8 m 8 7 7 2 1 # < # _.+X X[.+XB.Y h 8 h N b t m 8 7 2 > # b v v 7 v M Z L =.A 2 2 7 3 7 9 9 2 9 3 3 9 7 7 7 2 3 9 2 9 2 2 7 3 2 2 2 < # # O # # T t.oX@X X}.oX{. XoX}. X[.[.`.].`.).].[.].].{.'.{.'.].].[.[.].]._.[.'._.{._.{.}..X[.oXoX XXXXXOXXXV.x.z.b.M.b.x.m.m.i.u.u.>.E L C J !.}. X[. Xv.U b.b.b.x.m.b.p.u.w.3.E Z n n v c b C L R =.:.4.w.=.U / / / ( ( ( ( ( / ( ( / ) _ / ( ( ( ( / & = f s a X   - ; Y t. X+X+X+X{.{.}.+X.X+X].`.'.'.'.`.'.)._.`._.].].].",
"Y U U Y Y Y U T U U T Y | 1.c.~. XXX+XXXXXXXXXV.. . . . = . $ . . . . .         '.XX+X'.|.g.. . . .   - - - - # < < O < v v v 7 n M C P 2 2 2 a s s s s s f . .   g j .   s s s s s s s j . . . O   .     . . Y [.OXOX].oX}.].].Y.s.<.Y D U U Y Y Q Y U T Y U Y Y U Y Y U G Y G U T Y U T 1.c.^.oX.X[.XX+X[.XXv.b.M.z.x.n.n.b.b.l.l.i.:.E K C C ^.}.|.`.{.p.y.m.l.l.k.k.p.i.e.q.=.P Z b b c c b n Z L P R -.=.R Z j j k l k l k j l l k l j l l k l k k j + . a p i     ; ;   T .X.X+X X X+X+X}.Y.d.1.T U U Y Y Y Y U U Y Y U | ",
"i.u.u.:.Z   > - . . 5 V Y U U s.{. XXX.X XXX.XC.. . . . . . . . . . .   .       ^.XXXX}.^.9 .   .     - - - : @ @ @ O # v v c c v b M b 6 > , , p , , , i , . .   , p .   , i , , 4 4 , , , . .         O     U |.[.oX|.].[.].'.x.Y Y D 3 . p p .   3 7 i.i.e.e.u.u.i.t.u.q.e.w.t.7.q.K.Y U U c.].XXOXOXOX.X.XV.M.x.z.M.n.n.b.b.l.m.u.2.E Z C C )..X{.{.!.3.e.i.e.e.e.u.w.w.4.:.E L M b c v c v b n n J K L I C n a s a a s s s s s s s s s s s s s s s a + . i , , .   - ; . T +X}.}.}. X X X_.B.U U B 3 + 1 m ;.w.u.u.u.u.u.u.",
"2.2.2.U C   : - .   - : :   d <.).XX+XXX X@XXXC.. . % . . . . . . . . .         ^.{.}.{.Q.. . .       : # : # X X X   O c c c c v b n 6 9 : - - - - - - - - . .   : >   . . .   .   .     : -                 m |. X.X[.].|..X!.g..   i @ .   ; - .   2 5.3.3.3.:.2.2.5.2.>.>.2.2.E U K J N A 4./.oXoX|..XOXOXV.4.6.4.4.5.6.6.6.>.>.=.P C n 7 6 ). X X X!.U R R E U U R U R E R L Z n b c c c v c b b b J C J b 7 i 4 4 p p p p p 4 4 p p 4 p 4 p p p p i . . ; - 4     - 0 X N  X}. X.X.X}.@X~.c.= . . . . - 8 E 2.;.5.2.2.5.2.",
"-.R R Z o   @ o     # X X     | Q..X+X.XXXXX XC., , , 4 4 , 4 , 2 > - - : @ . O ~.}..X XQ.o o o   .   X @ X X X X X O + c c c c v v v 2 @ @ o o # : o # o :       # :                       o o     .         . ]. XoXoX|.oX|.E.s .     - .     : #   2 -.E E R -.R R -.I R R G b 6 < 0 < < @ W !..XoXXXOXOX.XV.t m h N N N m t t t 7 2 < < # @ !.XX{.'.U.2 0 0 1 1 2 9 2 2 6 n C M b b b c c v b b c b b b n c 2 ; 4 ; ; , ; ; , ; , , ; , - 4 ; ; ; ; , . . - - - X   - -   .  X+X+X X X+X.X!.> . . . .   # 6 L E I -.-.R R -.",
"J J K b     X X     X   X     U R. X+X X.XXX XC.                                ~..X.X[.E.  X X       X X X X     X X O c c b v v b b 6 O @ o o o @ o o : @       X X o X X # o X X o o       @ o               {.oX}..X X{.#X!.: -       o       X O < K L K J L C K Z Z K K M 6 < O # < O # Y E.OXOXOXXXXX.XV.N N 8 N N t m m m 8 7 2 2 # # # /..X}..XE.# # 0 < < & 0 < < < 6 n n b b v v v v b b b b n v n 6 6 - - , - - 4 - > , > - , - , > ; - > > >   . - , 0 X   - - X . {.{..X.X+X[..XR.. . . .     O < n K C K J J J V ",
"n n n 2       X     X X X     U U. X.XXXXX X.XC.  .         .   .               Q.]. X{.Y.  X X       X X   X . X   X O b b b n b b b 6 X @ @ o o o @ o @ X       X X o X X X o X : X o @       @ @             .XOX{..X.X].+XY.  X @       X       X < M M M n n n b b b n M v 6 # # O @     Y E.OX.X.XOX|.XXV.a a g .   a a . . p , . .   X @ ).{.oX+XE.    .       o @ # # < n n v b b n b n n b b b b n n v 2 ; , , , , - 4 , , , , ; 4 , , , , , , > X . , ; 4     ; - .    X.XXX.X X}..XR.            O < v M n n b n M n ",
"b b b 6     X X               G I.XXXXXX%X+X+XC.. . . . . . . .   . .           E.'.].{.U.  . @       X X X X X X   X O C C C C M C M 6 @ @ @ o o o @ o o o                             @ @       @ o           oXoX|.{.+XXXOXR.    X X               O b b n b b c c c c c v 9 6 O   X X     U E.oX XXX+X@X.XV.p p a .   p p . . , , .     X @ /.}.}.{.R.@ @ X @     o @ @ # < n C C M C C M C C C M C C J C n c , p p 4 p p 4 p p p p 4 p p 4 4 p p 4 4 . .   , 4 .   - - .    X+XOXXX+X}..XI.            O + 7 b b n b b b 7 ",
"c 7 c 6             X X     X U U.`.+X|.+X X+XV.p , p , p 4 p 4 4 , , - o @ X X ~.].[.{.Y.  o @       : X X @ o X X X < I I I K P L P M o - - o o - # - - :   .     .   .           .     - -       @ #         |.oXoX[.|. X.XY.      X X             + b b b b b c c c c c b 6 < X X X       U Y..X[. XXX+XoXN.4 4 p .   , i X . , ,       X X ).oX{.[.I.@ @ @ o     o @ @ < 1 Z L P K L L L I I K L I L I I C n . . . . $ . . . $ . . . . . $ . . .   s g + .   a .     - 2 . .X+X X{.}.}.+XI.. .   .     O # 6 b b b b b b b ",
"b n b 7 X X       X X     X X A U. X+X+X+X.X+XF.p a p a a a a a p p 4 - - @ @ @ Q.]..X[.R.. > >       : - # : o # @ @ 2 R -.=.=.=.=.=.A - - ; ; > > > > ; ; . . . . . . X . . . .   . .     > > . .   o :       {.OX{. XOXOXOXE.X       X X       X   @ n M n M b b n b c b n 7 1 X           U R.+XXXoX+X+X+XN., ; 4 .   , , . . > - .     X X /.OX X}.U.    # o     @ @ # 2 7 U =.;.E =.=.=.;.-.:.:.:.=.:.:.R Z . = = & $ $ & % = % % $ & $ = % & % % l j % %   s g . . > >    X|..X+X.X+X XR.- - # # @ @ @ # b n n C n n n n ",
"J C Z b X       o @     X X   D U.|.+XXXXX.XoXV.. = $ . $ . . . . . . .   .     ^.].[.|.W.. , , . .   , - , > - - - : 7 q.3.q.3.w.w.4.R i i i i p p i i i i i i i i p p p , p p , p p p a .   , , .     o #     {.[.|..X.XOX+XE.  o       o o       O # K K K K L J C J C M Z b 6 X O X X     U R.XX.XXX+X}.XXV., , 4     , >     , -       X X !.oX}.}.!.    : -   . - : # 9 8 =.q.q.q.q.3.3.w.q.w.w.q.q.w.w.;.U * * * * q q * * * * * q * * * * * & * ) / & &   l l . . , >   }.+X+X.X}.}. XE.- - - - : o + 1 n J J J J J J J ",
"R L L C   .   ; -     o X     D R.{..X X XXX.XN.% . $ $ = . . = % . . . .       ^.].].`.Q.. s s . .   i i 4 , , , - - 7 i.k.u.e.i.p.a.~ a s a s s s g s s s s f s s s s s s s s s s s s s j .   a a . .   o : 3  X[.XX X XOXOXY.    - .     # -       < R R R R R R E R R U R C b X X X       D I.}.XX+XoX}..XB., , 4 .   ; , . . > -         X /. X|.].E..   - -     - - # 9 N 3.p.p.p.i.i.e.p.l.l.l.l.p.p.l.4.;.) ) [ ] ] [ [ ] [ ] [ ] [ ] [ [ #.* * [ [ * *   / / . . , > 8 XX+X X X+X|.}.P.i i , ; - - < 2 L R -.-.E E R R ",
"2.2.2.G .   i , . . , -       D U.].OX.XXX+XoXN.& * & * * & * & * & & $ . X . . Q.[.].]./.3 k g = .   s s a a 4 4 , 4 m x.l.m.l.z.l.x.O.f j k k k k k k k   = = $ % = $ = = = $ & = % =   j z $   s a . .   # W [. X X|. X.XOXR.. .   , . .   > > .   2 3.2.2.3.2.2.2.2.2.;.K.R V X X X X     D I.}. X+X+X.X.XN., , p     , , . . , -       X @ !.oXOX].!.4 > > > . . - - - 8 V 3.p.l.i.k.z.z.z.l.l.b.b.b.n.n.e.>.                              { %.* * { { * *   ) ` = . 4 , <.XX.X}.+X{.+X+XU.s a i i > > 2 7 E 3.2.2.2.2.2.=.",
"e.u.w.W s g g . . a i .     # D U.XX+X+X.X#X XB./ / / / / / / / z z k a a , > , !.{.[.|.{.P./ / & &   j f f a a i i 4 b c.g.n.n.n.n.n.5.z l / / / l / /   = = = & & & $ & & & & & & & & =   z ( %   g a . .   s.+X.X+X.X XXX.XR.= .   a f . . , ; X   7 i.w.w.w.q.e.u.u.w.w.e.;.P - o o X     G U.+X}.+X+X+X+Xv.p p p O   i i . . , , X     X @ ~..X X/.].L.        . > - > 5 S e.x.m.c.z.m.z.x.b.n.n.M.M.M.n.u.<.* * q q * * u q * * q q * q   #.$.q * @.X.q *   [ [ % @ p , h.+X.X+X.XoX}..XI.j f s a p , 9 t >.e.w.i.e.i.e.w.",
"m.i.p.>.l z & & l j . .   -   D U.}.XX+X|..X{.V.        ( / ( ( ( / l g a , > 4 Y.`.!.|.+X[.( ) & &   z / f f a a i i p b.M.m.n.S.n.S.3./ / ( ( ( ( (   &   ` ( ` / ` ` / ) ) ` ` / ` ` * &   ( ) =   g i . c.^.+X X}. X.X+X+XU.& &   j l . . a p . . 8 l.l.a.p.k.z.k.z.l.l.l.w.E > - - #     D Y..X+X.X}.+X}.v.a a s O   p p @ . , , .     o : !. X'.]. X].& . . o   , > > 8 A 6.n.n.b.m.z.z.b.n.M.n.M.A.n.b.k.7.> q * q q u * q q q * q q *   #.&.q q #.@.q *   [ [ = . a c.)..X X.X+X.X+X{.P.z l j a a i 8 V w.l.l.m.l.a.l.l.",
"z.m.z.3.  & * / / = =   ,     G P.}. XXX.X{.|.N.* * * * ] ] ] ` ) _ z j a i > a ~.'.'.|.+X+X&X@X[.'.^.^.I.I.I.P.P.P.P.P.E.R.E.(.Q.Q.Q.R.Y.P.Y.I.U.P.V.U.P.Y.P.P.j.0.+.` ] ` ` ' } +.+.+.+.Q H D 8.d.G.R.^./.[.+X+X.X+X}..XXX+XU.& &   l / = = s a . . 8 b.l.a.x.p.m.b.b.m.b.x.e.~ i , - :     G R.+X X.X X{._.v.s s f #   s s = = a i .     o - !. X'.{.{.@X:X%X{.[.`.).Q.U.R.Y.R.R.E.E.E.Q.R.I.E.R.W.E.(.W.E.R.I.I.I.I.Y.Y.Y.P.P.&.*.@.#.q u # #.*.H H f.*.Q ^ U d.Y.).).`. X+X X+X.X}.+X+X}.Y./ l k f a i t S 6.z.x.n.b.l.l.b.",
"m.l.n.4.& * [ ` * &   s   X   A I. X}.{.{.}.}.n.u w * * [ [ [ [ ] ) ( l s i , s Y._. X+X+X.X X{.OXXXXX.X+X+X+X}.'.}.`.{._.}.}. X.X+X+X'. XXX+X+X.XXX|.XX X{.}..XXX[..X X X+X.X.X.X X.XXXOX+X X XXX{.{.{.[.|.+X.X.X.X.X.X+X+X|.Y.* *   ( ) = = s a . . t m.x.x.z.b.m.b.m.b.b.A.e.>.a p , - .   G Y.+X.X.X}..X}.c.j j z +   j j . = s a . .   - - E.|.XX{..X+X X+X+X.X+X.X XXXXX X X]. X[.}.{.[.].{.oXoX X.XOXOX{.+X+X{.}.{.|. X+X{.XX+X+X X+XXX.X+X.X#X+X+X{.+XXX@X+X X}.}..X X{. X.X+X}..X X XE.( / j f a p t B i.M.b.b.x.b.x.x.",
"S.M.M.4.* [ [ @.*   z l . . ; D F.].].[./.}.{.v.{ { * * { { { { ] ] ) z s a i s ~.{.+X|.+X+X].+X+X+X X.X+X.X[.+X X X}..X{.}.{.oX+X X+X+X+X X.X X+X X[.+X}.}.}.}._.[. X X[.OX.XoX XXX XoXOX+X.X}.+X}._.{.{.[.|.XX+X.X+X}.+X+X+XI.* *   ` ` & $ j s . . t b.n.b.M.n.b.b.z.n.n.M.i.<.f a i ;     G R.+X].}.oX{.`.c.z l F &   l z = $ j g . .   > > !.}.+X].}.}.+X+X.X.X{.{..X X+X X[.].{..X.XoX}.XXoXoX X X.X#XOXOX+X+X].].{.[.{. X X+X X X_.OX.X}. X+X X+XoXOXOX{.+X+X}. X}. X}.+X+X+X+X{.|.{.|.U./ z j f a a V P i.x.A.M.n.x.n.x.",
"M.M.M.4.* [ [ %.*   / z . . > D G.[.}.].{.[.oXN.{ { q * { @.{ { { ] ) z j i i s ~.|. X X+X+X+X X+X.X.X+X X+X+X X+XoX]..X{. X.X}..X+X+X+X.X.X.X+X X_._.}.+X X[.}.]..X].}.[.].{.{.].[.oXoX+XOX}.}..X{.`.`.{.'. X.X X].}.}.}.+X@XI.* *   ` ] * = j s . . N z.n.M.M.A.S.A.n.M.n.V.i.>.f f a , .   G U..X{..X+X X`.N./ / ` &   / / & & z k . .     . ~.{.+X[..X{.+X+X+X X{..X}. X+X'.{.oX}.oXoXoX}.XX X{.}.{.OXOX#X.X}.+X+X+X}.+X.X X}.+X X}.{..X{..XXX.X+X XOXoXoX X{.XX{. X].}.+X}.+X.X X[.{.+X XR.( z l j a a Q E l.n.M.x.n.A.n.M.",
"M.M.M.6.* { ..%.*   ( z . . , D G.[.oX}.}._.`.c.@...q q @.@...{ ..[ ) z j a a s ~.|..X.X+X|.}.+X+X.XXX X+X}.+X+X+X X]..X.X X}.oX.X X].{. X}..X X]._.].].{.].).}.].OX X.X{.].`.[. X].oX.X[.].}. X[.}.{.'._.`.|./.].}.}.+X.X+X+XR.q q   ` ] & $ j s . . 8 n.z.A.A.n.A.b.n.M.A.M.i.>.l f s ; . . G Y.+X XoX}.{..XN.` ` [ *   ) ) & & / l . . . . . ^.}.].}..X{.+X+X.X.X{..X+X|.XX'.{.oX X{.OX+X X{.oX[.{..X.XOX$XOX{.+X{.{.+X}.].{.+X XoX}.}.}..X.X+XXX.XXX[.[.OXoX}.+X{..X.X}.}. X+X X+X{.{.+X#XE.O.1.e.i.p.e.6.6.m.M.n.n.A.l.M.x.",
"M.n.M.5.* { { $.*   ( ( . . , D Y.}. X[. X.X[.v.@.@.q q @.@.@.@...[ ) z j a a s ).[.{.+X+X+X}.+X+X}.XX.X X+X X X.X.X]. X.X}.}.+X+X+X}. X.X.X X+X{.[.[.[.+X_.].@X X[.|.].].].{.'.`.4.Y Y U G Y U U D U G A D p.{.[. X[.+X X.X+XI.{ { [ ] [ & & l j . . t M.x.A.M.A.M.b.A.n.M.D.i.o.z k f i . . D Y.oX}.[..X X XN.` ] { *   ` ] * * ( / & & . . . ). X]..X+X+X.X+X+X X.X+X+X{.{.XX}. XoX{. X[.oXXXoXoX[. X|..X$XOX}.}.+X].+X}.[..XoX].oX{.{.}..X+X'.4.Y Y Y U U Q U U U U D U h.+X+X+X X{. XOXOXE.z.n.x.n.x.x.c.l.M.b.n.A.n.n.A.A.",
"M.c.M.w.! { { $.*   / / . . > G I.}.}.oX{.+X.Xv.....3 3 #.@.#.@.{ [ ` / f a p s ).+X X+X.X{.+X+X+XXX+XOX.X}.oX[..X X}.[.{. X.X+X XoXoXoX XoX+X+X].{..X}.{.{.[.oX{.'.[.[..X.X XoXe.G q q   @.$.q   ] ( & +   U s.}..XXX.X}..X.XY.          & = k s = . t b.b.M.M.n.M.n.n.M.A.S.i.>./ z f a .   G P. XoX X{..X[.N.[ [ #.*   [ { * * ) / l s i , i ). X+X}.{.+X}.+X+X XXX.X{. X X.X].oX X X.X XXXOX X{.oX[. X.X+X@X+X X{..X.X X+X.XoX X{.[. X+X+X+Xt.Y H.F.T.D.H.D.n.b.u.2.-.J T g.oXOX X X[. X|.!.H.T.H.J.S.M.n.b.b.b.n.M.x.x.M.n.",
"b.M.M.r.,.{ @.%.q   ( / = . , G Y..XoX}.oX}.+XB.....q q #.#.#.#...{ ` z f a p s `.+X{.+X.X+X X X{.Q.F.v.g.g.i.d.s.s.s.s.s.s.s.s.g.s.s.g.s.s.s.s.s.s.g.c.v.v.~..X.X.X_.].XX X[./.U q q * *   X.#.*   ( j % .   G {.].+X+X+X+X+XY.* q * * * & = j s + . A b.a.M.M.M.A.M.M.b.A.M.e.>./ z j a . X A P..X.X+X.X[..XN.{ { %.*   { { * *               _.+X}.+X+X'.{.[.[.Y.G.g.g.g.p.s.y.t.s.g.s.s.s.p.l.y.g.t.s.s.s.s.d.s.s.c.N.I.). XoX_.[.[..X X X).U z.b.n.l.l.b.l.p.i.2.=.L n b Y  XOX.X.X.X XXXE.n.A.A.A.n.M.b.M.b.M.n.n.x.x.A.M.",
"b.n.n.x.a.+.@.$.*   ( / + . ; D G..X X}.+X[.}.c.#.#.q q @.#.#.#.@.{ ) / j a 4 a `..X+XXX X+X}.[.F.7.Y Y U U Y Y G U T U Y U Y U T Y G Y Y T Y D U U Y Y Y U | F..XXX{.[.+X XOXE.] { [ ] q *   ] { =   s p . . L }..X.X.X+X{.+XR.* * * * * & & k g . W >.l.x.b.M.b.M.n.M.M.M.S.i.o.) / j a . . A U.+XXX+X}.}..XB.X.{ $.*   { ..* * * & = . . . . [.+X+X+X+X].}.{.V.1.T T Y U T Y U U Y U U T Y Y T U U U P Y T U U U Y T Y Y <.N.].[. XoX X+X XY.l.k.l.i.l.p.l.p.u.q.2.R J n b Y `.OX{. X+X{..XR.M.A.A.A.n.n.n.A.n.b.n.M.b.x.n.M.",
"M.M.M.M.D.M.a.a.e.e.>.R Z b b U Y.}.{.oX}.`.+Xv.i.i.t.i.p.a.p.a.i.e.4.~ L C n b {..X.X{.}.'..X`.C.Y >.>.>.<.=.>.;.2.3.q.w.w.e.q.e.w.q.q.u.q.q.:.>.2.>.>.=.3.Y t.[..XoX}. X+XOXP.3.4.3.3.3.>.>.;.W R L C b 6 6 c ].XXXX X{. X+XI.p.i.p.i.a.p.a.p.i.p.a.M.n.x.M.l.b.n.M.M.b.M.M.e.~ ` / j s . . D I..XXXXX.X+X{.N.@.@.&.*   ..@.* * * * = = . . . ].+X}.+X{.+X+X).N.T . .   - 4 8 E q.4.4.w.4.q.q.w.q.3.3.q.q.u.q.q.q.e.q.e.e.Y 9.].{.+X X+X+X+XI.e.u.i.w.w.q.w.q.3.>.E K J b b b [..X{.{.{.{.OXE.A.A.A.A.n.n.x.b.b.M.m.x.M.n.b.m.",
"M.b.x.M.M.M.x.b.m.p.w.;.I C b G I.}..X+X.X].].c.a.b.z.b.A.M.M.n.m.k.q.3.R L C n `..X.X}.oX X+X^.v.;.=.;.=.=.=.-.=.=.2.=.K.:.=.=.;.K.=.=.;.:.>.;.K.:.=.;.=.;.2.| ~.+X|.+XXX[.+XL.:.2.;.=.;.;.=.=.E P L C b b c c [.}.oX{. X{.+XR.n.x.n.x.n.n.n.M.n.n.M.b.b.c.M.b.n.x.m.b.x.b.b.e.o.) / l s . . D Y..X.X.X XOXOXN.@.@.&.q   ....@.{ [ ` / f a , , ).+X{.+X+X+X+X!.c.4 4 p     - 6 L =.:.=.;.=.=.;.=.=.=.=.:.=.:.:.=.K.=.=.:.>.K.| ^.+X+X{.@X X+XF.2.:.;.:.:.;.:.;.-.-.L C n b v v '.[..X[..X[.|.E.m.n.m.A.n.A.A.n.n.x.M.M.M.n.n.x.",
"M.b.M.M.M.M.x.M.n.p.w.-.L C n D U.{.'.{.].].].c.i.z.n.b.M.x.b.b.b.z.k.3.E Z n b _.{.'..X[.[.@X/.P P I L L L P L P P P P L P P R I L I K I I I L L I L I P P L Y !..X.X+XXX.X+XC.R R R I I L P I L K M n v c c v '. X X.X].}. XE.x.z.x.b.n.b.x.b.b.b.M.a.l.l.n.b.b.x.b.A.b.M.n.6.;.) ( l s . . D Y.{. X{.{.[. XB.@.#.&.q   #.#.....[ ) / j a i > ].+X{.+X].+X@XW.a , - - -     < N U I L L L I P I I I I I I I I I I I L I I I Y E..X+X X X X+XN.I -.E I R I I L J J C n c b c b _.}.[..X X|..XQ.l.b.b.m.b.M.A.b.A.n.n.n.n.M.M.n.",
"M.M.M.M.M.M.M.n.b.k.w.=.L M n U Y.}.[.{.].].{.v.p.g.x.b.n.z.x.M.b.l.u.2.E Z n b '.}._.{._.'.+XE.C C C C M C C M J C C C M C C C M C n C C C C C C M M M Z C N Y Y.+X.X+X.X+X+XV.L K K K K K J M C M b n n c c 7 ).'.{.+XXX X@XY.x.n.n.M.b.n.b.n.M.n.x.M.x.x.l.n.n.n.S.n.z.x.M.e.>.) / l a .   G Y.'.[.[.}.].|.N.#.#.&.q q q q q * * * = = . X X '.+X{.{.{.+X+XW.  .     # o   < b C Z C M C C C C C C n C C J C n n C C C M M Y R.{..X+X+X.X+XN.K L K K K J C K C n n b v b c v /.].[.oXXX[.+X!.M.A.A.A.M.M.n.M.A.A.M.M.A.A.M.A.",
"M.M.M.M.M.M.b.M.x.k.w.=.L C n Y R. X}..X X].}.b.x.x.x.n.M.M.b.n.m.c.r.3.E J n b ].{.[.[. X[.oXR.n n b b b b b b b b b b b n n b n b n n n b b n b n b b b b m Y Y..X.X.X.X.X+XV.J K C J J C J J C n b 7 v v c c Q.{.XX X.X.X@XQ.x.x.x.M.M.M.n.M.M.b.b.c.b.x.b.M.b.M.A.M.M.b.M.i.o.) / l s . X T R.[.|.{..X[. XB.#.#.&.q q q q u * * * % . . .   `.+X+X+X'.+X@XY..         X X < 6 b b b n M b b b b b n b n n b n b b n b c b Y P.{..X.X+X}..XB.J K J J J K J C C b b b b c v v ]._.OX|.{.|.OXE.b.A.M.A.S.A.n.A.A.n.M.M.M.A.n.n.",
"M.M.M.A.A.A.M.A.n.k.e.=.L M n | W.+XXX+X].XXXXv.l.m.g.p.x.b.n.b.k.l.i.2.I K M b ]. X[.{.oX X{.R.v b b b v n v v v b 7 n v v b v b b b v b v v b v b v v c v v U U._.}.{..X+X@XN.K I I L L L L J J M C b b c c c Q.{.].+X+X'.+X~.x.x.n.x.M.M.x.A.A.x.z.m.b.l.M.x.n.n.A.M.M.M.M.e.>.) / l s . . | U.XX[.}. X X+XC.@.@.&.r r r r r e e * & & . O . ]. X X|..X.X#XW.  . .       X O 6 v n v n v v v b b v b n b v v b v b c c c c U Y.[.{..X|.XXOXV.L L L L L L L J J C C n c c c c (.}.}..X{.}..XQ.m.A.M.A.b.A.n.A.M.n.A.A.M.M.A.A.",
"A.M.M.A.n.A.A.M.m.k.q.>.P C n 4.W. XXX XXX XXXC.m.n.l.z.p.z.b.b.m.k.u.2.E K n b /.`.]./. XOX[.U.v b M b n n n v b b b b b b n n M M b n n b b n b b b v v c c U R.{. X}..X[..XC.-.-.-.-.-.-.-.-.-.L J J b b c c _.'.}.{.{.+X+X^.M.z.z.x.x.M.M.b.M.M.n.l.x.M.x.b.x.M.M.A.M.b.M.e.o.` ( l a . . 4.E.}.}.{. X X.XV.#.@.#.#.#.#.#.#...[ ] / j a ; 4 `. X.XOX[.XX#XQ.- o o o       # 6 M n v v n n n b M b b n b b n b b b c c c 7 U F.].[.OX{. X XV.E -.-.-.=.E E -.I L J C n c c c ].].}.}.+X].+X^.M.m.v.A.A.n.M.M.A.n.n.b.n.n.S.A.",
"M.M.A.M.A.A.A.M.m.p.q.;.I C n g._.+X X{.oX}.{.n.x.b.n.M.x.l.n.x.b.g.u.>.R K n v ]. X].].[..X|.R.M M M C C M C C C M M C C C C M J M C M C M C M b b b v v c c U I.}..XXX}..X Xv.3.q.4.q.q.3.4.:.2.=.R J C b c c '.+X{.{.}.].+X^.V.z.b.b.b.x.x.b.x.M.x.b.M.b.A.A.M.A.A.n.M.n.x.e.>.) / l + .   g.). X}.}..X{..Xv.@.#.#.#.#.#.#.#...[ ` l j p 4 - [.{.{.]..XXX%XQ.- - - :       < b M M M C M M M J C M J J M M M n n b v c v c U Y.[. X X.XXX{.v.2.2.q.q.4.2.q.2.:.-.I J M b b c (.].{.}.[.+X+X).F.A.n.n.A.b.M.M.b.M.b.n.A.A.M.A.",
"n.n.M.M.4.m N N m 7 7 2 < # 4 I.}..X.X X X X XF.t t t t N t m h 8 b 8 2 1 < # O |.[.{. X/.[.OXR.< < < < # < # < # 1 1 L L I P L L I L L I L L K J J M b b v c P R..X}..X X.X{.B.u.i.i.p.p.u.i.e.u.2.=.R J n b c _.].}.+X_.+X+X+X^.a.x.n.n.l.x.m.n.b.n.b.b.m.A.x.b.M.A.A.A.g.x.e.>.* * % =   4 G.}.{..XXX+X.X.XC.#.#.#.#.#.#.#.#...{ ` / f a 4 -  X.XOXXX{..X%XR.> , - - .   O 1 M P I I I P I P L I I I n < < < < O < + + O @ A R.oXOXOX'.{.'.v.7 7 5 7 b 7 5 7 7 6 9 < < # O O {.{..X}.{.{.+X{._.m m b V d b h N m N M.n.n.A.n.",
"M.b.S.M.A N N ` * & % + D )._._.XX X XXX|..X|.R.* * * & *   ) ) * &   j a , - 9 ].[.]. X}. X+XE.  p s . . = . . # 2 2 7 :.;.;.;.:.=.:.:.;.=.=.-.-.-.K M M v v U U. X+X}.]..X}.v.p.l.m.l.l.x.l.p.k.u.2.=.L C b b {.+X}.[.].+X{.@X%X}.}.n.x.n.n.M.n.M.x.M.A.M.m.M.A.A.A.A.M.M.l.e.O.* & = D _.`.[.}.{..X+X+X+X{.P.#.#.#.#.#.#.#.#...{ ) / f p , p XXXX XXXoX+X#XQ.a p , ,     + 7 P ;.;.;.;.;.~ :.:.=.:.:.8 1 1 . O             D U..X.X|.OXoX.XN.a s . . p p . .   4 , .   @ X   [.}.+X].].'.+X@X-X%X{.p , ; - - 8 N b A A.n.b.M.",
".XOX$X.X@X@X&X%X%X%X%X&XoX@X+X.XXXXX+X.XoXoXoX^.& & & & & &   / / * .   p , - 9. XoX/.{.`.}.+XW..   s a a p , . .   4 7 w.q.q.w.q.q.q.w.q.q.4.3.=.-.I K M M c U Y.XXXX X}.+X Xv.x.m.x.b.x.x.x.b.k.i.q.=.I J n b ].+X}.+X+X{.{.].oX@XoXoX+X+X%X+X%X;X+X+X#X&X=XoXOXOXOXOX#X%X#X$X%X+X%X&X&X$X%X@XXX+X}.}..X+X+X).#.#.#.#.#.#.#.#...[ ` / f a 4 t.+XOX.XOX{.+XOXE.g s s p . . # t =.3.q.3.:.3.q.w.w.4.w.=.V : > # # - # # X X X A U.[.XX[.{.oX.XV.p a . . p p . .   , ,     @ X   [.+X.X^.`.].].+X;X:X@X;X+X@X@X&X%X%X%X=X#X%X%X#X",
"oX.X.X|.}.+X.X+XoX X.X+X+X+X X.X+X+X.X.XoXoX X{.~.* * * & * $   z l & .   - : R.[.}.{.{.].[..XE.& .           , O .   7 k.l.l.k.l.k.l.k.k.i.i.p.q.=.L M v 6 6 U Y. X X}.{.}.}.v.,.4.6.6.w.6.3.4.3.>.=.L C b 9 ; _.+X+X+X'.+X}.{.}.]._.]. XOXOXOXOXoX[. X.X]. XoXXXOX.XOXXX.X|. X X+XXX+XXX+X@X{.+XOX{.XX.X.X.X.XY.#.%.#.#.#.#.#...{ ) / f a ; E.oXoXOXXXXXXXOXR.z j g a . . 1 N 3.l.l.l.i.a.a.a.k.p.k.;.P   - - - : # # X X X G U. X.XOXoX{..XF.4 p . . 4 4 . .   ; , .   X X   _..X+X].`.{.}.+X X}.{.].[.+X{..XXXXX{.oX{.{.{.].",
"OX[..X#X{. X+XoX.XXXXXoX+XoX.X.X+XXX X}.oX{. XoXOXoX`.+.x l z $   j s . ^.^.!.|.}.oX}.].{..X}.R.s & . = . . .   , . . b m.b.x.l.b.M.l.l.l.l.l.i.-.b 6 1 % < O A U.'.[.~.Q.{.'.s.8 t m N N m m h N 8 8 2 1 : # : '.}.+X}.}.{.+X X X}.}. X.X.X+XOX.X.X{. X X X X].XXoX X#X.XOXXX.X+X.X|.+XXX.X.X+XXX+X XXX+X{..X{.#X#X{.f.#.#.#.@...[ ) / !.Q.).oXoXXXXXXX.X{.+XE.z l j g . . 2 S q.l.l.l.l.l.b.l.l.x.x.3.4 .   .   . .         G Y.[.[.[. X[..XN.4 4 .   ; , . .   ; >     X X   _..XoX.X}.).{.}..X.X]..X}.+X.X+X+X+XoX{.{.[..X X",
"XX XXX.XXXXXXXXXOX.XoXOX.XOX X X.X.X+X.X+X.X XoX+X X_.XX.XOXOXoX@X X%XXX.X{.{.{..X].]..X{.[.[.E.s s % . . . O     , . m n.n.b.b.b.x.x.b.M.b.M.i.W 8 2 2 < # @ D U.{.[.[._._._.v.d m m N N N 8 N m 8 7 3 0 # # O '.+X X+X+X|.}.}.oX[.}.oXoXoX+X+X{. X X{. XoX{. X[..X.X.XXXoX}. X+XXX+X+X+X+X}. X X+X.X+X X}..X+X+X+X+X+X+X+X%X#X%XOX#X+X.X{. X+X XXX X+X+X|.OXY.( z k j $ . 3 S e.b.b.x.b.x.n.n.A.M.b.3.> ,   .   .           A Y.OX[.[.{.{.oXF., 4   . - 4 .     - ;     X X   ).oX.X.X}.].].].{.}.XX.XXX}.+X|.XX.X[.{.}. X{.oX",
" X.X X+X.XXX.XoXOXXXoXoXOXOX.X.X+X.X.X.X]. X}.{.}.{..X}.XX{. X}. X.X[. XoXoXoX X[.].}..X}.{.{.E.a a a a a 5 p O     > N M.M.b.M.b.n.n.n.n.M.A.i.>.N 1   :     D Y.}.{._._.[.].B.# O . .   a   . . p , . X   @   '.+X+X+X{.+X+X+X{.}..X X.X{.}.{.OXXXoX]. X}.oX X|..X+XOX.XoX+XoX.XXXOXoXoXXXXX+XXX+X{.XX.X XXX.X+X{.{.+X{.+X X{. X X X.X.X}.{.[.XXXXOX X+X XXXE./ z l g . . 8 S r.M.M.M.M.n.A.b.A.A.M.4.  > , . .     .       G Y.oX]._.}.oXoXF., ; . .   , 4 .   - - .     X X ).OXoXoX}.{.+X[..X X.X+X}.XXXX+X.X+X.X[.{.oX.X X",
"[. XoXoXoX XXX+XOX|.|.oX+XoXXXoX+X}. X X{.+X.X{.}.oXoXoX.X{..X X'.XX.X|.OXoX X'.[.]..X[.[..X{.U.a a a p i , , p . .   N n.M.n.x.M.b.M.M.b.M.A.i.>.h .     @   D R._.'.}.].+X}.V.p p p p p   . . i , .     X     `.+X.X|.|.}.+X XoX}.}.oXXX.X.X XOXOX.XXX{. X X{.OX|.OXXX XoXOXoX{..XXX.X.X X XoX+X+X}..X.X}.XX}.{.+X{.|.+X+X}.+XOX.X.XoX{.}.}.[.XX.XOX{.oXXXXXY.( / l s a p t S i.A.A.M.n.M.S.A.A.M.M.4.    > 4   .           G U.[.).[.[..XoXN.  , 4 .     , p     - -       X ).}.+XoX{.{.{.{.}.}. X.X.X}. X+X{.+X{.]..X].{.[.",
".X|..XOXXX}.oX}..XoXoX.XOXoXXX+X.X+X+X+XoX.X X{.{.XX.X.X{. X[.}. X.X XOX.XOX{. X{.].[.[..X].}.I.a a p a i i 4 , 4     m A.M.n.S.M.A.b.b.n.M.A.i.>.> >       X D I.].{.}.}.[.+XN.p , 4 p   . . 4 , . X   X       )..X X X+X.X]..XoX XoX[. XOX X{.oX XXX XoX.XoX].|.|..X.X+X.XoX.XXX.X+X{..X}.+XXX X}.XX+X`. XXXXX+X|.+X'.|. X'.'. X}. X].}.}.}.}.XX XXX.X#X X'.G.( / l j s p h Z e.A.A.M.b.M.M.A.A.A.n.4.. .   , 4 . . .       A J.{._.]._.{.oXF..   4 p . .   , p X   - :       ).XX@X.X X{.oX X+X+X X{.{.{. X|.oX.X XXX].{. XoX",
"{.oX.X_.7.U T T Y Y Y Y Y T Y Y T T T T Y U Y U U T U Y T U U U U U Y G U | R..X].].}.}..X.X{.U.s a a p a p , , , 4 . N b.M.A.A.M.b.M.b.M.n.n.y.>.  - #       D U.{.{.+X X+X}.N.          . , >   .   :       X '.|. X+XOX+XY.O.Y Y Y Y Y Y U Y U U U v.+X+X{. X]. XoX_.7.U U Y Y Y T T U T U Y T T U Y U U U T U ' Y H Y Y Y Y Y U Y Y U T U.].}..XXX|.OX[..XE.( l l $ . . 8 B e.S.M.S.n.M.S.M.A.M.n.4.p $ .   p p X         D U.+X].}.[.{.{.F.. . a p s .   p p . .   : @     ). X@X X}. XE.<.U U U Y U T U U Y Q Y v.}.]..X X",
"XX}._.| T . . . . .                     X . . . . $ . % = . s s . .   , > Y Y E. X{.}.}..X].{.Y.s s s s p p p , 4 - 4 N M.M.n.n.M.M.M.M.n.M.A.i.,.    o @     D P. X}.+X X.X+XC..   . X . , , . .   :       X   `.|. X X+XF.Y Y         : - 3 8 >.w.4.U <.+X X{.oX]./.T Y u.e.>.P = = + i , > , ; , a j / ` [ { #.....@.@.@.@.@.{ [ ) l s Y D F.}.].}.).+X X XE.( / & . . . 7 V i.M.M.M.M.M.A.S.M.M.M.4.a s $ .   p p .     X D P.].].}.]. X XN.. = s s j +   a s . . .   # X . ). X}.}. XF.U U i i , i ; ; > ;   . # Y W [.{.+X",
".X+XF.G . . . . .     . .             . . . . $ $ $ . = . = j j = .   , , .   T .X}..X}.+X].].R.f f f a s a p p 4 - - N b.A.n.S.x.l.x.n.n.M.A.e.>..     X X   D P.[. X.X+X+X+XN.. . . . ; ,       -       X X   `.+X{.XX#Xb.      .     : # 2 7 R ;.2.3.Y `.oXoX{.oXS.<.2.2.2.R Z s s i , , - - ; , p j l ) ] { { { ..........{ [ ] / l s p , Y .X[.[.XX#X XXXE.( & $ & & = 7 A i.n.M.M.b.M.S.S.S.M.M.4.  s g & $   p p     X S R.}..X}. X{. XC.= . j j l =   f g . . . .   X @ )..X+XXX[.s.; ; , , i ; ; ; -         6 G ^.OX}.",
" XoXB.C .   . . .   .             .   . . . = $ $ $ $ = $ = j j . =   , >     Y .X'.}..X{.}..XY.k k j f s s p p 4 4 , N n.n.n.n.M.b.n.M.M.b.M.i.>.> .     X   D P. X}.+X+X}.+XN., , 4 , , . .   ,     . X X     )..X+X.X`.s.            @ @ < 2 Z R -.R -.I.].oX.X@Xb.R R R -.Z b a i > , - - > - , i s l z ` ] [ { [ { [ { [ ] ` ` z j a 4 > Y [.XXOX.X|. X XE.& & k g s p 8 B w.x.n.M.n.M.A.M.A.A.M.4..   l l & =   4 4 . X L U.+X}.[. X}. XN.= & l l / =   l l = $ . .     X ~..X@X.X!.d.                  .       0 E F.{.{.",
".X}.N.b   . . .   .                 .   . . . $ $ $ $ $ . % j j . .   , >     T [._.}.]..X'.{.E./ / k k j f s a p 4 , N M.n.M.M.n.M.m.M.m.A.A.i.,.  -       X D I.]. X X.X+X+XN.4 p p p . .   i     . - #       ^.[. X.X!.                X # < b J J J J N. X X}.{.v.J J K K b 7 4 , ; ; 0 - 4 - , 4 p f k / ( ) ) ] ` ` ) ` ( ) / f f p ; ; P {.{. X+X].oX#XE.& z j       7 S e.n.n.n.A.n.n.A.A.A.M.4./ &   z z & =   , ;   G R.}.}. X.X].+XN.+ % / / ) &   / z & $ $ . .     (.}. XoXE.    . .   .       .         # K b.`..X",
"}.{.C.7 .           .   .     . .     . . . . . . $ $ . = = s s + .   , , .   > .X.X].].+X+X XI./ / / / l j s s p p , N x.M.M.l.A.A.M.n.M.n.A.t.>..   > .     A I.+X+X X+X X+XV.= . . . .   p   . . , > .       `.OXOX X^.              X X O < c n n n n c.[.[..X].V.n n n M c 6 ; ; 0 ; - - - ; ; , p p f f l l / / / / / l l f f s p p ; ; 4 .X}..X.X|.XXOXE./ /   = . . 8 Z e.m.n.b.M.A.A.n.M.M.M.4./ ` &   / z & .   ; > A I.oX[.].}.{.+XV.& * ( ` [ &   ( / & $ . .   .   /.{.}./.E.. .     .   X . .     .     O b z..X X",
"'.'.y.6 .   .   . .   O     O   .   .   . . . . . . . $ . . a a . .   - >   . # }.[.{.+X[.].{.I.( ( / / z j f s a p 4 b x.M.A.x.n.A.M.A.A.n.A.i.,.. .   -     G E.+X+X{.{.+X XN.. = . +   s   . . a p .         )..X|.OX^.                X O O c b v b c y. X}._.`.y.b n b b c 1 ; - ; - ; - - - ; ; , p p a f f f f f f f f f s a p p ; , - ; .X|..X[.OX+XXXY.)   = $ = . t B i.b.M.M.n.A.A.A.b.M.M.4.  ( [ *   / z = .   - D I.{..X+X+X{..XV.& * ] ] { *   ` ` & & = . .   O (.oX XoXR.- : - - - : # o o o         O c d. X}.",
"[.].K.6   .         .   . .   .   .       . . . . . . . . . p , . .   - - .   : }.].{.}. X{.{.P.] ] ( ( / z j f s p 4 N M.M.b.n.b.S.M.M.n.n.n.i.>.g .     : @ G P.+X X X}. X@XC.j j j j j   = . j g . . . .     /..X.XOXE.              X   O # c c c 7 c y.{._.{._.>.b b b n 6 6 - - ; ; ; > - , - , , , p p p a a a a s a a a p 4 p ; - - - ; |.|.XX.XOXOX.XE.  %   g s p M ! p.n.M.n.M.b.n.n.M.A.M.,.&   [ X.&   z f =     G I.].}.oX.X{.+XN.* * [ [ @.*   [ ] * & & . . .   (.].{.oXU.- - - - - - - - o #         O c s.'.[.",
"}.`.K.2 X   . .   O . . .   . . . . . . . . . . . . . . . .   , . .   - ; X     +X{.].+X X{.+XI.[ [ ] ( ( / k j s p , N x.M.n.n.n.M.M.M.A.n.A.r.>.s j . .   : Y I.}.+X+XXXXX@XC.l l l l   = & l l = = . . .     `.+X{.OX~.              X X O < 6 c v c c t.}.{.{._.=.n n n n b c ; , 4 , , , 4 , 4 4 i , p p p p p p a p p p p 4 , ; ; ; ; - - |.OX.X'. X|.OX!.&   j j s 4 A U i.M.M.b.A.M.M.n.M.M.M.4.q *   [ { *   j a . . U P._..X+X.X X+XV.* * { { %.q   [ [ * & $ $ . . . ~.{.[.OXR.. . .   .   . - # -         O c s.{..X",
" X[.K.8 . O . . . . . . . . . . . . . . . . . . . . . . . . .   i . X   - ;   . ].}.].}.+X]. XW.[ [ [ ) / / z j s s p t M.n.V.M.M.A.M.n.M.n.S.p.>.  s s .     Y I.].[.}. XXX+XN.        & & / / & % $ . .   .   ).@X+XOX^.. . . .       X O # < c v c v c t..X{.}.`.5.J J J L C n M p p a p a a a p p p a p a a a s a a s a s p p p p ; ; - - - |.oX.XoXoX[.OX!.  z l + $ . Q ~ m.M.M.b.b.M.n.v.A.A.S.4.[ q *   [ { &   a p . U I.].oX+X+X+X#XC.* q { { %.q   { { * * & . . .   W.oX.XOXR.. . . . . . . , - >         O c s.}..X",
".X].7.C = = . . $ $ . $ $ $ . $ = . . $ . = . $ $ $ $   j l . $   a . .   ; ; O {.{.}.}.{.{.}.(.{ [ [ ] ( / / j s a i h M.M.A.A.n.M.N.b.M.b.m.u.;.=   a p .   o.I.'.+X+X.X}.{.B.* & & * & ) ) * * & = . . . .   `.XXOXXX!.. .   .       @ @ # 1 b n b c v s.+X[.}.(.5.R -.R R -.-.-.P I L C N C N N V V V V h V V V V V V V C h h b 8 9 2 2 2 6 {.oX#X.XOX XoX!.<.1.e.a.a.a.6.6.x.n.M.x.M.M.M.v.b.b.A.6.  { w *   [ ] %   i ; o.I.`.XX+X+X.X.XC.q q #.@.&.*   ..{ * * = $ . . . W.oXoX].W.. + % . . = . p , ,         O b y.OXoX",
"[.].c.P $ $ & & & & & & & $ & & & & & & & $ & & & &   z z z ` % =   g . X   ; ; [.{.+X[.}.+X@X)...{ [ [ ) / z f s s 5 m A.A.A.b.M.n.n.b.b.m.M.e.o.* =   p 4 . 4.!.{.+X+X.X}.XXn.q q q q ] ] * * * & & = . .   . ~.XXXX+X!.. = . . . .   - - - 2 M C b b b z.oX{.oX].c.5.2.2.>.2.q.3.3.2.3.;.3.:.>.>.=.2.;.2.2.:.2.;.;.3.:.:.=.:.=.R L C n n c b XXOX{..XOX.X.X^.M.M.M.M.l.b.x.l.l.M.n.c.b.M.m.A.M.n.M.w.*   { r *   / / .   ; e.Q.XX|.+X+X|.+XV.q * #.@.&.q   { { * * $ . . . . !..X{.+XW.= & % & = $ $ g s a .   O   # b y..X}.",
"XX{.U.;.B & & * * & * & * & * & & * & & * & & * *   )       ) [ & =   a + .   - .X}..X{.{.+X}.{.R...[ ] ` ( F k g a p N M.A.M.n.m.m.b.b.n.n.m.w.>./ * +   , ; B.'.+X{.].+X{.+Xj.[ [ [ [ [ * * * * & & $ . . . . ).{.+X+XQ.= = = = . .   , - 2 3 Z L M n M s.+X}.oX`.G.e.e.u.w.k.i.l.l.l.l.k.u.u.u.k.l.l.l.l.l.l.i.k.k.p.i.u.k.i.u.4.:.I K C b b .XoX+X X+X{.{.].~.L.L.L.G.S.A.M.n.M.n.M.M.M.m.A.M.M.M.e.D *   ..q *   k f .   V._..X]..X+X.X{.C.q q #.#.&.q   @.{ * & & = . . . /.oX X+XE.& * & & & & & l j j .       # n s.@X.X",
"XX[.P.6.W * * * * * * * * q * q * * * q * q * *   {   * * *   [ X.& $   s . . W `.[.]..X}.}.@X@X@X8.{ ] ` ( f k s s p A A.b.b.n.m.m.m.m.m.n.n.w.T   / % O   P.W.+X+X+X+X+X+X+XB.        * * * * * * & = . . . . ).+X X.XW.* & = & $ =   i , 9 8 L P Z n M s. X+X X{.G.s.k.k.k.k.l.l.l.l.k.k.k.i.k.k.k.l.l.l.l.l.l.k.z.z.k.i.u.k.u.w.:.-.K n b Y .XoX{.+X[.oXoX+X$Xb.M.b.M.n.x.b.b.M.M.b.n.b.m.m.x.b.n.i.,.* *   { q &   s a R.!.+X.X+X.X+X+X+XV.r r #.#.&.*   @.#.* * & $ . . . Q.}.}.}.Q.* * * * * * & / l k . . .   < M l..XoX",
"XX+XG.a.e.B * q * q * q q * q * q q q q q q *   {   q * q r *   [ { & &   i . <.]. X}. X[.+X}.@X;X-X@X+X+X{.{.}.OX X X}.[.(./.[./.{.'.{.{.[.].{.[.].{.[.[.[.}.}.}.{.+X{.+X+X}.B.* q q q * * q * q * & & = . . . ).XX|.XXQ.* = * & $ .   p , 5 b R R J C C t. X+X.X+XF.r.b.p.m.m.l.l.l.l.l.l.l.b.k.l.b.l.b.b.l.b.m.k.m.m.z.z.z.k.k.i.q.=.I M b 7..X.XoX.X{.{.oX%X>X-X+X+XOX X[.'.{.{.}.{.{.{.[.].[.'.[.{.{..X}.+X|. X{./.). X XXX+X.X.X+X+X.X XC.#.#.@.@.&.q   ..{ * * & = . . . ^.[.[..XR.* * * * * * * ) z l . . . 6 7 C s.+XXX",
".X+X`.M.D.M.m.p.i.a.l.i.i.a.a.i.a.p.w.i.a.i.a.a.y.i.p.e.i.i.p.i.i.6.;.W Z n b N.{..X+XoX}.+X}.+X.X+X+X+X@X@X;X;X&X#X%XoXoX}.+X@X.XoX'.@X+X.XoX}.oX[.@XoXoX{.}.].+X+X+X+X+X+X+XN.q q * * q q q q * * * & = . . . ).XX.X.XR.* * = & $ =   a p 4 8 R E L C Z t. X+X{. X).m.m.p.i.l.n.l.l.b.l.b.l.M.M.l.n.A.l.l.b.b.c.n.A.m.z.z.z.p.m.i.q.:.I J M S..X.X.X.X.X].{.}..X+X$X&X%X+X%X+XoX+X}.+X@X%X;X@X.X#X@X@X+X.X+X+X%X#X@X.X+XXX XOX.X+X+X+X{.{.+XV.a.g.a.a.p.p.i.p.i.w.<.E L C M M Q.oX[.+XR.i.k.p.i.a.a.a.p.i.e.3.-.L C Z J y..X+X",
".X}.@X+XN.b.n.n.x.n.M.n.x.M.n.x.M.b.n.x.M.M.M.A.n.n.n.n.x.n.n.n.b.i.q.;.R L E.[.{.}.+X}.}.+XoX.X}..X X.X{.{..X].}.+X}.].{.}.[.[.{.{./.{.].{.].{.]._._.[._.}.[._.+X+X+X+X+X+X}.B.X.#.q q q q q q q * & & = . . . ).XX XXXR.* * * & & =   s p 4 b R E L K J t..X.X}.}.+X.Xc.m.n.n.M.b.M.b.l.b.l.l.l.n.l.A.b.A.b.x.n.n.n.n.m.m.b.l.k.i.q.=.I L R..X+X.X.X}.{.oX.XoXXX.X.X{.|.{.{.]. XXX.X{.XX.XOXOX.XoX X[.].'.{.}..X{.+X.X}. X.X.X+X+XXX XXX+X XN.b.M.M.M.b.b.M.x.l.i.w.;.R K M L Q.}.'. XY.M.M.b.n.M.A.M.n.m.z.u.3.-.L C Z s.}.@X",
" X.X+X.X=X=X=X*X#X#X*X%X+X%X&X&X$X].OX$X%X&XOX+X%X@X+X%X%XOX%X X%X+X%X&X%X}.'..X}.}.}.}.].}.}.{.]. X X.X}./.].]. X{..X].'._.[.].{.].(.`.]./.].{.].{.]._.}.].+X].+X].}.+X+X{.+XP.#.#.q q q * q q * * * & = . . . _.{.}.|.!.* * & & & =   a p 4 m R E L C L t.+X.X.X{..X].oX+X;X;XXX=X$X$XXX=X+X=X=X.XoX=X#X*X%X.X@X*X$X$X.X+X+X}.oX+X@XoX+X+X}.{.}..X}.{.[..XoX[.OX.X.X[..X|.|..XoXOXoX}.XX+XOXoXOX X].[._.]._.{. X].]..XoX+X.X.X+X.X.X X+X X|.n.A.M.n.b.M.n.M.b.n.l.w.2.I A C K ~.}.].{.E.b.b.M.b.M.M.A.b.m.l.i.q.=.I K K y.+X+X",
"}. X+X+X.X}.+X{.{.OXXX.X'..XXX[.].|.].|. X'.|.{..XXX'.XX{. X X X'.`.XX+X.X{..X}..X+X+X}.}.}.[.'. X.X}.].].{._.^.'.{.}.{._.`.{.].].].`.].}.}.{..X}.}. X].'._.{.{.].+X+X+X}.+X}.B.X.#.* q q q q * q * & & = . . . ).}..X|.W.* * & & & =   a p 4 8 R -.P Z L t..X X.X X}.)..X.X.X{.|.].XX X.X[.{.].{.|..XOX.XXX.X{.].'..X X[.].].[.(. X}.oX+X.X[.+X+X}.].}.oX.XoX{.}..X{..X.X[. X[. X XOX.XOX XOXOX X X}.{.].[.]..X+X.X.X+X}..X X{. X+X X+X X XoXV.M.A.M.A.n.b.M.x.l.p.w.3.R K C L Q.{.OX[.E.b.x.b.x.x.M.M.b.z.k.i.q.=.I K K s.+XXX",
" X+X.X.X+X+X.X.X+X{.OX{.OX'.|.[.].|.|.[.[. X X}.]..X X XXX X.X X X{..X{.].}. X}.}.}.{..X{..X}.}..X.X}.}.{.]./.]. X[.].`.[._.{.{.].}.].`.].}..XoXoX}.[.[.{._.{.{.}.}.+X+X].+X@XN.#.#.q q q q q q q * * & = . . . ~.+X{.XXQ.* * * & = =   s p 4 b T -.L Z K y..X.X X{.{.`.{.{. XoX.X|. X|. X.X X X|.|..X|..X.X[.[.|.{. X[.[.].`.`.}.{.oX{.]..X.X.X}.}.]..XoX.XoX+X[..X}.OXXXOX X.XXXXXOXXX.X XoX{.{.|.[..X'.}.}..X+X.X.X{..X{.+X+X+XXXXX X X{.+XV.b.b.b.n.S.A.M.n.z.i.w.3.R L Z K W.].|.{.E.b.x.M.b.M.M.M.b.M.k.k.q.=.L K K t.+X+X"
};
