/* XPM */
static char *result[] = {
/* columns rows colors chars-per-pixel */
"256 256 240 2 ",
"   c #38392E",
".  c #3B3C34",
"X  c #3E3E3A",
"o  c #373730",
"O  c #403F3B",
"+  c #3F4038",
"@  c #424335",
"#  c #43433D",
"$  c #4B4B3D",
"%  c #47483B",
"&  c #53543E",
"*  c #58593F",
"=  c #4F503E",
"-  c #454641",
";  c #474842",
":  c #4B4B44",
">  c #4D4E49",
",  c #484742",
"<  c #4F5044",
"1  c #4F504A",
"2  c #535344",
"3  c #575844",
"4  c #5A5B45",
"5  c #53544C",
"6  c #57584C",
"7  c #5B5B4C",
"8  c #58574D",
"9  c #555552",
"0  c #575852",
"q  c #5B5B53",
"w  c #5D5D5A",
"e  c #585753",
"r  c #504F49",
"t  c #5F604C",
"y  c #5F6045",
"u  c #5F6053",
"i  c #5F605B",
"p  c #63644C",
"a  c #67684C",
"s  c #6A6C4D",
"d  c #616346",
"f  c #636454",
"g  c #676854",
"h  c #6B6C54",
"j  c #63645C",
"k  c #67685B",
"l  c #6B6C5B",
"z  c #68675D",
"x  c #6F7054",
"c  c #6F705B",
"v  c #727454",
"b  c #767955",
"n  c #73745C",
"m  c #77785C",
"M  c #7A7C5C",
"N  c #797B56",
"B  c #6F704F",
"V  c #656561",
"C  c #676862",
"Z  c #6B6C63",
"A  c #6D6D69",
"S  c #686762",
"D  c #6F7063",
"F  c #6F706A",
"G  c #737464",
"H  c #777864",
"J  c #7A7C64",
"K  c #74746B",
"L  c #77786B",
"P  c #7B7C6B",
"I  c #767671",
"U  c #7B7C73",
"Y  c #7E7E79",
"T  c #777871",
"R  c #706F68",
"E  c #605F5A",
"W  c #807F75",
"Q  c #7E815C",
"!  c #7E8057",
"~  c #7F8063",
"^  c #7F806B",
"/  c #7F8073",
"(  c #7F807A",
")  c #82845E",
"_  c #86895E",
"`  c #828464",
"'  c #868963",
"]  c #8A8C64",
"[  c #83846C",
"{  c #87886B",
"}  c #8A8C6C",
"|  c #8E9165",
" . c #8E916B",
".. c #919466",
"X. c #92946B",
"o. c #96996C",
"O. c #9A9C6D",
"+. c #969967",
"@. c #838473",
"#. c #878873",
"$. c #8B8C73",
"%. c #83847B",
"&. c #87887C",
"*. c #8B8C7C",
"=. c #8F9073",
"-. c #8F907B",
";. c #929474",
":. c #969973",
">. c #9B9D73",
",. c #93947C",
"<. c #9B9C7C",
"1. c #97987C",
"2. c #9EA16E",
"3. c #9EA173",
"4. c #9FA17B",
"5. c #A2A56E",
"6. c #A2A574",
"7. c #A6A975",
"8. c #A9AC75",
"9. c #A2A57B",
"0. c #A6A97A",
"q. c #AAAD7B",
"w. c #AEB17C",
"e. c #ADB175",
"r. c #B2B57D",
"t. c #B6BA7B",
"y. c #BDC17E",
"u. c #C1C57E",
"i. c #8C8C83",
"p. c #898A84",
"a. c #8F9085",
"s. c #939484",
"d. c #979883",
"f. c #9A9C84",
"g. c #94948B",
"h. c #9B9C8C",
"j. c #97988C",
"k. c #9B9C93",
"l. c #999993",
"z. c #908F88",
"x. c #9FA08C",
"c. c #9FA083",
"v. c #9FA094",
"b. c #A3A484",
"n. c #A7A983",
"m. c #ABAD83",
"M. c #A2A48C",
"N. c #ABAC8B",
"B. c #A7A88C",
"V. c #AEB183",
"C. c #AEB18B",
"Z. c #B2B583",
"A. c #B6B983",
"S. c #BABD84",
"D. c #B2B48B",
"F. c #BABD8B",
"G. c #B6B98A",
"H. c #A3A494",
"J. c #AAAC94",
"K. c #A4A49A",
"L. c #ABAC9C",
"P. c #A7A897",
"I. c #AFB098",
"U. c #B3B49C",
"Y. c #B8BA96",
"T. c #ACADA3",
"R. c #A9AAA3",
"E. c #AFB0A4",
"W. c #B3B4A4",
"Q. c #BABCA4",
"!. c #B4B4AB",
"~. c #BBBCAC",
"^. c #B7B8A6",
"/. c #BBBCB2",
"(. c #A09F97",
"). c #BEC185",
"_. c #BEC18A",
"`. c #BEC198",
"'. c #BFC0A9",
"]. c #BFC0B3",
"[. c #C2C58B",
"{. c #C6C98C",
"}. c #C9CD8D",
"|. c #C4C884",
" X c #CED18B",
".X c #CACD93",
"XX c #C5C897",
"oX c #CED193",
"OX c #CED19A",
"+X c #D2D594",
"@X c #DADD9B",
"#X c #D5D898",
"$X c #D3D78D",
"%X c #DDE19B",
"&X c #E3E79C",
"*X c #EDF19F",
"=X c #C2C3AC",
"-X c #C5C7A7",
";X c #D7DAA5",
":X c #C3C4B3",
">X c #CACCB4",
",X c #CBCCBB",
"<X c #C5C6B8",
"1X c #CFD0B9",
"2X c #D3D4BC",
"3X c #D8D9B8",
"4X c #CFD1A3",
"5X c #DEE1A5",
"6X c #DFE1B9",
"7X c #E2E5A3",
"8X c #E7EBA7",
"9X c #EEF1A8",
"0X c #F5F9AB",
"qX c #E6E9B7",
"wX c #EEF1B4",
"eX c #FDFEB4",
"rX c #FEFFBC",
"tX c #F4F7B7",
"yX c #D4D5C3",
"uX c #DADBC4",
"iX c #DCDDCB",
"pX c #D6D7C6",
"aX c #CFD0C4",
"sX c #DFE0CC",
"dX c #E2E4CC",
"fX c #FFFFC4",
"gX c #FFFFCB",
"hX c #F4F6C5",
"jX c #ECEDDA",
"kX c #E5E6D4",
"lX c #FFFFD3",
"zX c #FFFFDC",
"xX c #F1F2DE",
"cX c #EFF0D9",
"vX c #FEFEE4",
"bX c #FEFEEB",
"nX c #F4F5E4",
"mX c #FFFFF4",
"MX c #FFFFFE",
"NX c #ECEDE3",
/* pixels */
"h.h.d.d.d.d.d.1.s.f.d.d.s.s.s.-.*.$.*.#.[ J G G n n l l h l k g f f f u 7 t q 7 6 6 6 3 5 5 5 8 e q q 8 0 6 5 5 > > < > 2 5 9 5 9 9 e q j j S A A F I p.( ( ( ( p.i.z.l.l.R.R.!././.aXNXNXMXMXMXMXMXMXMXMXMXMXmXnXnXjXjXkXdXuX3X2X3X3X3X3X6X3X3XqXqX6XqXqXqXhXvXMXMXMXMXMXMXmXvXgXgXtXfXfXhXqX;X;XOXXXXXD.<.:.=.[ [ P [ P P P G G l l l l h h l l v l h h z g h k l l Z l D D D G K T U U Y Y T L T K K R K D D Z Z D D D G D H G L G H L P J P P P J G G H G ` $.} ;.$.X.X.} #.{ ^ J J J G L P @.p.a.s.g.j.j.k.v.H.P.R.~./.!.L.",
"L.x.f.d.d.d.s.s.s.h.f.j.d.d.s.*.*.*.*.*.[ L G n l l l l l k k g f 7 u t 7 q 7 7 6 6 3 5 5 5 6 9 e q q q 0 5 5 1 > > > < > 5 5 5 6 6 q w i V A A I I T U Y Y Y p.p.p.g.g.l.v.R.R.!./.<XaXNXMXMXMXMXMXMXMXMXMXMXMXmXmXbXxXjXkXdXuX2X3X3X3X3X3X3X3X3XqX6XqX6X6XqXgXvXmXMXMXMXmXzXfXwXqX6X5X6X;X4X;XOX`.Y.G.4.;.1.} [ [ ^ P P P J R G l l c c c c h h l h g g j z z k l l l D D D K L U Y U @./ Y U U T K K R D D Z l D D D D G G R G K L L H P P P ^ P P J J P J P { ;.;.=.$.$.} { P J J J J G G U %.&.s.g.j.k.k.k.K.P.R.E.].aX<X/.",
"/.P.h.h.f.d.d.d.f.h.h.f.d.s.s.-.*.*.*.*./ L G G n l l l k l f f f f 7 q 7 8 8 6 5 5 5 5 3 5 5 6 6 0 e 8 0 9 1 < : : < : > 5 5 5 9 0 e i j S A K I I Y Y Y T ( ( p.p.i.a.g.l.k.K.R.!.aXaXNXMXMXMXMXMXMXMXMXMXMXMXMXmXbXbXxXcXdXuXuX3X3X3X3X3X3X3X3X3X6X6X3X5XqXqXfXvXbXbXbXlXtXqX;X4X4X4X;XOX4XXXY.G.m.0.;.$.:.=.[ [ J ^ P J G D n l l v n n c l l h h f f g g z l l l D R R K L L Y Y ( ( W Y L T T K G D R D Z D D D D D D D H G L L L T P P P ^ P P P J ` J [ $.$.} { { ~ ^ J J J H J L G L L %.&.p.i.g.k.k.K.P.L.E.!./.aXaX:X",
"<X^.L.P.h.h.h.f.j.f.h.h.h.h.j.-.*.-.-.&.P J n l c l l l k k f f q 7 q 7 8 6 6 6 3 5 6 6 5 2 6 5 5 5 6 5 5 2 1 > : : > > > 5 > 1 0 e w i V Z F I A I I I U T U ( ( %.p.p.i.g.l.l.R.!.<XiXnXMXMXMXMXMXMXMXMXMXMXMXMXMXmXmXbXnXkXdXuX3XuX3XuX2X3X2X3X;X3X3X3X6XqX6X3XrXfXfXlXhX;X4XXX`.Y.XXOXXXOXY.m.m.9.,.} $.:.;.{ [ ^ J J G G n l c c n m m n b x h z f g f z z k l Z l G G L U U Y @./ ( Y U K L T K K D D D Z Z D D D D G R K L P U P P L P P P P J P P { $.} { { { J J H G J m G G H J J P P P @.#.&.s.j.k.K.R.R.T./.<XaX,X].",
"<X<X^.R.P.k.h.h.h.h.h.h.h.h.h.s.a.-.*.#.P H G n l l l k k k u q u 7 7 7 7 6 6 5 5 5 5 8 5 > 5 5 5 5 < 2 > > < : : > : > > > 2 1 5 0 w i j A A A A A F I I T / Y ( %.%.&.p.i.l.k.R./.aXkXmXMXMXMXMXMXMXMXMXMXMXMXMXMXMXmXmXbXxXjXkXdXuX3XuX3X1X3X1X4X3X;X3X;X;X;X;X3XqXwXwXqXXX`.Y.D.N.D.`.`.XXD.n.<.,. .{ =.;.;.[ [ P J P H n n l c c n m M M m l h h f f j h j z l l D R L T / Y Y / Y W W U T K K K K R G D D D D R G H R K L T P P / U P L P L P P P P { { ^ P ` ` J H n l G n G G G J J J P P @.@.&.a.j.k.H.K.R.R.!./././.].",
"/.<X/.!.W.L.H.H.H.h.H.k.H.H.(.h.d.a.a.&.@.L G l l l l k k k f f q q e e 6 6 5 5 5 5 5 5 5 2 1 9 1 1 > < > > > : : : : : > r > 5 5 0 w i S A S Z A A F F K I T U Y U Y &.%.&.g.v.R.!.aXkXmXMXMXMXMXMXMXMXMXMXMXMXMXMXMXMXmXmXbXvXxXdXdXdXuX2X3X3X1X1X1X;X4X3X>X4X-X-X;X4X-X`.I.D.N.N.B.C.C.D.m.b.<.;.=.{ #.} =.;.} ` J J G G D n n n c n H J n c c c l h f h z j j z l Z G K P W @.Y / %.W / U U L K K K D D G G G G G K K H K P U Y Y U U Y / P P U L P P ` J P ` ^ [ J G l n Z Z G G H G J ^ P P U &.&.i.j.j.K.L.E.W././.!././.",
"/.<X]./.~.^.E.L.H.H.H.H.P.P.P.(.k.j.a.*.@.L G D D l z k k j f q 7 7 6 6 6 6 5 5 6 5 5 5 5 2 2 > 1 < > : > : > : : > : : > > > > 9 0 w i V S S V S A A R F F I I L U U U ( &.l.v.R./.aXkXmXMXMXMXMXMXMXMXMXMXMXMXMXMXMXMXMXmXbXbXcXdXuXdXuXuX2X1X1X>X>X>X-X-X-X`.XXY.XXY.Y.I.N.B.M.b.b.c.c.9.b.<.<.=.$.{ [ {  .=.} [ P J H G n n n n n n n n n n n c x x l h j g k h l l Z G T W p.( %.%.@.Y / L T K K G R G K G K D G K L T P U ( %.%.%.&.U U / U U P P P P ` { #.[ J J G n c Z G G G G L P P ^ ^ / %.&.i.j.H.K.R.!.!.!.E.E././.",
"~./.<X<X/././.!.T.L.L.L.K.K.P.P.H.h.s.*.@.U L G c l k j z f f 8 q 0 6 6 5 5 5 6 6 6 9 9 5 5 5 1 1 1 > > : > : : : : : : : > > 2 5 0 0 w V C V k S A S Z R R K K K L L U Y p.g.k.R.!.<XiXNXMXMXMXMXMXMXMXMXMXMXMXMXMXMXMXMXMXbXnXkXdXuXuXuXuX2X1X4X4X4X-X-X=XXXQ.Q.U.I.Y.N.N.N.b.b.b.c.<.c.<.<.:.;.$.} [ ^ [ { { $.{ J H m G D n n n m n n n m n n b c c c h h j z k l l l G L U &.&.&.%.@.Y U U T P L K K K L K L K L U P U W %.&.&.&.&.&.@.Y Y / P L P P P @.{ [ ` J J H G n G G G G G J J P P ^ @.&.&.a.j.(.K.!.!.!.E.T.E./.!.",
"/././.aX<X/./.!.W.E.T.L.L.T.L.P.K.k.s.*.%.P L G Z z k k j f q q 7 6 5 5 5 5 9 6 e e 0 6 5 1 1 2 1 > > , : : > : : $ : : : : 1 1 5 9 e w j V V V C C C C Z Z D R G L L U Y &.i.l.P.!.<XaXNXMXMXMXMXMXMXMXMXMXMXMXMXMXMXMXMXMXvXjXdX3XuXuXuXpX2X2X>X>X>X=X-X-XQ.Y.Y.I.J.N.N.B.b.b.f.c.<.1.<.,.;.$.$.} [ ^ ~ P P P ~ ~ J H n n G n n n H m n n n n n n n l l h g g h z h j l Z L U &.i.&.&.%.Y U U P U L T T L L T T L P U ( %.*.p.i.g.g.i.i.&.%.@./ U P P P P ` P P P J H J G H G G G G G L P P P / @.&.*.s.l.(.R.E.E.E.E.T.!.!./.",
"/./././.<X<X:X/.!.W.T.L.T.L.K.H.H.j.g.i.&.@.T G c l k j j f q 7 6 5 5 2 2 5 9 e q q 9 9 5 < > 1 > : > > > : : : : , , : , : > 1 1 9 0 w i j j j k C C C Z Z A D R K L U @.&.g.l.K.T./.aXiXNXNXnXMXMXMXMXMXMXMXMXMXMXMXMXMXmXnXjXdXuXuXuX3XuX2X>X>X-X-X-XQ.'.Q.Q.U.U.J.J.B.M.b.f.f.1.d.,.,.-.=.#.#.[ ^ ^ ^ J J H H H H H G G G G c n n n m n n m m m v h h k g k j h k k l G L Y &.*.p.&.&.&.@.U U P T P L U P P P U / W *.p.z.j.k.K.l.g.s.i.&.&.@./ L P P P P G J G H H G J H H n G G G G P P ^ @.%.*.z.j.j.K.K.R.T.E.T.E.!.!./.",
"/./.aX/.].].]./.W.W.T.R.K.H.k.k.l.j.g.s.p.&./ L D z j f u q e 6 6 5 1 > < 2 0 e q q e 5 1 > : > 1 > : > : : : - - ; ; % : : > < 5 e e e w w i i j V S A A R A D K K L Y %.p.g.j.H.K.!./.aXaXkXkXjXnXmXMXMXMXMXMXMXMXMXMXMXmXnXkXdX2XuX2XpXpX2X2X>X>X=X=X'.Q.Q.U.U.U.J.J.M.x.f.1.1.,.,.,.-.=.$.#.[ [ ^ ^ J P H H H G G G G G G c c G n H G n H m m m n g h h g g h k h j l Z L U &.&.&.&.p.i.&.&.W U / U / W W W @.%.&.i.i.z.j.l.k.k.l.g.a.z.p.&.&.%.Y U L L L L G H G H G J H G G D G G G J P P / &.a.g.j.k.K.K.K.E.T.E.T.E.!./.",
"/.]./.].]./././.!.!.T.L.H.h.j.j.s.s.i.i.i.&.%.U Z k j f q 7 6 6 5 < < : > 5 0 0 e e 9 6 1 > : > > > > > > : : : % % ; : $ : > < 2 6 e e q w q j k C Z F R R R K K K U @.&.&.i.g.l.K.R.!.<XaXaXiXsXNXNXbXMXMXMXMXMXMXMXMXMXbXxXkXdXuX2XpXpXuXuX2X2X>X>X:X=X-XQ.Q.^.U.J.M.M.x.f.d.,.,.,.-.-.-.*.#.@.[ ^ J P P J H J H H G G n G G H G H m m m m m n n l h h j h g f f h k l l K L @.&.&.p.p.s.i.*.&.&.W %.@.W &.%.p.a.a.i.a.z.l.k.k.l.l.l.g.g.p.p.p.p.&.%.U L K L K Z G G n G G G n G G G J P P P / &.a.j.l.k.(.H.K.R.R.T.E.W.!.!.",
"/./././././.!.!.!.W.T.K.l.j.i.*.*.i.&.&.&.%.( U Z k j q q 7 6 5 2 1 > $ < 5 9 5 5 5 6 2 > > : , : : : > : , , , % - , % : : : 2 1 5 9 0 q q w i V V Z A A K K K K U Y %.%.&.i.j.h.k.K.W./.:X,XaXiXkXNXnXmXMXMXMXMXMXMXMXMXbXnXkXdXuX2X3XyXpXiXuX2X2X2X>X:X=X~.Q.^.U.L.B.(.x.d.,.-.s.-.;.*.*.*.#.@.W ^ P P P P P P P P P P J P J J G J H m m m n n l l h l h g j h k f k l Z G L Y @.%.*.s.s.g.i.*.&.&.&.&.%.p.i.g.g.a.z.a.j.j.j.l.k.v.l.l.l.g.z.i.i.p.p.Y L U K G Z G D n D D n G G G H G P L / / &.z.j.k.h.(.(.K.K.R.R.T.!.!.!.",
"/.aX/././././.!.!.K.R.K.j.s.*.*.&.&.%.@.U U L L D k j f q e 6 5 1 1 : : : 5 2 1 1 : 1 1 : : : : : : : : , - - # # % % ; ; : > > 5 2 5 9 e q q i j V S A A A K K U U @.%.&.&.*.s.j.j.H.L.W././.,XaXsXNXNXbXMXMXmXmXmXMXMXMXbXnXkXkXsXuXpXuXiXdXiXuXyX,X>X=X=X=XQ.Q.U.L.B.x.f.d.-.-.-.-.*.-.-.*.#.[ ^ ^ P P ^ W W W @.W ^ W @.W P L J J G H H H m n n n h h h h h h h g k k n G L P / %.*.a.j.j.g.a.a.a.g.s.z.g.j.j.j.g.z.g.g.g.j.l.k.K.k.k.k.l.g.s.p.p.p.%.Y U L K G D n G l G l G n G G P G P P @.&.z.j.k.k.k.k.(.K.R.R.!.T.!.!.",
"/././.!.!.!.!.W.T.R.K.H.j.a.*.&.@.@.U U P L K D Z k f e e 6 5 > 2 > : : : > < > : ; > : : : : , : , - - % # # # # # % , $ : 2 : 2 1 5 9 e q q i i V S Z K K K K T U Y / @.%.&.i.s.h.h.H.T.^./.<XaXiXkXNXnXMXmXmXbXbXmXmXMXmXvXcXkXdXuXuXsXiXdXkXsXuXyX,X:X=X=X=X~.^.L.P.H.x.s.-.*.-.-.-.-.*.$.#.@.^ ^ P P ^ @.W #.#.#.&.&.*.*.W [ P P J J m m n n c n h h h h h h h h h l l G P U %.%.*.*.g.s.j.g.j.h.k.k.h.k.j.j.j.j.g.j.j.j.g.l.K.R.v.v.k.k.l.g.g.i.p.%.Y U U K G Z Z Z l n n G H H G G P L @.@.&.z.g.j.l.l.k.K.K.R.R.E.E.E.!.",
"!./.!./.E.T.T.R.R.K.K.k.j.i.%.@.@.U P U L K D Z C j u q 6 5 2 2 > > $ % : > : : % : : : : , , : , , - % # # # # % % $ $ : : < 2 r 1 5 5 6 0 e q i V Z Z Z A K K T P P / @.&.#.-.s.f.h.M.L.I.~.<XaXpXiXkXnXnXnXbXnXbXmXmXmXbXnXnXcXkXdXdXiXuXiXsXdXuXyX,X>X<X:X~.~.~.U.L.H.x.d.-.*.*.*.-.*.-.*.#.@.^ ^ P P [ @.*.*.z.z.-.*.i.-.*.%.[ P J J J J n n n v n l x l h l h k l n G G P P P @.&.*.*.i.d.j.h.k.h.h.j.j.g.s.g.j.j.j.j.l.j.l.v.k.K.K.k.k.l.g.g.a.p.%.U U K G Z Z G l G G H H J m G J L P U %.i.g.g.g.g.j.l.k.K.(.R.T.T.T.!.",
"!.!.!.!.R.v.v.R.K.K.l.g.z.&.W U P L L G K K Z Z j j q q 6 2 2 1 > : : , : : - : , - - > > - - > , , ; - # - # $ $ % $ ; < 2 5 2 5 > 2 1 9 9 q q i z C Z A A G K L P H W #.#.*.-.s.d.h.x.P.L.^.].<XaXiXkXjXNXNXNXxXnXvXbXbXbXvXnXjXkXkXdXdXpXuXuXiXiXpX2X,X,X=X:X].~.W.L.P.x.d.s.-.&.*.-.i.s.$.&.@.[ P P ^ [ %.*.s.g.g.s.s.s.i.-.*.{ [ ` J J H n n n n n n v x c c x h l c n H J J P / #.&.*.*.-.s.j.d.j.z.s.*.a.z.g.h.h.h.H.k.k.k.k.k.H.(.l.g.g.g.g.z.p.Y U K L D D D c c D n J J J H H G G L / @.i.g.g.g.g.g.g.k.(.k.K.K.R.R.T.",
"!.R.R.R.l.g.l.l.K.k.j.s.p.&.@.L L K K D D D Z z j f q e 5 2 > < > : % - : - $ % - - - - - > > - , , ; - # # # # ; # $ < < 2 3 5 2 2 5 5 9 e q i j V V Z A G A K L R P [ #.*.*.-.d.h.h.x.(.L.~.].,XaXpXiXsXkXkXjXNXxXNXxXnXbXbXnXnXjXkXkXiXuXpXuXiXiXiXpXyX,X:X=X].'.W.L.L.H.k.x.s.-.s.s.s.s.*.&.@.@.^ W W W *.s.j.h.h.s.s.i.*.*.%.[ P P J J H m b m m b n n n x x x c c c D J J J P [ @.#.#.*.*.*.*.a.*.*.$.$.*.-.k.k.(.K.(.k.k.h.g.l.k.(.l.g.s.z.g.p.&.Y L K G D Z D c D n H H J J H G G P P L @.i.a.j.l.j.j.g.k.(.K.K.K.K.R.T.",
"R.R.R.R.k.g.l.g.g.g.s.p.&.%.U K K G Z l Z l S E u q e 0 5 > > > : : : % % - % ; ; ; - > > > - > , , ; ; ; ; # - % # $ $ < 2 5 3 5 2 2 6 e q i i j V C C A Z R G R K L W %.$.-.-.s.d.h.h.x.L.~.~.<X,X,X2XpXkXkXkXjXjXjXjXNXnXnXxXcXxXcXjXkXuXyXpXuXuXiXiXpXyX:X:X=X].~.E.L.P.(.h.h.d.s.s.h.s.s.*.*.&.%.@.W *.i.h.x.k.h.s.s.*.*.@.@.P J J J J M m m m J M m b v n m n n n G H H J J P ^ @.#.#.#.#.#.#.$.#.#.#.*.*.-.h.(.H.K.K.(.(.k.k.h.k.k.l.g.p.&.p.p.%.U K K Z D D D z c G D H J H G H L H P P / &.a.z.j.j.j.g.g.k.(.(.K.k.R.R.",
"R.R.R.l.k.g.g.g.g.i.p.p.W U L G D Z k z z z j u q 8 0 5 5 > > : : : - : - % - $ - ; - - > > > > : > : : , - - - # $ ; : < 2 2 5 < > 5 5 e q q j j k C Z Z Z Z D R G J W #.*.-.-.-.s.s.h.h.B.E.~./.>X,X,XyXiXdXkXkXjXjXjXjXxXnXxXjXjXxXxXkXdXuX2XyX2XpXpXyX1X<X<X=X].~.^.E.L.P.H.(.k.h.j.k.h.k.a.i.*.*.*.*.*.s.h.(.x.h.j.s.*.#.@.[ P J J J Q ~ M m m Q ~ ~ M b M M M n m n H J J ~ ~ [ [ [ [ @.{ { #.#.#.$.#.$.-.a.f.(.K.L.T.L.K.v.k.j.k.j.j.a.i.&.p.%.W U L K Z c Z D c z c n H J J J J G G G P / &.i.a.z.g.j.g.g.k.k.k.k.K.K.k.",
"k.k.k.k.k.l.g.z.i.p.&.@.L L G D l l k k j j f q e 8 0 5 r > > > : : : - ; % % - - ; ; , - > > - , , ; > ; > - , % $ % : < 2 2 < < 1 5 5 e q q w j V Z Z C Z Z Z D G P W @.%.*.*.*.-.,.d.f.(.L.~.~.=X>X<X,XyXiXkXkXjXnXcXcXxXnXnXxXjXjXxXjXkXiXpX,X1X,X,X<X,X>X:X:X].~.~.^.!.W.T.P.L.L.(.K.H.H.j.s.z.z.-.-.z.j.(.K.(.(.k.z.*.*.W ^ J J J M ~ ` M m m M ` ) ` ~ ~ J ` M M J J J ~ ~ ^ [ ^ [ [ { { { { #.{ #.#.*.*.-.s.k.K.L.E.T.K.h.j.j.j.g.a.i.&.&.&.%.W T L K D Z n D D l c D n H ^ ~ J G G J L P @.&.p.i.a.s.a.g.g.l.l.k.K.k.k.",
"g.g.l.g.g.g.i.i.p.&.U L L K D Z l k k j f u q e e 6 0 6 5 5 > > > : : , ; ; - % % - ; : > > - - , , ; ; - - - - - - ; $ : : < < > 2 2 5 8 q q j j k V V z C Z Z D G L J [ @.#.$.*.-.-.s.d.x.B.I.W.~.=X>X,XyXiXdXkXjXxXnXnXnXnXnXnXcXjXkXjXdXyX1X>X>X>X:X=X].:X<X,X<X:X:X:X/.~.^.W.^.W.E.L.R.P.H.h.j.d.g.s.h.K.L.L.L.B.h.s.s.*.[ P H H H ~ ~ ~ Q m M M ` Q ' ] ] ] ` ` ` ' ' ` ` { ` ` ` [ [ ` { { { [ { [ #.*.-.-.s.h.L.E.T.L.K.k.z.z.s.a.i.i.*.&.p.p.W U T K Z Z l Z c D D n D H ^ ^ ~ J H G L L / @.&.&.*.i.i.a.g.g.l.l.l.l.l.",
"g.g.g.p.p.p.p.%.%./ K K D D l l k j f f f u 7 e 9 9 9 5 9 > 5 > > : : % % - ; % % - : > > > > - : , , , - - - - - - ; ; ; $ : : < 1 2 5 8 q q j j j k j j k V Z D G H P ^ [ #.#.$.*.-.,.s.f.(.B.I.W.~.:X>X,XyXiXdXkXjXxXxXnXnXvXnXcXjXkXuXyX>X=X'.~.~.~.~.~.~.<X,X,XaXaXaX,X:X].].]./.^./.W.E.P.K.x.g.g.k.(.P.L.L.L.H.h.j.-.*.W J H m ~ ~ Q ~ Q ~ M Q ~ ) ]  .O...X.o.o.X.' ' [ ` [ [ ` [ ` ` ` ` { [ [ @.$.*.-.s.s.k.L.W.W.L.(.k.s.i.*.*.i.i.i.p.*.&.%.U P L G Z Z D Z Z l Z c n H J H H H H G P P W @.W &.i.i.a.g.l.l.l.l.l.g.",
"z.z.i.p.%.p.&.( Y K L K Z Z Z k j f f u 7 q 8 8 5 5 9 9 5 5 1 1 > : : - ; ; % - - - , > > > > - > : > , > - > - , : ; : % : : < < 1 2 5 6 q q j w j E f f k z l Z D G L P W [ #.$.*.-.-.s.d.c.M.B.U.U.Q.'.=X<X1XyXdXkXkXjXjXnXnXnXkXdXuX2X>X=X~.Q.^.Q.~.Q.W.~.:X<X,XaXyXyXaXaXaX,X<X].<X<X:X~.W.L.K.h.h.(.P.P.L.T.P.H.h.h.s.*.^ P m J Q ~ ~ ~ ' ' ` ) Q Q ] X.>.O.q.V.q.3.X. .' ' ` ` ~ ~ ` [ [ [ ` [ [ [ *.$.-.s.f.(.L.W.!.L.K.k.s.i.&.*.*.*.i.*.i.p.&.%.U T L G n l Z l l l c D M H D n G G G H P ^ / W @.&.i.i.a.g.g.g.g.g.z.",
"z.p.p.%.%.Y Y U L K K Z Z l C j f f f q q 7 8 6 9 6 9 9 9 > 1 > 5 > > , , ; - ; - - > > > > > > > > - > - > > > : : : , : : : > < r 2 5 5 8 q u u E E u E f z l l D G L P [ [ @.#.$.*.-.,.1.f.c.M.J.J.U.U.Q.'.>X1XuXsXkXkXjXxXxXxXkXyX>X=X~.Q.W.U.U.U.W.W.^.~.:X:X<X,XaXaXaXyXaX,X<X,X,X<X].]./.E.P.H.(.H.K.P.K.K.P.(.x.x.h.*.P H n J ` ' ` ` ' ] ' ~ Q Q ' X.O.0.[.{.S.0.6.q.>. .` ` [ ` ~ ` ~ ~ ` [ ^ @.$.*.-.d.x.P.L.W.!.E.L.h.s.a.&.&.*.*.i.i.*.i.*.&.%.W U P R R D z z l l c H n G n G G G G P ^ ^ P / %.i.i.a.g.g.l.g.g.z.",
"p.p.%.p.@.U U T K K G Z Z C z j f f u 7 7 8 6 0 6 9 9 9 9 > 9 9 9 1 > , , , - : > - - > > 9 > > > - > > - - - - , , , , , : : : > 2 2 2 6 8 8 f E E u E u f f z Z n G H J P [ @.&.$.=.*.-.,.d.f.M.M.B.J.I.U.U.Q.:X2X2XuXkXkXkXdXdXiX2X:XQ.W.U.U.U.L.J.L.W.^.~.].:X,X,XaXaX1X,X,X,X<X<X<X<X].]./.E.P.K.H.P.P.K.H.H.H.(.(.h.j.*.P H n M ' ' ' ' | | ] ) ) ) _ X.2.r.+XoXS.Z.S.S.w.o.] ` ' ` ` ~ ` ` ^ ~ [ { #.*.-.h.H.L.E.W.W.T.L.v.k.a.&.%.*.*.i.a.i.i.a.i.i.&.%.W P L R D z Z z l l l l G c n H J ~ P P ^ P / &.i.a.a.g.l.g.g.i.",
"p.&.%.( Y U T I K R R Z C k j j u u u 7 e 6 6 6 9 5 9 9 9 9 1 9 9 9 1 > > > : : > > > > > 9 > > > > > - - - - > , , : : : : : : < r 2 5 5 6 8 q u u u 8 8 f g z l n D H P P [ [ #.$.$.=.-.-.1.<.c.c.b.B.N.I.U.W.Q.:X>X2XyX3X2X2X,X2X>XQ.U.U.U.J.J.P.P.P.L.^.~.].<X<X,X,X1X<X<X/.].].:X]./.].<X~.E.K.P.H.H.(.H.(.(.(.H.x.h.s.=.P J G M ' ]  . .o.o. . .] ' | 6.q.).;X8X%X@X+X.X[.7. .]  .' ' ~ ` ` ~ [ [ @.#.#.,.h.P.I.W.W.~.W.L.(.k.s.*.&.$.*.*.i.s.i.z.z.s.a.i.%.W W K G D l l l k h l l c G n J J P ^ P P / ( p.i.g.l.l.l.g.z.",
"p.%.( ( Y T I K D D Z Z z j f u q 7 q 7 6 6 5 5 5 9 6 9 9 9 9 9 9 9 9 9 5 1 > : > > > > > 9 9 9 > - - - > - - > : > > , : > : < r 2 5 3 5 6 8 q u 8 u E 8 f f l l c G G H J ^ [ [ [ #.$.=.-.,.1.<.c.b.b.B.N.J.U.Q.'.'.:X:X=X'.=X'.=XQ.W.U.J.P.P.P.H.J.H.L.W.W.Q.~./.:X:X<X~././.^.!.!.W.!.!././.W.L.R.P.K.P.H.(.x.h.h.h.s.s.*.P J m M ` ' | o.o.o.o.+.| | o.q.).oX%X&X7X8X%X#X{.w.o.o.| } ` ` ~ ~ ~ [ [ [ { *.s.d.P.L.E.W.~.!.E.J.v.h.s.&.%.&.*.*.*.*.s.z.a.s.z.i.%.W L R D Z l l k k l l l l G G P J J J L P ( p.i.g.l.l.l.l.z.",
"p.Y Y Y U I K K R Z Z C z k j q q q e 8 8 6 5 5 5 9 5 9 9 e w w e e 9 9 9 9 1 1 > > 9 > > > 9 > > > - - - - , , , > : : > : : < r 2 3 5 3 6 6 q 8 q 7 q 7 f g z l Z n G H J ^ [ { #.#.$.$.-.;.,.1.<.c.c.n.b.N.I.U.U.U.Q.Q.Q.W.U.Q.Q.U.U.J.B.H.M.M.H.H.M.H.T.W.W.!.!.^.~.W.W.E.T.T.L.T.E.E.W.!.W.T.L.W.E.K.H.(.H.h.h.h.g.s.s.*.[ J m M ` ] | O.O.3.3.o...o.3.).+X#X%X8X9XwX9X9X%X).7.o.X.] ' ` ~ ~ [ [ [ ~ #.*.,.f.h.J.E.W.~.W.T.L.(.h.g.a.&.*.*.*.*.*.z.a.i.z.s.i.p.%.P P D l l l l g k l l D c n J J J H K P / p.p.g.l.l.l.l.l.",
"i.p.Y U Y T I I F Z C z j j i u q 7 6 6 6 5 5 1 5 5 9 9 e w i i w w e 9 e e 9 1 9 > > > 9 9 9 > > > > > , - > , , , : > 1 1 < > 2 2 5 4 6 6 7 8 7 q 7 7 8 f g z l n n G H J J ^ [ { { $.$.=.;.:.1.<.<.n.b.n.b.b.N.N.I.I.I.I.J.J.J.J.J.J.M.v.x.h.h.M.x.x.H.L.L.T.U.W.T.L.K.K.P.K.H.H.P.L.L.E.T.T.L.K.T.W.L.P.B.H.x.h.h.h.s.-.*.#.P m m ~ ] X.O.3.7.7.o.O.O.8.[.#X&X8X0XrXrXrXgXfX8X).7.o.| ] ` ` ` ~ ~ [ ` [ $.,.h.x.P.L.U.E.I.R.P.x.h.d.s.-.*.*.*.i.-.i.*.a.i.s.i.*.%.U H R D l c l k l k l l c c G G G D H L / ( p.z.l.l.k.l.g.",
"g.p.p.p.p.Y U I K Z C j j i u q q 7 0 6 5 5 5 5 5 9 9 w w w V V V w w w 9 9 9 9 > > > 9 9 9 9 9 > > > > - > ; , > , : : : > : < r 2 6 4 6 4 8 7 7 8 q t 7 g g l c n m G J J J ^ [ { { $.=.=.;.<.4.n.n.n.n.n.b.n.b.b.M.b.b.b.b.b.x.x.c.f.d.d.d.d.d.d.j.j.x.P.L.L.L.P.x.k.d.h.k.j.j.h.v.H.P.L.L.L.K.P.L.W.L.L.P.P.k.h.h.d.s.-.$.@.^ J H Q ' X.o.7.w.7.2.O.2.w.[.}.%X0XrXfXgXgXgXgXfX@X).r.o.] ) ~ ` ` ` ~ ~ [ $.,.f.x.H.P.L.L.L.B.x.h.h.j.s.s.*.*.*.i.*.*.*.-.i.i.&.&.W ^ H D D n n c c h l l l l l D c G c D K T ( p.z.(.K.l.l.g.",
"g.z.z.p.p.Y Y U K Z C j i i i q q e 6 0 6 5 5 5 5 9 9 e V V S V V V w w 9 9 9 1 > > 9 > 9 > 9 9 9 9 > > 9 9 > > , : : : 1 1 < > r 2 3 7 7 7 7 7 8 7 u t p g z l n n m G m J J P [ { } $.;.:.<.4.n.m.G.C.C.n.n.b.n.b.c.c.c.c.f.f.1.1.1.s.,.-.,.-.,.,.,.s.d.d.j.H.x.k.j.h.z.z.s.s.z.s.j.k.v.K.L.R.L.L.E.W.E.L.K.B.(.h.h.d.-.*.#.[ ^ J M M ] o.o.7.S.8.O.2.e.S.[._. X8XeXfXfXgXgXgXfX0X+XA.3.| ' ` ` ` ) ~ ~ [ $.,.f.x.B.P.J.J.P.h.h.h.h.f.s.s.s.*.*.*.*.*.*.i.i.*.&.&.W P H R n n H n n l k l k l k c c c D D H L ( p.g.(.(.l.l.l.",
"l.g.g.p.p.( ( U K A V j j i q w q q e e 5 5 1 5 9 9 9 w V A A V V V w w 9 9 9 > > > 9 9 9 > 9 9 9 9 w 9 w 9 9 > > - - > > > > > < 2 2 7 7 7 7 7 7 7 t u g f l c c n n H H H J J [ { { =.:.:.9.n.m.F.XX[.G.n.9.b.b.0.<.<.<.<.,.,.,.,.,.,.-.-.*.$.*.$.*.-.*.#.$.z.s.h.s.g.i.*.*.*.*.i.-.i.h.x.H.P.L.L.W.W.W.L.P.v.v.x.j.d.s.$.#.{ ^ ~ ~ Q | 2.2.w.).8.2.2.r.t.A.w.[.@X9XeXeXrXgXfXeX9X Xr.2.+.| ' ] ' ` ~ J ` } ,.f.M.x.M.M.M.M.h.h.f.f.h.s.,.,.-.*.*.*.*.=.*.*.*.$.&./ P H G n n J m m l l l l l l l c D D D G U ( p.l.(.R.R.k.l.",
"l.l.z.p.p.p.( T K Z C V i j i w w q e 0 9 9 5 1 > 9 9 V V A A A V V V w 9 9 9 > > > 9 > 9 9 > 9 9 w w w w 9 > > > > > - > > > > r < 2 6 6 4 7 7 t u t u f h h l l n n H m H J J ^ [ { $.;.<.9.m.C.F.XXOXF.V.n.0.9.n.<.:.,.<.:.=.;.;.=.$.$.$.$.$.#.#.#.[ #.@.#.*.*.*.-.i.*.*.*.%.W [ W %.i.j.h.k.v.L.E.W.W.L.v.v.x.c.d.s.s.$.#./ ^ ~ ~ Q Q X.2.7.).w.2.8.r.).t.w.t.}.&X&X9XeXfXrXeX8XoXr.2.X.X.| ] ] ` ` ` ` #.-.s.f.M.M.x.h.M.h.s.h.s.f.f.,.z.-.=.@.#.*.&.*.%.*.#.W [ P L G D n H J H n l l z l l c c z l c R P %.g.k.K.R.R.R.(.",
"l.l.z.z.p.Y Y I K A Z V V j w q q q 9 5 5 5 9 9 9 9 w w V A A A A V w w 9 9 9 9 > 9 9 9 > > 9 > 9 w w w w 9 > > > > > > > > > > r < r 2 3 6 8 7 u t E g f k h l c c G n m H J J ~ { }  .:.<.0.Z.Z.F.XXOX[.D.m.m.n.0.9.,.:.:.:.;.;.=.=.$.{ $.$.#.[ [ W [ @.W @.[ W W %.@.%.W P ^ P L L P @.-.z.s.j.v.L.L.L.v.v.c.s.s.s.s.-.-.#.#.{ ^ ~ ~ Q ..2.3.r.t.2.e.w.y.w.w.r.|.oX+X+X&XeXeX0X&X{.e.+...| ....] ' ) ` ~ ` { $.f.f.f.x.h.h.f.f.f.s.h.g.s.,.*.@.@.$.%.@.@.%.@.W W [ P L H H D n m H n n l l l l l l l Z D K W z.g.l.(.R.R.k.k.",
"l.l.z.p.p.p.Y U I A Z V V i w w w 0 9 5 9 5 9 1 9 9 9 w V V A V V w w 9 9 9 9 9 9 > 9 > 9 9 9 9 9 9 w w w w 9 9 9 > 9 > > > > > 5 5 2 8 6 7 t u u f j f f h k l c G n H H H H J ` } ;. .X.:.9.V.G.G.XX{.XX_.S.D.V.m.0.4.:.,.:. .} } } { [ [ @.[ ~ ^ ^ ~ P ~ P P P ^ P ^ P P P K G H H H P @.%.-.-.j.v.v.v.c.s.-.-.-.,.d.d.-.=.=.#.^ ~ ~ ~ ]  .2.3.w.3.w.t.y.e.w.r.r.|.{.|.+X%X&X8X%X|.w.2.+.........] ' ) ` ~ ` } ,.,.d.f.f.f.f.f.h.f.f.f.d.s.*.$.@.@.[ @.@.@.[ [ [ / P P H H n G n m m n l l h l l l z l l K %.a.g.l.l.(.K.(.l.",
"l.l.z.z.p.p.p.Y U F A V j i i w 0 0 9 5 1 1 9 9 > 9 9 w w V V V w w 9 9 9 9 9 9 9 9 9 9 9 > 9 9 9 9 9 w w 9 9 9 9 9 9 9 > > 9 9 q 8 8 8 7 7 u E f z l z f h h n n G n H m m J ~ } O.:.;.;.>.9.m.Z.C.Z.[.[.F.F.F.F.D.Z.0.>.;.;.;.} { } { [ ` W ~ P J J J P J P J J H J H L P P G H G R H P W [ #.$.a.d.c.d.s.-.-.-.,.,.d.s.,.$.-.;.=.#.^ ' ' ] X.2.8.8.t.).t.w.t.r.r.t.y.t.|.}.$X%X XS.8.2...| | ....| ] ' ) ~ ~ { =.;.,.,.f.f.f.f.d.h.f.f.d.s.*.=.*.$.@.@.@.@.@.[ [ [ P J J H D G n H J m c l l z l h l l l G %.i.g.g.g.l.(.(.l.",
"l.g.g.l.p.p.T I I A S S V j i w w 0 0 9 9 9 9 9 9 > 9 9 w w w w w 9 9 9 9 > 9 > 9 9 9 9 9 9 9 9 w 9 9 9 w 9 w 9 > 9 9 1 > > > 9 8 8 u u f f f g g z z z z l l l D n G m J J ~ ` :.<.9.>.3.9.q.Z.r.q.m._.{.XX_.`.F.S.A.D.6.:.:.X.} { { ` [ ~ ~ J J J H J H J G G G m G G G D n D D c H H P P W @./ -.-.s.-.-.#.-.-.-.,.s.,.,.-.,.,.$.=.{ }  . .X.2.3.w.).).3.w.r.e.7.e.w.8.e.t. X#X}.t.8.7.+.| | | ....] ' ) Q ~ [ $.=.,.1.,.1.d.s.d.<.h.s.f.,.,.*.*.*.=.$.$.$.[ ^ [ P ^ J L H H n H n J M l h z h z z z z Z K @.g.l.l.l.l.K.(.l.",
"l.g.z.z.p.( T F A A A V V i w w w q w 0 9 9 9 9 9 9 9 w w w i w 9 9 9 > > 9 > > 9 9 9 9 9 > 9 9 w 9 9 9 9 9 9 9 9 9 9 > > > > 9 8 8 8 u E f f g j g z l k l c c n H n J J J Q ' >.3.m.F.A.G.F.F.V.m.D._.XX{..X.X{.XX.XS.q.4.>.X.] ' ' ` J J J m H m H G m G G G D G G D n n D n c n H H J P P [ #.$.$.$.#.#.$.$.-.-.-.,.,.,.,.,.,.,.=.=. .=. .o.o.3.7.).t.8.8.r.8.7.7.6.6.5.t. X#X$X|.t.7.2.+.+...] ] ] _ ) ) ) ` } $.,.,.,.,.,.<.s.d.d.s.<.<.,.-.,.=.*.$.*.$.[ [ ^ P J J J H H G n H M H l z a f h z z l l G / z.g.l.l.l.l.l.l.",
"g.l.g.z.p.Y K S A A V V i i w w q 0 w e 9 9 9 9 9 9 9 9 w w w e 9 9 > > > > > > 9 9 9 9 9 9 w w 9 9 9 9 > 9 > > > 9 > > > > > > 8 7 u t u f f g g z l l l l c G D H H J J J ~ ` X.6.F.oXOXoX.X{.[.S.S._.[.{.OX#XOX#X@X#XS.q.3.:. .} { J M J M n n n G m m G G G G n n n n D n Z l l D H H J P [ ^ / -.$.{ #.{ #.#.$.=.,.,.d.4.d.c.1.X.;.X.;.o.:.3.3.8.).8.8.w.r.8.6.5.5.7.5.e.t. X$X$Xt.5.+.O.+...| | ] ] ` ) ~ ` { =.$.-.=.;.,.,.<.,.,.,.,.s.s.1.s.,.-.*.=.*.[ [ P [ J P P J H J H n m n l z f f z g g z l D T p.p.z.z.g.g.g.l.",
"z.z.p.p.Y Y A V V V k V w w w 0 e q w 9 e e e 9 9 e 9 9 9 9 9 1 > > > > > > > > 9 9 9 9 9 w w 9 9 9 9 > 1 1 1 > 9 > 1 1 1 > 5 5 8 p f u u f E g z l l l l c G G H K J P J J ~ ~ $.6.w.[.#X@X7X&X#X[.oX.X[.[.OX+X+X#X7XwX#Xr.>.X. .] ` Q Q Q G c h n G G n G G G H D D n n c n c l n D H H J P [ ^ #.{ { #.} { #.{ #.=.-.,.<.c.d.f.1.1.1.:.;.:.:.2.3.7.y.w.e.w.w.8.5.5.5.8.8.e.e.u. X$Xt.5.+.5.+...| | | _ _ _ ) ` ] } } $.=.=.-.-.,.,.,.=.,.1.s.s.d.d.,.,.-.@.[ [ [ ~ P P J J J J H H c l l g g f f f g l l D K T %.p.a.a.g.g.i.",
"p.p.p.p.Y F C V V j j i i w q 0 w e e e 9 9 9 9 9 9 1 9 9 > > > > > > - > > > > > 9 9 9 9 w w 9 9 9 9 9 9 9 9 9 9 > 1 1 1 > 5 6 7 f f p f f f g z z l l D c G H J ^ [ P ~ J ~ ) ' O.4.Z.#X7XtXwX8X7X@X#X#X#XoXOX@X@X8XwX[.0.:...] } ` Q Q m c v n n G G G m G n n D c c l l l l l l n H H J J [ { ^ } #.{ } } $.} } $.=.1.d.1.4.<.4.4.1.1.:.>.>.3.3.8.r.7.8.8.7.8.8.8.8.e.e.e.e.t.u. Xt.e.5.5.+...| _ | | | _ ) ` ` { } $.=.=.=.=.;.;.-.=.,.,.1.<.f.c.d.s.=.$.[ { ~ { ~ ~ J ^ J J m m c h z a g g g k h l l l G L / &.i.a.i.z.i.",
"p.( Y Y T F C w i w w w w w w w e w 9 9 9 9 9 9 9 1 5 1 9 > > > - > - > > , , > > > 9 9 9 w 9 9 9 9 9 q w 9 9 9 9 > > > 1 2 3 6 7 p t f g f f z z h l G G H L L P P P P P ^ J ~ '  .>.r.OXtXfXfXhXeX8X5X5X7X7X@X@X#X@XF.3.o.X.X.] } ) M N v v l c c n G G n G n n D c D c l c l l c n n H J ^ [ { { { } } } } } } $.=.;.1.c.4.c.c.c.4.4.4.>.:.3.3.3.0.7.7.7.3.7.5.8.5.e.e.t.t.t.u.u.u.t.5.5.e.e.+...| _ | _ ] ) ` ' ' } $.$. .=.=.=.=.=.=.,.,.,.<.s.d.d.,.=.$.} { { [ [ ~ [ J J M M n l z a f f k g g k l l l G L U ( %.p.p.p.p.",
"Y I I A F A i i e q e e e w q w e e 9 9 9 9 9 9 > 9 9 9 > > > : > - - - , , , , - > > > 9 9 9 9 9 9 e w w w q 9 9 9 1 > 2 2 2 6 7 f 7 f g g E z l Z D G L P ^ ^ [ [ P [ [ ~ ~ J ~ } O.V..X8XgXlXlXtX7X5X7X7X#X.X[.[.A.7.>.o.o.X. .| ] M v c B v n c l l n n n R D H H D n G D l c c n D n J J { { { #.#.$. .} } } =.=.1.d.c.c.c.n.n.n.b.c.4.4.4.3.3.3.4.3.3.3.2.5.5.e.e.e.t.y.y.u.y.t.e.e.5.e.e.t.5.+.| _ | ] ] _ ' { }  .} } =.$.;.=.=.=.=.=.;.,.<.,.1.,.-.$.} { [ [ ~ [ J J m c n n h a g g g f k l l l Z c D D L U / ( %.( ( ",
"T I R D C V i 0 9 0 9 0 9 e e e 9 9 0 9 9 9 1 1 9 5 9 9 1 1 > , - > - > - - > - - > > > > 9 9 9 9 w w w w w q 0 0 9 9 2 5 2 5 6 7 f p p g a g z Z D D G P P W ^ [ W [ P J [ ~ ~ ~ ' ..w.{.5XgXlXlX0X@X#XoXoX_.A.Z.A.Z.7.3.>.>.o. .] ) M v c B h x x n n n n G G H H G G H c n l c l n n n J J { { { } } $. .=. .=.;.:.1.<.c.c.n.B.n.B.N.N.n.4.4.4.4.3.3.3.3.2.5.+.5.e.e.e.t.u.u.u.t.e.y.e.e.t.e.t.e.5.+.| _ | _ ' ' ' }  .{ ] {  .$. .$.=.$.=.=.;.,.,.,.;.,.=.=.#.{ { [ [ J J n v h x h h a g g h f k l l l l Z D D K L L T T / ",
"F F Z C i i u 1 1 2 9 5 5 9 9 9 9 9 6 9 1 1 1 1 1 9 > > 1 > > , > - > > > - , - - - - > > > > 9 9 w w 9 e 0 q 0 0 9 5 5 5 5 5 6 7 p f f f z g z n K K J P P ^ W [ [ ^ [ ~ ~ [ ` ` '  .>.A.8XgXgXlXrX8X#X[.S.r.r.A.[.S.q.6.7.6.2.X.| _ Q M B h h c c n c n G G G H H H H n Z l n c n n D H H ~ { { } =. . .;.X.X.;.;.;.4.4.4.4.c.n.N.C.C.J.C.m.n.n.0.3.3.3.2.2.2.5.5.e.e.t.y.u.u.u.y.t.y.u.u.u.u.u.y.5.+.+.| | _ _ _ ' ' ' ` ` { ]  .$.;.$. .$. .$.;.;.=.-.=.-.=.$.} [ { ~ J m c x h h x g g g g f h h h h l l l Z l Z D R R D K ",
"k C i k i q 9 1 > > 5 5 > > 2 2 > 1 1 5 2 1 1 1 5 > > > > 1 > , - - - - - - - - - > > > > > 9 9 9 9 9 w 0 w q e e e 9 5 6 6 6 6 7 7 7 f g g g z R K L P P P ^ @.W @.[ [ [ ~ ~ ` ` ' } >.0.+XgXlXgXgX0X#X{._.Z.S.[.}.{.A.r.w.q.q.6.X.) Q b B B l c n n G G G G J K H G G n n n n n n c n n J ~ [ { $.=.X.;.;.;.:.3.1.:.4.4.4.4.n.n.m.m.C.C.C.V.n.0.4.4.3.3.2.2.2.5.5.5.e.t.u.u.u.u.u.u.u.u.u.u.u.u.u.t.5.+.+...| _ ] _ ] ` ` ` ] ] { $. .;. . .$.}  .$.=.=.=.=.=.} { { ~ J J m v n b v m x s a a p g f k k l l l l l k l Z D C z ",
"k i u i 0 0 5 < > : > > > > : : : > < 1 1 1 1 1 5 > 9 9 > > > , - > - - - - - - - > > > > > > > 9 9 9 9 w q w w w q 0 6 9 9 6 6 8 7 7 f g g a Z G K P P P P @.@.[ #.#.[ { [ { ` ' } ' X.6.[.fXlXgXfX8X+X{.[.[._.[.}.}.[.S.A.S.S.Z.2.] ) b l B h c n G G G H P H H H H H H D n n n n n n n J ~ { } =.=.=.X.;.;.:.:.:.:.4.4.9.9.9.n.m.m.C.C.D.C.n.9.4.3.3.3.2.2.2.5.5.e.e.y.u. Xu. X$X$X$X$X$X X X X|.y.e.5.+.+...] ] ] ] _ ] ] ] ]  . . . . . . .} } } } } =.} } { } ~ ~ M M m M M Q M Q m x h h g p g g f g k g k k k k k z j k ",
"j u i q 0 5 5 1 : : : : : : : : : < r 2 > > < 2 > 9 > 9 > > > : , - - # # # - - , : : : > > > > > 9 9 w q w q q w w e q e e 8 q 8 u t p g z g l R L P U P ^ W @.%.{ #.[ { [ { ' } ' }  .>.F.rXfXgXgX7X+X}.}.{.[.S.[.[.}..X+X{.S.S.7.o.] ) v x h x c G H G J J J J L J J H D n n n G n n n J [ [ } ;.;.;.;.;.,.>.<.>.4.4.9.9.q.n.n.V.C.C._.C.C.0.0.4.3.3.2.2.5.5.2.5.5.y.y.y.y. X$X$X$X$X$X$Xu.u.|.|.u.t.5.5.5.+.+..._ .._ _ ..| ..X.X.X.X.X. . .]  .] } } } } } { { ` ~ ) ` ' | | | | { ) M v x g p g g g f g g f f f j f f i j ",
"u q q 6 9 5 2 > > : : ; : ; : ; : < 2 : > 2 r 1 1 > > > > > : , , - # # # # # % , : : : : > > > 9 > 9 9 w w w w q w w w q q q u q q u f g h z Z G H P P P W [ @.$.*.#.{ { [ { { ' { ' ' O.w.@XfXfXfXeX%X+X}..X[.[.A.[.+X#X7X+XS.t.q.7.o.] Q v h c c n H H H P L J P P J H H n H m m G J G m ~ [ } =.;.;.;.;.;.<.>.<.4.4.0.q.m.V.n.).C.B.N.C.V.n.9.7.3.3.6.5.2.5.5.5.5.y.y.y.y. X$X$X*X$X$Xu.$Xu.|.u.u.y.t.5.5.+.+.+.+.+.+...| ..X.O.O.O.O.:.o.X. .] } ' ' { { { { ' ` ' | X.X.O.3.6.o...] ) m x s s s p g p f p f f f f q f f q ",
"q u q 5 2 5 2 < : : $ : : ; - : : < < : > r < > > > 5 > > : : ; - % O @ # # % - : : > > > > > > 1 1 9 q w q q w w q q q q q q w q t u f a l z l R P L P P ^ [ @.#.$.*.#.$.*.{ { } ' '  .X.0.S.#XeXrXeX@X+X.X{.{.[.S.[.}.+X8X@X[.w.8.7.6.X._ v x x c n G H H P J P P P J J n J n H H H H J H J ~ } ;.;.;.;.:.;.<.4.<.9.q.V.V.V.Z.m.N.C.).N._.V.0.0.9.7.7.7.5.5.7.8.5.e.e.y.u.$X$X$X$X&X$X$Xu.$Xu.y.y.y.u.y.e.5.5.+.+.+.+.+.+...+.O.6.6.7.6.6.2.O.X.X.] ] ' ' ` ' ' ' ] O.O.>.6.w.r.0.O.X.] ` M b v h h s p g f f 7 p 7 7 t 7 q q ",
"q q 6 2 < 1 2 : : $ ; ; % - $ : $ : 2 r : 2 > 2 > > > : : : : ; - # + + # # # , , > : : > > > 2 1 9 9 q w q w w q q q q i q i u q u t f h h g l G K L P U P [ #.*.*.*.=.-.=.{ { } }  . .O.7.7.A.oX7X8X%X#X#XoX.X|.S.S.[.oX8X7X#XF.w.q.7.6.] M x c x n n G J J P P ^ [ W P J H J m H J J J J ^ [ } =.;.:.1.;.<.<.4.9.m.V.Z.V.Z.Z.).N._.N.C.V.V.m.q.q.8.8.8.e.e.e.e.e.e.e.y. X$X Xu.$X$X*X$Xu.u.u.t.t.t.u.u.u.t.e.5.+.+.+.O.O.O.+.6.8.e.r.w.q.6.6.2.X.| ] ] ] ] ' ` ' X.7.6.q.w.S.Z.7.:...| | ] ) b v B g g p d y 7 7 8 7 8 6 q 7 ",
"8 6 5 2 > < < > : ; : ; - % - : : : 2 < : > < > < : : : : : - - # O X @ # # # % : : > : > 1 2 > 9 9 q q q q q q q q q u i j q q u u f h x c h z D G L P P P W *.*.-.-.s.,.=.$.{ ' } ..:.6.6.6.q.w.[.@X7X7X8X%X#X}.[.).[. X&X8X8X+XF.A.w.7.X.b c c n n n G m P ^ ^ ^ [ ^ J J J H J P ^ P ^ ^ [ { $.;.;.1.:.<.<.4.9.V.G.G.Z.D.Z.D.).C.).V.V.C.V.q.q.w.r.w.e.r.e.y.e.e.e.e.y.$X$Xy. Xu.$X$X$Xu. Xu.y.e.t.u.u.u.u.t.8.5.5.5.5.5.O.2.6.t.S.A.r.r.8.8.2.2.2.O.O.| ..| ] | +.q.r.S.S.S.r.6.O.X...O.:.] N v v s p p p 7 3 6 3 6 6 5 7 6 ",
"3 6 2 2 2 : = : : : $ , - : - $ : $ : & < 2 2 > 2 : : : : : , % O # X # # # # # : > > : > > 5 5 5 e q q q i f q q q 8 q u i u f t u f v n x n g l G G P ^ W #.*.,.-.s.d.d.-.$.{ } } X.X.3.7.9.7.7.A.}.+X+X%X&X@X+X[.[.}.@X8X0X8X+X{.S.w.X.M v v n x n n G H J P ^ [ W #.[ P J P J ^ [ [ [ #.@.{ $.;.>.4.9.9.9.0.V.F.[._.Z.Z.Z.Z.m.C.n.m.V.q.0.).w.e.r.y.y.y.r.e.t.t.e.y.y.$X Xy.u.u.$X$X$X X X|.t.t.e.e.u.u.u.u.e.e.e.8.8.8.5.5.r.|.|.|.r.q.8.w.7.2.8.8.w.8.2.O.3.q.A.S.[.[.[.[.S.w.6.2.9.6.O.] N x s p a p d 7 4 4 3 3 3 3 3 6 ",
"3 2 2 2 2 2 $ $ $ $ : % % : $ : : 2 2 < 2 2 2 2 2 > : : : : : - # # @ # # # # # : : : > 1 2 5 8 0 e q q q i q q 7 q 8 q q u q u u u f x n c n n h c G L ^ [ W -.s.d.h.x.h.d.-.$.{ ] ] X.o.3.7.w.6.O.7.r.S.}.#X+X+X.X}.oX5X8X8X7X.X}.F.6.` N b v x c n n n H J J ^ [ W #.@.^ [ [ ^ [ @.{ #.#.{ #.=.;.:.9.q.m.m.C.G.[.XX[.G.Z.Z.Z.V.).V.w.y.V.q.V.V.w.q.t.y.y.y.w.e.t.y.y.$X&X$Xy.u.$X X$X&X&X$X$Xu.t.t.e.t.t.u.t.t.t.y.).y.e.8.8.t.+X X}.|.t.t.t.8.7.8.8.w.t.t._.}.+X}.S.t.S.r.w.Z.S.w.0.7.3.2.] b s s d d d d d y 7 4 4 5 3 2 5 ",
"3 5 5 3 2 $ 2 : : $ : % % - % $ $ < 3 3 2 2 2 3 3 2 $ : $ : % - % # # # - # % % ; : > 1 2 5 5 8 0 0 q q u i q u u 7 q f q u q j u u g n n n v n n c G J ^ P @.-.s.h.M.H.x.f.,.$.} } } X.X.X.3.6.O.| | >.r.S.}.+XoX+X#X}.oX@X@X#X{.[.A.3._ Q n v n n n n H J J P [ W #.$.#.[ [ &.*.$.#.#.#.#.$.$.=.;.<.9.n.q.C.A.F._.{..XF.A.G.A._.V.).w.V.w.0.).V.q.w.w.t.t.y.w.e.y.y. X$X*X$Xy.u.$X X$X*X*X0X9X&X Xy.e.e.t.t.u.y.|.|.|.}.}.y.t.$X&X&X&X@X+X|.|.t.w.e.r.u.[.+X@X+X[.[.t.q.r.8.6.7.w.r.S.w.7.>.] v a a a p p d p y y 4 7 4 4 3 3 ",
"3 3 3 2 2 2 = < $ $ : $ $ % ; : : 2 2 2 3 3 3 2 2 < : : : , - % - # # - # - # % : : > r 2 5 6 8 8 q q u u u u u u u q u u q f f u f f n n n n n n n m J P [ *.-.s.x.P.L.H.x.,.$.{ { ] | } ] ]  .| ' ' ..6.A.oXoX{.{.}.[.+X&X7X7X#XF.w.7.X.Q v n n n n m J P ^ [ [ #.$.$.$.#.#.$.-.$.$.#.#.$.$.=.;.,.<.4.9.b.V.F.F.`.{..XS.F.[.[._.).).y.A.r.r.r.V.w.w.r.t.).t.y.y.y.y.u.$X&X&X X X$X$X*X0XeXrXrX0X*X$X|.t.t.u. X$X$X$X$X$X%X X X&X0XeXeX&X$X$X X{.t.t.t.|.}.}.{.[.r.A.r.8.8.5.6.2.7.0.r.r.6.| ) v s a d a d a d d y y 7 d y y 6 ",
"3 8 3 2 2 2 2 2 < 2 $ $ $ % $ $ $ $ & 2 2 2 & < 2 : $ : : : : : - # % # - % - - : > < r 5 5 8 8 q q u u E u f u f t u u f u f f f f f v n n n n m H m J ^ [ *.-.s.(.L.L.J.M.s.$.#.' { ' ' ' ) ` ) ) ) _ O.S.{.oX[.S.S.S.+X;X%X7X7X+XF.r.6.) M v m n m J J ^ [ [ &.$.=.&.*.-.$.*.-.-.-.$.$.=.*.-.,.,.:.<.4.q.Z.F.[.[..XOXXX}..X.X_.`.).).A.).Z.V.V.w.w.r.w.y.y.).y.y.u.u.$X&X*X&X$X*X*X*X0XeXrXrXeX0X0X*X$X|. X&X&X&X&X&X*X0X9X*XeXgXgXeX9X%X#X%X&XoX|.}.$X X}.{.A.e.t.r.r.w.6.2.2.2.2.q.2.] _ ) b s d d d a d d p p d p a p p 4 ",
"8 3 3 3 3 3 2 2 2 2 = $ : $ $ $ $ : 2 3 2 2 2 2 $ : : : ; : : : : - - % - % , , : r r r 5 6 7 7 u u u f f f f f u u q u u f j j f f g l n n n m m J Q P J @.*.*.d.H.L.W.L.x.d.-.#.#.` ` ~ J Q M Q ) ' | 2.[.}.).S.Z.r.r.S.)._..X[.[.F.r.>.~ M n n H J J ~ ^ [ $.*.-.-.-.,.,.,.,.,.,.-.$.$.$.=.=.,.1.<.4.b.m.Z.XXXXXX@X7X%X5X&X8X8X&XoX_.).).).w.V.m.w.w.w.y.|.|.y.y. X X$X*X0X0X*X*X*X*X*X0X0X*X0X0X0X0X0X0X9X0X0X0XeX0XeXfXrXrXgXlXfXeX&X&X&X*X9X*X&X&X#X+XoX{.).w.e.w.e.w.7.O.O.2.2.O...! M N B s d a a a a a p a a p s s a 4 ",
"y t 7 y t 4 3 3 3 3 3 2 & $ $ : 2 2 3 4 3 r $ < : $ % $ : - : : : : : : : : $ : : > 2 5 6 6 q f u f j j f f f f u t p u f j f j g f z h n n n m J J P J P [ #.*.f.H.L.L.P.f.d.-.$.[ [ ~ Q M M Q ' ' | ..6.[.S.S.q.7.7.q.r.q.6.7.6.7.6.>.X.) M n m J J ^ ^ [ @.*.-.,.s.s.f.d.d.d.d.s.,.,.-.=.*.;.,.1.4.b.n.Z.F..X@X8XrX0X8X8XeXeX0X9X8X#X.X.X).w.w.w.m.w.w.y.|.$X$X$X$X$X&X0X0X*X*X*X$X$X*X*X*X*X*X*X0X0XeXeXeXfXtXtXrXfXfXfXgXrXfXrXeX0X9X*X%X@X@X+X}.}.$X}.$X&X&X#XS.r.r.r.w.5.O.O.O.| ' M v v B s a d a d s s a a a s h a a 7 ",
"7 y t t d t 4 3 3 3 3 2 2 $ 2 & 3 4 7 7 7 3 2 2 2 $ : : : : : : : : : : : $ : : > 2 2 5 6 7 u f f f g j f j f f f q f f j f j k z z g h v n m H ~ ~ J ` P [ [ *.s.h.(.P.x.f.s.-.-.$.[ [ ~ M M M ' ] | | :.2.2.7.2.O.O.3.0.7.O.O...X.] ] ` ) M H m M J ^ [ [ *.=.-.,.s.f.x.x.x.h.b.d.1.,.,.,.;.-.;.<.4.n.D.F.OX7X8XrXfXeX9XtXrXeXtXeX0X8X&X%X{.y.w.m.w.w.w.r.).$X&X$X$X&X&X*X$X$X Xu.u.$X$X*X$X*X$X&X*X0XfXrXgXlXgXfXgXgXgXlXlXfXgXfXrXeXeXeX0X9X&X#X XoX#X#X&X9XeX9X7X.X.X_.r.e.7.O...) ! ! B B B s d s d a s s a a a v h a p 7 ",
"d 7 t p d t t 4 6 4 3 3 3 3 3 3 4 p p s p 4 2 : : : $ : : : < : : : : : : : : : r 5 5 6 7 q f f j z z z j f g f f f f f f j z h h l x n J J J Q ~ P ^ ~ ^ [ #.$.s.f.d.f.s.,.s.,.*.$.#.[ ^ J m M M Q ) ) ) ) ] | | ) ) ' O.X.O.] ) ` ` ) ) ~ M m H J J ~ [ [ $.*.,.s.f.f.x.M.x.x.x.x.f.f.d.1.,.,.1.<.b.D.F.XX#X5X8XrXgXfXeXeXrXrXfXfX0X8X%X%X%X).r.w.w.r.w.t.). X$X*X&X*X*X$Xy.y.u.u.u.u.$Xu.$Xu.$X$X&X0XlXlXlXlXlXzXlXlXzXzXlXgXlXfXeXgXgXeXeX0X8X*X%X%X&X8X9XeXrXrX0X8X%XoXS.r.8.O.| ) N N B B s s a a a a s s a v v b v s a d ",
"t t d d p t t 3 4 4 4 3 3 3 3 3 7 p p g p 4 2 2 > > 2 1 > : : < 2 2 1 < 2 : : < 2 6 8 7 q u f j z k k g j f g l h g h h f h k h l h c J Q J Q P P P ^ [ [ [ [ $.-.,.s.-.-.s.s.-.*.$.#.[ ^ J J m m v N M N ! M M N b b b N '  .` ) ~ ~ Q M M m m H ~ ^ ^ [ #.$.-.,.d.c.h.M.M.B.x.P.J.M.M.x.b.s.,.4.9.m._..XOX#X;X8XrXgXrXrXeXrXfXfXfXeX8X%X}.oX).).t.V.w.V.t.). X$X&X*X*X$Xu.y.y.e.e.e.e.e.u.u.u.u.u. X*XrXgXlXzXlXzXzXvXzXzXgXgXgXrXfXlXgXrXeX*X*X0XeXeXeXeXeXfXrXrXtX0X8X#X[.).r.2..._ ! N B B s s s s a a a a B M M N b s p a ",
"d p f a d 7 4 4 4 7 7 3 3 3 3 4 4 y 7 y 2 < < < 2 2 > 2 < > 2 > 1 2 > 2 2 2 = : 2 8 8 t u f f f l l k j h h l h k h h l l l c n c c n H m m J M J ~ ^ [ [ [ [ #.=.-.-.=.-.-.-.=.#.#.[ [ ^ ^ J m n n x v v v v v x s x B x b _ ` Q ) M M m n n m J J ^ [ #.=.*.,.s.d.d.f.H.M.P.P.J.T.L.J.B.M.b.<.b.m.F.XXOXOX;X7XwXeXfXrXrXfXgXfX0X0X7X%XoX).}._._.).).t.).)._.$X$X$X%X$Xy.y.y.y.5.e.e.5.e.5.5.e.e.u.|.$XeXeXrXgXgXzXzXzXzXzXgXgXrXfXfXgXfXfX0X9X9X0XrXlXlXgXlXgXfXrXfXrX0X&X+X{.{.r.O._ ) ! b B s s s a a d d a B ) ) ` M h p p ",
"x s a p t 7 4 3 4 4 7 3 2 3 3 3 4 4 2 2 $ : r 2 r r 2 r 5 5 5 2 2 2 8 r 2 r r r 2 8 t u g f g z l l l z x c c x l l l l n n M J n n n m G n J J J [ [ [ [ [ { @.=.$.=.$.$.$.$.$.@.$.@.{ W ~ J G n c c x h x x x a a s h s x v m M N M N n H n J J ^ [ @.=.-.s.d.d.d.f.f.H.B.J.L.I.^.U.I.J.B.x.c.n.Z.`.{._.XX#X8XwX9X9XrXfXfX0X8X8X5X#X`._.)._._.{. X{.).).).}.$X#X%X$X Xt.t.e.e.5.8.5.5.5.5.2.8.e.e.t. X*X0X0XeXrXgXlXzXlXlXfXfXrXfXrXrXeXeX0X0X0XrXgXlXzXvXzXlXgXfXfXfXrX9X#XoX.X_.6...) ! b B B s s a d y y d x M ) X.>.X.] m ",
"n v h a p t 4 4 7 4 3 2 2 & 3 4 2 & < = < < 2 r r 8 5 5 5 5 5 8 8 8 r 8 8 3 2 2 8 t f f g g z h Z l l l c n n n c n n n m m J ` J J G n G J m G J [ [ [ [ [ [ $.$.$.$.} $.{ @.$.$.@.$.*.[ [ J m n n v h h h h s a a a a a h v v n m n n n m H H ^ [ #.*.-.s.s.s.f.f.h.h.x.J.P.U.W.~.^.U.J.J.B.n.n.C.D.V.C._.OX;X5X5X5X9X8X8X8X5X%X#XoX_._._._._. X_. X).).{.{.$X$X X Xy.r.e.e.7.5.5.2.2.2.5.5.5.5.5.e.u.$X&X*X0XeX0XeXgXlXgXfXrXeXfXrXeXeXeX*X0XeXgXlXzXzXzXzXzXlXlXlXlXrX0X&X#XoX[.w.+.) N b B B s a a d d d a v Q  .3.Z.q.X.` ",
"' M M x p 7 7 4 4 4 3 2 3 3 3 2 2 < $ r < r r r 5 5 2 5 5 6 6 5 8 8 8 8 8 8 8 8 8 7 f g z z c l l n n m G m n G n n n J ~ ` ` J J m J H J R J P P ^ [ [ [ ` [ { } ;.;.{ { @.@.{ @.@.$.*.#.[ P J n n n h x h h a a p t a a a h B B v c n H P J P W *.$.*.z.,.d.f.h.h.M.M.P.J.L.U.~.'.'.Q.U.I.C.B.M.n.n.n.C.`..XOX.X;X5X5X5X5X5X@XOXoX_._._.)._._._._. X_.).{. X#X&X%X$X}.y.t.8.7.5.5.3.7.7.2.3.3.5.5.e.t.u.$X&X*X&X*X0XeXgXgXrXeXeXeXeX0X0X9X0XeXfXlXvXzXvXzXvXzXlXlXlXlXrXeX9X7X+X[.r.2.| M b B B s s B B s B v !  .0.A.F.q.X.X.",
"X. .' Q x d t t 4 4 3 3 3 2 2 2 = $ < < r 2 2 5 2 8 5 8 8 6 6 8 8 8 8 8 7 8 7 7 u f g g h l c n n m J G H m G G G J J ~ ` [ ` J J J m G G J P P P [ [ [ [ { [ { =.;.;.$.{ [ [ @.@.$.*.*.*.[ P J H n c h h h h g g a t g g p h h h c c H L ^ [ [ #.$.*.*.-.,.s.h.h.x.H.P.L.U.U.^.=X=X'.'.Q.I.I.I.B.B.B.V.Y._._.`.OX#X#X5X;X#XOX#X`._._._._.V.V.).)._._.{.).).).{.$X%X#X|.).t.e.8.7.7.7.3.6.7.7.3.7.5.5.e.e.t. X@X$X&X$X0XrXeXeX0X0X0XeX9X0X*XeXeXlXvXlXvXzXvXzXzXzXlXlXlXfXrXeX9X#X[.w.2...! b B B B B b b b x ! ' O.A.F.S.A.4.>.",
"O.:. .' M a t t y 3 3 2 2 3 2 < = < < < r 2 5 2 5 6 6 6 8 7 e 8 8 u 8 8 8 8 q t f g z s l c m G J J J H H H H J J J ` ` { { [ ~ J J H J J J W [ [ [ [ [ [ [ [ { $. .;.} { @.[ @.@.$.*.*.$.#.^ J H H n c c h h h f g g g g t g h l c D H P ^ W #.$.*.*.$.,.,.s.d.f.x.M.H.U.W.^.~.:X:X'.'.Q.U.Y.Y.Y.N.C.C.G.`.G.`.XXOX#X;XOXOXOX.XoX_._.`.D.).V.V.).).).).).)._.}.}.|.).).t.A.r.8.7.6.7.4.3.7.9.q.7.7.7.7.e.w.y.oX}.oX$X*X0XeX0X0X9X0XeX*X9X0XeXrXzXvXzXvXzXvXzXvXzXzXzXlXfXrXeX8X@X}.r.6.| M v B B b b ! Q b b Q _ 4.S.F.F.Z.q.9.",
"V.3.:.] M s p t 7 3 2 2 2 & 2 = < < < < 2 2 2 5 5 6 8 8 8 7 q 7 8 8 u u f u f u f a l h n m M ` ` J J H J J J P ` ` [ [ { ` ~ ~ J J J J P W W [ W [ [ { { $.{ } $.=.} } { [ [ @.#.&.$.*.%.@.W J J H H n n c c l h g h f g f h l n n H P P [ #.#.@.@.*.$.*.-.-.s.h.M.M.P.U.^.'.:X:X=X'.Q.`.'.=X'.^.C.C.D.Y.G.G.`.`.OXOXOXOX.X`..X`._.C._.D.C.D.C.V.Z.V.).)._.}.#X%X X}.{.).).t.q.7.3.7.7.9.9.q.n.q.q.0.0.8.r.|.{.}. X$X&X0X0X0X*X8X0XeX0X9X0XeXrXlXzXvXvXvXzXvXvXzXzXzXlXfXeX9X7X#X.XA.7...) N N ! ) M ! ! N N Q ) X.q.Z..X[.F.F.",
"A.q.>.} M x p t t 4 2 3 2 2 2 2 < < 2 r 5 2 8 8 6 6 7 7 7 q f q 8 u e t f f f f g h l n J ` { { ~ P J J ^ J P ~ [ ` ` { ' { [ ~ J P J [ [ { [ W [ [ [ { $.{ @.{ } { } { [ [ [ [ @.*.&.$.@.#.[ J J H H H n G n l z z h h h g h c D H H H ^ ^ W #.*.*.*.*.,.*.-.s.h.M.H.L.^.'.:X>X:X:X-X=X=X>X>X-X-XU.U.U.Y.I.I.Y._.`.XXXX.X`.`.`.`._.`.`.D.`.`.D.C.V.V.).)..X5X9X*X%X X#X+X).A.w.q.9.9.q.q.q.q.V.m.q.0.0.q.w.t.t.u.}.}.%X&X*X*X9X&X&XeX9X*X9XeXeXlXvXvXzXvXvXzXlXgXlXlXgXrXeX0X7X+X[.F.2.| _ ) ) _ ' ) Q M ! b M ` _ 3.XX+XOX.X[.",
"G.m.>.' M n a p t t 3 2 & 2 < < < 2 2 8 8 2 8 2 6 8 q q f u f f u t f u f f f g z h l Q ' =.X.{ ` ~ ^ ^ P ^ ^ ~ ` { { ' } [ ` ^ ^ ~ P ^ [ W @.{ @.{ @.@.@.[ { [ [ [ { W [ W @.[ W @.#.#.@.#.@.P P J P J P P L L H l l l z z l D G H J K P ^ ^ &.*.*.s.,.i.-.,.s.h.M.P.U.^.].2X2X1X>X>X>X1XuXuX2X>X'.Y.Q.'.Y.`.Y.Y.`.`.`._.`.`.`.`.I.`.`.`.`.I.`.D.C.V.m.).).%X9X9X%X#X#X%X{.A.w.e.q.0.q.n.q.V.V.C.V.C.q.0.q.w.r.t.y.|.oX@X&X&X&X&X&X*X&X&X&X0XeXgXzXlXvXzXzXlXrXeXeXeX9X8X0X0X8X#X}.).2.2.] | ] ' _ ) ) ) M M M ) X.w.[.OXOXOXXX",
"V.3.~ Q M v g g d p 8 2 2 < 2 2 5 3 5 6 6 6 6 8 7 q q f f f j f p f f f p z g h l l n ~  . .} ' ~ ~ [ ^ [ [ ^ ` { { {  .} { ~ ~ ~ [ ^ [ [ [ @.@.{ @.{ @.@.{ W { [ [ [ [ @.[ W ^ ^ [ @.@.@.#.P P P P ^ ^ W P ^ ^ P G D c l l c D G H P P P [ W #.$.-.*.-.*.-.s.f.x.P.U.Q.~.,XiXyX2XyX2XuXdXkXjXkXuX>X>X-X=X=X-X`.`.`.`.`.`.`.`.`.`.`.`.`.`.`.I.C.D.C.C.C.V.)..X%X&X%X%X%X%X+X).Z.w.q.q.q.V.V.V.C.D.D.D.m.m.q.0.0.8.r.r.u.}.#X@X%X%X%X%X+X%X&X0XeXrXzXzXzXzXlX0X8X5X%X X{.#X7X9X8X@X+X[.6.3.| ] | ] ] ' _ ` Q Q ) ] 3.w._..X[.A.m.",
"o.Q m M v h p p p 7 4 2 r 2 r 8 5 6 6 6 6 6 7 7 7 f f f f j f k z z z g f f h h v n n ` } } { [ [ [ [ [ @.[ ^ [ { } { } } { ` ~ [ J ` ^ [ $.*.*.*.@.$.*.@.{ { W @.@.@.@.@.@.@.[ ^ W [ W [ W P ^ P P ^ / / ^ W [ W P G G G G G G L P P P P W #.&.*.i.*.s.-.,.h.H.P.W.].~.>XpXsXiXsXkXdXkXnXvXbXvXjXdX2X2X>X-X-X'.'.`.`.`.`.`.`.`.`.`.`.`.I.`.I.`.Y.D.C.V.m.V._.oX%X%X%X5X%X+X_.A.V.w.q.V.V.V.G.G.D.G.D.D.V.q.0.0.6.7.q.w.r.).+X$X+X+XoX X+X&X9X0XrXlXzXzXzXtX@X}. X_.A._..X@X8X9X8X8X#X8.>.] | ] ` _ ) ` ) ) Q ) ] O.q.F.D.V.4.X.",
"m n n v x h g p p d 7 2 2 2 2 8 3 6 8 8 7 7 7 q 7 t f j k k k k z h z h h z h l n n m ` ` ` ' { [ { [ @.#.{ [ [ { }  .} } { { { } } [ [ W { *.*.-.*.*.*.*.@.@.@.#.@.@.[ @.*.*.@.[ P [ ^ [ ^ [ W ^ ^ @.W W / W / P L G L L G H L L P P W @.&.#.*.s.s.s.s.i.s.M.T.~.<X,XyXiXkXkXkXcXxXxXnXbXmXmXbXvXkXuX2X>X>X-X>X'.'.'.`.`.`.'.'.`.`.`.`.`.C.C.C.D.I.C.N.N.n.)._.oX@X%X%X%X+X}.).V.V.w.V.V.D.G.G.Y.Y.G.D.D.C.n.0.9.9.9.0.w.).{.oX+XoXoX}.}.+X8X0XeXgXgXlXfX@X[.A.r.w.8.S.{.+X7XtX8X8X@Xq.O.' ' | _ ) ) ] ] ] ` ] ] X.>.>.:. .] ) ",
"v v h h h g g p 7 7 4 2 2 2 2 2 5 8 7 7 q 7 7 7 f f f f h l h l c h n z l v n m M M ~ ` ` [ { [ { { #.#.$.$.$.$.$.$. . .} } } } } } [ [ ' W @.$.*.-.*.*.*.*.*.*.#.*.*.@.@.*.*.%.@.^ W ^ P W @.P W @.&.&.#.&.#./ P P P P L K H T ^ ^ W [ @.$.%.*.s.i.s.-.,.d.P.^.>XiXkXjXjXnXjXjXnXbXbXmXmXMXMXMXmXxXdX2X2X>X>X=X-XXX'.'.'.`.`.`.'.`.U.I.I.`.C.C.C.C.C.C.C.n.m.Z._.oXoXoXoXoX.X_._.A.A.D.C.D.Y.Y.Y.G.Y.Y.Y.D.C.N.n.9.9.6.q.S.[. X+X+X+X X X+X7X0XeXfXeXeX7X.XA.q.7.3.3.r.[..X&X8XoXoXS.0.2.] ' ) ] ` ` ] | X.X...9.o.X.' ) Q N n ",
"h x h h h g g t 7 7 3 3 2 2 3 2 6 8 7 q 7 f q u f g f z k k l c n c n n n n m J ~ ~ ` ` ` { { { { #.$.$.$.-.;.;.=. . . .;.;. .;.X.$.} W { [ W { @.$.$.&.$.%.*.@.%.#.%.#.*.*.*.&.%.P W ^ ^ #.@.W @.&.%.&.%.&.&.W / W ^ P P P P P W W &.W #.&.*.*.*.s.s.,.s.h.T.'.aXiXdXjXnXnXnXbXbXmXMXmXMXMXMXMXmXcXdX3X3X1X>X-X>X'.-X-XXX'.`.'.`.'.`.C.C.C.C.N.N.N.m.N.N.m.V.V._._.{..X_._._.{._.G.S.Z.C.G.G.Y.G.Y.Q.XX`.Y.Y.D.N.b.9.9.0.q.r.S.{.}..X.XoX+X7X0X9XeX8X#X_.).q.7.3.O.>.8.Z.).{.[.V.q.q.6.<...] ] ] ` ) ] | X.X.>.6. . .' Q b x h ",
"h h h g a g p t 7 8 8 2 8 3 8 2 3 7 7 u q f g f f z h l l n c n G m G m m m J ~ ' { ` { { ` ' } $.} $.=.,.,.,.,.;.,.;.;.,.:.<.<.9.9.:.;.} [ ` W W W $.@.@.W @.@.*.@.%.#.*.z.,.*.#.W ^ P W W W @.%.&.#.%.@.@.@.@.W / / / ^ W W @.&.%.#.&.&.*.*.&.*.s.s.d.h.L.~.<XaXiXsXjXjXnXbXmXMXMXMXMXMXMXMXMXvXxXdX3X2X2X>X>X4X-X-X-X-X-X-X-X'.`.`.`.`.B.C.C.V.N.m.N.n.n.m.V.D.G._.)._.G._._._.F.G.G.G.G.Y.Y.Y.`.-X'.'.`.Y.Y.C.b.9.9.9.9.0.w.Z.V.A.).}.+X@X9X7X@X+XS.w.7.6.3.o.X.O.6.7.q.8.>.O.3.6.2.>.] ' ` M Q Q ' ] } '  .] ) ` ' M m n v ",
"h z a a f p f 7 7 4 3 3 2 8 3 3 7 7 u f f j f z k l c c c n G H G G J J J J J ` X.X.} { { { [ { { $.,.s.<.f.<.1.<.<.<.<.3.9.V.Z.F.F.D.9.X.[ [ [ [ W { { [ W [ W %.@.%.#.*.*.*.*.%.[ ^ P ^ @.@.*.&.*.*.&.%.%.@.%.@.@./ W @.&.@.&.&.#.%.*.s.i.*.*.*.s.s.(.B.W.].,XiXkXNXnXbXbXmXMXMXMXmXMXmXMXMXmXnXcXdXuXyX2X>X-X-X>X>X4X>X-X-X-X`.I.I.I.`.J.C.C.C.B.m.B.n.n.m.m.C.A.Z.G.G.G.G._._.F.G.D.C.G.G.Y.Y.`.`.Y.Y.Y.Y.Y.C.N.m.9.c.9.9.9.9.0.q.Z.[..XoXoX}.S.Z.3.3.O.o. . .] X.X.O.>.X.] ' ~ ' ' ' ` M M m M ' ' Q Q M M Q Q ~ Q M b n h ",
"g a g f f u 7 7 4 8 8 3 3 3 8 8 7 q u f f f h k c G G G G H H H J J J J P ` ` { =. . .} } { } $.$.;.c.x.x.x.x.f.<.<.9.b.n.C.D._.F.D.q.9.;.[ ` [ ` @.@.W [ W W [ [ W W [ W &.*.*.W P P P W W i.i.*.i.i.i.*.&.&.%.%.&.&.&.%.@.&.%.&.#.*.*.s.s.d.s.d.h.h.P.T.W.:X2XiXkXnXnXmXmXMXMXmXMXmXmXmXmXmXmXvXcXkXuXuX2X1X-X>X1X1X2X2X2X-X`.`.`.`.`.C.J.`.C.C.m.B.n.c.n.n.B.n.V.C.V.V.D.D.C.D.D.Z.V.I.Y.Y.Y.Q.`.Q.Q.Q.Q.Y.Y.J.N.N.B.9.9.9.9.9.9.0.0.Z.A.V.q.6.>.O.X.X.| } | ] ' ' ] ] ' ` M M M M M M M m n n M ` ~ M v n G M M M Q M m v h ",
"a f f f f u 7 7 7 8 8 3 8 3 7 7 7 q p f z g z l G H J P J J P J J P [ ^ ~ [ [ }  .;.:.:. .} =.=.=.d.M.H.M.M.b.f.f.b.b.b.n.n.G.F.F.Z.9.:.} { [ ` P [ [ [ P P ^ ^ P P W P ^ %.%.%.W L L P %.i.i.z.a.a.a.i.&.&.@.%.W %.*.s.a.*.&.&.%.%.-.i.s.h.h.h.h.h.(.L.W.:X,XyXiXkXNXmXmXMXMXMXmXmXmXmXmXMXmXbXnXcXdXsXuX2X1X-X>X2X3X2X2X1X-X'.E.`.'.I.`.Y.Y.Y.I.B.n.n.n.n.n.M.B.m.N.N.V.C.C.C.C.V.C.C.Y.'.'.'.`.Q.-XQ.-X`.Y.Y.D.N.N.N.b.9.4.4.4.4.9.4.q.0.6.:.;.| } ] ' ` ` ) ' ~ ' ) Q Q M M J J J M M n M n m m J M n v m M M m m M M x z g ",
"g g g f u 7 u 7 7 7 3 3 3 8 7 7 t t f f g g l n G L P P W [ ^ [ [ [ [ { { { { } } :.:.:.;.;.=.=.,.f.B.B.B.B.M.b.b.b.b.n.m.D._.XX`.Z.4.:.} } ` [ [ [ P [ J P P P ^ P P J P W #.@.P G G W @.%.i.*.i.a.*.&.&.%./ / U P U &.i.i.*.&.*.s.g.s.g.h.k.x.(.P.P.E.~.,X1XpXiXkXjXbXmXMXMXMXMXMXMXmXmXmXmXbXzXkXdXdXuX2X1X>X1X2X3X2X3X1X-X-X`.'.'.`.'.'.Y.U.I.N.M.n.c.c.c.n.n.N.N.m.N.m.V.N.N.C.I.Y.Y.'.-X-X=X-X-X=XQ.Q.Q.U.U.C.N.B.b.b.4.9.4.<.4.4.4.4.:.;. .} } ` ` ` ~ Q Q Q Q M J J P P ~ ^ J P J J J H H m m n n v n m M m M m m h s g ",
"f g f E u t 6 7 3 6 3 8 8 7 8 u u t f g h l l G H P P [ [ #.[ #.#.[ { #.$.$.} =.:.>.>.<.:.;.;.,.<.c.B.B.B.B.B.b.9.b.n.Z.F.XX;X7X;X[.m.:.$.{ ` [ ` [ ~ J J J H H G H G H L P W P D G G P P W W %.&.&.&.&.W W U T K L T L &.&.*.*.-.z.j.h.h.h.k.H.J.L.L.^.:XyXaXpXpXiXkXjXnXmXMXMXMXMXMXmXmXmXmXbXxXkXdXsXuX3X2X2X2X2XuXuX2X1X>X>X>X'.].1X>X=X`.Y.D.C.B.n.M.c.c.n.M.B.N.B.n.B.N.N.J.C.Y.Y.`.'.`.'.'.-X'.`.-XQ.Q.Y.Q.U.I.M.M.b.c.4.4.<.<.4.4.<.:.=.$.$.} [ ` ~ Q J J M J J P ` ^ [ [ #.#.[ W ~ J J J H m n x c n n m m M M v h f f ",
"u f u t q 7 7 7 8 7 7 8 7 7 t t u t g g l l n H J J [ [ #.$.#.#.#.$.=.=.$.=.;.:.4.4.9.9.9.4.9.4.<.c.M.b.B.M.b.b.n.n.N.Y.OX7X8XwXqX.Xm.>.$.{ [ [ { ~ [ ~ ~ J m H J H K G G P P D z c Z G K W %.*.&.&.%.%.W P L D D D G L @.W %.&.*.*.g.h.h.k.H.P.L.E.^.].aXaXpXuXiXiXiXkXjXbXmXMXmXMXmXMXMXMXmXvXcXdXsXuXuX2X2XyXuXsXdXsXuX3X2X2X3X1X3XuX2X>X'.'.U.J.B.x.n.c.c.x.n.B.B.B.B.n.B.N.I.I.Y.U.Q.'.'.'.Q.-X'.Q.Q.Q.Q.Q.U.Y.J.N.M.b.c.<.<.<.<.<.<.:.;.,.,.,.;.{ W } [ [ ~ J J [ ~ [ [ $.*.$.&.$.#.#.[ [ W J G G c c x h v m m m x g f f ",
"u t u 8 7 7 8 7 7 7 7 7 7 t u t f g h h n n H J ~ [ } } $.$.$.$.$.=.*.;.;.;.<.9.m.G.S.m.q.n.9.9.c.c.b.b.b.B.n.n.N.N.G.XX;X7XqX8X8XXX0.:.=.{ [ { [ ~ [ ~ P J J H G G G G G J n z l l D H P W %.%.@.%.@./ K L G G D Z D D L U ^ W %.%.s.k.H.K.L.T.E.W.~.].,X,XpXaXaXaXiXiXkXnXmXMXMXMXMXMXMXmXmXxXkXdXsX2X2X2X2X3XsXdXdXsXdXsXuXsXdXsX2XyXuX1X>X=X'.U.B.M.x.c.M.c.b.M.M.M.M.b.B.J.I.I.I.U.Q.'.'.'.-X=X-X'.Q.Q.Q.Y.U.Y.U.J.B.B.b.b.c.c.c.<.<.,.,.<.,.f.,.,.$.$.*.[ [ [ J ^ [ #.*.*.-.,.-.*.$.&.#.#.[ P J G n z x h x n n x z f f u ",
"t 7 7 7 3 7 7 6 7 7 7 t t u u f g x c M ~ ~ ` ` { } ;.:.;.;.=.-.;.=.;.,.;.<.b.m.G.`.`.F.m.n.n.n.n.n.b.m.n.n.n.N.m.G.XX.X.X#X;X;X;X.XV.<.;.} { { { { { ~ ~ J H H G G G G D Z z h Z D R K P U W / U I I K K Z Z l Z l Z D G L L T ^ W &.s.h.P.L.L.U.E.W.~.~.~.].].:X<X,X2XuXkXxXmXMXMXMXMXmXMXbXcXdXuX3X1X1X2XuXsXdXkXjXcXcXcXxXxXnXxXkXuXsXsXsX1X=XU.J.B.x.M.M.M.x.M.b.b.b.b.B.J.I.I.Y.^.'.'.'.=X=X=X'.=XQ.Y.Q.Q.U.Q.U.U.J.I.J.J.B.M.M.c.1.1.f.s.,.d.d.,.,.,.$.*.*.[ [ [ $.*.s.,.s.,.s.i.-.s.*.&.*.W P G G c z h h h h h p f p t ",
"t 7 7 7 7 4 7 7 q 7 q t u t f g h c ) { { ` { { } } :.<.4.<.,.:.1.1.1.1.1.4.n.Z.F.XXXX`.G.N.m.C.V.m.C.C.m.m.m.N.m.D.XXXXOX4X;X;X7X;XG.V.9.;.} { [ { [ ` ` ~ H H G n D l l z z Z Z D K K P U P T K L Z Z C l k j z l D D K G L H K P W $.-.k.(.L.T.L.L.W.W.W.^.^.^.~.=X:X,XpXkXxXMXMXMXMXmXMXbXcXdX2X2X1X2XuXuXsXdXcXcXnXvXbXbXbXbXmXbXxXcXsXuX2X>XU.J.B.B.H.M.M.x.c.x.f.f.c.M.J.I.I.U.^.'.'.:X:X].'.'.~.Q.Q.Q.Q.Q.Q.Q.'.Q.U.U.W.U.U.J.M.c.f.c.x.M.M.f.d.,.s.,.,.*.=.@.$.$.-.d.s.s.s.,.s.s.d.s.*.*.@.W P G c z z z f f f f f u t ",
"7 7 7 4 7 7 7 t 7 7 t u u f f h c J ` } { ` { { } =.<.b.m.V.0.n.9.b.4.4.<.9.n.V.F.XXXX.XF.G.D.G.G.C.V.m.N.m.m.m.C.Z.XXXX5X8X8X8XwX;X[.F.q.<.=.} { { [ ^ ~ J J H m c l z g z g l l D K P T P K K R G Z k k l j f j l D G L G G K P P ^ W *.d.h.(.P.J.P.L.L.P.J.L.E.W.^.].:X2XyXkXnXmXMXmXmXmXbXkX2X1X>X2X2XyXiXsXcXxXnXvXbXmXmXmXmXmXmXbXxXuX2X1X:X'.^.L.B.B.M.M.x.d.1.f.f.f.M.J.I.I.U.'.=X>X=X'.Q.Q.Q.Q.'.'.Q.].=X=X:X=X=X=XQ.Q.Q.~.Q.L.P.M.M.J.M.M.H.H.M.M.f.d.,.*.*.*.*.*.s.d.s.s.s.s.s.s.s.*.$.W W J G G l l g f f f t t t t ",
"7 7 7 t 4 7 t t t t u u f g h c M ` } ;.;.=.=. .;.<.9.n.Z.F.XXXXF.Y.Z.n.n.n.C.G.XXOX#X4XXXF.Y.F.D.m.n.m.m.m.m.V.m.G.XXOXwXrXrXwX5X5X5X_.C.9.4.>.$.} { ` ^ J J m n n h g f f k C D R P P T P K R D l z j f f f j z D D G G G L L U / / ^ &.s.s.h.(.x.x.(.x.h.h.x.P.J.I.W.'.<X>XyXdXnXbXbXbXvXkXuX1X-X:X>X2XuXsXdXcXnXnXvXnXbXbXbXmXbXmXbXxXsX2X,X=X=X^.^.I.L.M.x.f.,.*.,.d.f.h.H.L.U.U.~.:X>X~.Q.U.W.U.Q.~.'.=X>X>X].].Q.].=X'.'.~.'.'.Q.U.L.L.L.J.H.J.J.J.H.H.h.s.s.,.*.s.s.s.j.f.s.s.s.g.j.s.a.&.W ^ P G G z g z f f u p t t 8 ",
"7 7 7 7 7 7 t t u t u f g g c n J J ~ X.:.>.:.;.:.9.n.m.F.4X8XtX8XwXOXF.D.F.G.F..X;X;X;XXX`.[.[.G.C.N.m.N.C.V.C.D.D.F.;XgXfXrXtXwXfX8X_.F.V.9.4.:.;.{ { ` ~ m m v h h g f g k l D G T T K K H D C l j f f j j k Z D D R R K P P ^ W / / @.&.-.s.f.h.h.d.f.f.s.h.x.H.L.I.^.'.=X:XyXdXxXxXcXkXuX2X>X=X=X>X,XuXsXdXxXnXbXnXkXxXnXnXnXxXnXxXkXsX,X<X>X:X^.^.U.P.H.x.d.-.$.,.,.s.d.x.L.U.W.~.:X:XQ.W.U.I.I.^.Q.Q.:X:X>X>X'.].=X'.].'.=X~.:X=X~.^.U.L.U.J.J.L.P.J.M.x.f.h.s.s.s.d.d.h.j.k.j.s.j.f.s.a.*.@.U P G G z z f f f u t t t 8 ",
"4 4 7 7 7 t t t t f f z f h n n H J J [ :.>.:.<.<.9.m.D.XXqXlXlXgXrXtX;XOXOX#X;X8XqX8X;XXXXXXXXX`.C.D.C.Z.G.D.D.G.G.XXrXvXlXgXgXlXgXfXqX;XOXV.4.:.;.=.{ [ J J n l v h g g g f z Z R G D D R Z Z k z j j j j z l D D R G G L L P W U W P W @.&.*.-.s.s.-.-.-.s.f.d.h.M.J.I.W.Q.Q.=XyXdXkXkXsXpX1X>X'.'.:X>XyXsXkXnXvXxXkXkXdXjXxXjXjXxXjXkXiXiXpX2X<X'.'.^.L.x.f.s.*.$.$.#.*.-.d.M.P.W.:X=X~.W.I.L.L.J.L.L.L.^.'.'.].=X].~.~.~.'.~.=X:X,X:X'.W.U.W.U.L.L.I.L.J.H.(.h.d.s.f.k.h.k.h.x.h.d.j.h.s.g.i.&.P R R D z g f f t u 4 8 8 8 ",
"7 7 7 t 7 t t u f f g h z l n H H J J ^ =.:.<.9.m.n.m.F.@XfXzXvXvXvXlXfXwXwXwXrXfXfXtX;XOXOXXXXXF.F._.XX`.`.[.F.F._.5XlXvXlXlXlXlXlXgXtXwX#XXXV.0.>.} { ` ~ ~ m n n h g f f f f l z l Z D Z l j k j g f j f z l c Z D G G K L P P P L H ^ [ #.&.-.i.-.-.*.-.-.,.d.h.x.x.H.J.I.I.U.Q.2XiXsXdXuX2X1X=X'.'.>X1XuXkXxXxXkXsXsXkXkXjXjXkXjXjXkXkXkXkXkXpX,X].^.I.h.s.,.$.@.%.#.#.$.-.h.H.U.:X~.W.L.H.x.M.x.h.x.H.P.T.L.P.J.W.^.^.^.].~.:X:X:X:X~.~.W.W.W.W.W.L.L.K.K.H.M.h.h.h.h.h.h.k.h.k.j.h.g.g.s.z.*.P G D z g f p f t 8 7 8 3 4 ",
"7 7 7 7 t t u u f f h z l c H H H J P {  .;.:.4.V.C.G.;XtXgXzXvXbXbXbXvXlXgXrXrXgXrXqX#X4X;XOXXXXXY.XXXXXXXX;X@XOX.X7XzXbXlXlXvXzXgXfXtX5X.XA.9.9.q.:.X.} ` ` ` M v h h f f f f j k l Z l l z z z j f j j f z c Z c G R K P P L K H R H L ^ / @.$.&.$.$.$.$.=.-.,.d.d.f.f.M.P.M.J.J.~.2XuXiXpX2X>X=X'.].'.:X,XpXkXkXkXiXuXsXiXkXjXjXkXkXkXkXNXNXkXsX1X].E.H.f.a.*.#.@.[ @.@.%.#.,.h.P.~.W.T.x.h.h.h.s.d.s.s.,.d.d.h.H.H.L.U.U.^.~.~.:X].=X~.^.W.U.W.W.L.L.L.L.K.P.H.x.h.k.x.h.h.j.h.h.j.k.j.s.s.i.%.L G z z g f f u d 7 8 8 8 4 ",
"7 7 7 7 u u t f f h z l D H K J J P P { $.;.1.9.Z.F.XX8XfXgXlXvXbXbXbXbXbXlXlXfXgXrX8X;X#X;X;XOXOXOXOX@X@X;XwXrXtXwXfXvXvXzXvXbXbXzXgXrXwXXXV.<.>.0.m.>. .` M m n h h g h f g z z j z l z j z z z f z f z z z D c Z G L H K L L H G H H G J P ^ @.[ [ #.#.#.$.$.$.-.,.,.d.f.M.M.M.B.U.=X>X2X1X>X>X:X'.'.'.'.:X>X1XyXuXyXpXpXuXiXsXkXkXkXsXkXkXsXiXaX:X^.L.P.j.-.#.@.[ P P [ ` @.&.d.k.P.P.h.d.d.s.s.-.#.@.W %.*.%.*.j.h.H.H.H.T.T.Q.~.~.~.~.W.T.L.L.L.L.L.L.L.P.P.H.(.(.k.(.k.h.h.h.k.k.g.s.z.i.&.@.R D z z p u t u t 7 4 4 3 7 ",
"7 t t t t t f g z l l c G H K P ^ ^ [ { } ;.<.9.D.F.OX;XwXfXgXzXvXbXbXbXmXbXzXvXlXrXwX7X7X;X7XtXwX;X8XqXqX8XtXgXlXzXzXbXbXvXbXbXvXzXlXgXfX+Xw.0.9.9.6.>.X.` m n l h h g f f f j f k z j f j f j z z f z f z l z Z Z G K H K H L L H H G H J J P [ [ [ #.@.[ #.$.$.-.,.,.1.f.f.f.b.M.J.I.Q.=X:X>X=X=X'.'.'.^.Q.'.].:X>X,XaXyXpXpXiXsXiXpXyXpXsXpXaX].~.W.L.v.s.a.#.@.P P P ^ P P @.i.d.h.h.d.s.*.*.%.@.W J L W P P P *.i.h.x.(.h.P.T.^.^.W.!.T.L.P.P.L.P.P.P.L.L.P.P.K.(.k.H.(.k.k.k.k.k.h.z.a.%.W W G Z l z u u t 8 7 7 7 4 8 7 ",
"7 7 t t u u g z z c c D G L P ^ W [ @.{ $.=.1.n.D.`.XX4X@XwXrXlXvXbXmXmXbXbXbXzXgXrXwXqXqXwXtXgXvXlXlXrXfXrXgXzXvXbXmXbXbXbXbXbXbXzXlXfXfXwXXXG.m.0.<.:.:.} ) n h h h z h f h h k k k f f u j f j j f j f f g l l c R G R H K L K H K G H H J J P ^ { [ { #.{ } $.=.;.,.,.1.<.f.<.f.M.J.U.^.Q.'.].'.~.^.U.U.I.U.Q.~.'.>X,X1XaXaXpXpXaXpXaXaXaX<X]./.E.L.P.h.a.#.%.@./ P J P J P P @.*.a.s.*.&.&.W [ P H D c c G G G L @.#.i.s.g.h.L.T.W.W.W.W.L.(.K.(.P.L.R.T.T.E.T.L.K.P.H.H.(.H.H.(.(.h.g.z.%.W L R D z j u t q t 7 4 8 7 7 7 ",
"t 7 t t f g z l l c G G P P P W [ @.@.$.$.=.1.9.n.D.D.F.`.XX8XgXzXbXbXbXzXlXvXvXlXgXfXwXtXrXlXbXmXbXbXlXzXvXvXbXmXmXmXmXmXbXbXbXvXzXgXfXgXgXwX[.D.m.q.>.>.>.] m h h g z s g z z g z f f u q t u u u u E u u g z l Z D D D D D G G K H G G H J J P ^ [ [ [ #.{ $.$.=.;.-.,.,.<.4.f.<.c.M.N.J.J.U.Q.~.~.Q.U.J.J.L.J.U.W.~.:X:X>XaXaXaX2XaX<X:X]./.^.W.E.K.k.j.*.#.@.@.L P H P H H J L P %.%.@.[ @.@.U L G l k g k k k l G U / @.&.g.h.L.L.T.L.T.T.R.l.R.l.l.R.R.R.E.W.W.T.L.K.(.(.l.R.R.l.l.p.p.Y Y A A V k f q q t 7 7 6 7 7 p 7 ",
"t 7 7 t g g z l c D G G P P W [ @.@.$.} =.-.1.<.c.c.b.m.D.XXwXfXgXzXvXlXlXgXlXvXlXlXfXtXrXfXvXmXmXmXbXbXbXmXmXmXmXmXmXmXmXbXbXbXvXlXgXgXgXfX7X.XF.A.n.9.9.9.} M x z g g g g a z z f E u t 7 q 8 t u u t u u f g z c D D c D c c c G n G H H H J J ~ ~ ` [ { #.$.$.=.;.,.<.<.<.9.9.b.c.c.B.M.B.U.W.Q.~.Q.W.L.J.M.M.H.L.W.~.=X,X,XaX,X,X,X:X/.~.!.W.R.P.v.j.a.&.%./ P P H H G G G G G G L P P U U P L G c h f f g f f j k Z K L / &.j.k.K.P.K.P.L.l.l.l.l.l.R.R.R.E.!.!.!.R.R.K.H.R.R.R.R.l.l.p.Y I A A V j q 7 7 7 7 7 7 7 d t f ",
"p 7 t f g z l l D G G P P P [ @.*.*.$.*.-.,.<.f.c.b.b.N.`.5XrXhXfXzXzXlXgXlXgXzXvXgXfXtXtXfXvXmXmXmXmXmXMXMXmXMXmXmXmXmXmXmXbXmXvXlXgXlXgXfXwX7XOXF.9.>.9.6.X.M x h a f f f f f g E t u 7 t 7 7 7 7 7 7 7 t f f l G c c D c l l c c c n n H m J J ~ [ ` ` { { } $.=.;.;.<.9.n.0.b.q.9.f.c.M.B.J.I.^.Q.^.U.J.H.x.M.H.P.U.Q.~.,X,X,XaX,X:X].~.^.W.T.K.(.h.s.&.@./ P P L L G G G n G G G G L L L L L P G k f f f q f f f f k G K L @.i.g.j.l.j.h.j.l.l.l.l.R.R.R.R.E.!./.!.!.E.T.R.R.R.R.R.l.l.p.Y I A V V j q 7 7 7 7 7 7 7 u t t ",
"u t u f g h l Z D G P W W [ @.*.-.s.d.f.f.h.x.x.M.M.b.N.XX;XwXtXtXfXlXlXgXvXlXlXzXgXfXrXrXgXvXMXMXMXMXmXMXmXMXmXmXmXmXmXmXmXmXbXbXvXlXlXfXfXrX8XOXF.9.o.>.X.} ~ v z a f f f t u u u t 7 7 7 7 7 7 7 7 7 u t f g l R D D l l z l l c l n n n m H J J ` [ {  .$.#. .=.;.<.4.n.V.C.D.m.m.4.f.b.M.P.J.L.I.I.J.H.M.M.h.M.H.J.E.~.~.<X,X<X:X/././.!.T.L.H.k.j.i.&.W / P L L G H G D l l l l n G G G G G G Z k f f f 7 q 7 7 q f z D K U %.&.i.g.s.i.i.p.p.l.l.l.R.R.R.!.!.!././.!.!.E.R.R./.!.R.l.p.Y A S V w u q 7 7 7 7 p 7 7 7 7 p ",
"g p f g g z l n G P W [ W W @.-.s.x.x.H.B.H.M.P.B.M.B.C.XX;X8X;X5XwXlXvXlXvXvXlXzXlXgXfXrXlXbXMXMXMXmXMXMXMXMXmXMXmXmXMXmXbXmXbXbXvXlXlXlXfXrXwX;XF.6. .] } ' M m x a p p u t t t 7 7 7 7 7 7 7 7 4 7 7 t u u g l c l l l z h h k l x l n m m m M ~ ` {  . .X.X.=.;.:.<.0.V.G._.F.[._.b.<.b.H.B.B.M.J.J.B.H.H.M.x.M.H.P.L.W.W.~.:X/.]./.^./.W.E.K.(.k.g.*.W W U P T H R D D l l l l c l c Z l l Z Z l l f t f f p 7 7 q u z D G L U @.&.i.p.p.p.p.p.l.l.R.R.R.R.!.!.!./././.!.!.R./.!.R.R.l.p.I A E j q q q 8 6 6 7 7 t t 7 p f ",
"z g g h h l D G P W @.W [ @.%.,.h.P.L.W.E.W.U.U.I.N.B.C.G.`.OXXXXXqXgXvXvXbXmXzXlXlXlXfXfXlXmXMXMXMXMXMXMXMXmXMXmXMXmXmXbXbXvXvXvXvXzXzXlXrXqX8X#Xq.4.} ` } ] M n h g p t t 7 7 7 7 7 7 y 7 7 3 3 8 7 7 q t u f z l l z g g f g h h l v n m m m M ~ `  .>.;.;.;.>.4.4.0.V.D.F.XXXXOXOXb.<.f.M.M.M.M.J.H.M.M.x.M.x.M.M.H.L.L.E.W.W.W./.^./.~.!.T.K.H.k.g.p.%.@.W W G R D l l l z l n n l l c c l l l l j f f t t 7 7 8 7 q j Z Z Z T U %.( ( %.%.p.p.l.l.l.R.l.R.R.R.R.!.!././.!./././.!.l.l.p.I S E q 8 8 8 5 5 4 6 7 7 p h h l ",
"s h l c l c K P W %.%.%.@.%.$.s.x.L.W.~.~.~.'.'.^.J.N.J.D.Y.`.XXOX;XfXlXzXmXMXbXfXlXlXrXrXzXmXMXMXmXMXMXmXMXMXmXMXmXmXmXmXmXbXvXbXvXvXzXfX8X;XOXXXq.0.X.` ' } Q v x z a a t t 7 7 7 7 7 8 3 8 8 4 6 7 t t u u f g l z g g g g g g h h h h n n M ) '  .3.0.6.9.0.A.Z.Z.G.F.[..X4X4X;XOXD.1.<.f.f.c.x.M.x.h.c.x.h.v.x.H.H.L.K.L.L.T.T.W./.^./.!.E.K.(.k.a.&.%.W U T D Z c c z z g h l c n n c c l h k j f u u f t t 6 8 8 e j l Z Z K T U Y Y p.( p.p.z.l.l.l.R.l.(.K.R.R.!.!.!././././.R.l.l.Y I S u q 8 6 6 5 5 2 5 6 p g n n n ",
"l x n l l n L W %.*.*.*.*.*.-.j.H.E.~.'.].=X>X:X'.^.U.Y.I.Y.`.OX4X;XwXfXlXMXmXmXgXgXfXfXfXvXMXMXMXMXMXmXMXMXMXmXmXMXMXmXmXmXmXbXbXbXvXgXtX5X#XOXF.V.Z.9.` Q ] ` M B x h s p d 7 7 4 4 8 3 7 4 4 7 3 4 7 t u u f f z g f f f p g g h h h v n M M ` ] >.Z.V.V.Z..X;X+XOXXX+X5X9XwX7X8XOX[.9.1.1.1.f.c.f.f.d.f.f.f.f.h.h.h.H.H.H.H.P.K.W.!.!.!.!.R.R.H.j.z.%.W Y L K l l l l l g j j f h c n c x l h j f f f t 7 7 7 3 6 5 6 e j C Z K K K I I Y Y ( p.p.p.p.l.l.l.(.K.K.R.R.!.!././././.R.l.p.Y I S E 8 8 6 5 5 2 2 2 6 p h n b n ",
"c c c c l G U &.*.z.s.s.s.z.h.x.L.~.~.].:X:X>X:X:X=XQ.Q.Y.Y.`.OX;X;XwXgXgXbXmXMXzXfXfXgXgXbXMXMXMXMXMXmXMXMXmXMXmXMXmXmXmXmXmXbXbXvXrXwX5X;XXX_.F.A.Z.q. .Q J ] ` M v v x s p p t 7 4 7 7 3 3 4 6 4 4 7 u u t f g g f f d f p g g s h h v b M ) | >.V.F.G.[.5XeXwXwXeXwXwXeXrXrXtXwX#X.XG.9.<.1.d.<.,.-.,.,.,.,.d.f.d.j.j.x.v.v.(.P.E.W.!.!.E.K.(.k.g.i.%.( T T D Z Z l k l k k f f g c m c l k h f f u u q 7 7 7 3 5 2 5 9 q j Z A R K K K U U Y p.p.p.p.l.l.l.l.l.K.R.R.R.!././././.R.l.p.I A C i e 9 9 5 5 5 2 5 6 t f h n n ",
"x l l l D L / &.s.h.g.k.H.(.H.L.W.~.~.:X:X:X:X:X>X>X=XY.U.Y.Y.Y.XX4X7XtXrXgXbXmXMXmXgXlXbXMXMXMXMXMXMXMXMXMXMXMXMXmXMXMXmXmXmXvXzXtX#X+X#XXX[.S.G.F.Z.V.q. .~ ' ' ) Q n v h p p y 4 7 4 4 4 7 8 4 3 7 7 t t t p t f f t p p p p s h h v v M ) ] >.6.Z.{.#X@XrXgXfXrXrXrXrXrXfXrXtX0X5X;X.XZ.9.<.1.<.;.;.=.-.-.-.,.s.,.s.j.j.j.h.k.H.K.L.T.R.K.k.k.j.a.&.%.U P K R D Z l k g g f f u g l x l h h f q t u 7 7 7 7 5 6 3 2 2 5 0 e j k C A A K T I Y Y Y p.p.p.p.p.l.l.l.l.l.R.R.R.R.R.R.l.l.p.Y I C j q 9 5 5 5 2 2 6 3 6 7 g l v ",
"z l l G T W *.g.j.h.k.K.L.L.T.W.^./.].:X:X:X>X>X>X>X=X=XQ.Y.Y.Y.Y.XX;X8XqXwXfXlXlXMXMXbXmXMXMXMXMXMXMXMXmXMXmXmXmXMXmXmXmXmXmXbXgX7XOXXXF.Z.Z.V.A.XXF.G.V.q. .) ` ) J v v x s a d 7 t 4 7 4 4 4 3 4 7 7 7 7 t 7 7 t t p p a a g s h v b M ! ] ;.6.0.w.#X8XtXrXrXtXeXtXrXfXfXrXwX8XwXwX8X;X.XD.9.4.<.;.=.$.$.$.*.*.-.i.a.s.z.s.g.j.h.v.(.(.h.g.a.i.p.p.%.%.U T T K Z C l k j j f f u f f g g h g g 7 7 7 8 6 3 5 5 2 2 < 5 5 5 6 w j V S Z Z K I Y Y Y Y p.p.p.p.p.l.l.(.l.R.R.R.R.R.R.l.p.Y Y I A j e 6 5 5 5 > 5 6 4 7 t h h g ",
"z Z T / %.*.a.j.k.k.H.L.T.L.E.^.~.~.=X:X>X>X,X,X1X>X=X=X=XY.Q.Y.Y.Y.-X4X7X8XqXfXtXgXlXlXbXMXMXMXMXMXmXMXMXMXMXMXmXmXMXmXmXmXmXbXlXwX4X_.Z.V.V.Z.Z._.{.F.w.V.6.] M Q N v x h B a a p t y 7 4 7 4 4 6 3 4 7 4 7 t p t p p a s s g h x b ) ` ..O.6.q.A._.5X8XeXtX9X7X7X8XtXrXfXrX7XOX7X7X7X;XOX[.Z.4.>.;.$.{ { #.#.#.#.#.*.*.-.z.s.g.j.k.l.j.g.z.g.j.z.p.p.%.U U K K D C S j j f u u 7 u t f f g g g f 7 7 3 6 2 2 2 < > 2 > 5 5 9 9 q j j C C A K I Y Y Y Y Y Y p.p.z.l.l.l.l.l.R.l.R.l.p.p.Y Y I A k e 9 9 2 2 2 5 5 7 t f h g g ",
"l D U %.p.z.k.(.(.(.K.L.L.T.E.W.^.].=X>X,X,X1X,X,X>X:X-X'.Y.`.Y.-XY.'.XXY.4X;X;X;X;XtXgXlXbXmXMXMXMXMXMXMXMXMXMXMXmXmXmXmXmXbXbXfX8XOXXXZ.D.Z.Z.V.Z.[.G.0.m.0.O.Q n N v x h s a a p p t y 4 4 4 4 7 4 7 7 t t t t p p a a h s B b M _ ] X.6.7.q._.{.#X8X9XtX8X7X7X7X8X0XtXrX9XOX[.OX;X#XOXOXXXF.0.>.$.{ { [ #.#.@.@.@.@.#.*.a.a.g.h.k.j.g.z.g.g.g.a.i.&.( U U K R Z V j j f u u q 7 7 t 7 f p f f t t 7 5 2 2 < : : < > > 5 1 5 9 q w j j V Z A A A I Y I Y Y Y p.p.l.z.l.l.l.l.l.l.l.p.p.Y Y I A V e e 5 5 2 > 3 6 8 t t f t E ",
"l K U ( p.g.k.(.K.(.L.R.W.W.^.^.~.~.].:X>X,X1X2X2X2X>X>X>X>X>X-X=XXX`.'.-XXX-XOXOX-X;XfXfXfXgXlXvXbXmXMXmXmXmXmXmXMXmXmXmXmXmXzXrX;XXXZ.q.V.C.0.9.4.Z.w.>.3.0.>.' v v v v x x B s s p d t d 7 4 4 4 4 4 7 t y t p p p a h s B b ! ' X.o.O.0.r.S.{..X#X8X8X7X7X5X7X8X8XwXtX8X#XS.Z.V.[..X.XF.[.[.V.0.;.{ [ ^ [ ^ ^ ^ ^ ^ W &.*.a.z.g.a.a.i.z.z.a.p.p.p.( Y U K K Z C k f f q q q q 6 6 7 7 t f t t t 7 6 2 r < : $ : : > > > 5 9 6 0 e w i j V S A A A I I I Y Y Y p.p.l.l.l.l.l.l.l.p.p.p.Y Y I A S w 0 5 5 5 5 2 5 8 8 7 q u z ",
"R K W W &.z.l.k.(.H.L.L.T.W.W.W.^.~.].,XaXuXpXyXuX2X2X2X2X1X2X2X>X-X-X-X-XY.-X`.`.-X-X;XwXrXfXrXfXlXvXvXvXvXbXbXMXmXmXMXmXmXbXgX7X.XF.m.0.0.0.>.>.O.0.9.O.>.>.O.' v B x x B B x B B s p d t 4 4 4 4 7 4 d 7 t p p p p h h B m M _ X.O.o.O.q.S.S.{..X.X#X9X%X7X8X8X8X7X7X8X7X[.0.9.q.[.F.F.F.Z.m.n.6.;. .[ ~ J J P H L P P W *.p.i.*.%.%.%.p.p.p.p.p.%.( Y U K K Z l j w w q q 7 6 5 3 5 7 7 t 7 7 6 6 2 < r $ $ : , : : > > 5 > 5 5 9 0 e w w j V V V A A A I I Y p.p.z.z.z.l.l.l.l.l.p.Y Y I I F Z i e 9 5 5 6 5 9 8 e q u j Z ",
"T U %.%.&.z.j.k.(.H.(.L.L.U.E.W.^.Q.].aXpXiXsXiXiXsXsXuXuXdXdX3X1X2X2X-X=X-X-X-X`.`.XX4X;X6X;X5XqXfXgXlXlXfXgXvXbXbXmXmXmXvXgXtXOXF.Z.0.4.>.>.:.X. .X.X. . . .' ) N x x x B h B v v x a d t y 4 4 4 7 y 4 t t p p s s s v N ) _ ] O.6.+.o.q.V.A._.{.{..X8X8X5X5X7X7X@X7X7X#XZ.9.6.0.S.F.Z.V.>.:.;.X.} } ~ J H H H H H H P ^ %.i.%.%.%.%.( @.%.%.%.%.%.( U T K D C j f q q q q e 5 5 5 2 6 4 7 7 3 3 2 2 < < $ , $ ; $ : : > > > > > 1 9 9 e e e w w V V V V A I Y Y Y p.p.l.z.l.l.l.l.p.Y I I I F S j w e 9 9 9 e e q u j j C D ",
"Y @.%.&.p.z.k.k.v.K.H.P.R.E.E.W.^././.pXiXkXkXkXkXjXjXjXjXxXxXdX3X2XuX1X>X>X-X-X'.`.`.XX-XXX4X4X;XwXfXgXgXrXgXgXvXvXbXbXzXfXtX@X`.Z.q.<.>.>.X.X.X.]  .] ` Q M ) b v x x B B B b N N M v B d y y y 4 y y 7 y p p p a h x v ) | X.+.3.>...O.7.q.w.A.S.[..X#X8X@XoX@X;X@X@X@X.XV.6.q.w.q.V.9.:.' ` ` ` ~ J J H n G n G G G H K P W @.( W @.Y Y @.%.%.Y Y U K K A C k j f q q e 9 6 5 2 2 5 6 4 6 3 2 2 r < < = % $ # , , : : : > : > > - > > 9 9 9 w w w w w w w V A I I p.p.p.p.p.l.l.l.p.Y I A A A V i i w 9 e e w w w j C A I U ",
"U %.%.p.p.j.l.(.k.K.K.K.T.W.!.^.~./.aXsXkXNXNXNXxXnXnXbXnXvXcXdX2X3X3X2X>X4X-X`.`.`.'.`.`.`.XX-X4X5XwXtXfXtXfXtXlXzXvXzXlXgXqXOXG.V.9.>.>.X.X.X. . .' M M M ) M b v B x B v B n ) ) ! M N s d y y y y y t d p p a a s x v _ X.o.3.6.+.| >.7.q.7.q.r.S.{.@X8X#X{.+X#X#X#X@XoXoXA.q.9.6.>.X. . .' ) J J M m n n n n n n G G G L L U U Y U U L Y W Y Y U T K Z C j j j q q e 6 5 5 r 2 2 2 3 6 4 5 2 2 = : < , # , , % % , - : : , > > > > > > 9 9 9 w 9 w w w w w V A A A Y Y p.p.p.p.p.p.Y I I A V i i i w w w e e e w V C K I U ",
"( %.p.z.z.g.k.k.K.K.K.L.E.W.W.~.~.<XyXsXjXjXnXnXnXnXnXbXbXbXxXkXuX2X2X2X1X1X>X-X`.Q.`.`.Q.`.`.XX4X4X;XqXtX8XqX7XrXlXzXlXlXfX5X.XG.m.3.>.;. .X. . .' ' M M b M M b v x x x B v N | ) ) ) ! b B s a a d a p d p p a h s B b ] +.o.7.6.O.X.O.O.6.6.6.0.A.[.5X0X@X{._.oX#X+XoX#X5X.X0.4.>.X. .' ' J M M m n m n n l n n n n c D D D G K T K K K U U U T I K C S j j q q q e 6 5 1 r > 2 3 3 7 7 6 4 3 < < $ = % % % # % , , - , , , - - - > > > 9 9 9 9 9 w w w w w w w V A A I Y Y Y p.p.p.Y I A V V V V i w w w 9 9 e w j S Z I U ",
"( p.p.z.z.l.(.k.k.K.K.L.T.W.^.~.:X<XyXiXkXjXjXnXxXbXmXbXvXnXxXkXdXuX3XuX3X3X1X:XQ.Q.Y.Q.Y.Y.Y.`.`.XX4XOX;XOXOX4XwXfXtXtX7X4XXXZ.q.3.:.;.X. . . . .' ' M M b M M m b x x s x b ) X.| X.] | ] ) N v B B B a a p a a s x v M ] ..o.6.6.3.O.o.O.3.3.6.6.q.).#X0X8XoXS.[..X.X.XOX+X}.r.>.X.X.' ' J M n m n c l x l l l l c D D c Z c D D K K K G K T K K K C j j j f j q e 8 5 2 2 r r : < 3 6 d d 4 2 $ % $ $ , # # # , - # - - - - - - - > > > > 9 9 9 9 9 9 w w w w w w V A I A I Y Y p.Y I A A V V V V i w w w e e w i j j Z K I ",
"Y p.p.g.g.g.k.k.H.K.K.R.T.!.^.!./.].aXpXkXNXNXNXnXbXmXnXvXxXcXkXsXuX3XuX3X2X2X>X-XQ.Y.Y.Y.Y.Y.Y.G.Y.`.`.Y.`.F._.OXOX`.XXXXF.Z.4.>.;.X. . .] X.X.X.X.] ' Q M M M M M b x x B N ] 2.7.w.6.+.+._ ) ! b v s a a p a g h x v ! ' ] X.6.6.3.6.6.5.6.>.6.6.9.r.}.wX0X#XF.A.[.[.F.[.oXXXV.>.' ' ) J M c n x x l h l z h l l l l c c c z Z D D D D D K G D Z Z C z j j q q q q 6 5 2 2 2 2 : = < 2 3 y 6 2 $ $ $ # % % # O - - - # - # - - - - - - > > 9 9 9 9 9 w w w w w w w V A A A I I Y Y Y I A V A V V V w w w w w w w w w w C R T ",
"Y p.z.g.l.l.l.k.(.K.H.K.L.T.E.W.W./.:X,XpXkXkXjXnXbXbXnXvXcXcXkXdXsXsXuXuXsXuX2X>X-XQ.Y.Y.I.D.I.Y.D.C.D.D.C.m.m.m.C.V.G.m.9.>.:.X.X.$. .' } X.X.X.X.X.] ' ) ' Q ) ' ) ) N Q ] X.8.A.S.w.5.+._ ) ! b v s p a a s h h x b M Q ) ] 3.3.6.6.6.>.6.6.6.6.6.q.[.#X8X5X}.Z.r.A.r.r.Z.r.6.O.] ` M M n v h h g g a z g g h h x l l l c l l l Z l l Z l D Z Z C l j f j E f q q 8 8 6 5 5 < 2 2 $ $ $ < 2 = @ @ # # # # O # X - - - # # X X - X - - > > 9 9 9 9 9 9 w w w w w w V A I I I I Y I A A A A A S V V w w w w w q w q w i V Z I ",
"Y p.p.p.g.g.g.g.j.k.k.j.k.K.L.L.L.L.^.].aXiXiXjXnXmXnXvXnXxXjXkXdXdXuXuXsXdXdXuX2X>X-XQ.U.I.D.D.D.D.D.C.n.n.b.c.4.9.n.9.4.>.;.X.=. .{ ` '  . .X.X.X. .' ' ) ' ) _ ] X.2.o.| | 2.w.F.[.t.e.+._ ! N b s s a s h h h x x b M M Q ] O.O.6.3.>.>.6.0.7.6.>.6.r.{.oX.X}.Z.0.0.8.9.6.O. .' ' M M v c h h a a g g f g f g z g l l l l l l k k l l Z l Z Z Z k k z j f u f q q 7 7 8 6 6 2 2 < $ % # @ @ # @ @ @ @ + @ O O - - O O - O X - X - - > > > > 9 9 9 9 > 9 w w V V V A A A A A I A A A V A V A V V w w w w w e w w q q j V A I ",
"( %.p.&.p.i.i.p.p.*.a.g.j.K.H.H.H.P.K.!.].aXiXkXnXbXnXnXnXxXjXkXdXsXuXuXuXdXdXsXuX2X>X=XQ.Y.I.J.C.C.C.N.b.c.<.<.>.<.4.<.>.>.o.;. .{ ` ` { '  . . .X.' ' ) ) ) ) ] ] ] O.2.o.o.6.r.[.}.y.8.+.) ! b b B s g s h x v n n b M M Q ] ] ] X.X.O.>.3.6.6.>.O.6.q.A.S.S.A.r.7.>.>.3.>.] ` M M c c h h h h f f t p p f f u f f g g h z g g g z z l l l D l l l l k h f f f f f 7 7 7 7 6 2 2 < $ % @ + X . @ + . + + O O O X O O O - O - X - X - - - > - > > 9 > 9 9 w w V V V V A A A A A V V w w V w w V w i i w w w w w e e q E V A U ",
"p.p.p.%.%.%.%.@.@.%.*.s.g.h.j.H.K.H.P.W.].aXiXjXnXnXnXnXxXjXkXkXiXyX3XyXyXuXsXsXuXuX2X>X>X'.Q.D.N.N.n.b.c.4.<.;.1.>.<.>.:.o.;.$.} [ ` ` ' } ' ] ] ] ] ' ) ) ) ) ] ] ) | 2.2.O.8.A.[.oX).5._ _ ! b B B B s B v n n n m N J Q ` ' { } } } ;.O.>.>.3.O.>.>.3.0.0.q.w.0.3.O.X.O. .` Q M v x h h g a a p t t t t t t t p f a g f g j g g j h l l l l l l l l l l l f f f f t u t g p 6 2 < $ = $ @ @ + . + . + + o X + + O X # - X X X - X X - - - - > > > > 9 > 9 w w V V V V V V V V w w w w w w w w w i i w w w w w e e q j S F Y ",
"Y ( %.p.%.( Y Y Y %.&.*.i.d.h.k.P.K.L.E.W.:XpXkXNXnXnXnXxXkXdXuXyX2X2XyX1X2XuXuXuXuX2X2X1X>X>X'.U.J.b.b.c.<.,.;.;.;.>.;.;.X. .} ` ` ~ ` ' ` ] }  . .] ] ' ) ) ' ) _ ) ] ..O.X.6.S.[..X|.5._ _ B B B B B h B x n n m m M ~ ` { $.$.$.;.} X.X.:.>.>.O.O.o.o.>.3.6.7.7.3.>.X.X.] ' M M c x g a a a t p t t t t t t t u t g f f f f f f f z l c l c c c l l c l h z f f f f g g h f p 6 2 2 2 = $ % + + . . o o + X X X X X X X X - X - - - X - - - - > > > > 9 > 9 w V V V V V V w w w w w w w w w w w w i w w w w q e 0 w j Z I Y ",
"Y ( Y p.%.U U U Y &.&.i.i.s.f.k.H.K.K.L.E.~.,XiXkXjXnXnXNXjXiX1X1X>X>X>X>X=X,X3XyX2X2X1X,X2X1X=XQ.J.M.c.<.1.;.;.;. .=.;.X.$.$.{ ` ~ ~ ~ ` ' ] X.X.>.:...] ) ) ] _ ) ) _ _ | ....7.r.S.w.+._ ) ) B B B B v v n m m M J ` ` $.,.,.1.,.;.$.} ;.;.>.:.>.>.;.;. .o.o.>.>.>.O.X.X.X.` M n h a a f t p t t t y 7 7 7 7 7 7 p t f f u f g f f g z l l l l l l c l l z h f f g f g h n h g y 7 7 4 2 % @ + + . o o + o X X X X X X X X - - X - X - - - - - > > > > > 9 9 w w V w w w w w w w 9 w w w w w w w w w w w w w w e w i V S A T ",
"U Y U T U U L U @.&.&.i.i.g.j.H.H.H.H.H.L.W./.,XpXkXjXNXjXsXaX>X:X:X'.'.'.Q.'.1X2X1X1X2X2X2X1X=XU.J.b.<.<.,.=.=.} $. .$.$.} ] ` ` ~ J J M J `  .] O.>...] ) ) _ ) ) ] _ ] _ _ | o.5.8.O._ _ ! B b b B b v b M M J M J ` ` $.d.f.x.c.1.;.;. . .X.X.X.X. . .} } } { ] X.O.:.X.| ' M v h h a t p t d t t y 7 4 3 8 4 7 7 7 7 t 8 t u E E f g g z h l n c c l h h f h f f p g n J m x h p y 3 $ % @ + + + + o X X X X X X X - X X X X - X - - X X - - - - - - > > > 9 9 w w w w 9 w 9 9 9 9 9 w w w 9 w 9 9 w 9 w w V w j i i S A I ",
"I Y T T T T L Y @.%.&.p.s.s.k.k.l.h.h.h.L.L.W.=X,XpXkXjXkXiXyX>X=X'.Q.Q.U.Q.Q.'.>X,X1X2X2X1X>XQ.J.M.f.1.,.,.$.$.$.}  . .} { [ ~ ~ J J J M m Q ' X.O.X.| ] ) ) _ ) ) ) _ _ _ _ ..+.2.+..._ _ ! B b b B ) N B M M ) ` ~ ` { ,.c.M.B.M.b.,.;.=.$.=.$.} } } } { { ' ~ { ` ' ' ' ' ' N x s a d p d t t t y 4 7 7 4 3 2 3 3 7 7 7 t 8 8 E E f f j h h l l l c h f f u t f g f g m ` J n h p 3 & % $ $ % + + + o X o + X X X X X X X O X - X - - - - - - - - - > > > > > 9 9 9 9 9 9 9 9 9 w 9 9 w w w w 9 w 9 9 w w w i i V i V V A I ",
"I I I T U T U Y %.%.%.p.i.g.j.j.s.s.s.h.(.P.L.W./.,XiXdXiXpXyX:X'.Q.Q.U.U.U.Q.Q.'.Q.:X>X>X,X=XU.J.M.<.1.,.;.$.} } { { { { ` ~ ~ P J J M m J M ' ' X.| ] ] ) ) ) ! ! ) _ _ _ ..O.2.O..._ ! N ) B b N ) ) ) ) N N ` ` { { ,.f.M.J.J.B.B.f.1.,.;.$.=.} } $.$.$.{ [ [ ) J M M M ~ ) M x h g a t t t y 3 8 3 3 3 3 3 6 8 3 6 8 7 8 u t u f u E f f z h h h h g g u t t t g g h ` } M x g 7 4 3 3 & = = + +   + o + + X X X X X X O X X - X - X - X - - - - - - > - > - > > > > > 9 9 9 9 9 w w w w w w w w 9 9 9 w w i i V V V S Z F ",
"A I I U U U U ( %.%.%.&.i.j.s.*.i.*.s.s.h.v.L.E.!.].aXaXiXpXaX=XQ.Q.U.J.J.I.U.Q.^.W.Q.Q.~.~.^.J.M.x.1.=.=.=.$.#.[ [ [ [ ` ~ ~ ~ J J H H m m M Q ' X.| _ ) ) ) ! N ! ) _ ..+.2.7.2.+..._ N N ! N b N ) _ ) ) N ! ` { } 1.c.M.J.J.J.H.M.c.d.1.;.;.=.=.$.$.$.$.[ [ ~ J J n m b M n n x g a t t 7 3 3 3 3 2 2 3 2 6 2 3 3 5 2 8 8 u u u u E u f f h f g E u g u u t g u a g x J ` m m x t t t y y t * @ + + o + X X X X X X X X O X X X X X - X - - - - - - - - > - - > > > > > > 9 9 9 w w w w 9 w w w w w w w w e i i i i V C C A ",
"A A F I I T T Y Y %.%.%.&.i.i.*.&.$.&.*.-.s.h.P.W.~.].>XaXaX,X~.W.U.J.J.B.J.U.U.U.U.U.J.I.J.M.x.h.<.,.=.$.$.} #.[ [ [ ` ~ J J J M M m m m n M Q ) ' X.] ) ) ) ) v ! ) _ O.5.8.8.6.2..._ ) ! N N N ) _ _ _ ) ) ! { $.,.f.M.B.B.B.M.c.c.f.d.1.,.,.-.$.$.$.$.#.[ ~ J J J m n n c v h h a t t 7 y 8 3 6 3 3 3 2 2 2 2 2 2 5 3 8 8 8 8 u u u u t u u t u u t u u t f f p f g g x v J ' ~ n h x x ! b d * @ + o X o X X X X X X X X X X X X X X - X - - - - - - - - - - - - - > > 9 9 9 9 w w w w w w w w w 9 9 9 w w w V i i V S S S ",
"S A F R I T U U W W W W W &.@.&.*.@.@.*.*.z.s.h.L.W.E.~.=X].W.T.L.L.B.B.M.P.J.I.J.P.J.H.M.M.f.1.1.,.=.$.$.#.{ @.[ ^ ^ [ J J J J m H G b c m m m Q ' ..] ' Q ! ! ! ! _ ] +.+.2.5.5.+.+.+._ ) N N ! ! | | | Q ~ ~ } =.,.d.4.c.f.c.c.c.x.f.f.d.,.-.=.$.$.$.$.@.J J J J J n n c c v x h p p t 7 6 4 3 3 5 3 5 3 3 2 5 2 2 5 5 5 6 8 q 7 f q u u q u u t q t p q 7 f p g g s h h x `  .:.;.{ } :.m.4.v 4 < @ . . . O O O O X X X X X X X X X - X - - - - X - - X - - - - - - - > 9 > 9 9 w w w 9 w w 9 9 w w w w w w V V V V A A A A ",
"A Z A R F T T Y Y U U U W W &.#.@.W @.*.*.*.s.s.h.h.P.J.L.J.I.P.B.M.x.M.x.M.B.J.J.B.M.b.c.c.d.1.-.-.$.$.{ { [ [ [ [ ~ ^ J J J M m m m n m m m ! ) ' | | _ Q ! ! ! _ +.+._ _ ..+.+._ _ _ _ _ ! ) _ ..2.+.+...] ' {  .;.=.,.,.,.d.x.x.c.f.1.1.,.,.*.#.#.#.#.[ J H H J n H n l h h g g f y 7 7 6 3 5 3 5 5 3 5 2 2 5 2 2 5 2 5 6 6 8 7 q 7 7 7 t u 7 u 7 u 7 f f p f g g g g g v { <.0.0.4.>.9.m.X.n d $ @ . . . O O O O X X X X X X X X X X - - X X - - X - X X X - X X - > > > 9 w 9 9 9 9 9 9 9 w w w w w w w V V A A A I I I A ",
"A Z Z A F T U U U Y P P W #.&.W %.@.W W @.@.&.*.i.f.(.x.M.M.M.x.x.x.c.f.f.f.c.x.c.f.1.d.d.d.,.,.=.$.#.#.{ [ ` ^ ~ P J ~ J J H m n H m n c m m v ! ' ] X.] _ Q _ ..3.e.7.2.+..._ _ _ ) ! ) _ ) _ +.2.8.3.3.+.] ' }  .=.=.=.;.,.1.f.c.f.f.d.,.,.-.$.@.[ ^ ^ P J H n n n n c x l s g a f p y 7 3 4 5 3 6 6 6 4 5 3 2 5 2 5 5 2 5 6 8 7 q 7 q 7 7 7 q 7 7 t 7 7 7 p p p p 6 t p c M { 3.m.m.9.0.9. .n 4 $ % + . . . . O O X X X X X X - X - X X - - - - X - X - X - X X - - > > 9 9 9 9 > > > > 9 9 9 w w w w w w V V A A I I I A A ",
"A A A A R K T U U U L T W @.@.&.W @.P ^ W [ @.#.*.g.h.h.x.h.h.f.f.f.f.d.d.1.1.d.<.1.1.<.1.1.,.$.$.$.{ [ { ` ` ^ ~ J J J J J H m n m n c m x m m ! ' _ | | | | 2.e.t.y.e.2.2.+._ _ _ _ ) ! _ ] +.2.2.8.q.8.+.' ' }  . . .=.=.=.=.,.d.d.1.,.-.-.#.[ [ ^ P P J H G G n l l l l z g g f p u u 7 6 6 6 4 6 6 6 6 5 5 5 3 2 2 2 5 3 6 6 8 7 6 8 8 6 8 7 7 7 q 7 7 7 6 6 6 5 3 7 7 t g m | :.>.4.m.4.{ M 4 $ $ . . . O O X O O O O O O - - X X X - - - - - - X X - X X X - - - - > 9 9 9 > 9 > > > 9 9 9 w 9 w w w w w V V A I I A I I ",
"A F A A A R K K K T L L P W W W W W ^ P P P ^ @.-.j.h.h.f.f.f.s.s.d.<.s.,.1.,.1.<.<.4.<.1.;.;.=. .$.{ } { ` ^ ~ J J J J H M n H n n c m c n v b Q Q ] | X.X.+.2.0.7.t.8.5.+.+.+._ _ _ _ _ | +.5.8.8.8.8.3...] }  . .} { { =. .=.=.,.,.,.-.=.$.@.^ ^ P J H H G G D c c l l l z g g f f u u 7 7 7 6 8 8 8 7 8 6 5 5 r 2 2 5 2 5 5 6 6 6 5 6 6 6 6 8 7 7 7 6 6 6 5 2 2 < 2 2 3 3 t h n Q ` X.4.:.{ x 4 $ @ . . . O X X X - O O - O X - X X X X X - - - X - X X X X X - - - > > 9 9 9 9 9 9 9 9 9 w w w w w w w w V V A A I I I I A ",
"F F F F R Z Z K K K G G K P P / W P P P P P P @.*.s.s.d.s.s.s.-.-.-.-.-.-.=.;.;.<.b.9.9.m.D.9.:.;.} } } } ` ~ J J J M J H H H n n n c c x m v b ! ~ ] | +.2.3.8.7.7.w.e.e.5.+.+.+._ _ +.+.8.e.r.y.e.8.w.3.o.3.2.o.X. . .} } { #.$.$.=.$.$.*.#.@.^ P L J G G G G D c c l l g h z k f f f f u 7 7 q 7 7 e q q 6 6 5 5 2 5 2 5 5 5 6 5 2 8 5 5 2 6 6 7 7 6 6 5 3 2 : : = < 2 2 3 t p h x J '  .X.' h 2 % @ . . . . X X - X - O O - - X X X O - X - - - - - - X X - - - - > > 9 w 9 9 w 9 w w w w w w w w w w w w V V A A I A A A I ",
"I F F I A Z Z D A K G D H H L U W P W H L P ^ W W -.s.*.*.-.-.*.*.$.=.=.$.=.;.<.c.m.m.G.F.XXG.9.;.;.;.X.} ` ~ J J M H H m H H m G n c m c x m v ! Q _ ..2.2.3.q.7.2.3.2.5.5.5.+.+.+.+.+.2.e.y.).t.t.r.r.7.3.3.7.3.:.:.o. .} } } $.=.*.$.$.#.[ ^ P P J G G G n D c l l z h j z z z k k j k f u q q 7 u q u 7 6 6 5 2 2 2 2 5 6 2 5 3 5 5 2 5 6 6 7 7 7 5 3 5 > : : < $ < 2 2 7 4 t s x M `  . .~ 4 & @ + . . . . X X X - X - O - O - O O X - X - - - - - - X X - > > > > 9 w w w w w w w w V V V w V w w V w V V A V A A A I A A ",
"A A F F R A Z Z Z D D D D H K P W W P L G H P [ W &.#.#.$.*.*.*.#.#.#.#.} =.<.9.m.[.XXXXXXOXF.0.>.<.:.X. .` J J m J n n G H H n n n c x c x x m Q ! Q ' | 2.7.8.7.+.2.3.5.5.+.+._ _ _ +.O.e.).)._.{.{.).A.7.8.r.8.3.o.o. .} { $.$.$.*.$.*.#.^ P P J J G n G D D l l z g j f g l l l l z k f u u f q j f i u 6 6 6 5 5 6 5 5 2 5 5 5 2 2 5 5 5 7 7 7 6 5 2 2 > > < : < < = 2 3 4 t a a l `  .{ M y $ @ @ . . . . X X X X X X X O - O O O O O X - X - - - - - - > > 9 9 9 9 9 w w w w w w V V V V w w V V V V V V A A A A A A A A ",
"A S S A R Z C Z z Z l Z n G R H L L G G G G H P P W [ [ @.&.@.[ @.[ [ $.;.>.n.D.XX4X.XOXOX4XF.m.>.4.>.;. .` J M m m H n n H H G n c c c x x v m m ! ! Q ) | +.2.2.2.e.r.e.7.2.2.+.O.2.7.5.t.}.+X%X%X XA.w.w.w.A.q.3.o.|  .{ { { $.$.$.*.$.@.^ ^ P J G G D c c l Z l z g j k k l D Z l l z j j j j k V l j j q q 6 8 5 6 5 3 5 5 6 2 5 3 5 5 6 6 7 8 5 2 2 r 2 : $ : $ = = < = 3 y a h x ' ;. .~ y $ @   . . + . X X X X X X X X X X X - X X - X O - - - - - - > > 9 9 9 w w w w w w w w V V V V w V V V V V V V V V V A A A V A ",
"S V V A A C z j E z z n n D n H D G D G G n G H L P W [ [ W [ W [ ^ ` $.4.0.V.XX7X5X4X5X;XOXG.m.4.3.>.;.} ~ m J J m n n n n n n n c x c x c v N N m b Q _ | o.8.t.|._.|.A.w.2.2.2.8.r.t.[.}.+X%X&X%X{.t.e.8.w.A.8.3.o. .] { { { $.$.*.$.#.@.^ ^ L J L G G D l l l z z z j z k D D Z Z C V k z Z A R Z C V k f q q 7 8 8 6 5 6 5 5 5 5 5 5 5 3 7 7 8 6 5 2 2 : : : $ $ < = $ = 2 3 t h v { X.} Q a & @ @ + +     X o X o o X X X X X X X O O O O - - - - , > > 9 > 9 9 w w w w 9 w w w V V V V V w V V V V A V V V V V A V V V V ",
"w i i E V j j f f g l c l n G J J n D D n n D G H H L J J P P P J P [ ;.9.C.XXrXlXgXfXgXtX5XF.V.9.>.:.X. .` J m m m n n n n n c c x x x x x m v b m ! ) | ..3.).+X%X%XoX[.).e.7.r.|.$X8X&X&X8XeXeX9X+X).A.w.w.w.7.3.o.| ' ` { #.$.=.*.#.#.@.^ P P P J G c l l l j z z g k k l D Z D Z Z A K F K K A A Z C k f q u q 8 8 8 8 6 5 6 5 5 5 3 5 6 7 7 8 5 2 r > : : : : $ : $ $ = = & 3 t s J ' ' J s & @ @   +   + o X o X o X o X X X X X X O O X O - > > > > > > > 9 9 9 w w w 9 w w V w V V V V w V V V A A V V V V V V V w V w ",
"e e e w w E u q g z l c c H J ~ } J n c l l c n n n G H H L J H H J ~ ;.m._.qXlXlXzXlXzXgXwX.XG.9.>.;.X.X.} ~ M M M n v c c c c x c c x x v N m b v Q Q ) | +.7.A.%X8X%X}.).t.t.oX9XrXeX9X0XrXfXfXeX9X$X|.).A.t.q.2. .] ' [ [ { #.-.$.*.$.@./ ^ P L G D Z l k j g g j z k l Z Z D R R G K K K K K K Z Z V k j q u u u q e 8 8 6 6 6 5 3 5 6 6 6 7 8 5 2 2 > > $ $ , % % % @ @ $ $ 2 3 a M ' ~ M M 4 $ @ + @ + @ X o X o o o o o X X X X X X X - - - - - , , > > > > > 9 9 w 9 9 9 w w V V V V V V V V V V V V V V V w w w w 9 w ",
"9 9 5 9 e e q q f l c c Z m ~ { } ~ H n c l n m n n l D D H G H H H ` <.G.4XrXlXzXzXlXzXlX8X4XZ.4.>.;. .}  .} ~ M M n n c c c l c x v v m v m N b m Q Q ) ] ] X.0.).oX+X).A.t.).8XeXfXgXfXfXgXfXrXeX9X%X+X).).).r.5.X.] ' { [ [ #.#.#.-.*.#.@.@.^ P L G c k k f f j j z z k Z C D K K R K K K K K A A Z C l j f u u q i q 7 e 8 6 6 6 6 6 6 8 7 7 6 5 2 r r : : , % % % # @ @ % = 2 3 s M ~ ) m n 4 $ $ @ @ @ @ + . . o o o o o o X X X X X X X O - - > > > > > > > > 9 9 w 9 9 9 9 w w V V V V V w V V A A A A V w w w w w 9 9 ",
"5 6 9 5 6 8 6 7 p z l n x c H ~ } } [ m G n n H n c n l l l c n n J { 4.G.7XrXlXzXlXzXlXlXrX;Xq.4.>.X. . .X. .` J m n n c c n x c x m v v v v v b Q ! ~ Q ' Q +.7.e.).).t.e.A.).&XeXfXfXgXfXfXrXeX0X%X+X+X}.}.{.w.7.X.| ' ' ` { { #.#.$.#.#.*.@./ P P L D k k j f j f j z l l C R K R K F A A K K K Z C C C z j j f u u q q 7 7 7 8 6 6 6 6 7 t 7 6 2 5 2 < < : : , % % O @ # $ & 3 a h M J c x v 4 = $ % $ = % % + . . o o o o o X o X X X X - - > > - > > - > > > > 9 9 9 9 9 9 9 9 w V V V V w V V V A A A A V w w w 9 9 9 9 ",
"5 9 9 6 6 6 8 8 u f z n l l n J [ }  .[ J n m J M J m c l l l c m J $.0.F.;XgXlXlXzXlXlXlXfX#XG.<.O.X.} '  .' ~ N m n c v l c c x x v m v m m v b m ! Q ) Q ' | 3.8.e.w.w.r.y.A. X8XeXeXrXrXeXeX9X9X%X+X XoX X{.r.7.O. .' ' ' ~ ' [ [ @.#.@.#.@./ P P K G Z j f z f j j j j j k Z K R A A A K K K K K Z Z C V k f f u u u q u 7 7 8 7 7 7 7 6 t t 7 8 5 5 r < : : , % # O @ = 2 7 a h h v h h a y 4 & $ = @ $ = $ @ . o o o o o o o o o X X X X > - - - - - , ; > > > > 9 9 9 9 9 9 9 9 w w V V V V V V A I A A V w 9 9 9 9 9 9 ",
"6 9 9 6 6 6 8 7 7 t a l l h n m J { :.;.J J ~ ` J J M l h h h c m ` ;.n.OX7XgXlXzXlXlXlXlXfXqXF.4. . .' } } ~ M m n c v l c h c x c c x x x m v m b m ! Q ' ] ..3.3.q.e.t.t.r.t.|. X@X&X9X9X9X0X9X9X%X+XoXoX X{.w.6.o.| ' ` ` ~ ~ ^ [ ^ ^ / &.*.#./ L L D l z l z j j f j j j j C D Z Z Z Z Z A F K R A A Z Z l j j f f f f u u t q u 7 p 7 7 f g p 7 6 2 2 < < $ % # # % = 3 y d x g a g a t 3 3 3 & % @ $ @ $ @ @ X o o o o o o o X o X o X X - > - - - - > , - > > > 9 9 9 > > 9 9 9 w w V V V V V A A A A V w w w 9 9 9 9 9 ",
"0 e 6 6 8 6 6 7 7 p g h f h n G J ` ;.;.{ ` } ` m m m c l h c n H [ :.F.;XtXgXlXlXlXlXlXlXgXtX[.3. .' ' ` ` M M m n l v v l h l l l x x c c b b b b m Q Q ~ ~ ..o.3.8.e.A.w.e.e.r.).).|.}.#X&X9X9X8X@X$XoX{.[.).w.2.X.| ] ~ Q Q J J ~ J J ^ @.#.&.@./ L L Z Z D D z j u j j q j j S Z S Z S j S A F A R D Z C k k j h k h g f f t u u u p u t g f u t 8 5 2 r : : $ $ % $ 3 y 4 t p t y t 5 9 > 3 $ $ @ @ @ @ @ @ @         o o o o o o . . O O # , - - , , : : , > > > > 9 1 9 > 9 1 1 q w i i V V V A A A V w w w 9 w 9 w 9 9 ",
"e e e 0 5 6 5 6 7 q f g f f h n m ~ { ;.} } { ` m H m m n c n n m ` :.n._.OXfXlXlXlXlXlXgXfX5XF.<.} ` ` ' ' ~ M m n n l l h h l c c c c n n c b b m b Q ~ Q ~ | X.3.7.8.w.e.8.8.q.w.t.r.y. X8X&X%X$X#X#X X).).).e.+.| _ ) ' Q ~ M J J H G J P U P / U P K D D G R C j j q q q q w j j j V j C V Z S Z A A Z C k j j j l n l z f f f f u u g g f g t t 6 2 2 < : : $ $ $ $ 4 4 7 t 4 7 3 3 1 > > & $ @ @ + +   @ @           o       o     o . O # - , , ; > > > > > > > > 1 1 1 > > > > > 9 q w w V V V A V V w w w w 9 9 9 9 9 ",
"0 0 q 6 5 5 6 6 6 7 7 t u f f n H J { } } } } J J m n H n H n n c H ` { 9.G.qXgXlXlXlXlXfX9XOX_.4.] ` ) ` ` ` J n b v x h l h l c c c G G n n n n b m m ~ Q ~ | | O.3.8.w.7.7.3.2.7.7.2.r.}.8X8X X X X}.|.).).t.6.+.| ) ' ' ' ! b m n m n n G G L L L K L T K K K D k e q 8 e 9 e j j V V j V j j V V S C C C j f j j n n J m n c z h f f E f t u u 8 8 6 2 2 : $ < < $ 2 4 4 4 3 3 3 3 3 3 > > $ $ @ .     + @ @ @ @       o       o     o . X X X - - , : > 1 > > > > > > 1 1 1 > > > > 1 9 0 w w w V V V w 9 9 9 9 9 9 9 9 9 ",
"6 6 9 6 6 5 5 6 6 6 7 7 t f f c J ` ` } { } { ` J m J H n c c n c n m J ;.q.OXfXlXlXgXfXtX;XXXD.9.X.` ~ ~ ~ Q M M m n l v l l n G n G H ~ H H m H m ~ H Q Q ~ ] X.O.3.7.e.q.3.o.2.+.2.2.7.y.%X%X#X}.).).).S.r.w.6.X.` ) ) Q M m v x l x l l c l c D G K L P L K Z k q 6 6 5 2 5 0 e e j j i u i w w i i V j j i f f f n H J ` J H n l l g f g u u t t 7 6 2 < = : $ $ $ 2 3 4 3 2 3 y 3 3 < - > $ @ @ + @ +   + . @ @   .   o o o       o o . X X X # - ; : > 1 > > > > > > 1 1 > > > : > > 1 9 w w w w V w 9 > > 9 9 > > 9 9 9 ",
"5 6 5 5 5 6 5 5 8 5 8 6 8 u g n J } } $.[ ~ J J m n G c l l c l c l n M } 4.XXtXfXtXrXrXwXOX_.V.9.>.| ` ~ M m n n n n x l l c D G J H P ^ H ~ J ~ ^ ^ ^ ^ ~ ~ | X.>.3.3.7.3.+.X.| o.+.+.+.r.oX+X+X X|.).).).w.8.2.' ! ! ! m b x h h s g g g k l l Z l D D K K Z j u e 6 2 r < 2 5 5 8 u u q q q q q q i u i u u f f z n ~ J J J J m c l k h f f g t t 8 8 5 r : $ $ $ $ & 2 4 2 3 t 3 2 > - - - @ @ + +       @   @ @ @ . . .   .   .   . . . . . X X # - : r r > > > : > > 1 > > > - , ; : > 1 w w w 9 9 9 > > > > > 9 9 9 > 9 ",
"5 5 5 5 8 5 5 6 5 5 5 8 7 u h c m { } } J m n n c c c c D c D l c c l n J } >.G.OX#X5XqX5XXXZ.0.>.<.:.] Q n v v l b c v c c c n G ~ L ^ ^ ^ ^ ^ ~ ^ =./ ^ ^ ^ ] X.3.3.3.2.3.o.X.X.X.X.| | 3.t.).A.).}.).A.t.3.2.| ) b b b v x x a g p g f f h f k f k k Z D D z i 0 6 1 2 : : 2 5 5 0 e q e q e 0 0 0 7 q q u u u u f c m ~ J m G m H n n l l g u u t 8 8 5 r < : $ = $ $ = $ 2 3 & = $ - X - X @ @ @ @ @     + @ .   .     .   @ @ @ @ . .   . . X + - # , > > > : : > 1 > : > : : , , - - > > 9 9 9 9 9 9 > > > > > > 9 9 9 9 ",
"5 6 3 5 6 6 9 5 6 5 q q 8 u u z J J ` J n h l l Z R H K K D D D D D l h x ` X.>.V.XXXX.X#XXX_.9.;.X.X.X.' m v l v x l c c n n G H H P ^ / ^ #./ ^ / / } } ^ ~ X.o.o.:.3.3.O.o.X.o.o.X.X.| +.7.e.e.w.).).t.w.7.X.] ) N B x B s s p p g p g p f f u u f j z Z Z i q 0 5 < > : > > 2 5 6 0 0 e 0 0 8 8 q 8 7 q 7 u u u u f g l m c n n m G m c l h g u t q 7 3 5 < $ $ $ % % @ $ $ = $ $ @ X X X X @ @ @           @ @ .   @ . @ @ @ % @ @ . . . . . X X # # - : : > : > > > : > > > , : , ; ; : : > > 9 9 9 > > > > > > 9 > 9 9 9 ",
"5 5 5 5 5 6 6 9 8 8 e q q q u g h l l k h l l l G P U W / P H G G D l l l M } ;.3.0.D._.XX{.G.4.X.X.>.;.X.' M n c v v l c c n H P ^ P ^ ^ / ^ $.#.$.$.$.} } ^ X.o.2.3.7.7.3.>.o.o.2.o.+.....2.7.7.8.w.r.e.e.3.| ) b v s s s s x s p p p 7 7 t t t u i j z C k i q 5 5 < 2 > 2 5 5 6 5 6 5 9 6 6 8 7 u f f u u f u u t u u f h l k l n m n n n l f g u t 8 7 6 < : $ $ # % @ % % % @ @ + X o o X + @ @               . @ . @ @ @ @ @ . . .   .   o . # # # - - : : : : : : > > > : > : > : , : < > > > 9 > 9 > > > > > 9 9 9 > 9 ",
"5 5 5 5 5 5 6 0 e q q q q u q f g g f k k k l K U P Y Y W W U L G G c l h n ` } ;.3.V.G.S.D.3.:.X. .X.X.X. .M v v c h v l n D H ~ G K ^ / ^ ^ / #.$.$./ } ^ X.:.o.q.e.q.q.7.3.3.>.2.O.o.O.O.2.6.6.7.2.7.5.5.O.+.) v s d s s s d a a p 7 4 6 6 7 7 q u j j k j q e 5 2 > 2 2 5 5 5 5 5 5 5 5 5 6 8 u g f g f g f f t u u 8 t u h h l l n n n n n h f f q 7 7 6 r $ % % % # @ # @ X X X X X X X o . . .   o o o . . . . + @ @ @ @ @ @ @ .               @ # # % , : : : , : > > > : 1 : : 1 : 1 1 1 5 1 5 1 1 5 5 9 9 9 9 9 9 9 9 ",
"5 5 5 5 5 5 6 6 e e q q q q q p f f f f h k Z U U Y @.%.%.@.W L L T D k l v ` } =.:.9.m.q.>.X. . .} } ]  .` Q m x v l l n n n H F ^ ^ ^ ^ ^ ^ / / *.-.} } }  .:.3.q.q.9.8.9.7.3.3.3.2.2.2.2.O.2.5.+.O.2.O.+.| ] ) b B d d d d s a p y 4 6 3 6 6 8 7 q i j j u e 6 1 r < 2 5 6 5 5 5 5 5 5 5 6 7 t f z g g f j f f u u u 7 8 u f f g h n c n c n k f p 7 7 6 6 2 r % % @ # @ @ + X X X X X X X o . . o   o o o o .     . @ @ @ % $ % @               . @ O O # - - : : : : , : : : : 1 1 1 1 1 5 9 5 1 5 1 1 5 5 9 w 9 w 9 w 9 9 ",
"5 5 5 5 6 9 0 e e e q q q q 8 7 u f f f z l Z K Y @.%.&.&.p.%.W U L l k h h M ` ` ] X.>.>.:.} } { ` ' } ` Q M n c h c c l D n G ~ G ^ ^ ^ ^ ^ ^ / #.$./ / } X.:.9.q.q.6.3.3.9.3.3.3.3.O.5.7.2.O.2.O.O.+.| ] _ ! b B s d y y d d 4 4 3 3 3 2 3 3 6 6 q u i j q 0 2 1 1 1 2 6 9 6 6 6 5 6 6 0 q q f f g l z h f f f u f t 7 8 t u f g h l l l h l f u 7 7 7 6 5 5 < $ # # @ + . . X X X X X X X X X . X o . o   . .   @ @ @ @ @ @ @ @                   . . O .   - : : : : , $ : : 1 < 1 1 1 1 1 1 5 1 : 1 1 1 6 9 9 w 9 0 0 9 9 ",
"8 5 5 6 0 q q q q u q w u q e 7 7 q u j j l G L Y @.&.i.a.i.*.%./ K l z g h l M M ~ ~ ' X.X.X. .` ) ' ' ` M m n c h l l n n n H G G G G ^ ~ ^ ^ } #.-.$.;.} ;.3.6.9.7.9.3.3.3.q.7.3.3.2.2.7.7.2.O.+.+...| ) N N B s d y 4 4 * * * 3 3 2 2 2 2 5 6 6 q u q q 9 9 > > 2 5 6 e 8 9 6 q 7 8 7 q u u f j f z h l h f g f g t 7 8 8 t q f f h h f f g u 7 6 6 6 6 5 2 : % # # O + . + X X X X X X X X X + X X . o   . . @ . + @ @ % @ @ @   @                 o . . o # % % - - # % : : : : : < : 1 1 1 > : : : : 1 5 9 9 9 9 9 w 0 w ",
"6 6 0 6 e q i q i q i q q q 0 e q u f f l l G L Y &.&.s.g.z.s.p.W D l g z g g v m b m M '  .X.X.] ` ' ' ` M n n v h l c c c n D D D ~ D ~ G ^ ^ / $.} ;.} =.;.3.3.9.9.0.0.3.>.3.3.3.3.3.>.6.6.6.5.3.O.o._ ! N b B d y 4 * 3 * & & 3 & 2 < < 2 6 5 6 q q q w 6 5 1 > 5 5 9 e 7 e q 7 q q q e f f j j g l l h l h g f u q 8 8 7 6 7 f g f f f q f 7 8 8 8 6 6 3 2 > % # # O + . X X X X - - - - - # # X X X o . .   @ @ @ @ @ % % % @ @   @         o           o . @ # @ @ # # % $ $ : : : : : : ; : ; % ; < 1 < 1 0 6 0 9 0 0 0 ",
"q 8 6 0 0 u i i j j j q q q 0 7 7 q u j k C Z K %.p.p.g.l.k.j.p.U D z g f g p g h h n n m ~ ' } } ' { ` M m x x h z h c c c c n n H D Q H G ~ ^ ^ } / / } ;.3.3.q.q.q.w.w.3.o. .o.:.o.X.+...+.O.O.2.O.+.! N b v a y 4 3 & & & = & = $ = < 2 5 5 6 6 e e e 5 2 1 > 2 5 9 9 e q q q q u u f j j j j f f k l h c l g f t 7 8 7 7 8 8 7 7 f 7 7 7 8 8 8 9 6 6 6 6 3 : % # # O O O O - - - X - - - > - - - X + X o X .   . @ $ @ @ @ @ @ @ @ @                         . + + X . + # + % + $ : $ $ $ + : % ; $ < < < 6 1 6 6 w w q 0 ",
"q e e e 8 q q j j i j i q q q 8 7 q f f j l G U p.i.a.l.l.k.g.*.U G l z f f f p g g h v n b ` ' ' ' ' Q n v x h h l l h c c c c n c c H D ~ ~ ^ ^ / ^  .>.4.q.V.A.w.Z.S.V.3.:. .}  .| ' ) ' ] ] ....| ) b B B a y * 2 & & = = = $ < : 2 2 2 5 5 6 6 6 5 5 5 5 > 1 1 6 9 8 e q q q f f z k f k z l f k l h z h z f E t 7 6 8 7 6 6 7 8 8 8 7 6 5 6 6 6 5 5 5 5 r $ % # # # X # # - - - - - - > > > - - - - X o o     @ @ @ @ @ @ @ @ @   @ @                           . . . + @ + $ + $ + $ : $ : + + : ; < < 1 1 6 6 6 0 q q 0 ",
"q q q 7 0 q w i i i u i q q q q q q E j z C Z U &.z.j.j.j.j.z.%.U L c z f p g g p g h x b n ` { { ' ` ` m c l h h h h c c v c c c c H c ~ G ~ ~ ^ } ^ 3.3.0.m.w.0.0.0.V.V.q.3. .] ' ` Q M N M ) ) ` ! N B s a y * * & & = 2 < < < 2 2 1 2 2 5 5 1 5 1 < < > 1 > 1 5 6 0 q q 8 q q j l l l l z l C j j h l l c h g f t 7 7 7 8 7 6 6 6 6 6 8 6 5 5 6 9 5 5 2 3 2 : ; - # # - - , > - - > - - > > : > : - - X o . .           @   @     @   @ @ @                       . . @ @ @ + $ $ $ $ < $ $ $ $ % $ $ ; < 2 2 6 6 q q q q q ",
"q q q 0 0 8 q u q i q w q q q q q q f f l Z K U &.g.g.l.g.g.p.@.P R Z z g p a u g h v n b n M Q ) ` ` ` M c x h h c c c v c n v n n n ~ D ~ ~ ^ ^ ^ 3.3.4.0.3.3.:.>.:.3.3.3.O.o.} ~ ~ ! c x s x v m b B d d y 4 & & $ & < 2 2 2 2 5 2 5 2 2 5 5 2 2 : : > > 5 5 2 5 9 9 q q q u j k l D Z l Z C C k j k h c c c g f 7 7 7 7 6 6 7 4 5 6 5 5 5 5 5 9 5 5 1 r r > - - - - - - - > > > > > 9 > > 9 > > > , , # . o             +   @   @     @ @ @ @ @ @ @   @             @ @ @ % $ $ $ $ & & = = $ $ % $ $ : 2 2 5 6 e q q q j u ",
"u q u q 8 0 0 q q q u q q q q q q u u j l Z G ( i.g.g.g.g.i.%.L P G l z f g f a a h c M M m m m J ~ ) J J v x h h b n v c n n c n n c n n ^ K ^ ^ 3.:.3.3.3.:.X.;.o. . . . .} ] | ~ Q v s h g s a s s s d y 4 3 & $ $ = < 3 2 6 6 6 5 5 5 2 > > : : ; ; $ > > 9 9 9 9 0 0 w q u k l Z D G Z l Z V k f k k k l n k f f 7 6 6 6 6 7 7 6 6 5 5 5 2 5 5 9 9 5 1 r : > - - - - > - > 9 9 9 w w w 9 9 9 1 > - - O X o                         @   @ @ @ = @ @ @ @ @ @   + @ @ @ % @ = $ $ $ & 2 2 2 & = $ $ % $ : 2 2 6 8 7 q u u i j ",
"j i u q 0 6 e q q i u i w q q q q q u k Z K U p.g.z.g.g.i.p.W U K R z f p g a u a h b n M n m n n m n n x l h l l n n c v v c n n c c c D G ^ ^ } X.X.o.;.;. .X.o.X. . . .} ~ Q Q Q ! c h s a a p p y y y * 3 = & $ $ < < 1 3 6 6 6 6 6 5 1 : < > : : - ; : > 2 5 9 0 0 q q u f k l G D G Z C Z z k k k k k l l l f f 7 7 7 7 6 6 6 4 2 r 2 1 1 1 9 9 9 9 5 r : > > > > - > > 9 9 w w w w w 9 w 9 1 > , - # X X o .           +     @     @ @ @ @ & * & & @ @ @ @ @ $ & * * & & = = & 3 & * 3 3 & $ $ $ $ < 2 2 5 8 e q u i j j ",
"j u i q q q 0 q q e w q f w i j j f j C G L %.i.g.g.i.g.j.&.%.L G z g g f u u a g s c b v x x n v x h s g h h h x l b b n n n M Q Q n H ~ ^ ~ ~ ^ } =. . . .X.;. .X.} } ~ ~ ~ Q ! c x x x g a t t y 7 3 3 & & < < < & < 2 2 1 5 5 6 6 6 5 2 1 2 1 : : : $ : > > 5 5 9 0 q q i j l D G G G Z Z l Z z C C j k k g g f f u 7 7 7 6 6 5 5 > r r 1 1 1 9 9 e 9 2 : > > > > > > > 9 w w w V V w V w w w 1 > > , , - - X X @         +   @     @ @ @ @ & & * * & * $ = & * d d d d * & & $ 3 3 2 3 3 3 3 $ $ $ $ > 2 5 5 8 q u i j z z ",
"j f j q 7 e 7 0 q q u i i u i j k k j l R U &.i.g.z.a.g.g.p.%.P D z a f g p f p a h x h x h h v h a g a a a h l l v n n m m m ~ ~ Q n c G ~ ^ ~ ~ ^ ~ }  . .o. . .^ ~ | ~ ~ Q c x x x x g g a t t t 6 3 3 3 3 1 3 < 3 2 5 1 2 5 2 6 e 6 9 5 5 5 2 5 1 : , : > 5 9 1 9 e w w j z Z G D G D Z Z Z Z D S C C C k j j f f f q 7 8 6 4 2 2 > > : > 1 > 9 w 9 e 1 > 1 9 > > > > 9 w w w V V V V V V w w 9 > > > > , , # + X               @ @ @ @ & & * * s d 4 3 * 3 * 4 a v B s d 4 3 3 4 3 3 4 4 4 3 * $ $ & : r 2 6 8 q u j k j j ",
"i i f u q 6 0 q q q q q u i j z z C l Z K / p.i.z.g.s.g.g.i.&.L Z z z f f f f f f g h v c s s g t 7 t u u f g a h v n m J ` ' ` ~ n ~ H ~ ~ ~ ~ H ~ ^ ] }  . . .| ~ ~ Q Q Q ! v g h s s a t u t t u t 7 6 7 6 7 6 5 5 5 3 2 1 2 5 6 6 0 6 0 6 9 0 9 9 5 > : > 1 1 5 5 9 e w k z l D D K G Z Z G R R F Z Z C k j j f f f f 7 4 5 5 2 2 > r 1 1 9 9 9 9 w 9 1 1 9 w w w w w w w V A A A V V V V V w q 9 1 1 1 1 > : # X .       + @ @ @ @ @ @ = * * B ) B s p y 4 d a s N _ ) n s d 4 7 3 3 4 4 4 3 2 2 $ $ 2 < 3 6 7 q u j j j j ",
"q u u q 0 6 6 5 6 6 0 u i j j C C Z Z K %.%.&.a.g.g.g.j.j.i.@.K D l E g g E f f f f a l x p t t 7 7 7 t 7 t f g s l M `  .} } ) ~ H ~ H ^ ~ H ~ ~ ~ ~ ~ ~ } ~ ~ ~ ~ n n ! x x s t a a u t t t u u f f u u q q 7 6 6 5 3 1 1 < 1 5 5 0 8 e 0 e q j w w 9 2 > > 1 1 > 1 1 0 i j k l D G K K D G R R R R F A Z C V j j q 7 8 6 5 6 5 > 2 > 5 1 9 9 9 w w w 9 9 9 w V w w w V V V V A A V V A V A A V i 9 9 9 5 5 5 : # X . .       @ @ @ * % $ * * s B ) ) b B s a a a v ) X. .! v s d d d 4 4 7 4 3 * & = & : 2 2 3 6 u u u f u q ",
"7 q q q 8 6 6 6 5 5 6 q i z z Z Z G K U ( %.i.a.g.l.k.j.j.p.&.K D z g f z g f f f p s h a p t t 7 7 7 t 7 7 t p h m ` ' } ' ` J Q H ~ ^ ~ ~ ~ D H ~ ~ Q ~ ~ ~ Q ! ! x x h h g u t t t t t t u u f j k u u u u 7 7 7 5 1 2 < < 5 5 5 0 q q q q j V j w 9 > > > > 9 1 9 1 0 q f j l l Z D K K K K K K T T I R Z C k i q e 8 5 5 5 5 9 9 9 9 9 9 e w w w w 9 e w V V V A V A V A A A A A A A V A V S i i e 9 1 5 > % # + X .           @ @ @ = * d B ) _ _ ) N n b N B v ' X.X.` b h s s s a p d d 3 3 2 & 2 & $ 2 2 6 7 8 q q q 7 ",
"8 6 6 e 8 6 0 6 6 5 6 5 u j z D Z K U U W &.i.g.j.l.k.k.j.s.&.L D z z g g g f f f f s p f p p 7 t t t u t p g f s M ` ` ` ~ H H H ~ ~ ~ ~ ^ H H H ~ H c m m c c c s t u h t t t t t t 6 t 6 u i g z k k i t q q 6 0 5 2 2 < > 1 1 5 0 w q i j j j j w 5 > > 5 5 5 9 6 9 e q f j l C Z D K G K K I I I I I A Z C V w w 9 9 9 9 9 9 w w w w w w w w w w w w V V A A A A A A A A A A A A A V A V A V V i q 1 1 1 1 % # X X .       @ @   @ * * * d ` X.X.X.' ) ) ) ) ) ) ` X.o. .M v h B x s a y 4 3 3 3 & 2 & < = 2 2 6 6 7 6 6 4 ",
"6 3 5 8 6 8 7 6 6 6 2 2 5 q j z Z Z G L U W &.a.h.k.H.l.l.j.%.L R l z g g f g f d p u f p t t p t t t p f t p h l l m M M m n J G ^ ^ ^ ^ ~ ~ G H H m H l c h g h h t t t t t y 4 3 3 t t u t i i k j k u i u 0 6 5 5 2 > > < 2 5 5 0 q q w w j i w e 9 9 1 1 9 5 6 9 8 e q q j k l l Z Z K A K A I I I F A S V V w w w 9 9 9 w w V V w w V V A V A V V V V A A A A A A A A A A A A V A A V A V V V i w 9 1 > > - # X X + o .       @ @ @ * d B ] 6.3.O.X.X.X.] ] ..' ] X.O.o.) N v v B h a d 4 3 3 3 3 & & = = < 2 3 6 6 6 5 3 ",
"2 2 3 5 6 6 0 5 5 5 2 > 2 6 u j l C Z G K L U &.i.s.g.j.j.p.W L K c l z g g z E f u u p 7 p u p f p f g g g g l z n c G G H L ^ ^ / ^ ^ ^ ^ ^ H H H G c x g u u t t t y t t t 3 3 3 3 6 t u i u u j f i u u q 0 6 0 5 < : > : > 1 5 5 e e q q i w w e 9 5 > 5 9 9 9 q q q u f f j j k C Z A F K A I I I A A V V w w w 9 9 w w V V V A A V A A A A A V A A A A A A A A A A A A A V A A V V A A A S C i w 9 9 > > : # X @ X . . . @ @ @ @ @ * d ! ] 6.3.X.X.>.O.O.O.>.X.+.6.Z.6.X.` ! N v s a a 7 4 4 3 & 3 2 & & 3 & 2 3 5 3 2 2 ",
"2 2 2 2 2 5 5 5 2 2 2 > 2 5 8 u f f z Z D G L U / &.&.&.&.%.@.P L G l l z g f g g u p f f g f z g f f g h l l c H H L H J P ^ [ / / / ^ ^ ^ ^ L ~ H c c k h u t t t t 3 3 3 3 3 1 2 1 3 6 u u u u q u e q q 7 6 2 5 < : : : % : < 1 5 0 e w q i w w 0 9 9 5 9 0 e q q q q f q f j f j S Z A F I I I I I A V V i w w w w 9 w V V A A A I I I I I A A A A V A A A V V V V A V V A V V V A V A V A A V V i 0 9 1 > : # # . . + . @   @ @ @ @ * d B ` X.X.O.9.q.q.0.6.6.6.3.9.r.Z.3.X.' ` b h d y d y y 4 * 3 3 * * 3 3 3 2 3 2 3 2 ",
"2 & 2 2 < 2 5 2 5 2 2 2 r 6 6 u j j l Z G G G G L P / &.&.&./ P H R c Z l z z g g g g g g l h h z a g l l n G n J P ^ W W ^ @.@.$.$./ #.^ ^ ^ H H G c l k u t t 3 3 3 3 3 3 3 < $ < < 5 6 u 5 u q 7 6 6 9 6 2 2 1 > : $ - ; : : : > 1 5 0 e w w i q e 0 0 9 0 e q w w j q j f j f j j C Z A A K I I I A A V w w w w V w w V A A A V A A A I I I A A A A V V V V V V V V V V V A A A V A V A A V Z V V w q 9 5 > : - X . @ @ @ @ @ @ @ @ @ * * B ) ` X.6.w.q.w.q.q.q.q.q.0.0.q.q.6.+.' N B a d y t t 4 4 4 4 y 4 4 4 3 3 3 3 3 & ",
"2 3 & < < < 2 5 5 5 2 < 2 2 8 f j f k l Z l C D D K P %.&.@.W P L G l c h l h g l c n l h l c l l l l c n n H H P [ [ [ #.[ #.#.$./ #.#.^ ^ ^ ^ H D G l h u t 6 3 1 2 1 < < $ < < < < 3 5 6 5 5 5 2 1 2 2 5 > > : : : ; # % % - : : > 5 9 e e w w 0 0 0 0 0 q w j j j j f j j f j f j j S Z A A A A A A V V w w w V w V V V A V V V V V V A A A A A V V V V w V w V V w V V V V V V A V A V V A Z V V j w 0 5 1 , % X X @ @ @ @ @ @ @ @ @ @ * d N ) O.q.m.q.w.Z.Z.Z.S.F.A.0.6.0.0.6. .Q x s a a d d y y 4 4 4 4 d d 4 4 3 3 2 3 ",
"& 2 & = 2 < 2 2 2 2 2 > > 2 6 7 f j j k g j z z l D L ^ %.#.U P H R l l c l c n n l l G G n n n n l n m H H J J ^ [ [ $.#.#.$.&.-.*./ / ^ ^ ^ H G G D l k u u 6 3 2 $ < ; $ $ $ $ $ 1 < 1 3 1 1 > : : : : > > $ ; $ $ % - # % - ; ; > 2 5 9 0 q w 0 0 0 e 0 w i V k j V V j j f j f j j V S S S V V V V V w w w w w V V V A V V V V w w w V V V A V V V V w V w V w w V V V V V V V V V V A V A S V V w w e 9 5 > - # # @ @ @ @ @ @ @ @ @ @ * * v N X.0.q.q.Z.Z.A.S.[..X[.Z.0.6.6.6.>.] b h B h s a t d 4 4 3 a v s d 4 3 * & * ",
"* = & < = 2 2 2 2 > r 2 > 2 2 8 7 f f k j g f z l l D L P U P G G l h l l c n n n n n n n n m m m m M m H J H J ^ [ [ #.$.#.#.&.( $./ ^ ^ ^ L G D D l l k u t t < < $ $ $ $ $ $ $ + + $ ; 1 ; < ; : % % ; ; : ; % - # - % # # % : : > > 5 9 9 9 q 0 e w w w j V V C C C V k k j j u i i V V V V V V w V w w w w w w w V V A V V w w w 9 9 9 9 w w V V w w w w w w w V V w V V V V V V A A V V V S V j i i q e 9 2 $ # # @ # @ @ @ @ @ @ & @ * * s v ) O.q.0.6.w.Z.F.[..X{._.Z.7.6.9.7.| N b N N v s a t d d a b N b s y 3 3 3 * ",
"& & = = = < r r 2 < < 2 < 2 2 r 7 p f j z z h l l l Z D G G G c x z g h h x c m H m m G G M ` [ ` ~ ` J J J ^ P P ^ ^ { { $.{ @.%.@.^ P P J H G D l D k k u 6 3 2 = $ % $ % % % # % # % % : : : ; ; $ ; $ ; ; ; % % - # - % - : ; : > : > 1 5 9 0 0 e e q i j V k S Z V k j j f f E q j i j V w w w q w w e 9 e w w w w V V V w w w w 9 9 9 > 9 9 w 9 9 w 9 9 9 w w w V V w V V V V V V V A V V V i V w i w q 9 1 : $ % # % # # @ $ $ % % $ & 4 s b N ] >.O.X.3.Z.{..X+X#XXXS.q.6.7.0.O.] ] _ Q b B B a a s M ) ) ! v s y 4 * * ",
"= = , = < & & < : < = < < = 2 3 6 7 q g g z z l c l c l c c l l z h g g h c n m M J J H J ~ {  .{ ` [ ~ J P ^ ^ [ [ / [ { @.{ @.[ [ P J H H G G c l k g u u q 5 < $ % % # % # # # + # @ # ; $ : ; $ ; ; ; % % ; - # - % % # - , - , : : > > > 5 5 0 q w w i V j V Z S k j j j j j f j q w w j w w w e e q 9 9 9 9 w w V V V V V w w 9 9 > > > > > > 9 9 9 > 9 9 9 w w w w V V V V V V V V V V V j i w V j i q 0 5 < : : - % # # # % $ $ = & 4 4 h N M ) ] ] | O.F.{.#X;X7X7X}.Z.q.0.7.3.7.3.' N b v B B x b ) ] ' ) v a d 3 & & ",
"= = = = = < = < = : < < 2 < < r 3 7 p f g g l l l l l l l l h g g g g g z c m J J ~ ~ ~ ~ ' X.;.} ` ` ~ ^ ^ [ ^ / [ [ @.@.[ { ` ^ ^ J J H H n c l k k u u u 7 3 < $ % + + # - + + @ + + X # # ; ; ; $ ; ; - ; # - # # % % - % : : ; : : : : > 5 5 0 q w w i V V V S k j j f g j j q u q E w w j w e 9 9 9 9 9 9 9 w w w V V w w w 9 9 > > > > - > > > > > > > > 9 9 w w w V V V V V V V V V V V i V V i i i 0 6 5 2 > > - % @ $ $ $ $ $ & & 4 d a v N ) _ _ ' +.Z.{.#X8XeXrX7X+XXXA.w.V.A.q.] ) N v B b N ) ) ) M N x d 4 * & = ",
"$ $ $ = 2 = < = = & = < = 2 = 2 3 4 t f g g l h l l h h h g g h g g s g h v m J ~ ~ ` ` } ;.>. .[ [ [ [ [ ^ ^ ^ P P P ^ [ ^ ^ ^ ~ J H H G n H c l g u t u 7 6 < ; % % % % # + + + + # + + + # % - - - ; % - # - # % - - - - % , ; ; ; ; : : > > 6 0 q q q j j j j j j f f f z g f u w f q j w e 9 9 9 5 9 9 9 9 w w w w V w w w w 9 9 > > > - - - - - - - - > > > 9 w w V w V w V V V V V V V w i i j V V j e 9 9 6 5 > : $ % $ $ $ 2 & * * 4 d a s v N ) ' ' +.Z.[.#XtXfXrXwX8X5X#X.X).[._.q.X.M b B b N N M M N v s d * = = = ",
"= $ = & = < = < 2 = < & < = & = 2 3 t f g g g h a g h g h h h s h h h v v n J J ~ ~ ~ } o.>.X.$.` ~ { [ ^ ~ ^ J P P J ^ ` P P J J G m D c G c c l f t t 6 2 1 : % # # % + + + # X # + # + # # # ; % - ; - ; - - # % # - ; % - - % : % - : $ > 2 6 q w i i i j j j j f j f f j f f q q q q e 9 9 1 > > 9 1 9 1 9 9 w w w w w w 9 9 > > > - - - X X - - - - - - > > > 9 w w w w V V V V V V V V V V i j V j i q e e q 0 5 > : $ < < 2 & 3 3 4 4 p a a h h v ) ] o.w.XX7XfXgXfXfXtX9X7XoX[.oX.XS.6.) v v B v b N ! N B d * & $ = $ ",
"$ = $ = = 2 = = = = : = & = = & & 3 7 d p p f a h h g h h B h v v N N N M v b ) ~ ~ ` $.X.;. .{ { [ [ ` [ ^ ~ P J P J P P P P G D D c l l l l l g f 7 5 < < = % % + + + + + + + + + # % # # # # - ; - - % - + - - # # % % - # - - - % ; $ : 2 6 e q u j j j j j f j f f f f u f q f 7 q q 9 6 5 1 > > > > 9 9 9 9 w w w w w 9 9 > > > - - - - X X X X X X X - > > 9 9 9 w w w w w V V V V V w w V V j V V j i w q q q 6 5 2 2 5 3 6 3 5 3 4 t p d p p s s B ) ] X.A.8XfXgXfXfXrXwX+X_._.XX{.A.6.] B B v v b N b s d d * & = % = ",
"= $ = = = < & < < = & & 2 = & & * 3 4 t g g a g a h h B v b N Q Q ) ) ) ) Q Q ` ` ` ~ ` } { } { { { [ ` ` ~ J J G J J P P P K G D D Z l k h k f f t 6 < : % % # + + + + # # + # # - # ; - # + # - - # - - - - # - % # # # # # - - % - - ; : 5 8 q q i j j k j f f f g f q f u q q q e 6 8 6 5 2 > > , > - > > 9 9 9 9 9 9 9 > > - - - - - - X X X X X X X - - - > > > 9 9 w w w w V w V V V V V V V V V i j j j j u u w 7 5 8 8 7 q q 7 7 t 7 d p p s s s s v M ` >.tXfXrXwX8X9X#X{.r.q.A.S.A.6.) b B v v v b B d d * * & = & = ",
"= = = & & 2 2 2 & 2 & & & & & * 3 * 4 t p a g s h h x b N ]  .X.X.X.X.X...{ ' | ` ` ~ ` { ] { } } { { ` [ ~ P J J J J L L L G G G D Z k j g f f u 7 < : ; # # # + + - # - + - + # # - ; ; - # # + - + - - + # # # # # - % - # % # - % $ $ : 2 q q w i k V k j j f f g f p f q q q 8 6 6 6 6 2 > : , > , - > > > 9 9 9 9 9 > > > > - - - X - X X X X X X X X X X > > > > 9 w w w w V V V V w w V V V V j i i i j j j j j u q q f f z g f f p p d g p p s a a B v ! 6.7XrXqX@X@X.X_.A.6.3.7.q.q.o.) N M N N ! B s s d * & & = & % ",
"= = & 2 r * & 2 & 2 & & 2 & * * y 4 y d a g s g B B b M ] >.7.w.q.r.w.7.3.3.3.>.' ' ~ ~ ` { { } } } { ` [ ~ J J H H G L L L L G Z Z l j f f u q 7 5 < : : ; # + X - ; ; - - - - - , , : - - - + O O - - - - - # - % # - # % - # % - % $ : $ 2 e u j k z C j j u f f f f u 7 q 8 7 6 9 6 5 2 > : : ; ; - - , ; > 1 9 9 9 > > - - - - X X X X X o X X X X X X X X > > > > 9 9 9 w w w V V V V w V V V C V j i j V V z V z j i k k j l l k f g g g p g s p g p s v ) S.9XeX7X@X.X[.Z.6.3.O.O.O...) ! b N N N N s d d d * * * = = = ",
"& = & * & 8 8 2 2 2 & & & * * 4 y y d a s B h s h b ! ) ] 2.q.Z._.[..XF.S.Z.w.<. .} ~ ~ ~ ` ` { } } { { ` ` J J n G G G G L G D Z c l k f q q 7 2 < < > > , - # - - > ; > ; > > > > : , - - - - X - - # # - - - # # - # - % , % % : : $ : : 3 8 i j V C C j i u u q q f u t 7 q e 6 6 5 5 5 > > : ; - - - - , ; > 9 9 9 > - - - X - - X X X X X X o o X X X X X > > > > > 9 9 9 w w V w V V V V V S C V V j j j C C l Z z z C l l l Z l k h h g h p g g s s s v ] Z.8X8X8XwX@X+X[.r.6.3.6.3.X.) N B b ! N B s d y * * * & & = = ",
"& r & r 2 2 * & * 2 & & 2 * 4 y y d p s x B v x v b M ] X.O.r.S._.@X9X%X+X[.Z.6.X.} ` [ [ [ [ ' { } { { ` ` J J G G G G G K K D D Z k j f q 6 5 1 < : : ; ; - ; - , > > > 1 9 1 1 > > > - # # - - - - - - , , , - # % % % , $ $ : $ : : < < 2 e k k z z j i u u u u 7 q u q 8 9 9 5 2 5 2 > > : : ; - % - - - - - > > > - - X X - X X X X X X o o X X X X X X X - - > > > 9 9 9 w w w V w V V V C S S S V k C S Z Z Z Z Z Z Z l Z G G l l l k l l h h h g h v N X.q.#X5X8XeXrX8X@X{.r.q.r.q.3.) N B B N N B s d * y * * & & & & ",
"& = & & & * 2 & 2 2 * 2 * y 4 d d d a B b v b b b b M ] ..2.q.F.[.+X9XwX8X5X[.6.O.$.' { [ { [ { { ` [ ` ` J J H n G c G G G Z Z Z z j j i e 6 2 1 < ; ; - - ; ; ; ; ; > > 9 9 9 9 9 1 1 , - - - - - > ; , > > , : , , - - % : : : > 2 2 2 5 9 f k k V V j j u u q 7 8 7 7 7 8 6 5 5 5 1 2 > > : : - - - - - - - - - - - - X - X X X X X X X X X X X o X X X X X - - - > > > 9 9 9 w w w V V V V S S Z A A S Z Z K G R R D Z Z D K G L G G n G l n l x h h s s v ! X.A.OX8XfXlXgXrX;X{.S.Z.q.6._ ! B B B B s d d * * * * & & & & ",
"& 2 & & & 2 3 & 2 2 * 3 * y y d s B B N N N N ! N M ) ..3.q.w.S.oX@X8X8X9X+X[.w.>.X.{ { { { { { [ { [ ` ` J J n n D Z Z l l z j k k j u q 0 5 5 : : - - O - - - ; > ; > > > > > 9 9 1 > : - # - , , - , > > > 1 > > > , - , : : > : 5 2 6 e q f z z z V j j u q 7 q 0 8 6 6 5 5 2 5 2 1 > 2 > : - % - # - - - - - - - O - X X X X X X X X X X o o X X X X o X X - - - > > > > > > 9 9 w w V V V A Z A F K K R R K K K G D Z D G L L L P G G G H G n l h h h h v M | q..XwXgXlXlXfXtXoXS.w.7.O.) v s a s s s d d * & & & & 2 & & ",
"& & & & & & & * * * * * 4 d d a B ! ! ) ) ) ) _ _ _ | O.q.w.A.[.[.+X7X7X@XF.S.Z.0.6.X.$.} { $.#.#.{ [ ` P J H G G D l l z k j j w u u q 8 6 1 1 > ; - + O X - - ; - - - > > > > > 1 9 > ; - - - - , ; > > 1 1 1 5 1 > > : : > 2 5 9 6 6 0 q j l l z z k j f u t 7 7 6 6 6 5 5 5 5 > > 2 > > : : , - - - - - , - - - - - - X X X X X X X X X X X X X X o X X X X - - - - > > - > > > 9 9 w w V V S A A I I K I K U U L L G K K K P L L P P L J P H n l n x h x v b ' 0.oX8XgXlXlXlXgXtX{.w.7.O.! B B d d d d * * * * * & & * * 2 ",
"* & & & & & 3 3 * * 4 4 y d B b ! ] ' | ] _ _ | | ..:.7.w._.S.r.w.A. X7X7X[.w.V.q.9.;.=.$. .$.$.$.{ @.^ P H G G c l l k k k f u q q q 8 9 2 < : : ; - # O O X - - - - - - ; > > - ; > > , - - , > , , > , > 1 9 e e 9 9 1 > 1 5 6 9 e i q j j l z j j j q u f q q 8 6 6 5 5 5 > > 5 > > > > > : : : > , , , , : - - - - X - X X X X X X X X X X o X X X o X X X - - - > > > - > > > > > 9 w w V A A K I U U K U Y Y U U U L L L / / / @.P P P P J H n n l h x v M ' >.A.{.eXlXlXlXlXlXfX5Xw...! B s a * * * * * & & * & & 3 2 & ",
"& & 2 & * * * 8 4 4 4 y a v ! ] ..+.O.o...| ] ....:.3.e.w.A.Z.0.0.V.[.wX0X5XZ.q.0.0.2.;.;.=.=.$.$.$.#.` J H H n c l l k g j f u q q e 6 5 1 1 : ; - - # # O - O - - - - - - - ; ; ; ; , - - , > > 9 > > 1 1 1 9 e 0 e 9 9 5 5 6 e q f j j z C Z C k f j q q q q 8 8 0 0 5 5 5 5 5 > > 1 2 > > > > > > > > > : : > - - - X X X X X X X X X X X X X o o X X X o X - - - - - > > - > > > > > w w V S F I T U Y Y Y ( &.%.U U L L U @.@.%.@.@.@.^ P L n n n v x v M ' X.O.0.F.tXgXlXlXlXlXlXrX[.+.! B s d y * * & * & & & & & & & * ",
"& & & & * * 4 4 4 y d a B N ! _ ........X.+.] o.O.3.8.q.r.Z.q.q.q.[.+XeXeX8XG.q.9.9.3.:.;.;.,.1.-.=.=.[ ^ J G n l l z s g f u 8 q 8 8 6 2 1 : - % - # # # X # - - X # - # - - - , , , , , - , > 9 9 1 9 1 9 9 9 0 q w e 9 9 0 e q u j j S R A R S j u q e 8 8 8 e 8 0 6 5 5 5 5 > 5 5 r > > > 1 > > 9 > > > > > , > - - X X X X X X X X X X X X X X X X X X X X X X - - - > - > - > > > > 9 w w A F I U Y ( %.%.p.%.p.@.Y U U @.@.&.#.&.#.@./ P J m n n M M M ] o.>.3.Z.[.9XlXlXlXlXlXlXrXoX3._ b s d y * * * & & & & & * & & & ",
"* * * 4 * 4 y 4 y d d s N ) _ ..X.+.+.o.O.O.o.6.8.r.r.A.r.0.0.q.A.}.8X0X0X7XF.q.9.6.4.<.<.1.,.d.d.s.=.*.^ J G G c l z g f 7 7 8 e 9 6 5 2 : : - # # O # - X # X # # X - - # - - ; ; - , , ; ; 1 9 9 9 9 0 0 0 0 q q w w w 0 q i E j S Z Z K K R V j E q q q e e 8 e e e 6 5 5 5 5 > 5 1 1 5 5 5 9 9 9 9 9 9 > > > , - - X X X X X X X o X X X X X X X X X X X X X - X - - - > - > - > > > 9 9 w S F T ( ( %.%.p.p.p.i.&.@.U Y @.%.&.&.&.#.@.[ P H H n m M ` ] >.9.q.w.[.@XfXlXlXlXlXlXlXrX{.o.) N v a y * * * * & * & & * * * * ",
"& * & 4 4 4 y d d a s v ) _ ..O.7.7.7.7.q.r.r.A.A.S.A.r.7.0.0.q.S.@X8X7X7X7X{.Z.0.4.<.<.<.<.1.f.f.d.*.$.[ ^ J G c h h g t 7 8 8 6 6 9 2 > ; % - # # # - # # - X + - X - O # - - - ; - ; ; , > 1 9 e w i w w q w w w i i w w i j j V R R K K F Z S j u q q q q q q q e e 9 6 5 5 5 5 6 5 5 9 9 9 9 9 w 9 9 9 9 > > > , - X X X X X X X X X X X X X X X X X X X X X - - - > - - > > > > > 9 9 w w A F T T U ( ( p.&.p.i.i.%.Y @.%.#.&.&.&.&.@.^ P H G m ~ ' } >.6.w.Z.S.OXeXlXlXlXlXlXlXlX8XA.o.| ) N B B d * * * * & * * * * * * ",
"* * * 4 4 y d a s B v N _ ..O.7.r.A.[..X#X@X%X+X).S.r.0.0.7.q.Z.[.#X@X@X@X#X.XZ.9.3.3.4.<.c.d.<.,.,.=.@.` P G n c x z p 7 7 8 8 5 5 2 2 : : % # # # O - - # # - - X - X - # - - ; ; ; ; ; > ; 1 9 w i i i i i i i i i i V k V C Z R I K I K K R z j E u q q w q q 0 e 8 8 5 9 6 9 5 9 9 9 0 e e w w w w w 9 9 9 > > - - - X X X X o X X X X X X X X X X X X X X X - - - > > > > > > > > 9 9 w w V F I I U Y %.&.p.p.i.a.&.&.%.&.&.&.*.*.@.^ ^ P J m M ~ ] X.>.9.Z.Z..X7XfXlXlXlXlXlXlXgX7X_.0.o.| _ ! B d d * * * * * * * * * * ",
"& 4 4 4 y d d B v v N M ] O.5.e.t.|.%X9X0XeXeX8X[.A.w.8.9.q.r.Z.[..X+XoX+XoX{.Z.4.<.<.<.c.<.<.1.:.=.} [ ~ P m n x h a u 7 7 8 8 6 2 > : : $ % # # # # - - # # + O # # # # - - - , ; , ; : : > 1 9 w i C i V i i i j j V C Z Z A R U K R K K K R S j j q q q u q q q 7 q 0 6 6 6 5 0 e q w e w w w V V w w w 9 9 9 9 - - - X X X X X X X X X X X X X X X X X - X - - - > - > 9 > > > 9 9 9 w w w V A F I U U %.p.&.i.i.i.i.*.p.*.i.*.&.&.%.@.` P H m J ' X.X.>.0.V.F.OX0XlXlXlXlXzXlXlXlX7XZ.6.o.+._ N B d y * * * * d * * * * * ",
"* 4 4 d d a B B v b M ! ) ..6.w.S.+X9X0XeXeXeX0X}.r.w.q.0.w.r.A.S.}..X.X.X}.XXA.0.4.3.<.<.<.;.X.;.} { [ ~ Q J n l h f u t 8 8 5 2 r > : % , - - - % - % - # # # # X O # # # - - , , ; : : > 1 5 9 0 i V V V V V V V S A A K K I I I U K K K T K Z z j f E f E q q q q q 7 e 0 0 9 e q i i w w j w V V V V w w 9 > > 9 - - X X X X X X X X X X X X X X X - - - - - > > - > > > > 9 9 9 9 9 w 9 w j Z I U Y Y ( p.p.i.a.i.*.i.i.i.*.i.*.*.@.@.P P J H J ] X.X.>.9.Z._.+XtXgXlXlXlXlXlXlXfX@X).7.o.| ) N v d y * * * * d * * * * * ",
"4 4 d d a s B v N N Q ! ) | 6.r.[.#X9XeXeXeXrXrX.XA.q.0.r.r.A.A.{..XoX+X+X}.[.S.w.9.3.6.>.>.>.;.=. .{ ` ~ ~ J m n h a f u 8 8 2 2 2 : $ : % $ % # - - : % - O X X # # # # # - - , , : : : : 2 5 0 w i i k V Z C Z S Z K A I I U I U I I K K I K K Z l j j u q q w q q 7 q 7 q q q e w j j V j V V V V A A V 9 9 9 > > - , - X X X X X X - X - X X - X X - - - - > - > > > > > > 9 9 9 9 w w w V S A I T U ( ( %.p.i.a.i.*.p.*.i.*.*.*.&.@.@.P P J J ~ ] ;.X.>.q.A._.@XwXlXzXlXlXlXlXlXeXOX_.q.>.| ! M N B d * * d * d * * * * * ",
"d d d d a s B v N N ! ) ' ..2.r.[.@XeXrXrXrXgXeX}.A.q.0.w.A.S.F.}.}.+X#X#X.X}.S.V.0.q.9.6.3.>.>.:...X.{ ` ~ Q m m l h u t 7 t 3 2 2 : : : : , , - % - - - # # # # O X # O # - , , , : : : 2 5 5 0 u i i V C Z Z A A A I I I Y U U U U P U L K I L K Z S j j j f f u u u q 7 q q q q w j V S Z S V A A A V V w 9 9 9 9 > , - # X - X X X X - X X - X - - - - > > > > > > 9 > > 9 > 9 9 9 9 w V V S A F T T Y / ( &.i.i.i.i.i.*.*.i.i.*.&.@.{ @.[ P J ` } X.:.4.q.Z._.+XtXlXlXlXlXlXlXrX8XoX_.w.+.Q ! ! b B d y * * d d * * * * * ",
"d d a a s B v N N Q ) _ ] +.6.A.}.#X9XrXgXgXlXrXoXw.q.q.A.A.A.[..XoX#X%X@XoXoX[.A.w.q.q.9.6.>.>.>.>.;.X.` ~ ` M m x h p p 7 8 8 2 2 : , < $ $ % % - - , , # # # + # X + # # # , : ; : > > 2 9 0 e E E V V S Z A A A I I U U Y Y U %.%.Y U U K P K K R l z z j f j u u i u u q u q j j j k V Z A A A F F A V w 9 9 9 > > , - - - - - - - X - X - X - - - - > > > > > > 9 > 9 > 9 9 9 9 9 w w V V Z A R I T U U U &.&.*.i.i.i.&.&.i.*.&.&.@.@.@.P P J ` X.;.>.9.0.V.F.oXtXlXlXlXlXlXfXtX@X{.Z.0.X._ _ ) N b s d * * d d * d d * d ",
"a s B B B v b M ) ) ] ] ..2.8.A.[.+X9XrXfXgXlXrX#XA.q.r.A.S.[.}. X#X7X8X&X#X}..X}.S.r.m.q.7.6.>.7.7.>. .' { ` ~ Q n x g p 8 3 3 2 < < < < , , $ , , % , , # # @ # X + + # # # - : : : > 2 5 6 9 e q w j S A R F R K I I U U p.p.z.p.p.%.%.U U I G G R Z l l z z j j j j j u f i E u E j j V S Z A A F A A S w 9 9 e 9 > : , - , - - - - - X - X - X - - - > 9 > > 9 > > 9 9 > 9 9 9 w w w V V A Z A R R K T P U ( &.p.i.i.*.*.&.*.&.&.#.$.@.@.^ ~ J ` ;.:.>.4.9.q.F.OXeXlXlXlXlXlXfX9XoX_.w.3.3.X.X._ ! N B d * d d d * * d d d ",
"B N b v v N N ) ' ] | X.X.o.7.S.{. X8X8XeXgXlXfX%XS.q.Z.A.A.S..X#X%X9X9X8X8X7XeX0X X_._.Z.q.9.2.0.7.6.X.X.] ' ' ` J M h p 7 4 2 2 2 < , : : $ , % , % , % % # # # + # + X # % , , > : 2 2 9 6 e q q w k C Z F I I I U U U U Y p.z.p.p.%.Y Y U P K G D D Z Z Z z l k k j j j j w q j j j j j j C A F F A Z C w 0 0 e 9 1 > > : > > - - - - X X - - - - - > 9 > 9 9 > > > 9 9 9 9 9 9 w w V V A A A F R K K I T U U %.&.&.&.p.&.&.&.*.*.&.%.%.{ ` ~ ` {  .X.:.3.9.q.F.#XrXlXlXlXgXfX9X;XoX_.w.7.7.6..._ _ ) ! a d d d d d d s B B ",
"Q _ _ Q Q Q ) ' ] ..o.2.5.6.7.A.{.}.@X&X0XgXzXfX9X}.A.r.Z.r.S.}.&X8X0X0X9XeXrXfXlXrX9XoXS.r.7.O.4.q.9.>.X. . .] ' ' ) n g y t 7 3 2 = < = , : $ : % , % , # # # # + - + # # - - : > 2 2 5 6 0 q q q w V Z K I T T U U U I U U Y %.%.( U U U P K L R G D D D n l l l z z k j j f j j f f j j j C A F F A A C i e q 0 9 9 1 > > > > > - - - X - X - - - > > 9 9 9 9 9 9 9 9 w 9 w w w w V V A A I I I T K T K T P U U ( &.&.*.p.*.&.*.*.*.#.#.@.P ~ [ } }  .:.9.0.m.A.;XrXgXlXgXrXwX8X;X{.Z.e.9.3.3.O.+.+._ _ b s B d B B B B B ! ",
"..2.X.] ] _ ] | +.3.6.6.7.q.q.S.}.}.oX&XeXfXlXgX0X%X[.A.Z.Z.A..X%X8X0X9XeXrXlXlXlXlXeX#XS.A.7.3.5.7.4.6.X.] ] ' ' ) ` ! b p p d 2 2 2 < < $ $ : $ % - % , # # # # # @ # @ # # ; > : 2 5 5 9 e e q w j V Z T U T I K L T T U U U U U U W P K K K G G G R D D c Z Z l l l l l j z j f j j j j l Z A K A Z C C j i q q e 0 9 9 5 9 9 > > - - - X - - - > - > > 9 9 9 9 9 9 w w w w w V V A A A I I T T T T T T T T P U U / %.&.*.p.*.&.*.*.&.&.[ ^ ^ [ } } ;.>.9.V.G.{.5XeXrXfXrXwX5X#X{.Z.w.9.3.3.O.O.O.X..._ M v v v B B N ! ! _ ",
"q.r.6.....X...o.4.8.q.8.w.w.A.oX+X}..X%X9XrXgXlXrX9X#XS.Z.A.S.}.8X9XeX0XrXgXlXzXzXlXrX@X[.A.q.3.>.6.2.X.} ' J M M M ` { M h g d y 2 2 < < < < $ $ $ - % % # # # # # # # # % % : > > > 5 6 9 e q j j k C A I T I D Z Z K I K I T U U U K K L K K K G R H G R D n n D l l l l k z z j z f k k V Z K K A Z S C C i i w w e e e 0 e 9 9 > - - - - - - > > > > 9 w 9 w 9 9 w w w w V V A A A A I Y Y Y U U Y U U P T U U P / @.%.&.*.i.*.*.*.$.#.[ ^ ~ { } ;.:.<.q.G._.OX;X8XwXtXrX7XoX_.S.w.9.7.3.>.O.>.>.O.X.' ) N N N N b ! ) _ +.",
"S.A.7.6.2.o.2.6.8.q.w.r.r.S.}.%X+X}.+X@X8XeXfXfXeX9X%X[.S.S._. X&X9XeXeXgXlXvXvXvXzXfX9X[.A.8.2.:.O.o. .' Q M m m b M ' ` v g p y 3 2 < < = = < : $ % , , % # # # # # @ # # # ; : 2 2 5 6 0 e q j j V Z A K K R R Z Z Z A K K U U U P T U P P U P K H R G G G R D D c D D l l l k l k k k V C Z K K R A Z C C j i i w w e w w e w 9 9 > > - - > > > > > 9 9 9 w w w w w V V A A A A A I I I Y Y Y Y ( Y U U P T U U U / W @.&.*.i.*.a.*.&.#.@.^ {  .;.>.4.q.m.G._.#X;X5X8XwX5X{.G.Z.V.q.7.3.o.o.3.6.7.6.O...) ) _ _ ) ] _ _ +.5.",
"S.r.8.4.3.3.7.q.w.A.S.S.{..X#X+X+XoX@X&X&XeXfXfXrX0X#X|.).[.}.{.&X9XrXrXvXvXvXvXlXlXfX8X[.r.7.>.X.X.| ] ' ! m b v n b M M N h p 7 2 3 2 2 < 2 < $ : $ % % $ $ % % # # % # # % : > : 2 9 9 8 w i w j V Z A K K K K Z D Z Z Z G K K P T U U W U W W K H H H G G H H G D c G n D l C l l z l C C K K K K K Z Z C j j j i w e w q w w 9 9 9 > > > > > > 9 9 9 w w w w w w w V A I A I I I I I Y Y Y Y Y p.( ( W U U U / U W W %.&.&.*.*.*.*.#.@.[ { =.;.;.4.n.m.Z.F..X;X#X;XoXF.w.q.7.o.>.3.o.| | | +.6.3.>..._ ) ) _ ] | X.+.+.2.e.",
"q.7.6.>.6.7.8.r.Z.S.[.oXoX}.oX.X+XoX%X*X8X0XrXfXfXeX9X X{. X%X$X%X0XlXlXvXbXzXlXgXgXfX9XoXA.8.O.o...| ] ' ' ) M v v m M v v l s p 6 4 3 3 2 2 2 2 $ : $ : $ # # % # - % % - - : : : 1 6 e q w w j V S Z A A R K K R Z D z c Z D R K R P W P U U W L L P G J J H H G D H G G n G c z z l Z D D R K T L K R R Z S z E j E w E i w w 9 9 9 9 > 9 9 9 9 9 w 9 w w w w w w V A I I I Y I I Y Y Y Y Y ( %.p.Y Y Y Y U / / T / / &.&.*.*.*.*.*.#.{ [ $.=.;.<.9.n.m.D.[.XX{.XXOX_.w.3.:.o.] '  .| | ] ~  .O.| | ] ) _ ) ] | o.>.2.O.O.q.",
"6.2.>.3.6.4.q.r.r._.}.}..X[.[.{.oX[.+X8X9X0XrXgXfXrXeX@X+X#X@X@X8XrXvXbXbXlXlXgXfXfXgXeX@X[.q.>.o.o.X...| | ] ' M m M v h B h s d 7 6 4 2 2 5 2 2 $ $ $ % % $ % - % % % % % - , : > 5 5 e q w j k C Z Z Z R R K K K R R Z R l D D H G P P U W W @.P L P H P J P J H H H G H G H G G D c R D G K K L I K K R R S S S S E j w j w w w 9 w 9 9 9 w w w w w w w w w w w V V A I I I I Y I Y Y Y Y Y Y p.( Y %.Y U ( / / / / %.&.&.*.i.&.&.*.&.$.{ $.;.:.4.0.9.q.Z.Z.G.Z._.{.G.3.X.| | ] ' Q ! Q _ ' .. .) _ _ ) ' ] | +.3.3.2.X.3.6.",
"X.o.o.X.o.>.q.Z.A._.[.[.[.[.[.[.[.[.[.7X9X0XrXlXlXfXeX0X%X#X&X0XrXlXbXbXzXgXgXfXlXlXlXfX#XS.r.6.O.O.:.+.| X.o.X.Q v M v h a p f a d 7 6 2 2 2 2 2 : : % % $ % % % , % - - - - : > > 5 6 q q E j V Z Z Z Z Z K K L K L R R G D G G G K K T U ^ U / P P P P P ^ P P P J J J L L J H D G R R G R K K L I L K R R R Z C S j j E w j V w w w w w w w w w V w w w w w V V V A A I I Y I Y Y Y Y Y Y Y %.%.%.p.%.%.%.U ( / ( @./ %.&.&.&.&.&.&.#.@.@.;.;.1.4.4.<.>.4.>.4.q.w.m.V.o.] ' ' ' Q ! b m ! ' | ` M ! _ ' ] | X.3.6.7.o. .o.o.",
"] ]  . .:.o.4.Z.A.F._.[.[.F.[.).S.S.[.+X9X0XfXlXzXvXvXlX0X9X9XfXvXvXbXlXlXfXgXlXzXlXlXrX#Xy.r.q.3.3.5.>.>.>.6.o.) M v h a p d 4 7 d 4 3 2 2 2 2 2 < : $ $ , , $ $ : % : $ : : : > 2 5 0 e j j k S C Z C K K K K I L W K H K H R H K J P P P ^ W / U P P ^ ` [ { [ [ [ ^ [ ^ J J H H G G H R G H K K K L L L K R K R R S V j j j w w w w V V V V V V V w w w w w V V A A A I I I Y Y Y Y Y Y Y Y p.p.p.p.%.%.U %.( / &.( %.@.&.&.*.*.-.*.*.#.$.$.=.;.;.<.:.;.;.X.:.3.3.9.3. .Q ~ Q Q m ! v v b Q ) b B b ' | | ..O.7.w.q.o.] ] ' ",
"' ]  .X.:.>.4.7.V.r.A.S.S._._.[.S.S.{.#X9XeXeXgXvXvXvXvXvXfXrXlXzXzXvXzXgXgXlXvXbXbXvXrX%X{.A.r.r.w.q.A.Z.r.0.X.Q v v h a p p 8 3 3 3 2 < 2 < 2 < = < $ : $ $ : : : : $ : : : : 1 9 q q E j j S C C Z Z A R K K I P W L L L L P K P J P P P ^ ^ P ^ / ^ [ { $.$.$.$.$.$.{ { P J J J J H H H R H K H R L U P K K K K U I K S V V V V V V V V A A A A A V w w w w V A A A I I I I I Y Y Y Y Y Y Y p.p.p.p.p.%.( W ( &.&.( ( ( &.i.i.i.s.*.*.#.*.;.=.=.=.;.;.;. .:.:.:.4.3.X.Q b v x v b v x v b ! ! v B B Q | X.X.>.3.o.>.X.' ' ' ",
"] $. .;.>.6.4.4.9.q.V.r.Z.A._.F._.S.}.#X&X9X9XeXgXvXbXbXvXvXvXvXvXlXlXgXlXlXbXbXbXvXvXfX9X7X+X[.[.Z.q.Z.S.q.o.] M v B s h p p d 6 3 2 2 2 2 2 < < 2 2 < < < < : : : : > : > 1 5 9 w j j j V S S C C A D G K K K L I U U W P P P P ^ ^ ^ P ^ ^ W / [ [ [ @.{ $.$.<.n.c.b.<.=.{ W P P P P P P J K H K L L T U K K A K K U U I K K A A A A V A A A A A A A V w w V V A A I I I I I I Y Y Y Y Y Y p.p.p.p.z.p.%.p.%.( &.&.%.*.-.i.a.d.s.s.s.,.,.-.*.=.$.=.;.:.:.;.:.3.3.3.:.' m v x x x x x s v b b M v B s v M ' ] | |  .| X.| } ' ",
"}  .X.:.<.>.6.7.9.q.w.V.A.A.F.).S.[.[.oX@X#X@X8XrXzXvXbXbXvXvXzXzXgXfXfXgXlXbXvXbXvXlXlXfXeX%X+XS.w.r.r.r.6.X.] M v B h h p p 8 7 4 6 3 6 5 6 3 2 2 2 3 2 2 2 r r > r 2 > 5 5 9 w i V j V V V k C C Z R D K K K L L L W P W P P ^ [ [ W [ [ [ W { @.@.$.$.;.;.1.c.D.Y.XXXXn.<.=.#.{ { [ [ P P P K H P L K L K K K R K K K I I I I A A A A A A A A A A A A w w V V V A A A I I Y Y Y Y Y Y Y Y Y %.p.z.p.z.p.p.*.p.&.&.i.*.a.a.g.j.j.j.d.s.-.-.-.-.#.#.=.;.>.>.4.9.3.4.| ~ b x x h h s s x B v b v s a a a B N ! Q ' ] | o.| ] } ",
" . .;.:.<.3.4.9.0.0.w.r.Z.S.S.S.S.F.}.oXoX+X X#X0XlXbXbXvXbXvXlXlXrXeXeXeXlXbXbXbXvXlXlXlXfXtX5X}.F.e.0.3.>.] _ M v h h s p p d 4 7 7 6 7 6 8 8 6 8 6 8 8 6 8 2 2 5 2 r 5 5 5 0 w i j V j j V l C Z Z D K K G L L L L L W P ^ W [ W [ #.#.$.$.#.@.$.$.;.<.f.b.N.F.4X5XqX6XXXG.b.,.;.#.[ [ P P P P L H K H T L K G A Z R K K U I I I I I I I I I I Y A A A V w w V V A A I I I I Y Y Y Y Y Y Y p.p.p.z.z.j.a.p.z.i.i.a.a.d.g.g.l.k.(.v.j.d.,.s.-.*.#.{ } =.:.:.4.9.9.4. .Q v x x s a s x v v v b v B a p a B b M ! Q ]  .:. .]  .",
" .=.;.>.<.4.4.4.9.0.q.m.V.Z.Z.A.S.[.+X+X X{.[.}.9XgXvXvXbXbXbXlXgXfXeXeXeXgXbXbXbXzXlXzXzXzXlXrX%X@X[.0.>.X.) m m v h h a f d d 7 7 u q 7 q 7 7 8 7 7 t u 7 6 6 6 5 5 5 5 5 5 0 q j V V j j S S Z Z G K K K P L L T P W W W [ @.#.#.$.$.$.,.4.,.;.,.<.N.D.D.`.XX;XtXlXlXgXwX3XXXn.1.$.{ [ [ ^ P P P J H L K K K G F R R F F I F I I I I I I I I Y I A A A V V V V V A A I I I Y Y Y Y Y Y ( Y ( p.p.z.z.l.l.z.g.g.g.g.l.l.l.K.v.H.P.P.H.h.j.d.s.*.#.{ [ #.$. .:.q.4. .' m v v x a a h B v v b b B s t a a h v b m Q ' } X.o. . .",
"=.=.1.<.<.9.4.9.9.0.9.q.q.q.m.Z.F.[.#X#XoX[.[.}.&XfXzXvXvXbXbXbXvXlXfXrXeXlXbXbXvXzXvXvXvXvXvXlX0XtX@Xw.3.X.) m n v B h a f f e u u u t u 7 7 q q 7 f u u 7 e 8 8 9 6 6 5 5 9 8 e j j j k V C Z Z G K K K L L T P P U ^ @.#.@.#.#.$.-.-.f.n.N.b.b.n.C.XX;X4X;X3XqXfXvXvXvXzXfX;XXXm.-.$.$.#.[ [ ^ P P P L L G L L K F R I A I I I I I I I I I I Y Y Y I A A A V V A A I I Y I Y I Y Y Y Y ( ( p.p.p.p.z.l.l.l.l.l.l.l.l.(.K.K.R.K.T.K.H.H.h.j.s.&.@.[ ` ` { } :.4.>.} Q m m x h a s x B x x x B h s s a s x b m ! ~ ' |  . . . .",
"=.:.1.<.9.c.9.c.b.9.b.q.0.m.m.Z.S.{.+X@X#X{.).{.9XrXlXzXvXbXbXvXbXbXzXlXlXvXbXbXbXvXbXvXbXvXvXvXlXfXwX}.r.6.] ) b v B s p f f u u u u u u q 7 7 7 q 7 u 7 q 7 0 e 6 0 9 5 6 6 9 e i E E j k S Z Z K K K K L U L P ^ / @.@.%.#.%.*.-.<.b.I.XXXXI.F.Y.`.4XwXhXhXhXfXgXzXbXmXmXbXgXhX4Xb.1.;.$.#.[ { ^ P P H L L L T L K K F K I I I A A I I Y I Y Y Y I I A A A A A A A I A Y Y Y Y I Y Y ( p.p.( p.p.z.g.l.K.R.R.R.R.K.K.!.R.R.R.T.T.T.L.H.k.j.s.#.@.^ P ` ` } <.>.:.' ~ m m x s a h x v x x B x B h s x h v Q Q ~ ]  . .} } { =.",
";.,.<.4.b.M.n.n.n.n.9.n.m.n.w.Z.Z.).[.+X+X}.|.}.&X0XeXgXzXbXbXbXbXvXvXlXzXvXbXvXbXvXbXbXvXvXbXvXzXfXwX5X).0.o.' M v z s a p f f f f j u f q u q q 7 q 7 q q q 0 e 8 6 6 9 6 6 9 q q q j j V C Z R L K K U P L L / / @.#.#.$.*.=.-.<.B.Y.XXwXqX4X;X;X3XwXgXlXlXlXzXzXvXbXMXmXmXbXbXgXOXB.<.-.=.=.$.@.{ P L H K L P T T K K K F I I I I A I I I Y I I A A A I A I A I I I I I I I Y I I I Y ( p.p.z.z.l.l.R.R.R.R.!.!.E.R.R.!.R.!.^.!.!.T.P.k.d.i.@.^ ^ P P ` X.>.4.:. .' Q ~ v x s h B v x s h x x x h h x n m Q '  . .} } } =.=.",
"1.<.c.c.b.N.B.N.N.N.n.n.m.q.m.V.A._.[.}.+X}.{.}.#X&XeXfXvXvXbXbXbXlXlXfXrXgXvXbXbXvXvXvXvXvXvXvXzXrXrX;X_.0.O...Q n h h f f f f j f j f u f f q u q q q q q q q 8 e 0 6 8 8 e q q q E E k S C Z D K K K L L P @./ &.%.$.&.*.-.,.<.B.`.4XqXgXvXgXqXqXqXhXgXlXvXbXmXbXMXMXMXMXmXmXmXvXqX`.B.,.;.=.$.$.{ ^ P L L L L L L U I I A I I I I A A I I Y I I A V A A I I I I I I I I I I I I I I Y Y p.p.g.l.l.K.R.R.R.!.!.!.R.!.!.!.!.!.!.!.!.T.K.(.s.*.@./ P J J ` } :.:.>.X.} ' ~ ! x h x B h h s h h s h x x x m m ~ '  .} } { =.=.;.",
"<.h.b.B.N.I.C.D.J.D.n.n.n.n.q.V.Z.F.[.+XoX{.{.oX#X&X9XrXvXbXbXbXlXgXeX9X9XrXlXvXbXvXbXvXvXvXvXvXzXrX0X8X[.w.>.} M v h s h z f f f j f f j i j i u u q q q q q 7 q 7 e 0 e 8 q 8 q q f j j l Z Z Z K L K L U P @.W #.$.*.-.-.,.c.b.Y.-XqXlXbXmXmXvXhXwXhXgXlXvXmXMXMXMXMXMXMXMXMXmXmXgX;X`.n.<.,.;.$.$.` P P P P U U U U I I A I A A I A A A A A A A A V V V A A I I I Y Y Y I I I A I I Y ( ( p.p.l.l.(.(.R.R.!.!.!.!.!.!.!./././.!.!.!.L.h.d.&.@.P H J J J { } =.4.>. .} ~ Q m h x x h s h s h h x c n m m m ~ ' } } { =.=.=.1.",
"c.b.M.B.J.Y.J.I.D.J.m.n.q.m.q.V.Z.F.{.#X+X{.{.oX#X&X0XfXlXbXvXzXlXgXeX0XrXrXfXvXvXbXvXvXvXbXvXvXlXrXwX8X}.S.O.{ M n h z h f z h g f j f u j j j j i u q e 7 e 6 6 8 0 7 q 7 7 q q f j j k V Z K G K K L P P @.@.#.$.*.-.,.,.c.B.G.`.;XlXmXMXMXMXMXvXgXlXzXvXmXMXMXMXMXMXMXMXMXMXMXmXzXtX4XC.<.<.1.$.#.{ J P P U P U U P I I A A A A A A A A A A A V V V V V A A A I I I Y Y Y Y I I I I Y ( p.p.z.l.l.K.K.R.R.!.!.!.!.!././.!.!.!.!.E.T.K.l.s.&.^ L H m m J ` ` }  .=. .| ~ ~ m x x x h h h h h h c n m m ~ J ~ { {  .=.=.;.<.d.",
"b.x.N.J.I.Y.Y.I.I.D.m.n.n.q.V.Z.S.F.{.#X+X X}..X#X&XeXfXlXlXlXgXfXfXrXrXfXlXlXvXbXbXvXvXvXvXvXvXlXeX7X@X.XZ.>.) N v h B z z h z j j f f j j k k j j i q q 7 8 6 6 q 7 e 7 q q q q w j k C Z Z Z A G G L P U [ %.$.*.-.,.<.f.x.D.Y.4XhXbXmXMXMXMXMXMXMXmXmXbXMXMXMXMXMXMXMXMXMXMXmXbXzXfX5XY.4.f.1.;.$.[ ^ P P ^ U U U L A I A A A A V V V V A A A V V V V V V V A A I I I I I Y I I I Y U U p.p.z.l.(.K.K.R.R.R.!.!.!.!./././.!.^.!.E.T.K.k.s.&.W H H n H m J ~ ' }  . .' ~ ~ Q n x x x h a g h c n n m J m ~ ~ { {  .=.=.-.<.c.",
"N.v.B.U.I.U.^.D.C.N.m.q.w.m.Z.Z.Z.).}.#X#X+XoXoX@X9XrXrXfXgXgXfXgXrXrXrXeXeXlXvXbXvXvXvXlXzXzXlXfX8X#X+X[.w.o.Q c v l h l s z z k j f k k j C k j j w q q 6 6 6 e 7 7 q 7 q q q q f k S C Z D R R G R L P W #.%.*.-.,.d.f.b.D.U.-XwXlXbXmXMXMXMXMXMXMXMXMXMXMXMXMXMXMXMXMXMXmXbXzXgXhXhX6XXXB.b.<.<.$.#.^ ^ P W U P L K K R Z Z C S k j j V Z A Z S S V j j V V A A I I I I I U Y U I U Y ( p.i.z.l.l.R.k.K.R.E.!.!.!.!.!.!./.!.!.!.E.T.L.k.j.&.U J H G H m ~ J ~ {  .} } { ~ ~ b c x h h g h l n n m H H J ~ [ { } =.=.;.,.<.c.",
"x.B.I.Y.`.'.Y.I.C.N.m.V.m.V.w.V.S.).[.oX@X@XoXoX@X9XeXeXrXgXfXrXrXeX9X9X&XeXlXvXvXvXzXlXgXgXfXrX8X8X7XOXS.6.X.n v h h h z z h z f z k l l S S k j j i q e 8 6 8 e 7 q q q u q f f j j V Z Z Z D L K L L W @.@.$.-.,.d.f.b.N.I.Y.5XlXbXmXMXMXMXMXMXMXMXMXMXMXMXMXMXMXMXMXMXMXbXlXfXwXwX5X4XY.n.b.9.1.;.{ [ ^ P P P L K H H Z D D Z l k V k S Z Z Z S S S j i w V A F A I I I U I T T I T U p.p.z.z.l.l.k.(.R.R.R.R.R.!.!.!.!./.!.!.T.E.R.K.k.j.&./ G n c n J M M ~ ~ ' ' ' } ] ] ~ m x h g g h l c G H H J P ^ { } $.=.-.1.<.x.B.",
"C.I.U.U.'.^.U.D.I.m.m.m.w.m.w.V.Z._._._. X+X@X@X%X&X0XeXrXgXfXeX0X8X%X$X#X8XrXlXzXzXgXfXfXrXrXeXwX9X8X@XA.6.' b h h h z z g g z j f j l C Z l V V j j q q 6 6 q 7 8 q q q q f f f j j S Z K G K R L L P [ @.%.-.-.d.d.b.B.N.Y.4XhXlXmXMXMXMXbXbXMXMXMXMXMXMXMXMXMXMXMXMXMXMXvXvXlXfXqX3XOXC.B.n.b.<.<.$.{ ^ P P T L L K K D R Z Z Z S l V C Z Z A S S S V i w V S A F I I I I I K K K U U p.p.p.z.g.l.l.k.R.R.R.R.!.T.R.E.E.E.T.R.R.R.P.H.j.s.%.P G D c n J J J ~ ~ ~ ~ ~ { } } { M x h g g h l c G H J ^ [ { #.#.=.=.,.d.f.M.B.",
"I.U.^.'.^.`.'.Y.C.N.n.w.m.q.w.m.Z.Z.S._.}.oX XoX$X%X9XeXeXgXrX9X#X X X{. X@X9XrXgXrXrXrXrXwX9XwX8XwX8X#Xq.X.M n h l h h g z g g j j k z C C S k S j i q e 0 6 8 0 q q t u f q j f j j l G Z A G R P P ^ W &.*.-.,.d.f.M.B.Y.XX6XgXvXMXmXbXbXvXzXbXMXMXMXMXMXMXMXMXMXMXMXMXMXmXvXlXgXqX4X`.D.N.N.B.9.1.<.} ^ P P H L K L H G R D Z Z C C C C Z Z Z Z S C V j i V C A A F I F A I K R K I T Y %.p.z.z.l.l.l.K.R.R.!.R.T.E.R.R.T.T.R.K.K.H.k.g.p.%.P L G c n m m J ~ ~ ~ ~ ' ' { ' ' ~ x g g g l c G H G P [ @.#.#.$.-.,.1.f.c.x.B.",
"U.^.'.^.'.Y.^.U.I.m.n.m.w.0.n.V.V.S.S.)._.[.}.}.+X@X9X0XrXrXeX&X}.|.|.[.|.oX@X8X0XtX0XtX8X&X7X7X@X{.r.6.X.M M v B z h z a f f f j j z l S l S S z j E q e e 8 8 8 q q q q q j j j z k Z D D R H P L W W @.#.*.,.s.f.b.M.N.Y.;XfXlXbXmXbXbXbXbXvXbXMXMXMXMXMXMXMXMXMXMXMXMXMXMXMXMXlXwX4XXXD.N.N.n.N.b.<.=.` P P P J L K K H D Z Z C Z C S S S Z S Z V V k i i j V Z A R A A Z A K K K K U Y @.%.p.p.z.g.k.R.R.E.!.!.R.R.T.R.T.R.K.R.K.k.j.g.&.@.L G G l n m H m J ~ ~ ~ ~ ^ ' { } ~ c h g h c c G G J P @.#.$.*.-.-.d.s.c.x.M.J.",
"I.^.`.'.U.'.`.U.I.n.n.q.V.m.m.w.V.S.S._.).S._.{..X#X&XeXeX0X8X%X[.A.S.t.r.t.S.}.#X&X&X%X+X#X#X#X+Xr.o.] M M c v h h h h z g f f f f j j k S l l V j j w q e q e q q q q f j j j z z l Z D R G K L P ^ W &.$.*.,.d.f.M.J.Y.4XhXgXzXbXvXmXMXMXMXbXmXMXMXMXMXMXMXMXMXMXMXMXMXMXMXMXMXvXwX4XXXY.D.N.Y.F.N.9.,.$.[ P H L L L K R R R G Z Z Z C S Z Z A S C V V i i j V Z A A S A Z Z Z R K K U U U Y %.p.p.a.l.k.R.R.!.R.R.!.T.T.R.R.K.K.K.(.j.a.&.@.P L G D l n m J M m ~ ~ ~ ' ~ ' ` ~ n h g l D G G P P @.@.#.*.*.-.d.f.c.x.J.B.J.",
"U.^.^.'.'.U.U.U.C.N.m.c.q.V.V.V.V.Z.G.{.).S.S._.[.{.@XeXeX9X%X{.t.t.A.S.t.e.8.w.S.+X+XoXoX}.}._.r.6.) b v v v h x l h f a f f E f j f j j k C C C j j w q q q 7 q 7 q f f j j k z Z Z Z R K K K P P ^ W #.*.-.,.c.h.M.G.-XqXwXgXvXmXMXMXMXMXMXmXmXMXMXMXMXMXMXMXMXMXMXMXMXMXMXMXMXvXfX;X-XY.Y.D.Y.Y.D.D.m.$.[ ^ P P L G K K H K G A R Z Z Z Z Z Z C Z V j i i j V Z Z Z Z C Z Z Z G A K K U U Y / %.p.p.z.l.R.R.R.!.!.R.T.T.T.R.K.H.(.j.a.&.&.@.L L G l l n G m J m ~ ~ ~ ' { ~ ~ m c h l D D G J P ^ @.#.$.*.-.-.f.h.x.P.I.L.I.",
"U.'.^.^.'.U.Y.I.C.m.n.n.n.m.w.V.w.V._.{.[.[.).A.S.|.+X*X9X&XoXS.S.S.S.r.r.7.5.6.A.{.|.{.[.A.q.7.O.] N v B x h v h h h g z g g f u u j w j V C C k V j j q q q e q q q q u f j l l Z D G K K K P P W @.#.*.-.,.d.f.b.J.Y.4X6XhXgXbXMXMXMXMXMXMXMXmXmXMXMXMXMXMXMXMXMXMXMXMXMXMXMXMXmXlXhX;X4XXXY.F.XXXX-XXX<.{ [ P H H H G G G R K R D D D Z Z Z Z A A C V j j j S V C C V l C C C Z Z Z K I U U ( %.%.p.z.l.l.R.R.!.R.R.T.T.R.R.K.H.l.g.i.&.%./ U L D l l l n m J m n m ~ ~ ~ ~ M n l l l D D H L / @.@.&.*.-.-.s.f.x.P.L.U.I.L.",
"U.^.U.'.I.D.I.I.C.B.c.c.q.n.n.q.q.V.A.Z.).).).A.t.[.}.oX@X#X{.[.S.t.r.w.q.5.O.2.e.r.t.Z.q.5.O.+.| ) M v x h s h x h g z g g E f f i f f j C C z k S V k E q q q q q i i j j k l C Z K K K U P ^ W W $.*.=.-.d.b.M.N.I.XX3XqXfXvXMXMXMXMXMXMXMXMXMXMXMXMXMXMXMXMXMXMXMXMXMXMXMXMXMXMXbXlXtX6X4XXX4X;X;X4XOXY.<.} ^ J H H R D D c D Z Z Z Z Z Z A A Z Z Z V V k V C C C z l V k V C C Z Z K K T U Y @.p.p.a.g.k.R.R.R.K.R.R.R.K.K.K.k.g.g.p.&.@.Y U K D l l l n c n n c n m m n n n c l l c D G L ^ / @.*.*.*.-.-.s.f.v.P.U.L.U.E.",
"I.U.^.U.I.I.I.N.J.N.n.n.n.4.4.0.9.4.9.q.w.A.).V.w.A.).).#X$X}.t.r.r.w.w.8.2.+.O.O.3.6.2.O.O.+.+.| ) b v s a s g a g a g g f f f f q i j l C S k V C S C S V j E f j j k k V V C D G K L P W W W W #.*.-.-.d.c.M.N.U.XX3XqXwXgXvXmXbXMXMXMXMXMXMXMXMXMXMXMXMXMXMXMXMXMXMXMXMXMXMXMXMXMXMXzXgXqX7XqXwX6X;XXXG.c.$.{ ^ J H H D D D l z l Z z z Z D Z A A Z V k V z S C C V C C V k z C C G K K L Y Y %.&.p.a.l.k.K.R.K.K.K.v.K.K.v.k.l.g.s.&.%.@.Y U K D l l k h l h l h x c h l h k l l Z D G L P / / *.&.*.*.*.a.s.s.v.L.L.I.U.I.",
"I.I.I.E.U.I.N.B.B.J.B.B.B.c.4.0.4.4.3.9.0.8.q.4.0.w.w.A.+X.Xr.q.8.w.w.r.r.w.2.O.| | ..| ..| ..| _ M b s s a a g f g a g j f f E f f j V C Z V C S C A A R A A S C V V Z Z Z C Z G G K T ^ W %.#.$.&.-.-.s.f.M.N.Y.XX-X;X3X3XwXlXlXbXMXMXMXMXMXMXMXMXMXMXMXMXMXMXMXMXMXMXMXMXMXMXMXMXMXMXMXbXhXtXtXwX6XOX`.D.b.>.;.} [ P H G c Z l l z z z z C Z A Z D Z V V S S Z C C C C C V l z S Z Z A K K U U %.p.g.l.l.K.R.R.v.k.l.l.l.l.l.l.j.g.i.&.%.Y U T L D Z l k h k k g g g g f f g k l l D D L P P / / &.*.-.*.-.a.d.s.v.I.L.U.L.I.",
"L.J.J.B.I.I.J.B.n.B.B.B.B.c.c.4.4.4.4.3.3.9.3.3.3.3.6.r.{.t.8.q.S.S.|.S.A.t.q.2.+.] _ ] _ _ ) ) ) N B s a p a g t g u f g h j f j l Z Z Z Z C Z Z K A K K R A F R Z A R K R K G K T U ^ W &.&.&.*.s.s.s.d.b.M.J.J.Y.Q.-X4X3XqXqXhXlXmXMXMXMXMXMXMXMXMXMXMXMXMXMXMXMXMXMXMXMXMXMXMXMXMXMXMXMXmXlXlXfXqXOXY.D.C.9.,.$.{ ~ J G D c Z l l Z l S C Z Z Z Z C C C C C Z C C Z C Z C V C l Z Z K K K U U @.%.i.g.l.K.R.R.H.l.g.g.g.g.g.i.i.p.&.%.@.U U T L D D C k j g f f f f f f k k l l c D G L L P ^ / %.&.-.i.-.-.s.s.x.M.L.L.I.L.",
"J.J.J.J.x.J.N.B.M.n.x.n.c.c.c.4.<.3.>.2.3.3.3.>.O.>.6.q.r.w.w.t.{.oX+XoXoX[.).w.5.O.| Q ! ! ! ! N B B a d a p t f t t u u f u f l C G R R Z Z A R R K K K F A R I T T K T K K T ( %.@.%.&.&.*.a.s.g.h.x.x.M.J.J.I.Y.Q.-X-X3X3XwXhXlXmXMXMXMXMXMXMXMXMXMXMXMXMXMXMXMXMXMXMXMXMXMXMXMXMXMXMXMXMXMXnXgX6XXXF.D.m.b.;.#.[ [ J H D D l Z D l Z Z Z Z Z Z Z C C C C S C Z Z S Z Z Z V C C C Z K K K T U Y Y &.i.l.l.k.k.l.j.g.a.a.p.i.p.&.&.%.%.Y L U L K R Z Z Z k k f f u u f j j l l D D G G J L P / @.&.*.-.*.-.-.s.a.x.B.P.U.L.L.",
"J.P.J.B.B.B.N.v.B.c.c.c.c.<.4.<.<.4.,.:.3.3.3.:.>.O.2.7.w.w.).{.$X@X7X&X%X#XoX).e.2._ N v b N N v B x d d p t t t t u t u f f z l Z K K K K R K K I I K R I F R T U Y Y ( ( %.Y %.p.p.p.i.g.g.j.h.M.H.H.P.H.L.U.^.Q.Q.-X4X4XqXdXhXlXbXMXMXMXMXMXMXMXMXMXMXMXMXMXMXMXMXMXMXMXMXMXMXMXMXMXMXMXMXMXmXzXqXXXY.D.b.c.1.} [ ^ ^ G D n D D D R K K F K K A Z Z S S l S Z C A Z S Z Z C l C Z Z Z K I U U U Y %.%.p.g.l.l.g.g.g.i.i.&.p.&.p.%.%.Y U U K K R R D Z k j k j j f f f j k l G G G G K G L L / / &.-.a.*.i.a.s.d.x.v.L.L.J.L.",
"v.N.N.B.x.N.x.B.c.c.c.c.4.4.4.<.<.:.:.:.:.3.:.2.O.>.O.6.w.r._.+X@X8X8X7X@XoXr.8.3.+.) b B s B B B B s t t t 7 7 t t u u u E j z C Z K K K K K K I I K F I A F I T Y %.( p.p.p.p.i.a.z.g.g.j.k.H.K.L.W.U.U.T.U.^.~.~.=X=X>X3X3XqXhXlXvXMXMXMXMXMXMXMXMXMXMXMXMXMXMXMXMXMXMXMXMXMXMXMXMXMXMXMXMXMXbXzXwXXXD.b.<.,.;.$.[ ^ ^ J G D D R G K T U I K K K A Z Z Z Z C z C Z Z Z Z A Z C Z Z A A K K T U T U U Y %.p.z.g.i.s.i.a.i.&.&.&.&.%.%.%.( Y U K K R D D l k z k j f g k k l l G G H G G J L P / @.&.i.-.&.-.-.s.h.v.P.L.L.J.P.",
"x.x.x.B.c.c.x.x.c.d.4.4.c.4.<.4.>.:.:.:.3.3.>.2.>.O.3.6.A.[.}.#X8X8X&X@X#X{.r.7...Q b B s a a s a a a d d y 7 t t u t f u f z z Z Z U I I K K I T I I F A I R I U Y Y p.p.i.g.z.z.g.g.k.k.(.P.K.W./.:X].].~.].=X:X=X-X>X4X3X3XqXhXlXvXMXMXMXMXMXMXMXMXMXMXMXMXMXMXMXMXMXMXMXMXMXMXMXMXMXMXMXMXvXgXqXOXG.c.<.:.;.} $.[ ^ J J H G D G K L Y U U U I K K R R D Z C z C Z Z A A A Z Z R K K K I U T U U T U Y U %.p.p.i.i.i.i.i.p.p.&.p.&.&.p.&.%.U L K R D D C k z j g k k l c G G G G J G G L L P ^ / *.&.a.&.i.s.a.h.x.P.P.P.J.v.",
"x.N.x.c.x.c.x.c.c.c.4.c.4.4.4.1.<.:.:.>.3.3.3.3.O.3.6.7.A.@X7X8X8X@XoX[.).S.w.0...B B s d d d d d d p d y 4 7 7 t t u u E E z Z Z K U K K T K T T T K K F I I T I Y Y p.p.p.z.z.l.l.l.l.R.R.!.!.~.:XaXaXaXaX<X<X:X:X:X>X>X>X;X6XhXlXvXMXMXMXMXMXMXMXMXMXMXMXMXMXMXMXMXMXMXMXMXMXMXMXMXMXMXMXvXhX6XXXD.c.<.;.=.$.{ { [ ^ J L G G D K K P U %.%.%.T I K R R A Z Z Z Z A Z A Z F A A K K I I I I U U U T U U U ( %.%.p.p.z.i.i.i.p.p.p.p.p.p.p.%.( T K F F D Z k l k z k l n H G G G J J J G J P P / @.&.i.*.*.a.s.d.h.x.H.H.M.P.M.",
"x.x.x.x.c.c.c.x.c.d.d.4.4.1.4.:.:.:.o.>.>.>.>.3.>.3.6.q.[.7X&X8X7X+X).A.r.0.8.3._ v a d d y 4 4 y 4 y y 7 4 8 4 t 8 u g z z l Z K T T K T K T T T U T U I I T Y Y Y p.p.l.p.l.l.l.(.R.R.!././.<X:XaXpXpXiXaXaXaX>X,X>X>X>X3X3XqXhXgXzXmXMXMXMXMXMXMXMXMXMXMXMXMXMXMXMXMXMXMXMXMXMXMXMXMXMXmXlX5X4XXXD.b.,.-.=.#.#.{ ^ ^ P J H G G K L K U W %.%.Y U U I R R Z C C Z Z Z Z A K I K K I I I I I U I T T T U U W %.%.%.&.p.i.a.i.i.p.z.i.i.z.i.p.( Y I K K D D l l l n c c G G J J J P P P P G P U / %.&.&.&.*.&.a.j.h.v.H.H.H.M.x.",
"x.c.c.x.c.c.x.x.c.d.4.4.1.4.1.3.>.>.>.>.>.:.>.3.3.6.6.A.#X7X7X7X@X+X).q.7.>.O.] ) B d d 4 4 * 3 3 3 3 4 4 3 2 4 8 q u E z z D G K I K K K I T T U U U T Y Y Y Y Y p.p.l.l.l.l.R.R.!./././.<X<XaXpXpXkXNXkXiXpXaXaX1X2X1X1X1X3XdXdXgXzXmXMXMXMXMXMXMXMXMXMXMXMXMXMXMXMXMXMXMXMXMXMXMXMXMXMXmXfXqX4XXXD.b.,.;.$.#.[ [ W J P L K G G D R L U ( %.%.%.Y U I R R S Z Z Z Z A A R I I I I I U T I I T T U U Y U ( W %.%.%.@.&.i.z.p.a.p.z.z.z.g.z.p.( / I L D D Z l l G n n D G H G J P P P J P H P L / @.&.&.i.*.*.a.j.h.x.x.M.v.x.x.",
"x.x.x.x.d.c.c.x.c.c.d.1.4.1.1.:.<.>.>.3.>.o.>.>.6.7.r.[.+X@X7X@XoX}.r.6.O.X.| ) b s d 4 4 3 3 & & * & 2 * 2 2 3 8 t E z z R K K K K K A K T T T T T I T Y Y ( p.p.p.p.z.l.l.R.R.R././.<X/.aXaXaXkXkXNXnXnXkXiXaX2XyXyX2X1X3X3X6XhXlXvXMXMXMXMXMXMXMXMXMXMXMXMXMXMXMXMXMXMXMXMXMXMXMXMXMXmXlXfXqX4XF.C.b.>.=.$.#.[ [ ^ P J P H L G G G K U @.p.%.%.U U I K Z Z Z Z Z Z A R K I I U I Y U U U U T T T U T ( U U W %.%.%.%.p.i.i.z.g.z.g.g.g.g.z.p./ P K F D Z D D D G n G G G G J J P P P P J G P / / %.*.*.&.*.a.j.j.h.h.h.x.x.x.",
"x.B.B.x.c.c.c.c.c.4.c.4.,.1.:.3.>.<.3.>.>.>.O.3.9.w.A.S.{.#X7X#X[.r.6.X.] ] ' M B a d y 3 & 3 2 & & & = & = 2 2 8 u E g Z R G R G A Z F I T U U I I I I U ( %.p.p.z.p.l.l.l.R.R.!././.<X<XaXiXNXNXNXmXmXnXNXkXiXuXuXuXyX3X1X3X3XdXgXvXmXMXMXMXMXMXMXMXMXMXMXMXMXMXMXMXMXMXMXMXMXMXMXMXMXvXgXwX;XOXXXD.M.<.;.$.{ [ [ ^ P P L L G L H K T P %.%.p.%.Y U T R R D D A Z Z K K I U U U Y Y Y U U I U T U U U U Y U ( ( %.%.%.&.p.i.g.z.g.g.g.g.g.p.p.( I G K D D Z D G G G H G G P J P / P P P J J P P ^ / ( &.*.s.s.j.d.h.h.h.x.x.x.",
"x.x.x.x.c.c.c.d.d.d.d.,.,.;.;.;.>.6.0.0.6.3.>.>.6.q.Z.S._.[..X{.0.O.] ' ) M N B s t t 3 3 3 & & = = = = $ < < < 2 t u E z z Z Z C Z A G K I I I R I I T U ( p.p.l.l.l.l.l.l.R.R././.<X<XaXiXNXNXNXmXnXmXMXmXnXkXiXiXdXiX2X2X3X3XuXlXzXbXbXbXvXbXMXMXMXMXMXMXMXMXMXMXMXMXMXMXMXMXMXMXMXvXfXwX6X;X4X-XXXG.n.1.$.[ [ W ^ P ^ P P G G K K L U U %.p.%.%.U I K G R R K K K I T U I U T Y Y U U U I I I I U U U Y ( Y ( ( %.&.i.i.i.z.z.g.z.g.z.a.p.p.( T K F D D D G G H G J P P P ^ ` P ` P P J P G K P P / &.a.s.g.j.j.h.d.h.h.x.x.",
"x.x.B.x.x.j.c.c.c.d.,.1.-.;.;.;.:.3.6.9.>.6.>.3.6.6.w.r.Z.S._.r.X.] ) M M b B x a t t y 3 3 2 & = = $ $ $ & < < 5 8 u E j j E z V C Z Z A R K K I I K I U Y p.p.p.l.l.l.R.R.R.!././.<XaXaXkXNXmXMXmXMXMXMXmXbXNXjXkXkXdXuX2X3X3XqXhXlXzXzXzXvXvXmXMXMXMXMXMXMXMXMXMXMXMXMXMXMXMXMXbXlXgXfXwX5X;X5X;X;X-XY.4.#.#.@.^ [ P P P J G G G H K T W W %.%.%.Y U T K K K I U I U I I I U I U Y U U U I U T T T Y %.Y ( Y %.%.&.p.&.p.i.z.z.g.z.z.z.p.&.p.( T K G D D Z G J L P ` [ [ [ [ P @.P P J P P J J K P / &.a.s.h.h.h.j.h.f.h.h.h.",
"x.x.v.x.c.c.c.d.1.,.;.,.,.=.=.X.>.;.>.>.X.>.>.>.>.>.6.9.6.q.q.X.] ` Q n v x x x d t t 7 7 3 & 2 2 < = < < < < r 8 8 7 u u E E z j k V Z Z Z Z Z A Z R F T %.p.z.l.l.l.l.R.R.!././.<XaXaXiXNXMXMXMXMXMXMXMXMXmXbXnXjXjXkXdXuXuXuX6XdXgXlXlXzXlXvXbXMXMXMXMXMXMXMXMXMXMXMXmXMXMXMXMXbXvXzXlXlXqXwXfXrXwX;XG.<.$.[ [ W P ^ P J P K G H K T P W W U %.( U U K K K T U U I I I I I I I U U I T T I I T T U ( %.( %.%.%.( Y %.%.&.p.p.i.z.p.p.p.p.p.%./ U K D D D D G G J P @.{ { @.@.{ { P ^ ^ ^ ^ P K P P ^ *.a.g.k.v.k.h.h.h.f.h.f.",
"x.H.x.x.c.f.d.1.1.1.,.=.=.=.} ;.X.X. .X.;.X.} X.;.>.>.6.>.O.| ] ) b B x h s a g p 7 7 t 7 4 6 2 2 2 2 : < > 2 5 5 6 8 q u u E j j z z C Z S S S V A A A I Y p.l.l.l.l.l.R.!././.aXaXaXiXNXMXMXMXMXMXMXMXMXMXMXnXNXNXjXjXdXdXuX3X3XhXhXhXlXlXlXzXbXMXMXMXMXMXMXMXMXMXMXMXmXMXmXbXbXvXvXvXlXzXlXfXtXfXtX5Xm.<.$.[ [ W [ P ^ J G P H L L P W W U P U U U U K G K K K K K K K K K K I T I U I K K K I I U Y %.%.p.%.%.( Y U / %.%.&.p.p.%.p.&.%.%.%.U T K D D D D G G P ` @.{ { [ @.[ [ P P J ^ J J G P L P %.*.j.h.h.h.h.h.d.d.h.h.",
"x.x.H.x.d.d.c.d.1.,.,.=.=.$.}  .;.' }  . .} } }  .X.X.X.X. .' ) M h h g h a f p p 7 7 4 6 6 3 5 2 2 2 < 2 2 > 2 5 8 6 8 8 q u j j j j S C S V V V V A A I Y p.p.l.l.l.R.R.!./.aXaXiXNXNXNXMXMXMXMXMXMXMXMXMXmXnXxXjXjXkXiXdXuX3XuXqXdXgXlXgXlXlXbXMXMXMXMXMXMXMXMXMXMXmXmXMXmXbXvXvXbXbXmXbXlXgXfXgXtX4Xm.<.$.#.@.[ P P P P P H L P P W P R L P P U U K G R R G K K G K K Z K K K K K K K T K K I I U U ( ( p.%.( Y U U U W ( %.%.%.%.%.%.%.( U T K G D Z Z c G H P @.{ $.{ [ [ P [ ^ P P J L J G P L / @.&.s.j.h.h.j.j.d.j.f.x.",
"x.x.x.x.c.d.1.1.,.;.,.=.=.} /  .} { { } } X.} ] ' ' ' ' ' ) M n s h g a a g p p d 7 7 7 6 6 4 3 2 2 5 2 < > > 5 5 6 5 5 8 e q j E j j S z j k k V V A I I Y p.l.l.l.l.R.R.R././.aXNXNXNXMXMXMXMXMXMXMXMXMXMXMXbXnXNXkXdXdXuXuX3XdXqXqXhXhXhXgXlXvXmXMXMXbXmXMXMXMXMXMXMXmXbXbXmXMXmXMXMXMXMXbXgXgXtXwX;XC.<.} [ [ W [ ^ P J P P P L L P L R L K K K L G R D D D D G G Z G Z Z K R K K K U T K K I I U U Y Y %.Y Y L U K U U Y @.( W W W U U T K K R D D c D H H ~ [ { { #.{ [ ^ ^ ^ P P J J G G L G L U @.&.a.j.j.j.s.d.s.d.h.h.",
"x.x.x.d.c.d.d.1.,.;.=.=.=.} =.} { { ` ` ' } } ] ` ` ` M J M h x z h a g f p f t d 7 7 6 4 6 6 6 9 6 9 2 2 2 5 2 6 8 5 6 6 8 q u u E E i j j j V V A A I Y Y p.p.l.l.l.R.R.R./.aXaXiXNXMXMXMXMXMXMXMXMXMXMXMXmXbXnXxXkXdXiXdXuX3X3XuXqXdXdXqXhXgXlXvXbXbXvXmXMXMXMXMXMXMXMXMXmXbXbXmXbXMXMXMXmXlXlXgXrXqXG.<.$.[ [ [ ^ ^ ^ ^ P G L L L H L G R G G R D R D l l Z l Z l G Z G Z G G K K K K I K K T K T U U Y Y Y T T L L K L K U U P K L K K G D D D l Z c G J P ` @.$.{ [ J P ^ ` P J J J L G L P L L U @.&.s.j.j.j.j.s.j.d.f.h.",
"x.H.x.x.d.f.d.,.,.,.-.=.=.=./  .{ [ [ [ ` ` { ' ` ~ ~ M m b h z g g a p p t f t p q 7 4 6 5 8 7 q q 7 8 5 2 5 6 8 9 9 5 5 5 e q E u E E w w V V V A I Y Y p.p.l.l.l.l.R.R.!././.aXaXNXNXmXMXMXMXMXMXMXMXMXMXMXnXxXcXkXdXiXuX6XuX3XqXuXuXdXqXwXhXgXlXvXzXlXmXMXMXMXMXMXMXMXMXmXvXvXbXbXMXMXMXmXlXgXgXtXqXXX<.=.#.@.^ P ^ P P J P K H K K R G D D D D Z c c l c l l D c G n G Z G K K K K L I K K K K T U U U U Y K K G K L L L K K K K R R D D c l l D D c G J ` [ { #.{ ~ J P J P J J P H L L G L L P U @.&.a.j.k.h.j.j.d.j.h.x.",
"v.x.x.x.d.d.1.1.,.,.=.-.-.$.;.^ [ [ [ ~ J ~ H M J M m n n l l a a g f f f f u t 7 7 6 6 6 6 7 u q q q 8 5 5 6 5 6 6 9 9 5 6 e q e e e u w w V V A V I Y p.p.p.l.l.l.l.R.R.!././.aXaXNXNXmXMXMXMXMXMXMXMXMXMXMXnXxXcXkXdXiXuXuX3XuX3X3XqX6XwXdXdXhXhXgXgXlXzXMXMXMXMXMXMXMXMXMXvXzXvXvXmXMXMXmXvXgXtXqX8X4X9.;.#.[ [ ^ ^ J P P G H H R H c D c D l l l l l l l c c l c n G l Z D D K K K U U L K U I I K I U U U L K D K G K K G G G H R G H D R H G G H G H P ^ { { { ` P J J P J G G G G G G L L P P @.#.&.a.j.k.x.h.h.v.x.v.x.",
"x.x.c.d.d.d.d.,.d.s.,.,.-.-.=./ #.#.[ ^ ^ J H n n n n c l x h g g f p f f u t u t 7 6 6 5 6 q 7 u q q q e 5 5 > 1 5 5 2 > 5 8 e e e e e w V V V V A I Y Y p.p.p.z.l.l.l.R.R./././.aXiXkXnXMXMXMXMXMXMXMXMXMXMXbXxXjXkXdXdXuXuXuXuX3XuXqX6X6XdXqXqXwXqXdXhXlXMXMXMXMXMXMXMXMXMXbXzXlXvXvXmXmXbXlXrXqX;X6X;Xn.=.$.#.[ ^ ^ P J L L P G D n z l l l c c l c l l l l l l c Z c D G Z G K K L I U T T U K I K K K T I K K R G D G G G H R H K H G K H P H H H G n P ^ { @.[ { [ J J J J J H G G G G L L U @.&.i.a.s.j.h.v.v.v.v.x.v.x.",
"d.d.d.d.1.d.d.1.s.d.d.a.,.,.,.=.$.#.$.@.^ J H n n c c c l l l f f f f f u u u 7 7 6 7 5 3 6 e 7 q q q q e 8 9 9 2 r > > 2 2 6 6 e e e e w V V V A A I Y p.p.p.p.p.z.l.l.R.R.!././.<XaXkXnXMXMXMXMXMXMXMXMXMXMXbXnXjXkXcXdXuXuX3X3X3X3X6X3X3X3X3X6XdXqXwXhXlXmXMXMXMXMXMXMXMXMXmXvXlXgXlXlXvXvXfX7X;X;XOXOXn.;.} #.[ ^ ^ P P L J R G l z l l h l l c l l l z l l l l l l Z c Z G K K K I U U U T U T I L K K K K G Z G Z G G K G R H K H H K H H P J H G G G J ` { { =.$.{ { J ^ P ` P J G G L L U @.&.i.s.a.j.j.h.k.v.H.P.H.v.h."
};
