/* XPM */
static char *_14e384e857f40e6fb19acaea9663513XAYKnhGC0J7O3Fik[] = {
/* columns rows colors chars-per-pixel */
"32 32 112 2 ",
"   c #2F3D5A",
".  c #3C4956",
"X  c #34425F",
"o  c #354361",
"O  c #384763",
"+  c #3B4A66",
"@  c #3E4C6A",
"#  c #444E5D",
"$  c #4B4E58",
"%  c #4D545F",
"&  c #424E66",
"*  c #414E6B",
"=  c #445166",
"-  c #4B5461",
";  c #43516E",
":  c #4B556D",
">  c #4C596D",
",  c #505B62",
"<  c #525B69",
"1  c #414F71",
"2  c #455371",
"3  c #495674",
"4  c #4C5976",
"5  c #4E5B79",
"6  c #515B74",
"7  c #515E7B",
"8  c #54616E",
"9  c #4F6079",
"0  c #546176",
"q  c #5E6876",
"w  c #54617E",
"e  c #59637D",
"r  c #616775",
"t  c #626D7A",
"y  c #515F80",
"u  c #556381",
"i  c #596685",
"p  c #576982",
"a  c #5B6985",
"s  c #5D6B89",
"d  c #5C6D92",
"f  c #606B82",
"g  c #606E8C",
"h  c #6A6F8E",
"j  c #677287",
"k  c #6F7482",
"l  c #63728E",
"z  c #6B758E",
"x  c #757B89",
"c  c #667492",
"v  c #697694",
"b  c #667A97",
"n  c #6B7996",
"m  c #65759C",
"M  c #6E7C99",
"N  c #717E9B",
"B  c #717F9C",
"V  c #717E9E",
"C  c #6C7FA3",
"Z  c #778297",
"A  c #788290",
"S  c #71809C",
"D  c #73819E",
"F  c #74829F",
"G  c #76849F",
"H  c #79849B",
"J  c #78839C",
"K  c #7B859F",
"L  c #7381A0",
"P  c #7583A0",
"I  c #7784A1",
"U  c #7785A2",
"Y  c #7C87A2",
"T  c #7987A4",
"R  c #7E88A2",
"E  c #7B89A5",
"W  c #7F8AA7",
"Q  c #7A89A8",
"!  c #7E8BAB",
"~  c #7D8CA9",
"^  c #7F8EAD",
"/  c #7F90A9",
"(  c #818DA9",
")  c #818FAC",
"_  c #8690AA",
"`  c #8391AF",
"'  c #8490AC",
"]  c #8894AD",
"[  c #818FB0",
"{  c #8693B3",
"}  c #8594B1",
"|  c #8594B5",
" . c #8997B4",
".. c #8A98B5",
"X. c #8C9AB7",
"o. c #8B99B8",
"O. c #8F9EBA",
"+. c #909EBB",
"@. c #919FBC",
"#. c #92A0BD",
"$. c #93A1BF",
"%. c #95A3C0",
"&. c #96A4C1",
"*. c #9AA8C5",
"=. c #9EACC8",
"-. c #A0AECA",
";. c #A1AFCC",
":. c #A2B0CD",
">. c #A6B4D1",
",. c #A7B6D5",
"<. c #ACBAD5",
"1. c #AAB7D8",
/* pixels */
": * * 4 j Z Z a 6 z z H f > > > > : > > = & : : 6 6 0 0 a 0 : > ",
"v g g i n Y Y 2 D =.=.O.i 5 5 v F n v v w ; * * + O @ @ 4 3 ; ; ",
"v g g i n Y Y 2 D =.=.O.i 5 5 v F n v v w ; * * + O @ @ 4 3 * * ",
"] | | L M n n o i i i 2 4 ~ ~ | } ^ n n B c i i 4 @ a a o.! c c ",
"z ~ ~ M p 5 5 + ; u u i g } } O.;.=.! ! s g g g 2 3 n n I c v v ",
"> l l w * * * w * w w N W Y Y ( X.' N N 7 3 4 4 * * 7 7 a u 7 7 ",
"> l l w * * * w * w w N W Y Y ( X.' N N 7 3 4 4 * * 7 7 a u 7 7 ",
"& 5 5 ; * w w n 4 2 2 s I N N v s 5 4 4 * 2 w w 4 * ; ; 4 2 * * ",
"; 3 3 ; p N N B 2 + + 5 i n n i 2 * 2 2 3 s ! ! ~ c 4 4 ; ; u u ",
"_ { { B F X.X.^ 2     + ; 2 2 2 @ 2 w w w i n n ` #.%.%.g s W W ",
"R ! ! B G } } ,.; w w I M g g 5 4 4 4 4 3 i i i v ) @.@.D 5 i i ",
"R ! ! B G } } ,.; w w I M g g 5 4 4 4 4 3 i i i v ) @.@.D 5 i i ",
"N Q Q N l F F Q c ) )  .~ B B n l 7 2 2 * * u u l l B B u 9 i i ",
"J P P c s s s 2 I X.X.~ P c c B g 5 5 5 @ + * * 7 w 5 5 + a v v ",
"0 i i 7 7 ; ; * c P P T n g g u 3 ; 2 2 2 3 + + + * 2 2 ; a c c ",
"0 i i 7 7 ; ; * c P P T n g g u 3 ; 2 2 2 3 + + + * 2 2 ; a c c ",
"& 2 2 ; + ; ; u i u u s s u u 2 * 4 n n ( n 4 4 ; u l l ; + 2 2 ",
"K P I v 4 o o 2 3 ; ; 2 u 2 2 * w B  . .l w 7 7 i n N N T E a a ",
"z o.o.#.( u u u 4 @ @ * 2 + + o B #.v v 4 * 5 5 a M ! ! ` / ) ) ",
"z o.o.#.( u u u 4 @ @ * 2 + + o B #.v v 4 * 5 5 a M ! ! ` / ) ) ",
"e T T *.<.O.O.M i 2 2 ; 5 u u 2 M ~ 7 7 * O 4 4 5 c { { P n W W ",
"z B B ..#.=.=.M i 3 3 7 I } } P u ; 5 5 ; X @ @ 4 u M M n s 5 5 ",
"a v v D T { { i i 2 2 w T o.o.+.l 2 + + @ O X X ; 3 u u 7 @ 5 5 ",
"a v v D T { { i i 2 2 w T o.o.+.l 2 + + @ O X X ; 3 u u 7 @ 5 5 ",
"e g g s l c c u 3 O O 3 c E E ( c 5 3 3 ; i g g w + ; ; 2 a p p ",
"6 3 3 2 3 4 4 4 4 @ @ 2 a g g g g w 3 3 O i M M c u c c l n v v ",
"+ 3 3 4 ; 2 2 3 w ; ; + w 7 7 7 w 3 + + 3 c I I ~ ~ ....~ D c c ",
": c c s w w w i u 4 4 @ ; @ @ * * + 2 2 v  .:.:.>.O.o.o. .l s s ",
": c c s w w w i u 4 4 @ ; @ @ * * + 2 2 v  .:.:.>.O.o.o. .l s s ",
"z B B M v M M c ; g g ! s * * o 3 a n n D N  . .&.} I I g p 3 3 ",
"s s s b ~ #.#.-.3 ! ! 1.[ c c 1 @ y l l C c h h N m d d i p 6 6 ",
"- - - < r k k x # q q A t 8 8 # . # , , 0 > $ $ $ = : : % : # # "
};
