/* XPM */
static char *f5ade9a4449b4d96bad700d688ce3510Hdrktm90kgsTM2t8[] = {
/* columns rows colors chars-per-pixel */
"32 32 135 2 ",
"   c #3B3F46",
".  c #363E59",
"X  c #3B414E",
"o  c #3D4351",
"O  c #3E495E",
"+  c #3A4661",
"@  c #3E4B62",
"#  c #414653",
"$  c #434955",
"%  c #484954",
"&  c #414759",
"*  c #464C5A",
"=  c #494E5C",
"-  c #4C515E",
";  c #434D64",
":  c #434F68",
">  c #455066",
",  c #4B5365",
"<  c #45516A",
"1  c #4A556C",
"2  c #4D596F",
"3  c #505665",
"4  c #545B6C",
"5  c #585F6E",
"6  c #495771",
"7  c #4D5B72",
"8  c #505771",
"9  c #515D74",
"0  c #595F71",
"q  c #535F7A",
"w  c #59606E",
"e  c #546176",
"r  c #5C6070",
"t  c #55627B",
"y  c #59657C",
"u  c #5D697E",
"i  c #606774",
"p  c #656977",
"a  c #626D7D",
"s  c #6C737E",
"d  c #576380",
"f  c #5B6681",
"g  c #5E6B82",
"h  c #616D84",
"j  c #626F89",
"k  c #627086",
"l  c #6E7584",
"z  c #64728B",
"x  c #6A748C",
"c  c #6B798C",
"v  c #717786",
"b  c #727887",
"n  c #677290",
"m  c #6B7792",
"M  c #6D7A93",
"N  c #717D94",
"B  c #727D99",
"V  c #7B828E",
"C  c #738196",
"Z  c #7D8594",
"A  c #75829B",
"S  c #79869D",
"D  c #7C889E",
"F  c #7A86A1",
"G  c #7D8AA3",
"H  c #7F8CA9",
"J  c #848A9A",
"K  c #888D9F",
"L  c #89909E",
"P  c #818CA3",
"I  c #818DA8",
"U  c #8491A6",
"Y  c #8D93A0",
"T  c #8693AB",
"R  c #8994AD",
"E  c #8998AF",
"W  c #9297A6",
"Q  c #979EAD",
"!  c #9B9FAD",
"~  c #8792B0",
"^  c #8A96B1",
"/  c #8D9BB3",
"(  c #8E9CB8",
")  c #929DB4",
"_  c #919FB9",
"`  c #94A0B5",
"'  c #9BA3B7",
"]  c #95A2BC",
"[  c #99A5BD",
"{  c #9CA8BF",
"}  c #97A5C1",
"|  c #9AA7C2",
" . c #9CA9C2",
".. c #9DABC5",
"X. c #9FAEC8",
"o. c #9FB0CA",
"O. c #A1ADC5",
"+. c #A8AFC7",
"@. c #A2AFC9",
"#. c #A5AFC8",
"$. c #A3AECC",
"%. c #A3B0CA",
"&. c #A5B2CA",
"*. c #A6B1CE",
"=. c #A7B5CF",
"-. c #A8B3C9",
";. c #A8B4CC",
":. c #A8B6CC",
">. c #ACB7CD",
",. c #ADB9CF",
"<. c #A4B3D0",
"1. c #A9B7D3",
"2. c #ABB6D4",
"3. c #ADBBD5",
"4. c #AEBBD4",
"5. c #AFBBD4",
"6. c #ADB8D6",
"7. c #ABBCD5",
"8. c #AFBED8",
"9. c #B2BED6",
"0. c #B3BFD9",
"q. c #B6C2D8",
"w. c #B4C0DA",
"e. c #B4C1DB",
"r. c #BBC5DF",
"t. c #BDC8DE",
"y. c #B9C6E0",
"u. c #BFCAE0",
"i. c #C1CCE6",
"p. c #C2CDE8",
"a. c #C5D3EC",
"s. c #C8D6ED",
"d. c #CCD8F0",
"f. c #D0DDF6",
"g. c white",
/* pixels */
"% 4 4 , & 0 K K ' ` ` ` S 9 u U U ` ' D 2 2 e R ) ) c 9 ; # # - ",
"- P P r.&.f 1 1 B ~ M M 6 n $.*.*.( ^ B t t 7 7 F F 2.^ 9 4 4 3 ",
"V >.>.=.7.o.z z 6 7 7 7 1 g / / / k 2 9 9 9 9 1 1 1 h u 6 h h ' ",
"V >.>.=.7.o.z z 6 7 7 7 1 g / / / k 2 9 9 9 9 1 1 1 h u 6 h h ' ",
"Z =.=.]  .[ x x ; @ < < 1 7 t e e 6 @ ; > > O 2 1 1 ; ; j <.<.+.",
"l ] ] | / c 9 9 B R G G B f > @ @ < x U N N < , 1 1 7 h ..3.3.' ",
"l [ [ ^ x y N N >.d.9.9.O.] M y y k  .s.q.q.M 9 O O 8 #.q.@.@.) ",
"w S S z > u ;.;.9.] [ [ | { ) g f O.q.[ ;.;.r.B e e -.3.] | | ) ",
"w S S z > u ;.;.9.] [ [ | { ) f f O.q.[ ;.;.r.B e e -.3.] | | ) ",
"$ ; ; : 2 f R R | ] ] ] [  .) x x D ] ] [ [ &.r.M M -.,./ ] ] Z ",
"* 1 1 7 < 1 F F ( / 3.3.y._ z t t 1 S | ] ] |  .h h y N U F S 4 ",
"# ; ; 2 h R | | ] ] X.X.y.O.y 1 1 1 < m ( ( / ] *.*.M e h y y ; ",
"X > > y U 9.X.X.( _ _ _ %.3.[ h h 8 M ^ ] ] ( [ q.q.S > @ 1 1 , ",
"X > > y U 9.X.X.( _ _ _ %.3.[ h h 8 M ^ ] ] ( [ q.q.S > @ 1 1 , ",
"i z z j F S m m x x D D / ] [ x x 8 ] 0. . .] ] I I u e M G G N ",
"L O.O.j < @ + + + @ 9 9 M x > > > 2 x R ) ) R U 9 9 t  .s.f.f.t.",
"l 3.3.@.k 9 9 9 t g t t @ 2 t ; ; < < t P P I 7 9 9 @.9.[ | | ' ",
"l [ [ [ / C 2 7 ^ i.R R G q.q.x x 7 9 1 < < < t @.@.;.O.[ | | R ",
"a U U ^ P u y y O.p.| | ..s.f.r.r.A 9 2 1 1 ; ; I I [ ] [ | | P ",
"a U U ^ P u y y O.p.| | ..s.f.r.r.A 9 2 1 1 ; ; I I [ ] [ | | P ",
"- u u h u 2 e e U [ *.*.q.3.8.q.q.( ( ] O.O./ 9 y y G ( / I I y ",
"# > > f P U h h q A ....3.| ] } } 1.r.a.a.a.q.) y y y h g y y * ",
"- g g / u.t.U U 7 t D D ) ] ] } } q.3.) / /  .q.B B > @ @ ; ; , ",
"4 ) ) 3. . .3.3.S 8 f f G ) ^ _ _ | | ) / / ] T y y 2 u c a a o ",
"4 ) ) 3. . .3.3.S 8 f f G ) ^ _ _ | | ) / / ] T y y 2 u c a a o ",
"Z 3.3...| ] I I g y 9 9 t S ) ] ] ] | } } } ( d + + < ^ a.;.;.5 ",
"s U U H H F y y 7 ^ E E t y A H H / ] / ^ ^ ` U t t 2 D <./ / 5 ",
"$ 7 7 q t 7 t t R 1.9.9.R t 6 q q A T U C C u h e e 7 c M t t , ",
"# ; ; . 8 P [ [ ,.O.q.q.O.9 ; ; ; 8 y f q q 9 F [ [ c y q ; ; * ",
"# ; ; . 8 P [ [ ,.O.q.q.O.9 ; ; ; 8 y f q q 9 F [ [ c y q ; ; * ",
"$ # # o r W Q Q Z v J J b = = - - $ X o o o 4 Y ! ! p # # # #   ",
"g.g.g.g.g.g.g.g.g.g.g.g.g.g.g.g.g.g.g.g.g.g.g.g.g.g.g.g.g.g.g.g."
};
