/* XPM */
static char *_14e384e857f40e6fb19acaea9663513XAYKnhGC0J7O3Fik[] = {
/* columns rows colors chars-per-pixel */
"32 32 112 2 ",
"   c #2F3D5A",
".  c #2F3D5A",
"X  c #2F3D5A",
"o  c #2F3D5A",
"O  c #2F3D5A",
"+  c #2F3D5A",
"@  c #2F3D5A",
"#  c #2F3D5A",
"$  c #2F3D5A",
"%  c #2F3D5A",
"&  c #2F3D5A",
"*  c #2F3D5A",
"=  c #2F3D5A",
"-  c #2F3D5A",
";  c #2F3D5A",
":  c #2F3D06",
">  c #2F3D5A",
",  c #2F3D5A",
"<  c #2F3D5A",
"1  c #2F3D5A",
"2  c #2F3D5A",
"3  c #2F3D5A",
"4  c #2F3D5A",
"5  c #2F3D5A",
"6  c #2F3D5A",
"7  c #2F3D5A",
"8  c #2F3D5A",
"9  c #2F3D5A",
"0  c #2F3D5A",
"q  c #2F3D5A",
"w  c #2F3D5A",
"e  c #2F3D5A",
"r  c #2F3D5A",
"t  c #2F3D5A",
"y  c #2F3D5A",
"u  c #2F3D5A",
"i  c #2F3D5A",
"p  c #2F3D5A",
"a  c #2F3D5A",
"s  c #2F3D5A",
"d  c #2F3D5A",
"f  c #2F3D5A",
"g  c #2F3D5A",
"h  c #2F3D5A",
"j  c #2F3D5A",
"k  c #2F3D5A",
"l  c #2F3D5A",
"z  c #2F3D5A",
"x  c #2F3D5A",
"c  c #2F3D5A",
"v  c #2F3D5A",
"b  c #2F3D5A",
"n  c #2F3D5A",
"m  c #2F3D5A",
"M  c #2F3D5A",
"N  c #2F3D5A",
"B  c #2F3D5A",
"V  c #2F3D5A",
"C  c #2F3D5A",
"Z  c #2F3D5A",
"A  c #2F3D5A",
"S  c #2F3D5A",
"D  c #2F3D5A",
"F  c #2F3D5A",
"G  c #2F3D5A",
"H  c #2F3D5A",
"J  c #2F3D5A",
"K  c #2F3D5A",
"L  c #2F3D5A",
"P  c #2F3D5A",
"I  c #2F3D5A",
"U  c #2F3D5A",
"Y  c #2F3D5A",
"T  c #2F3D5A",
"R  c #2F3D5A",
"E  c #2F3D5A",
"W  c #2F3D5A",
"Q  c #2F3D5A",
"!  c #2F3D5A",
"~  c #2F3D5A",
"^  c #2F3D5A",
"/  c #2F3D5A",
"(  c #2F3D5A",
")  c #2F3D5A",
"_  c #2F3D5A",
"`  c #2F3D5A",
"'  c #2F3D5A",
"]  c #2F3D5A",
"[  c #2F3D5A",
"{  c #2F3D5A",
"}  c #2F3D5A",
"|  c #2F3D5A",
" . c #2F3D5A",
".. c #2F3D5A",
"X. c #2F3D5A",
"o. c #2F3D5A",
"O. c #2F3D5A",
"+. c #2F3D5A",
"@. c #2F3D5A",
"#. c #2F3D5A",
"$. c #2F3D5A",
"%. c #2F3D5A",
"&. c #2F3D5A",
"*. c #2F3D5A",
"=. c #2F3D5A",
"-. c #2F3D5A",
";. c #2F3D5A",
":. c #2F3D5A",
">. c #2F3D5A",
",. c #2F3D5A",
"<. c #2F3D5A",
"1. c #2F3D5A",
/* pixels */
": * * 4 j Z Z a 6 z z H f > > > > : > > = & : : 6 6 0 0 a 0 : > ",
"v g g i n Y Y 2 D =.=.O.i 5 5 v F n v v w ; * * + O @ @ 4 3 ; ; ",
"v g g i n Y Y 2 D =.=.O.i 5 5 v F n v v w ; * * + O @ @ 4 3 * * ",
"] | | L M n n o i i i 2 4 ~ ~ | } ^ n n B c i i 4 @ a a o.! c c ",
"z ~ ~ M p 5 5 + ; u u i g } } O.;.=.! ! s g g g 2 3 n n I c v v ",
"> l l w * * * w * w w N W Y Y ( X.' N N 7 3 4 4 * * 7 7 a u 7 7 ",
"> l l w * * * w * w w N W Y Y ( X.' N N 7 3 4 4 * * 7 7 a u 7 7 ",
"& 5 5 ; * w w n 4 2 2 s I N N v s 5 4 4 * 2 w w 4 * ; ; 4 2 * * ",
"; 3 3 ; p N N B 2 + + 5 i n n i 2 * 2 2 3 s ! ! ~ c 4 4 ; ; u u ",
"_ { { B F X.X.^ 2     + ; 2 2 2 @ 2 w w w i n n ` #.%.%.g s W W ",
"R ! ! B G } } ,.; w w I M g g 5 4 4 4 4 3 i i i v ) @.@.D 5 i i ",
"R ! ! B G } } ,.; w w I M g g 5 4 4 4 4 3 i i i v ) @.@.D 5 i i ",
"N Q Q N l F F Q c ) )  .~ B B n l 7 2 2 * * u u l l B B u 9 i i ",
"J P P c s s s 2 I X.X.~ P c c B g 5 5 5 @ + * * 7 w 5 5 + a v v ",
"0 i i 7 7 ; ; * c P P T n g g u 3 ; 2 2 2 3 + + + * 2 2 ; a c c ",
"0 i i 7 7 ; ; * c P P T n g g u 3 ; 2 2 2 3 + + + * 2 2 ; a c c ",
"& 2 2 ; + ; ; u i u u s s u u 2 * 4 n n ( n 4 4 ; u l l ; + 2 2 ",
"K P I v 4 o o 2 3 ; ; 2 u 2 2 * w B  . .l w 7 7 i n N N T E a a ",
"z o.o.#.( u u u 4 @ @ * 2 + + o B #.v v 4 * 5 5 a M ! ! ` / ) ) ",
"z o.o.#.( u u u 4 @ @ * 2 + + o B #.v v 4 * 5 5 a M ! ! ` / ) ) ",
"e T T *.<.O.O.M i 2 2 ; 5 u u 2 M ~ 7 7 * O 4 4 5 c { { P n W W ",
"z B B ..#.=.=.M i 3 3 7 I } } P u ; 5 5 ; X @ @ 4 u M M n s 5 5 ",
"a v v D T { { i i 2 2 w T o.o.+.l 2 + + @ O X X ; 3 u u 7 @ 5 5 ",
"a v v D T { { i i 2 2 w T o.o.+.l 2 + + @ O X X ; 3 u u 7 @ 5 5 ",
"e g g s l c c u 3 O O 3 c E E ( c 5 3 3 ; i g g w + ; ; 2 a p p ",
"6 3 3 2 3 4 4 4 4 @ @ 2 a g g g g w 3 3 O i M M c u c c l n v v ",
"+ 3 3 4 ; 2 2 3 w ; ; + w 7 7 7 w 3 + + 3 c I I ~ ~ ....~ D c c ",
": c c s w w w i u 4 4 @ ; @ @ * * + 2 2 v  .:.:.>.O.o.o. .l s s ",
": c c s w w w i u 4 4 @ ; @ @ * * + 2 2 v  .:.:.>.O.o.o. .l s s ",
"z B B M v M M c ; g g ! s * * o 3 a n n D N  . .&.} I I g p 3 3 ",
"s s s b ~ #.#.-.3 ! ! 1.[ c c 1 @ y l l C c h h N m d d i p 6 6 ",
"- - - < r k k x # q q A t 8 8 # . # , , 0 > $ $ $ = : : % : # # "
};
